;FLAVOR:Marlin
;TIME:9820
;Filament used: 14.2408m, 0m
;Layer height: 0.28
;MINX:71.119
;MINY:74.363
;MINZ:0.26
;MAXX:168.837
;MAXY:160.637
;MAXZ:50.66
;Generated with Cura_SteamEngine 4.8.0
T0
M140 S60
M105
M190 S60
M104 S200
M105
M109 S200
M82 ;absolute extrusion mode
M201 X500.00 Y500.00 Z100.00 E5000.00 	;Setup machine max acceleration
M203 X500.00 Y500.00 Z10.00 E50.00 	;Setup machine max feedrate
M204 P500.00 R1000.00 T500.00 		;Setup Print/Retract/Travel acceleration
M205 X8.00 Y8.00 Z0.40 E5.00 		;Setup Jerk
M220 S100 				;Reset Feedrate
M221 S100 				;Reset Flowrate
G28				;Home the Machine
#G29 				;Bed Level
G92 E0
M300 P150 S587
G92 E0
G1 F1500 E-5.5
;LAYER_COUNT:181
;LAYER:0
M107
G0 F2160 X76.007 Y79.68 Z0.26
;TYPE:SKIRT
G1 F1500 E0
G1 F900 X76.424 Y79.295 E0.0184
G1 X76.864 Y78.935 E0.03684
G1 X77.64 Y78.374 E0.06789
G1 X78.083 Y78.081 E0.08512
G1 X78.736 Y77.709 E0.10949
G1 X79.449 Y77.33 E0.13567
G1 X79.912 Y77.11 E0.1523
G1 X80.386 Y76.906 E0.16903
G1 X81.049 Y76.634 E0.19227
G1 X81.55 Y76.453 E0.20954
G1 X83.087 Y75.97 E0.26179
G1 X83.817 Y75.752 E0.2865
G1 X84.082 Y75.684 E0.29537
G1 X84.688 Y75.555 E0.31546
G1 X86.968 Y75.103 E0.39084
G1 X87.545 Y74.997 E0.40986
G1 X87.757 Y74.965 E0.41681
G1 X88.969 Y74.82 E0.4564
G1 X92.023 Y74.516 E0.55592
G1 X92.768 Y74.454 E0.58017
G1 X93.47 Y74.427 E0.60295
G1 X95.982 Y74.377 E0.68442
G1 X96.668 Y74.373 E0.70667
G1 X96.859 Y74.377 E0.71287
G1 X98.333 Y74.451 E0.76073
G1 X98.69 Y74.473 E0.77233
G1 X101.427 Y74.566 E0.86113
G1 X104.165 Y74.581 E0.94992
G1 X106.898 Y74.519 E1.03858
G1 X108.906 Y74.424 E1.10376
G1 X109.693 Y74.379 E1.12933
G1 X110.328 Y74.401 E1.14993
G1 X113.229 Y74.771 E1.24477
G1 X115.918 Y75.037 E1.3324
G1 X118.684 Y75.231 E1.42231
G1 X121.387 Y75.344 E1.51005
G1 X124.124 Y75.38 E1.59881
G1 X126.862 Y75.34 E1.68761
G1 X129.6 Y75.221 E1.77648
G1 X132.297 Y75.028 E1.86417
G1 X135.018 Y74.757 E1.95284
G1 X137.399 Y74.455 E2.03067
G1 X138.09 Y74.384 E2.0532
G1 X139.194 Y74.363 E2.08901
G1 X147.087 Y74.363 E2.34497
G1 X147.79 Y74.373 E2.36776
G1 X148.313 Y74.421 E2.3848
G1 X148.75 Y74.524 E2.39936
G1 X150.39 Y75.025 E2.45497
G1 X153.063 Y75.791 E2.54514
G1 X155.734 Y76.476 E2.63456
G1 X158.404 Y77.083 E2.72335
G1 X161.121 Y77.619 E2.81316
G1 X161.577 Y77.741 E2.82846
G1 X162.057 Y77.952 E2.84547
G1 X162.501 Y78.233 E2.86251
G1 X162.896 Y78.578 E2.87951
G1 X163.235 Y78.98 E2.89657
G1 X163.508 Y79.428 E2.91358
G1 X163.711 Y79.912 E2.9306
G1 X163.838 Y80.421 E2.94761
G1 X163.894 Y81.221 E2.97362
G1 X163.895 Y111.754 E3.96376
G1 X163.934 Y114.542 E4.05418
G1 X164.051 Y117.278 E4.14299
G1 X164.242 Y119.979 E4.2308
G1 X164.512 Y122.7 E4.31947
G1 X164.859 Y125.412 E4.40813
G1 X165.281 Y128.098 E4.4963
G1 X165.782 Y130.793 E4.5852
G1 X166.358 Y133.469 E4.67396
G1 X167.005 Y136.111 E4.76217
G1 X167.732 Y138.752 E4.851
G1 X168.282 Y140.541 E4.91169
G1 X168.307 Y140.65 E4.91532
G1 X168.682 Y141.859 E4.95637
G1 X168.799 Y142.371 E4.9734
G1 X168.837 Y142.895 E4.99044
G1 X168.795 Y143.418 E5.00745
G1 X168.686 Y143.893 E5.02326
G1 X168.455 Y144.647 E5.04883
G1 X168.238 Y145.287 E5.07074
G1 X168.17 Y145.469 E5.07705
G1 X167.838 Y146.286 E5.10564
G1 X167.462 Y147.174 E5.13692
G1 X166.465 Y149.729 E5.22586
G1 X165.556 Y152.263 E5.31316
G1 X164.703 Y154.879 E5.40239
G1 X163.753 Y158.122 E5.51197
G1 X163.572 Y158.614 E5.52897
G1 X163.318 Y159.074 E5.54601
G1 X162.997 Y159.489 E5.56303
G1 X162.616 Y159.851 E5.58007
G1 X162.185 Y160.151 E5.5971
G1 X161.714 Y160.382 E5.61411
G1 X161.213 Y160.539 E5.63114
G1 X160.532 Y160.627 E5.6534
G1 X160.115 Y160.637 E5.66693
G1 X151.578 Y160.637 E5.94377
G1 X150.876 Y160.627 E5.96654
G1 X150.353 Y160.579 E5.98357
G1 X149.843 Y160.453 E6.00061
G1 X149.359 Y160.251 E6.01761
G1 X148.911 Y159.978 E6.03463
G1 X148.443 Y159.58 E6.05455
G1 X148.088 Y159.234 E6.07063
G1 X145.755 Y156.902 E6.1776
G1 X145.277 Y156.409 E6.19987
G1 X144.941 Y156.005 E6.21691
G1 X144.671 Y155.555 E6.23392
G1 X144.362 Y154.81 E6.26008
G1 X143.324 Y152.278 E6.34882
G1 X142.225 Y149.803 E6.43664
G1 X141.034 Y147.312 E6.52618
G1 X139.794 Y144.898 E6.61418
G1 X138.483 Y142.511 E6.7025
G1 X137.079 Y140.121 E6.79238
G1 X135.655 Y137.842 E6.87953
G1 X134.127 Y135.547 E6.96894
G1 X132.554 Y133.324 E7.05725
G1 X130.925 Y131.154 E7.14524
G1 X129.206 Y128.994 E7.23476
G1 X127.473 Y126.938 E7.32196
G1 X125.622 Y124.866 E7.41206
G1 X123.762 Y122.896 E7.49992
G1 X121.83 Y120.965 E7.5885
G1 X119.862 Y119.104 E7.67634
G1 X117.789 Y117.253 E7.76646
G1 X115.747 Y115.532 E7.85306
G1 X113.561 Y113.791 E7.94368
G1 X111.412 Y112.178 E8.03082
G1 X109.167 Y110.59 E8.11999
G1 X106.909 Y109.086 E8.20798
G1 X104.587 Y107.634 E8.29678
G1 X102.224 Y106.247 E8.38564
G1 X99.814 Y104.921 E8.47484
G1 X97.416 Y103.69 E8.56225
G1 X94.946 Y102.509 E8.65104
G1 X92.443 Y101.399 E8.73983
G1 X89.913 Y100.359 E8.82853
G1 X87.399 Y99.41 E8.91567
G1 X84.773 Y98.502 E9.00578
G1 X82.18 Y97.686 E9.09393
G1 X79.555 Y96.942 E9.18241
G1 X76.883 Y96.264 E9.27181
G1 X74.848 Y95.804 E9.33946
G1 X74.004 Y95.623 E9.36745
G1 X73.501 Y95.474 E9.38447
G1 X73.026 Y95.25 E9.4015
G1 X72.59 Y94.957 E9.41853
G1 X72.204 Y94.601 E9.43556
G1 X71.877 Y94.191 E9.45257
G1 X71.615 Y93.736 E9.46959
G1 X71.426 Y93.246 E9.48662
G1 X71.292 Y92.658 E9.50618
G1 X71.205 Y92.127 E9.52363
G1 X71.132 Y91.285 E9.55104
G1 X71.124 Y91.077 E9.55779
G1 X71.119 Y90.338 E9.58175
G1 X71.138 Y89.761 E9.60048
G1 X71.178 Y89.319 E9.61487
G1 X71.253 Y88.725 E9.63428
G1 X71.287 Y88.511 E9.64131
G1 X71.444 Y87.688 E9.66848
G1 X71.558 Y87.211 E9.68438
G1 X71.812 Y86.345 E9.71365
G1 X71.953 Y85.938 E9.72762
G1 X72.329 Y84.999 E9.76042
G1 X72.53 Y84.54 E9.77667
G1 X72.784 Y84.032 E9.79509
G1 X72.95 Y83.729 E9.80629
G1 X73.315 Y83.088 E9.83021
G1 X73.634 Y82.584 E9.84955
G1 X73.893 Y82.207 E9.86439
G1 X74.296 Y81.639 E9.88697
G1 X74.661 Y81.175 E9.90612
G1 X75.081 Y80.679 E9.92719
G1 X75.564 Y80.129 E9.95093
G1 X76.007 Y79.68 E9.97138
G0 F2160 X76.21 Y79.901
G1 F900 X76.627 Y79.516 E9.98979
G1 X77.04 Y79.178 E10.00709
G1 X77.816 Y78.617 E10.03815
G1 X78.236 Y78.339 E10.05448
G1 X78.882 Y77.971 E10.07859
G1 X79.589 Y77.595 E10.10456
G1 X80.126 Y77.343 E10.12379
G1 X80.541 Y77.166 E10.13842
G1 X81.162 Y76.911 E10.16019
G1 X81.649 Y76.736 E10.17698
G1 X83.133 Y76.27 E10.22742
G1 X83.903 Y76.04 E10.25348
G1 X84.145 Y75.978 E10.26158
G1 X84.746 Y75.849 E10.28151
G1 X87.022 Y75.398 E10.35675
G1 X87.599 Y75.292 E10.37578
G1 X87.793 Y75.262 E10.38214
G1 X88.998 Y75.118 E10.4215
G1 X92.048 Y74.815 E10.52089
G1 X92.693 Y74.76 E10.54189
G1 X93.479 Y74.727 E10.5674
G1 X95.984 Y74.677 E10.64865
G1 X96.67 Y74.673 E10.67089
G1 X96.844 Y74.677 E10.67654
G1 X98.314 Y74.75 E10.72427
G1 X98.696 Y74.774 E10.73668
G1 X101.415 Y74.866 E10.8249
G1 X104.17 Y74.881 E10.91424
G1 X106.877 Y74.82 E11.00205
G1 X108.927 Y74.723 E11.0686
G1 X109.71 Y74.678 E11.09404
G1 X110.29 Y74.698 E11.11286
G1 X113.195 Y75.069 E11.20783
G1 X115.939 Y75.34 E11.29724
G1 X118.651 Y75.53 E11.38541
G1 X121.369 Y75.643 E11.47362
G1 X124.124 Y75.68 E11.56297
G1 X126.879 Y75.639 E11.65232
G1 X129.598 Y75.522 E11.74058
G1 X132.35 Y75.325 E11.83005
G1 X135.049 Y75.056 E11.91801
G1 X137.403 Y74.757 E11.99496
G1 X138.095 Y74.684 E12.01752
G1 X139.194 Y74.663 E12.05317
G1 X147.083 Y74.663 E12.309
G1 X147.786 Y74.673 E12.3318
G1 X148.285 Y74.72 E12.34805
G1 X148.662 Y74.811 E12.36063
G1 X150.321 Y75.318 E12.41688
G1 X152.987 Y76.082 E12.50682
G1 X155.624 Y76.758 E12.5951
G1 X158.352 Y77.378 E12.68582
G1 X161.059 Y77.913 E12.7753
G1 X161.499 Y78.032 E12.79008
G1 X161.956 Y78.238 E12.80634
G1 X162.374 Y78.514 E12.82258
G1 X162.744 Y78.853 E12.83886
G1 X163.055 Y79.247 E12.85513
G1 X163.3 Y79.685 E12.87141
G1 X163.472 Y80.156 E12.88767
G1 X163.567 Y80.648 E12.90392
G1 X163.594 Y81.23 E12.92281
G1 X163.595 Y111.758 E13.91279
G1 X163.635 Y114.558 E14.0036
G1 X163.75 Y117.277 E14.09186
G1 X163.943 Y119.993 E14.18015
G1 X164.214 Y122.734 E14.26947
G1 X164.564 Y125.464 E14.35873
G1 X164.988 Y128.162 E14.4473
G1 X165.485 Y130.838 E14.53556
G1 X166.066 Y133.539 E14.62515
G1 X166.713 Y136.181 E14.71336
G1 X167.441 Y138.824 E14.80226
G1 X167.996 Y140.629 E14.8635
G1 X168.023 Y140.748 E14.86746
G1 X168.395 Y141.948 E14.9082
G1 X168.505 Y142.437 E14.92445
G1 X168.536 Y142.938 E14.94073
G1 X168.488 Y143.437 E14.95699
G1 X168.399 Y143.805 E14.96926
G1 X168.168 Y144.559 E14.99484
G1 X167.954 Y145.19 E15.01644
G1 X167.892 Y145.356 E15.02219
G1 X167.562 Y146.169 E15.05064
G1 X167.188 Y147.053 E15.08177
G1 X166.186 Y149.62 E15.17113
G1 X165.27 Y152.174 E15.25912
G1 X164.414 Y154.797 E15.3486
G1 X163.465 Y158.04 E15.45817
G1 X163.29 Y158.51 E15.47444
G1 X163.042 Y158.946 E15.4907
G1 X162.728 Y159.337 E15.50696
G1 X162.357 Y159.674 E15.52322
G1 X161.936 Y159.947 E15.53949
G1 X161.477 Y160.151 E15.55578
G1 X160.992 Y160.278 E15.57204
G1 X160.204 Y160.336 E15.59766
G1 X151.582 Y160.337 E15.87726
G1 X150.88 Y160.327 E15.90003
G1 X150.381 Y160.28 E15.91628
G1 X149.895 Y160.154 E15.93256
G1 X149.436 Y159.953 E15.94881
G1 X149.014 Y159.681 E15.96509
G1 X148.592 Y159.308 E15.98335
G1 X148.3 Y159.022 E15.99661
G1 X145.97 Y156.693 E16.10344
G1 X145.492 Y156.2 E16.12571
G1 X145.173 Y155.813 E16.14197
G1 X144.823 Y155.162 E16.16594
G1 X144.641 Y154.7 E16.18205
G1 X143.594 Y152.148 E16.2715
G1 X142.487 Y149.654 E16.35998
G1 X141.304 Y147.18 E16.44891
G1 X140.056 Y144.75 E16.5375
G1 X138.745 Y142.363 E16.62581
G1 X137.348 Y139.985 E16.71525
G1 X135.899 Y137.667 E16.8039
G1 X134.378 Y135.383 E16.89289
G1 X132.794 Y133.145 E16.9818
G1 X131.155 Y130.962 E17.07032
G1 X129.456 Y128.827 E17.15881
G1 X127.681 Y126.72 E17.24815
G1 X125.852 Y124.672 E17.33719
G1 X123.98 Y122.69 E17.4256
G1 X122.036 Y120.747 E17.51473
G1 X120.055 Y118.874 E17.60314
G1 X118.007 Y117.045 E17.69218
G1 X115.913 Y115.281 E17.78097
G1 X113.754 Y113.561 E17.87049
G1 X111.591 Y111.937 E17.9582
G1 X109.339 Y110.345 E18.04764
G1 X107.061 Y108.827 E18.13641
G1 X104.739 Y107.375 E18.22522
G1 X102.387 Y105.995 E18.31365
G1 X99.947 Y104.652 E18.40397
G1 X97.563 Y103.428 E18.49087
G1 X95.064 Y102.233 E18.5807
G1 X92.574 Y101.129 E18.66903
G1 X90.027 Y100.083 E18.75832
G1 X87.456 Y99.111 E18.84745
G1 X84.898 Y98.227 E18.93522
G1 X82.279 Y97.402 E19.02426
G1 X79.604 Y96.644 E19.11442
G1 X76.941 Y95.969 E19.20351
G1 X74.923 Y95.514 E19.2706
G1 X74.067 Y95.33 E19.29899
G1 X73.587 Y95.186 E19.31524
G1 X73.135 Y94.967 E19.33153
G1 X72.724 Y94.68 E19.34778
G1 X72.364 Y94.33 E19.36407
G1 X72.064 Y93.929 E19.38031
G1 X71.831 Y93.484 E19.3966
G1 X71.641 Y92.872 E19.41738
G1 X71.527 Y92.258 E19.43763
G1 X71.459 Y91.682 E19.45644
G1 X71.424 Y91.075 E19.47615
G1 X71.419 Y90.336 E19.50012
G1 X71.437 Y89.786 E19.51796
G1 X71.476 Y89.356 E19.53197
G1 X71.551 Y88.762 E19.55138
G1 X71.582 Y88.567 E19.55778
G1 X71.739 Y87.744 E19.58495
G1 X71.845 Y87.295 E19.59992
G1 X72.068 Y86.532 E19.62569
G1 X72.232 Y86.049 E19.64223
G1 X72.608 Y85.11 E19.67504
G1 X72.879 Y84.504 E19.69656
G1 X73.182 Y83.929 E19.71764
G1 X73.576 Y83.236 E19.74349
G1 X73.882 Y82.754 E19.76201
G1 X74.138 Y82.38 E19.7767
G1 X74.541 Y81.812 E19.79929
G1 X74.89 Y81.368 E19.8176
G1 X75.306 Y80.877 E19.83847
G1 X75.789 Y80.327 E19.86221
G1 X76.21 Y79.901 E19.88163
G1 F1500 E14.38163
G0 F2160 X74.079 Y88.904
G0 X73.953 Y90.014
G0 X73.941 Y90.951
G0 X74.009 Y91.789
G0 X74.143 Y92.496
G0 X150.54 Y157.676
G0 X160.581 Y157.798
G0 X161.056 Y157.323
G0 X163.087 Y142.808
G1 F1500 E19.88163
G1 F900 X163.162 Y142.754 E19.88463
G1 X163.248 Y142.754 E19.88742
G1 X163.323 Y142.808 E19.89041
G1 X163.35 Y142.892 E19.89327
G1 X163.323 Y142.976 E19.89614
G1 X163.248 Y143.03 E19.89913
G1 X163.162 Y143.03 E19.90192
G1 X163.087 Y142.976 E19.90492
G1 X163.06 Y142.892 E19.90778
G1 X163.087 Y142.808 E19.91064
G0 F2160 X162.832 Y142.624
G1 F900 X163.065 Y142.454 E19.91999
G1 X163.345 Y142.454 E19.92907
G1 X163.578 Y142.624 E19.93843
G1 X163.665 Y142.892 E19.94756
G1 X163.578 Y143.16 E19.9567
G1 X163.345 Y143.33 E19.96606
G1 X163.065 Y143.33 E19.97514
G1 X162.832 Y143.16 E19.98449
G1 X162.745 Y142.892 E19.99363
G1 X162.832 Y142.624 E20.00276
G0 F2160 X162.578 Y142.437
G1 F900 X162.967 Y142.154 E20.01836
G1 X163.443 Y142.154 E20.0338
G1 X163.832 Y142.437 E20.0494
G1 X163.98 Y142.892 E20.06491
G1 X163.832 Y143.347 E20.08043
G1 X163.443 Y143.63 E20.09603
G1 X162.967 Y143.63 E20.11147
G1 X162.578 Y143.347 E20.12707
G1 X162.43 Y142.892 E20.14258
G1 X162.578 Y142.437 E20.1581
G0 F2160 X162.322 Y142.253
G1 F900 X162.869 Y141.854 E20.18005
G1 X163.541 Y141.854 E20.20185
G1 X164.088 Y142.253 E20.2238
G1 X164.296 Y142.892 E20.24559
G1 X164.088 Y143.531 E20.26739
G1 X163.541 Y143.93 E20.28934
G1 X162.869 Y143.93 E20.31113
G1 X162.322 Y143.531 E20.33309
G1 X162.114 Y142.892 E20.35488
G1 X162.322 Y142.253 E20.37668
G0 F2160 X162.067 Y142.067
G1 F900 X162.771 Y141.554 E20.40492
G1 X163.639 Y141.554 E20.43307
G1 X164.343 Y142.067 E20.46132
G1 X164.612 Y142.892 E20.48946
G1 X164.343 Y143.717 E20.5176
G1 X163.639 Y144.23 E20.54585
G1 X162.771 Y144.23 E20.57399
G1 X162.067 Y143.717 E20.60224
G1 X161.798 Y142.892 E20.63038
G1 X162.067 Y142.067 E20.65852
G0 F2160 X161.812 Y141.882
G1 F900 X162.674 Y141.254 E20.69311
G1 X163.736 Y141.254 E20.72755
G1 X164.598 Y141.882 E20.76213
G1 X164.927 Y142.892 E20.79658
G1 X164.598 Y143.902 E20.83103
G1 X163.736 Y144.53 E20.86561
G1 X162.674 Y144.53 E20.90005
G1 X161.812 Y143.902 E20.93464
G1 X161.483 Y142.892 E20.96908
G1 X161.812 Y141.882 E21.00353
G0 F2160 X161.557 Y141.696
G1 F900 X162.575 Y140.954 E21.04438
G1 X163.835 Y140.954 E21.08524
G1 X164.853 Y141.696 E21.12609
G1 X165.242 Y142.892 E21.16688
G1 X164.853 Y144.088 E21.20766
G1 X163.835 Y144.83 E21.24851
G1 X162.575 Y144.83 E21.28937
G1 X161.557 Y144.088 E21.33022
G1 X161.168 Y142.892 E21.37101
G1 X161.557 Y141.696 E21.41179
G1 F1500 E15.91179
;MESH:AA-Base.stl
G0 F2160 X160.125 Y141.696
G0 X153.045 Y146.613
;TYPE:WALL-INNER
G1 F1500 E21.41179
G1 F900 X153.045 Y155.063 E21.68581
G1 X158.317 Y155.063 E21.85678
G1 X158.324 Y146.762 E22.12597
G1 X158.324 Y146.613 E22.1308
G1 X158.175 Y146.613 E22.13393
G1 X153.045 Y146.613 E22.30029
G0 F2160 X153.345 Y146.913
G1 F900 X153.345 Y154.763 E22.55485
G1 X158.017 Y154.763 E22.70636
G1 X158.024 Y147.062 E22.95609
G1 X158.024 Y146.913 E22.96092
G1 X157.875 Y146.913 E22.96405
G1 X153.345 Y146.913 E23.11095
G0 F2160 X153.645 Y147.213
G1 F900 X153.645 Y154.463 E23.34606
G1 X157.717 Y154.463 E23.47811
G1 X157.724 Y147.362 E23.70839
G1 X157.724 Y147.213 E23.71322
G1 X157.575 Y147.213 E23.71635
G1 X153.645 Y147.213 E23.84379
G0 F2160 X153.895 Y147.463
;TYPE:WALL-OUTER
G1 F900 X153.895 Y154.213 E24.06269
G1 X157.467 Y154.213 E24.17852
G1 X157.474 Y147.613 E24.39255
G1 X157.474 Y147.463 E24.39741
G1 X157.324 Y147.463 E24.40056
G1 X153.895 Y147.463 E24.51176
G0 F2160 X153.895 Y147.663
G0 X153.565 Y147.663
G0 X157.608 Y134.579
G0 X158.32 Y83.113
;TYPE:WALL-INNER
G1 F900 X108.71 Y83.113 E26.12054
G1 X108.494 Y84.97 E26.18117
G1 X136.387 Y91.57 E27.11068
G1 X156.955 Y115.157 E28.12554
G1 X158.32 Y114.647 E28.17279
G1 X158.32 Y83.113 E29.1954
G0 F2160 X158.02 Y83.413
G1 F900 X108.977 Y83.413 E30.78579
G1 X108.823 Y84.74 E30.82911
G1 X136.549 Y91.3 E31.75305
G1 X157.045 Y114.803 E32.76433
G1 X158.02 Y114.439 E32.79808
G1 X158.02 Y83.413 E33.80421
G0 F2160 X157.72 Y83.713
G1 F900 X109.244 Y83.713 E35.37622
G1 X109.152 Y84.509 E35.4022
G1 X136.711 Y91.03 E36.32058
G1 X157.135 Y114.449 E37.32827
G1 X157.72 Y114.231 E37.34851
G1 X157.72 Y83.713 E38.33817
G0 F2160 X157.47 Y83.963
;TYPE:WALL-OUTER
