;FLAVOR:Marlin
;TIME:22399
;Filament used: 23.3538m
;Layer height: 0.25
;MINX:46.824
;MINY:51.8
;MINZ:0.3
;MAXX:188.202
;MAXY:183.202
;MAXZ:33.05
;Generated with Cura_SteamEngine 4.12.1
M140 S60
M105
M190 S60
M104 S200
M105
M109 S200
M82 ;absolute extrusion mode
M201 X500.00 Y500.00 Z100.00 E5000.00 	;Setup machine max acceleration
M203 X500.00 Y500.00 Z10.00 E50.00 	;Setup machine max feedrate
M204 P500.00 R1000.00 T500.00 		;Setup Print/Retract/Travel acceleration
M205 X8.00 Y8.00 Z0.40 E5.00 		;Setup Jerk
M220 S100 				;Reset Feedrate
M221 S100 				;Reset Flowrate
G28					;Home the Machine
G92 E0
M300 P150 S587
G92 E0
G1 F1500 E-6.5
;LAYER_COUNT:132
;LAYER:0
M107
G0 F1980 X47.904 Y52.727 Z0.3
;TYPE:SKIRT
G1 F1500 E0
G1 F900 X48.291 Y52.402 E0.02521
G1 X48.725 Y52.143 E0.05043
G1 X49.194 Y51.955 E0.07564
G1 X49.687 Y51.843 E0.10086
G1 X50.186 Y51.807 E0.12582
G1 X50.664 Y51.8 E0.14967
G1 X184.339 Y51.8 E6.81874
G1 X185.037 Y51.81 E6.85357
G1 X185.54 Y51.857 E6.87877
G1 X186.03 Y51.983 E6.90401
G1 X186.494 Y52.185 E6.92926
G1 X186.92 Y52.457 E6.95448
G1 X187.298 Y52.792 E6.97968
G1 X187.618 Y53.183 E7.00488
G1 X187.873 Y53.62 E7.03013
G1 X188.056 Y54.091 E7.05534
G1 X188.163 Y54.585 E7.08055
G1 X188.199 Y55.24 E7.11328
G1 X188.202 Y71.006 E7.89985
G1 X188.2 Y72.045 E7.95169
G1 X188.2 Y77.148 E8.20627
G1 X188.169 Y79.288 E8.31305
G1 X188.126 Y81.439 E8.42039
G1 X188.126 Y147.62 E11.72217
G1 X188.188 Y151.084 E11.89502
G1 X188.2 Y151.714 E11.92645
G1 X188.202 Y163.306 E12.50478
G1 X188.2 Y164.345 E12.55662
G1 X188.2 Y173.312 E13.00398
G1 X188.189 Y174.04 E13.04031
G1 X188.141 Y174.544 E13.06557
G1 X188.015 Y175.033 E13.09076
G1 X187.813 Y175.497 E13.11601
G1 X187.541 Y175.923 E13.14122
G1 X187.205 Y176.301 E13.16645
G1 X186.814 Y176.621 E13.19166
G1 X186.377 Y176.875 E13.21688
G1 X185.905 Y177.058 E13.24213
G1 X185.532 Y177.146 E13.26125
G1 X184.559 Y177.313 E13.31051
G1 X183.665 Y177.454 E13.35566
G1 X181.008 Y177.952 E13.49053
G1 X178.33 Y178.532 E13.62723
G1 X175.667 Y179.187 E13.76405
G1 X173.043 Y179.913 E13.89988
G1 X170.416 Y180.721 E14.037
G1 X167.813 Y181.602 E14.1741
G1 X165.242 Y182.554 E14.31088
G1 X164.148 Y182.976 E14.36938
G1 X163.663 Y183.12 E14.39462
G1 X163.094 Y183.188 E14.42321
G1 X162.67 Y183.2 E14.44437
G1 X55.994 Y183.202 E19.76646
G1 X54.955 Y183.2 E19.81829
G1 X50.803 Y183.2 E20.02544
G1 X50.101 Y183.19 E20.06046
G1 X49.598 Y183.143 E20.08567
G1 X49.108 Y183.017 E20.11091
G1 X48.645 Y182.815 E20.13611
G1 X48.218 Y182.544 E20.16134
G1 X47.762 Y182.13 E20.19207
G1 X47.436 Y181.744 E20.21728
G1 X47.174 Y181.311 E20.24253
G1 X46.984 Y180.842 E20.26777
G1 X46.87 Y180.35 E20.29297
G1 X46.831 Y179.823 E20.31933
G1 X46.825 Y179.278 E20.34652
G1 X46.824 Y55.761 E26.50881
G1 X46.833 Y55.079 E26.54284
G1 X46.88 Y54.575 E26.56809
G1 X47.005 Y54.086 E26.59327
G1 X47.206 Y53.622 E26.6185
G1 X47.477 Y53.195 E26.64373
G1 X47.904 Y52.727 E26.67534
G0 F1980 X50.224 Y55.2
;TYPE:SUPPORT
G1 F900 X55.1 Y55.2 E26.91861
G1 X55.1 Y179.8 E33.13492
G1 X50.225 Y179.8 E33.37814
G1 X50.224 Y55.2 E39.59446
G0 F1980 X50.673 Y55.36
G1 F900 X50.673 Y179.64 E45.79481
G0 F1980 X50.383 Y178.689
G1 F900 X54.939 Y178.689 E46.02211
G0 F1980 X53.34 Y179.64
G1 F900 X53.34 Y55.36 E52.22247
G0 F1980 X54.94 Y56.007
G1 F900 X50.384 Y56.007 E52.44977
G0 F1980 X50.384 Y58.674
G1 F900 X54.94 Y58.674 E52.67707
G0 F1980 X54.939 Y61.341
G1 F900 X50.383 Y61.341 E52.90437
G0 F1980 X50.383 Y64.008
G1 F900 X54.939 Y64.008 E53.13167
G0 F1980 X54.939 Y66.675
G1 F900 X50.383 Y66.675 E53.35897
G0 F1980 X50.383 Y69.342
G1 F900 X54.939 Y69.342 E53.58627
G0 F1980 X54.939 Y72.009
G1 F900 X50.383 Y72.009 E53.81357
G0 F1980 X50.383 Y74.676
G1 F900 X54.939 Y74.676 E54.04086
G0 F1980 X54.939 Y77.343
G1 F900 X50.383 Y77.343 E54.26816
G0 F1980 X50.383 Y80.01
G1 F900 X54.939 Y80.01 E54.49546
G0 F1980 X54.939 Y82.677
G1 F900 X50.383 Y82.677 E54.72276
G0 F1980 X50.383 Y85.344
G1 F900 X54.939 Y85.344 E54.95006
G0 F1980 X54.939 Y88.011
G1 F900 X50.383 Y88.011 E55.17736
G0 F1980 X50.383 Y90.678
G1 F900 X54.939 Y90.678 E55.40466
G0 F1980 X54.939 Y93.345
G1 F900 X50.383 Y93.345 E55.63196
G0 F1980 X50.383 Y96.012
G1 F900 X54.939 Y96.012 E55.85926
G0 F1980 X54.939 Y98.679
G1 F900 X50.383 Y98.679 E56.08656
G0 F1980 X50.383 Y101.346
G1 F900 X54.939 Y101.346 E56.31386
G0 F1980 X54.939 Y104.013
G1 F900 X50.383 Y104.013 E56.54116
G0 F1980 X50.383 Y106.68
G1 F900 X54.939 Y106.68 E56.76846
G0 F1980 X54.939 Y109.347
G1 F900 X50.383 Y109.347 E56.99576
G0 F1980 X50.383 Y112.014
G1 F900 X54.939 Y112.014 E57.22306
G0 F1980 X54.939 Y114.681
G1 F900 X50.383 Y114.681 E57.45036
G0 F1980 X50.383 Y117.348
G1 F900 X54.939 Y117.348 E57.67766
G0 F1980 X54.939 Y120.015
G1 F900 X50.383 Y120.015 E57.90496
G0 F1980 X50.383 Y122.682
G1 F900 X54.939 Y122.682 E58.13226
G0 F1980 X54.939 Y125.349
G1 F900 X50.383 Y125.349 E58.35956
G0 F1980 X50.383 Y128.016
G1 F900 X54.939 Y128.016 E58.58686
G0 F1980 X54.939 Y130.683
G1 F900 X50.383 Y130.683 E58.81416
G0 F1980 X50.383 Y133.35
G1 F900 X54.939 Y133.35 E59.04146
G0 F1980 X54.939 Y136.017
G1 F900 X50.383 Y136.017 E59.26876
G0 F1980 X50.383 Y138.684
G1 F900 X54.939 Y138.684 E59.49606
G0 F1980 X54.939 Y141.351
G1 F900 X50.383 Y141.351 E59.72336
G0 F1980 X50.383 Y144.018
G1 F900 X54.939 Y144.018 E59.95066
G0 F1980 X54.939 Y146.685
G1 F900 X50.383 Y146.685 E60.17796
G0 F1980 X50.383 Y149.352
G1 F900 X54.939 Y149.352 E60.40526
G0 F1980 X54.939 Y152.019
G1 F900 X50.383 Y152.019 E60.63256
G0 F1980 X50.383 Y154.686
G1 F900 X54.939 Y154.686 E60.85986
G0 F1980 X54.939 Y157.353
G1 F900 X50.383 Y157.353 E61.08716
G0 F1980 X50.383 Y160.02
G1 F900 X54.939 Y160.02 E61.31446
G0 F1980 X54.939 Y162.687
G1 F900 X50.383 Y162.687 E61.54176
G0 F1980 X50.383 Y165.354
G1 F900 X54.939 Y165.354 E61.76906
G0 F1980 X54.939 Y168.021
G1 F900 X50.383 Y168.021 E61.99636
G0 F1980 X50.383 Y170.688
G1 F900 X54.939 Y170.688 E62.22366
G0 F1980 X54.939 Y173.355
G1 F900 X50.383 Y173.355 E62.45096
G0 F1980 X50.383 Y176.022
G1 F900 X54.939 Y176.022 E62.67826
G1 F1500 E56.17826
G0 F1980 X55.339 Y180.157
G0 X163.157 Y180.661
G0 X185.157 Y174.661
G0 X185.661 Y163.843
G0 X177.9 Y163.1
G1 F1500 E62.67826
G1 F900 X177.9 Y71.9 E67.22824
G1 X184.8 Y71.9 E67.57248
G1 X184.8 Y77.728 E67.86324
G1 X184.726 Y77.803 E67.8685
G1 X184.726 Y151.2 E71.53029
G1 X184.8 Y151.273 E71.53548
G1 X184.8 Y163.1 E72.12553
G1 X177.9 Y163.1 E72.46977
G0 F1980 X178.06 Y162.687
G1 F900 X184.64 Y162.687 E72.79805
G0 F1980 X184.023 Y162.94
G1 F900 X184.023 Y72.06 E77.33207
G0 F1980 X181.356 Y72.06
G1 F900 X181.356 Y162.94 E81.86609
G0 F1980 X178.689 Y162.94
G1 F900 X178.689 Y72.06 E86.40011
G0 F1980 X178.06 Y74.676
G1 F900 X184.64 Y74.676 E86.72839
G0 F1980 X184.64 Y77.343
G1 F900 X178.06 Y77.343 E87.05667
G0 F1980 X178.06 Y80.01
G1 F900 X184.566 Y80.01 E87.38126
G0 F1980 X184.566 Y82.677
G1 F900 X178.06 Y82.677 E87.70584
G0 F1980 X178.06 Y85.344
G1 F900 X184.566 Y85.344 E88.03043
G0 F1980 X184.566 Y88.011
G1 F900 X178.06 Y88.011 E88.35501
G0 F1980 X178.06 Y90.678
G1 F900 X184.566 Y90.678 E88.6796
G0 F1980 X184.566 Y93.345
G1 F900 X178.06 Y93.345 E89.00418
G0 F1980 X178.06 Y96.012
G1 F900 X184.566 Y96.012 E89.32877
G0 F1980 X184.566 Y98.679
G1 F900 X178.06 Y98.679 E89.65335
G0 F1980 X178.06 Y101.346
G1 F900 X184.566 Y101.346 E89.97794
G0 F1980 X184.566 Y104.013
G1 F900 X178.06 Y104.013 E90.30253
G0 F1980 X178.06 Y106.68
G1 F900 X184.566 Y106.68 E90.62711
G0 F1980 X184.566 Y109.347
G1 F900 X178.06 Y109.347 E90.9517
G0 F1980 X178.06 Y112.014
G1 F900 X184.566 Y112.014 E91.27628
G0 F1980 X184.566 Y114.681
G1 F900 X178.06 Y114.681 E91.60087
G0 F1980 X178.06 Y117.348
G1 F900 X184.566 Y117.348 E91.92545
G0 F1980 X184.566 Y120.015
G1 F900 X178.06 Y120.015 E92.25004
G0 F1980 X178.06 Y122.682
G1 F900 X184.566 Y122.682 E92.57463
G0 F1980 X184.566 Y125.349
G1 F900 X178.06 Y125.349 E92.89921
G0 F1980 X178.06 Y128.016
G1 F900 X184.566 Y128.016 E93.2238
G0 F1980 X184.566 Y130.683
G1 F900 X178.06 Y130.683 E93.54838
G0 F1980 X178.06 Y133.35
G1 F900 X184.566 Y133.35 E93.87297
G0 F1980 X184.566 Y136.017
G1 F900 X178.06 Y136.017 E94.19755
G0 F1980 X178.06 Y138.684
G1 F900 X184.566 Y138.684 E94.52214
G0 F1980 X184.566 Y141.351
G1 F900 X178.06 Y141.351 E94.84673
G0 F1980 X178.06 Y144.018
G1 F900 X184.566 Y144.018 E95.17131
G0 F1980 X184.566 Y146.685
G1 F900 X178.06 Y146.685 E95.4959
G0 F1980 X178.06 Y149.352
G1 F900 X184.566 Y149.352 E95.82048
G0 F1980 X184.64 Y152.019
G1 F900 X178.06 Y152.019 E96.14876
G0 F1980 X178.06 Y154.686
G1 F900 X184.64 Y154.686 E96.47704
G0 F1980 X184.64 Y157.353
G1 F900 X178.06 Y157.353 E96.80532
G0 F1980 X178.06 Y160.02
G1 F900 X184.64 Y160.02 E97.13359
G1 F1500 E90.63359
;MESH:all_in_one_ender_3_case_-_left_case_-_raspberry_pi_and_accessories.stl
G0 F1980 X184.586 Y163.335
G0 X184.586 Y164.414
G0 X162.4 Y173.4
;TYPE:WALL-INNER
G1 F1500 E97.13359
G1 F900 X162.4 Y179.4 E97.43293
G1 X56.6 Y179.4 E102.71132
G1 X56.6 Y55.6 E108.88772
G1 X184.4 Y55.6 E115.26369
G1 X184.4 Y70.4 E116.00207
G1 X176.4 Y70.4 E116.40119
G1 X176.4 Y164.6 E121.10085
G1 X184.4 Y164.6 E121.49997
G1 X184.4 Y173.4 E121.939
G1 X162.4 Y173.4 E123.03659
G0 F1980 X97.45 Y96.528
G1 F900 X97.899 Y96.6 E123.05927
G1 X98.354 Y96.572 E123.08202
G1 X98.789 Y96.448 E123.10458
G1 X99.182 Y96.239 E123.12679
G1 X99.535 Y95.937 E123.14997
G1 X99.807 Y95.573 E123.17264
G1 X99.995 Y95.159 E123.19532
G1 X100.09 Y94.716 E123.21792
G1 X100.089 Y94.26 E123.24067
G1 X99.987 Y93.815 E123.26345
G1 X99.794 Y93.405 E123.28606
G1 X99.518 Y93.046 E123.30865
G1 X99.169 Y92.752 E123.33142
G1 X98.765 Y92.541 E123.35416
G1 X98.317 Y92.421 E123.3773
G1 X97.658 Y92.425 E123.41017
G1 X97.211 Y92.551 E123.43334
G1 X96.818 Y92.76 E123.45555
G1 X96.465 Y93.063 E123.47876
G1 X96.187 Y93.435 E123.50193
G1 X95.947 Y94.037 E123.53426
G1 X95.898 Y94.501 E123.55754
G1 X95.949 Y94.964 E123.58078
G1 X96.098 Y95.394 E123.60348
G1 X96.334 Y95.782 E123.62614
G1 X96.648 Y96.11 E123.64879
G1 X97.027 Y96.364 E123.67156
G1 X97.45 Y96.528 E123.69419
G0 F1980 X81.038 Y96.414
G0 X79.116 Y96.206
G0 X77.229 Y95.793
G0 X75.408 Y95.184
G0 X73.64 Y94.373
G0 X72.705 Y93.816
G0 X69.82 Y91.952
G1 F900 X71.899 Y93.52 E123.8241
G1 X73.572 Y94.519 E123.92132
G1 X75.342 Y95.331 E124.01847
G1 X77.189 Y95.949 E124.11564
G1 X79.091 Y96.365 E124.21278
G1 X81.026 Y96.575 E124.30988
G1 X82.974 Y96.575 E124.40707
G1 X84.909 Y96.365 E124.50417
G1 X86.811 Y95.949 E124.60131
G1 X88.658 Y95.331 E124.69847
G1 X90.428 Y94.519 E124.79563
G1 X92.101 Y93.52 E124.89284
G1 X94.18 Y91.952 E125.02276
G1 X82 Y79.772 E125.88212
G1 X69.82 Y91.952 E126.74149
G0 F1980 X67.419 Y95.824
G0 X66.729 Y96.298
G0 X65.45 Y96.528
G1 F900 X65.899 Y96.6 E126.76417
G1 X66.354 Y96.572 E126.78692
G1 X66.789 Y96.448 E126.80948
G1 X67.181 Y96.239 E126.83165
G1 X67.535 Y95.937 E126.85486
G1 X67.807 Y95.573 E126.87753
G1 X67.995 Y95.159 E126.90022
G1 X68.09 Y94.716 E126.92282
G1 X68.089 Y94.26 E126.94557
G1 X67.987 Y93.815 E126.96835
G1 X67.794 Y93.405 E126.99095
G1 X67.518 Y93.046 E127.01355
G1 X67.169 Y92.752 E127.03631
G1 X66.765 Y92.541 E127.05905
G1 X66.317 Y92.421 E127.08219
G1 X65.658 Y92.425 E127.11507
G1 X65.211 Y92.551 E127.13824
G1 X64.818 Y92.76 E127.16045
G1 X64.465 Y93.063 E127.18366
G1 X64.193 Y93.427 E127.20633
G1 X64 Y93.85 E127.22952
G1 X63.896 Y94.49 E127.26187
G1 X63.949 Y94.963 E127.28562
G1 X64.098 Y95.395 E127.30841
G1 X64.334 Y95.782 E127.33103
G1 X64.648 Y96.11 E127.35368
G1 X65.027 Y96.364 E127.37644
G1 X65.45 Y96.528 E127.39908
G0 F1980 X64.754 Y95.987
G0 X64.243 Y95.323
G0 X64.059 Y94.494
G0 X64.086 Y77.538
G0 X64.293 Y75.618
G0 X64.708 Y73.726
G0 X65.316 Y71.908
G0 X66.127 Y70.14
G0 X66.682 Y69.209
G0 X68.546 Y66.32
G1 F900 X66.98 Y68.4 E127.52897
G1 X65.981 Y70.072 E127.62615
G1 X65.169 Y71.842 E127.7233
G1 X64.551 Y73.688 E127.82042
G1 X64.134 Y75.591 E127.91761
G1 X63.925 Y77.527 E128.01476
G1 X63.925 Y79.473 E128.11185
G1 X64.134 Y81.409 E128.209
G1 X64.551 Y83.312 E128.30619
G1 X65.169 Y85.158 E128.40331
G1 X65.981 Y86.928 E128.50047
G1 X66.98 Y88.6 E128.59764
G1 X68.546 Y90.68 E128.72753
G1 X80.728 Y78.5 E129.58697
G1 X68.546 Y66.32 E130.4464
G0 F1980 X69.82 Y65.046
G1 F900 X82 Y77.228 E131.30584
G1 X94.18 Y65.046 E132.16528
G1 X92.1 Y63.48 E132.29517
G1 X90.428 Y62.481 E132.39234
G1 X88.658 Y61.669 E132.4895
G1 X86.811 Y61.051 E132.58666
G1 X84.909 Y60.635 E132.6838
G1 X82.974 Y60.425 E132.7809
G1 X81.026 Y60.425 E132.87809
G1 X79.091 Y60.635 E132.97519
G1 X77.189 Y61.051 E133.07233
G1 X75.342 Y61.669 E133.1695
G1 X73.572 Y62.481 E133.26665
G1 X71.9 Y63.48 E133.36382
G1 X69.82 Y65.046 E133.49372
G0 F1980 X65.45 Y64.528
G1 F900 X65.899 Y64.6 E133.5164
G1 X66.354 Y64.572 E133.53915
G1 X66.789 Y64.448 E133.56171
G1 X67.181 Y64.239 E133.58388
G1 X67.535 Y63.937 E133.60709
G1 X67.807 Y63.573 E133.62976
G1 X67.995 Y63.159 E133.65245
G1 X68.09 Y62.716 E133.67505
G1 X68.089 Y62.26 E133.6978
G1 X67.987 Y61.816 E133.72053
G1 X67.795 Y61.405 E133.74316
G1 X67.518 Y61.046 E133.76578
G1 X67.168 Y60.751 E133.78862
G1 X66.765 Y60.543 E133.81125
G1 X66.319 Y60.421 E133.83431
G1 X65.657 Y60.425 E133.86734
G1 X65.211 Y60.552 E133.89048
G1 X64.818 Y60.759 E133.91264
G1 X64.465 Y61.063 E133.93588
G1 X64.193 Y61.427 E133.95855
G1 X64 Y61.85 E133.98175
G1 X63.896 Y62.49 E134.01409
G1 X63.949 Y62.963 E134.03784
G1 X64.098 Y63.395 E134.06064
G1 X64.334 Y63.782 E134.08325
G1 X64.648 Y64.11 E134.10591
G1 X65.027 Y64.364 E134.12867
G1 X65.45 Y64.528 E134.1513
G0 F1980 X71.997 Y63.608
G0 X73.64 Y62.627
G0 X75.408 Y61.816
G0 X77.229 Y61.207
G0 X79.116 Y60.794
G0 X81.038 Y60.586
G0 X82.962 Y60.586
G0 X84.884 Y60.794
G0 X86.771 Y61.207
G0 X88.592 Y61.816
G0 X90.36 Y62.627
G0 X92.003 Y63.608
G0 X93.085 Y64.434
G0 X95.452 Y66.32
G1 F900 X83.272 Y78.5 E135.01067
G1 X95.452 Y90.68 E135.87003
G1 X97.02 Y88.601 E135.99995
G1 X98.019 Y86.928 E136.09716
G1 X98.831 Y85.158 E136.19432
G1 X99.449 Y83.311 E136.29148
G1 X99.865 Y81.409 E136.38862
G1 X100.075 Y79.474 E136.48572
G1 X100.075 Y77.526 E136.58291
G1 X99.865 Y75.591 E136.68001
G1 X99.449 Y73.689 E136.77715
G1 X98.831 Y71.842 E136.87432
G1 X98.019 Y70.072 E136.97147
G1 X97.02 Y68.399 E137.06869
G1 X95.452 Y66.32 E137.1986
G0 F1980 X97.671 Y64.576
G1 F900 X98.126 Y64.599 E137.22133
G1 X98.585 Y64.52 E137.24457
G1 X99.174 Y64.246 E137.27698
G1 X99.535 Y63.937 E137.30068
G1 X99.807 Y63.573 E137.32335
G1 X99.995 Y63.159 E137.34604
G1 X100.09 Y62.716 E137.36864
G1 X100.089 Y62.26 E137.39139
G1 X99.987 Y61.816 E137.41412
G1 X99.795 Y61.405 E137.43675
G1 X99.518 Y61.046 E137.45937
G1 X99.169 Y60.751 E137.48217
G1 X98.765 Y60.542 E137.50487
G1 X98.318 Y60.421 E137.52797
G1 X97.657 Y60.425 E137.56095
G1 X97.211 Y60.552 E137.58408
G1 X96.818 Y60.759 E137.60624
G1 X96.465 Y61.063 E137.62948
G1 X96.193 Y61.427 E137.65215
G1 X96.005 Y61.841 E137.67484
G1 X95.91 Y62.284 E137.69744
G1 X95.911 Y62.74 E137.72019
G1 X96.013 Y63.184 E137.74292
G1 X96.205 Y63.595 E137.76555
G1 X96.482 Y63.954 E137.78818
G1 X96.831 Y64.247 E137.81091
G1 X97.234 Y64.458 E137.8336
G1 X97.671 Y64.576 E137.85619
G0 F1980 X97.734 Y64.179
;TYPE:WALL-OUTER
G1 F900 X98.102 Y64.197 E137.87457
G1 X98.465 Y64.135 E137.89294
G1 X98.955 Y63.907 E137.9199
G1 X99.241 Y63.662 E137.93869
G1 X99.461 Y63.368 E137.95701
G1 X99.613 Y63.033 E137.97537
G1 X99.69 Y62.674 E137.99368
G1 X99.689 Y62.306 E138.01204
G1 X99.607 Y61.947 E138.03041
G1 X99.451 Y61.615 E138.04872
G1 X99.227 Y61.324 E138.06704
G1 X98.945 Y61.086 E138.08545
G1 X98.619 Y60.917 E138.10377
G1 X98.266 Y60.821 E138.12202
