;FLAVOR:Marlin
;TIME:17297
;Filament used: 17.1429m
;Layer height: 0.25
;MINX:46.8
;MINY:51.798
;MINZ:0.3
;MAXX:188.176
;MAXY:183.2
;MAXZ:33.05
;Generated with Cura_SteamEngine 4.12.1
M140 S60
M105
M190 S60
M104 S200
M105
M109 S200
M82 ;absolute extrusion mode
M201 X500.00 Y500.00 Z100.00 E5000.00 	;Setup machine max acceleration
M203 X500.00 Y500.00 Z10.00 E50.00 	;Setup machine max feedrate
M204 P500.00 R1000.00 T500.00 		;Setup Print/Retract/Travel acceleration
M205 X8.00 Y8.00 Z0.40 E5.00 		;Setup Jerk
M220 S100 				;Reset Feedrate
M221 S100 				;Reset Flowrate
G28					;Home the Machine
G92 E0
M300 P150 S587
G92 E0
G1 F1500 E-6.5
;LAYER_COUNT:132
;LAYER:0
M107
G0 F1980 X51.838 Y52.768 Z0.3
;TYPE:SKIRT
G1 F1500 E0
G1 F900 X52.22 Y52.436 E0.02525
G1 X52.649 Y52.169 E0.05046
G1 X53.115 Y51.972 E0.0757
G1 X53.606 Y51.852 E0.10092
G1 X54.163 Y51.807 E0.1288
G1 X54.676 Y51.8 E0.15439
G1 X57.056 Y51.798 E0.27313
G1 X58.147 Y51.802 E0.32756
G1 X58.388 Y51.8 E0.33959
G1 X184.197 Y51.8 E6.61622
G1 X184.899 Y51.81 E6.65125
G1 X185.402 Y51.857 E6.67645
G1 X185.892 Y51.983 E6.70169
G1 X186.355 Y52.185 E6.7269
G1 X186.782 Y52.456 E6.75213
G1 X187.228 Y52.859 E6.78212
G1 X187.556 Y53.244 E6.80735
G1 X187.819 Y53.675 E6.83254
G1 X188.012 Y54.143 E6.8578
G1 X188.128 Y54.635 E6.88302
G1 X188.168 Y55.142 E6.90839
G1 X188.175 Y55.636 E6.93304
G1 X188.176 Y179.183 E13.09682
G1 X188.166 Y179.922 E13.13369
G1 X188.119 Y180.426 E13.15895
G1 X187.994 Y180.915 E13.18413
G1 X187.792 Y181.379 E13.20938
G1 X187.521 Y181.806 E13.23461
G1 X187.107 Y182.263 E13.26537
G1 X186.72 Y182.589 E13.29062
G1 X186.288 Y182.851 E13.31582
G1 X185.819 Y183.041 E13.34107
G1 X185.327 Y183.155 E13.36626
G1 X184.814 Y183.193 E13.39193
G1 X184.336 Y183.2 E13.41578
G1 X58.661 Y183.2 E19.68573
G1 X57.961 Y183.19 E19.72066
G1 X57.458 Y183.143 E19.74586
G1 X56.968 Y183.017 E19.7711
G1 X56.505 Y182.815 E19.7963
G1 X56.078 Y182.543 E19.82156
G1 X55.7 Y182.208 E19.84676
G1 X55.38 Y181.817 E19.87197
G1 X55.056 Y181.228 E19.90551
G1 X54.818 Y180.658 E19.93632
G1 X54.219 Y179.172 E20.01626
G1 X53.116 Y176.64 E20.15404
G1 X51.944 Y174.148 E20.29143
G1 X50.728 Y171.741 E20.42597
G1 X49.391 Y169.269 E20.56618
G1 X48.056 Y166.96 E20.69925
G1 X47.913 Y166.728 E20.71285
G1 X47.262 Y165.636 E20.77627
G1 X47.039 Y165.182 E20.80151
G1 X46.885 Y164.682 E20.82761
G1 X46.81 Y164.079 E20.85792
G1 X46.8 Y163.67 E20.87834
G1 X46.8 Y71.657 E25.46888
G1 X46.811 Y70.948 E25.50426
G1 X46.859 Y70.445 E25.52947
G1 X47.075 Y69.693 E25.5685
G1 X47.911 Y67.094 E25.70471
G1 X48.669 Y64.49 E25.84002
G1 X49.369 Y61.804 E25.9785
G1 X49.986 Y59.132 E26.11531
G1 X50.524 Y56.445 E26.25203
G1 X50.69 Y55.471 E26.30132
G1 X50.866 Y54.532 E26.34898
G1 X50.998 Y54.044 E26.37421
G1 X51.205 Y53.583 E26.39942
G1 X51.483 Y53.161 E26.42463
G1 X51.838 Y52.768 E26.45105
G0 F1980 X54.2 Y55.2
;TYPE:SUPPORT
G1 F900 X56.845 Y55.2 E26.58301
G1 X56.845 Y57.8 E26.71272
G1 X54.2 Y57.8 E26.84468
G1 X54.2 Y55.2 E26.9744
G0 F1980 X54.36 Y56.007
G1 F900 X56.685 Y56.007 E27.09039
G0 F1980 X56.007 Y55.36
G1 F900 X56.007 Y57.64 E27.20414
G1 F1500 E20.70414
G0 F1980 X57.339 Y54.843
G0 X179.157 Y54.339
G0 X179.9 Y55.2
G1 F1500 E27.20414
G1 F900 X184.775 Y55.2 E27.44736
G1 X184.776 Y179.8 E33.66368
G1 X179.9 Y179.8 E33.90694
G1 X179.9 Y55.2 E40.12326
G0 F1980 X180.06 Y56.007
G1 F900 X184.616 Y56.007 E40.35056
G0 F1980 X184.023 Y55.36
G1 F900 X184.023 Y179.64 E46.55092
G0 F1980 X184.616 Y178.689
G1 F900 X180.06 Y178.689 E46.77821
G0 F1980 X181.356 Y179.64
G1 F900 X181.356 Y55.36 E52.97857
G0 F1980 X180.06 Y58.674
G1 F900 X184.616 Y58.674 E53.20587
G0 F1980 X184.616 Y61.341
G1 F900 X180.06 Y61.341 E53.43317
G0 F1980 X180.06 Y64.008
G1 F900 X184.616 Y64.008 E53.66047
G0 F1980 X184.616 Y66.675
G1 F900 X180.06 Y66.675 E53.88777
G0 F1980 X180.06 Y69.342
G1 F900 X184.616 Y69.342 E54.11507
G0 F1980 X184.616 Y72.009
G1 F900 X180.06 Y72.009 E54.34237
G0 F1980 X180.06 Y74.676
G1 F900 X184.616 Y74.676 E54.56967
G0 F1980 X184.616 Y77.343
G1 F900 X180.06 Y77.343 E54.79697
G0 F1980 X180.06 Y80.01
G1 F900 X184.616 Y80.01 E55.02427
G0 F1980 X184.616 Y82.677
G1 F900 X180.06 Y82.677 E55.25157
G0 F1980 X180.06 Y85.344
G1 F900 X184.616 Y85.344 E55.47887
G0 F1980 X184.616 Y88.011
G1 F900 X180.06 Y88.011 E55.70617
G0 F1980 X180.06 Y90.678
G1 F900 X184.616 Y90.678 E55.93347
G0 F1980 X184.616 Y93.345
G1 F900 X180.06 Y93.345 E56.16077
G0 F1980 X180.06 Y96.012
G1 F900 X184.616 Y96.012 E56.38807
G0 F1980 X184.616 Y98.679
G1 F900 X180.06 Y98.679 E56.61537
G0 F1980 X180.06 Y101.346
G1 F900 X184.616 Y101.346 E56.84267
G0 F1980 X184.616 Y104.013
G1 F900 X180.06 Y104.013 E57.06996
G0 F1980 X180.06 Y106.68
G1 F900 X184.616 Y106.68 E57.29726
G0 F1980 X184.616 Y109.347
G1 F900 X180.06 Y109.347 E57.52456
G0 F1980 X180.06 Y112.014
G1 F900 X184.616 Y112.014 E57.75186
G0 F1980 X184.616 Y114.681
G1 F900 X180.06 Y114.681 E57.97916
G0 F1980 X180.06 Y117.348
G1 F900 X184.616 Y117.348 E58.20646
G0 F1980 X184.616 Y120.015
G1 F900 X180.06 Y120.015 E58.43376
G0 F1980 X180.06 Y122.682
G1 F900 X184.616 Y122.682 E58.66106
G0 F1980 X184.616 Y125.349
G1 F900 X180.06 Y125.349 E58.88836
G0 F1980 X180.06 Y128.016
G1 F900 X184.616 Y128.016 E59.11566
G0 F1980 X184.616 Y130.683
G1 F900 X180.06 Y130.683 E59.34296
G0 F1980 X180.06 Y133.35
G1 F900 X184.616 Y133.35 E59.57026
G0 F1980 X184.616 Y136.017
G1 F900 X180.06 Y136.017 E59.79756
G0 F1980 X180.06 Y138.684
G1 F900 X184.616 Y138.684 E60.02486
G0 F1980 X184.616 Y141.351
G1 F900 X180.06 Y141.351 E60.25216
G0 F1980 X180.06 Y144.018
G1 F900 X184.616 Y144.018 E60.47946
G0 F1980 X184.616 Y146.685
G1 F900 X180.06 Y146.685 E60.70676
G0 F1980 X180.06 Y149.352
G1 F900 X184.616 Y149.352 E60.93406
G0 F1980 X184.616 Y152.019
G1 F900 X180.06 Y152.019 E61.16136
G0 F1980 X180.06 Y154.686
G1 F900 X184.616 Y154.686 E61.38866
G0 F1980 X184.616 Y157.353
G1 F900 X180.06 Y157.353 E61.61596
G0 F1980 X180.06 Y160.02
G1 F900 X184.616 Y160.02 E61.84326
G0 F1980 X184.616 Y162.687
G1 F900 X180.06 Y162.687 E62.07056
G0 F1980 X180.06 Y165.354
G1 F900 X184.616 Y165.354 E62.29786
G0 F1980 X184.616 Y168.021
G1 F900 X180.06 Y168.021 E62.52516
G0 F1980 X180.06 Y170.688
G1 F900 X184.616 Y170.688 E62.75246
G0 F1980 X184.616 Y173.355
G1 F900 X180.06 Y173.355 E62.97976
G0 F1980 X180.06 Y176.022
G1 F900 X184.616 Y176.022 E63.20706
G1 F1500 E56.70706
;MESH:right_mks_skr.stl
G0 F1980 X179.665 Y176.022
G0 X178.38 Y176.022
G0 X154.897 Y153.68
G1 F1500 E63.20706
G0 F1980 X154.922 Y153.584
;TYPE:WALL-INNER
G1 F900 X155.467 Y153.655 E63.23448
G1 X156.011 Y153.584 E63.26185
G1 X156.52 Y153.373 E63.28934
G1 X156.955 Y153.039 E63.3167
G1 X157.29 Y152.603 E63.34413
G1 X157.501 Y152.094 E63.37162
G1 X157.572 Y151.55 E63.39899
G1 X157.501 Y151.006 E63.42636
G1 X157.29 Y150.497 E63.45385
G1 X156.955 Y150.061 E63.48128
G1 X156.52 Y149.727 E63.50864
G1 X156.011 Y149.516 E63.53613
G1 X155.467 Y149.445 E63.5635
G1 X154.922 Y149.516 E63.59092
G1 X154.415 Y149.727 E63.61832
G1 X153.978 Y150.061 E63.64576
G1 X153.643 Y150.498 E63.67323
G1 X153.433 Y151.006 E63.70066
G1 X153.362 Y151.55 E63.72803
G1 X153.433 Y152.094 E63.7554
G1 X153.643 Y152.602 E63.78282
G1 X153.978 Y153.039 E63.81029
G1 X154.415 Y153.373 E63.83774
G1 X154.922 Y153.584 E63.86513
G0 F1980 X154.897 Y153.68
G0 X156.021 Y153.622
G0 X156.898 Y153.132
G0 X166.431 Y140.63
G0 X166.456 Y140.534
G1 F900 X167 Y140.605 E63.8925
G1 X167.544 Y140.534 E63.91987
G1 X168.052 Y140.324 E63.9473
G1 X168.489 Y139.989 E63.97477
G1 X168.824 Y139.552 E64.00224
G1 X169.034 Y139.044 E64.02966
G1 X169.105 Y138.5 E64.05703
G1 X169.034 Y137.956 E64.08441
G1 X168.824 Y137.448 E64.11183
G1 X168.489 Y137.011 E64.1393
G1 X168.052 Y136.676 E64.16677
G1 X167.544 Y136.466 E64.1942
G1 X167 Y136.395 E64.22157
G1 X166.456 Y136.466 E64.24894
G1 X165.948 Y136.676 E64.27636
G1 X165.511 Y137.011 E64.30383
G1 X165.176 Y137.448 E64.3313
G1 X164.966 Y137.956 E64.35873
G1 X164.895 Y138.5 E64.3861
G1 X164.966 Y139.044 E64.41347
G1 X165.176 Y139.552 E64.44089
G1 X165.511 Y139.989 E64.46836
G1 X165.948 Y140.324 E64.49584
G1 X166.456 Y140.534 E64.52326
G0 F1980 X166.431 Y140.63
G0 X165.483 Y140.017
G0 X164.928 Y139.054
G0 X164.928 Y137.946
G0 X166.33 Y135.67
G0 X166.4 Y135.6
G1 F900 X166.972 Y135.6 E64.5518
G1 X167.698 Y135.689 E64.58829
G1 X168.349 Y135.936 E64.62303
G1 X168.922 Y136.332 E64.65778
G1 X169.383 Y136.853 E64.69248
G1 X169.709 Y137.474 E64.72747
G1 X169.875 Y138.153 E64.76235
G1 X169.876 Y138.847 E64.79697
G1 X169.71 Y139.525 E64.8318
G1 X169.384 Y140.146 E64.86679
G1 X168.924 Y140.666 E64.90142
G1 X168.35 Y141.063 E64.93624
G1 X167.699 Y141.31 E64.97098
G1 X166.4 Y141.469 E65.03627
G1 X166.4 Y151.6 E65.54171
G1 X174.6 Y151.6 E65.95081
G1 X174.6 Y127.4 E67.15815
G1 X166.4 Y127.4 E67.56725
G1 X166.4 Y135.6 E67.97635
G0 F1980 X166.33 Y135.67
G0 X166.33 Y102.33
G0 X166.4 Y102.4
G1 F900 X166.4 Y126.6 E69.18369
G1 X174.6 Y126.6 E69.59279
G1 X174.6 Y102.4 E70.80014
G1 X166.4 Y102.4 E71.20924
G0 F1980 X166.33 Y102.33
G0 X166.33 Y75.33
G0 X166.4 Y75.4
G1 F900 X166.4 Y101.6 E72.51636
G1 X174.6 Y101.6 E72.92546
G1 X174.6 Y75.4 E74.23258
G1 X166.4 Y75.4 E74.64168
G0 F1980 X166.33 Y75.33
G0 X166.431 Y64.63
G0 X166.456 Y64.534
G1 F900 X167 Y64.605 E74.66905
G1 X167.544 Y64.534 E74.69642
G1 X168.052 Y64.324 E74.72385
G1 X168.489 Y63.989 E74.75132
G1 X168.824 Y63.552 E74.77879
G1 X169.034 Y63.044 E74.80621
G1 X169.105 Y62.5 E74.83358
G1 X169.034 Y61.956 E74.86096
G1 X168.824 Y61.448 E74.88838
G1 X168.489 Y61.011 E74.91585
G1 X168.052 Y60.676 E74.94332
G1 X167.544 Y60.466 E74.97075
G1 X167 Y60.395 E74.99812
G1 X166.456 Y60.466 E75.02549
G1 X165.948 Y60.676 E75.05291
G1 X165.511 Y61.011 E75.08038
G1 X165.176 Y61.448 E75.10785
G1 X164.966 Y61.956 E75.13528
G1 X164.895 Y62.5 E75.16265
G1 X164.966 Y63.044 E75.19002
G1 X165.176 Y63.552 E75.21744
G1 X165.511 Y63.989 E75.24491
G1 X165.948 Y64.324 E75.27239
G1 X166.456 Y64.534 E75.29981
G0 F1980 X166.431 Y64.63
G0 X64.431 Y64.63
G0 X64.456 Y64.534
G1 F900 X65 Y64.605 E75.32718
G1 X65.544 Y64.534 E75.35455
G1 X66.052 Y64.324 E75.38197
G1 X66.489 Y63.989 E75.40945
G1 X66.824 Y63.552 E75.43692
G1 X67.034 Y63.044 E75.46434
G1 X67.105 Y62.5 E75.49171
G1 X67.034 Y61.956 E75.51908
G1 X66.824 Y61.448 E75.54651
G1 X66.489 Y61.011 E75.57398
G1 X66.052 Y60.676 E75.60145
G1 X65.544 Y60.466 E75.62887
G1 X65 Y60.395 E75.65624
G1 X64.456 Y60.466 E75.68361
G1 X63.948 Y60.676 E75.71104
G1 X63.511 Y61.011 E75.73851
G1 X63.176 Y61.448 E75.76598
G1 X62.966 Y61.956 E75.79341
G1 X62.895 Y62.5 E75.82078
G1 X62.966 Y63.044 E75.84815
G1 X63.176 Y63.552 E75.87557
G1 X63.511 Y63.989 E75.90304
G1 X63.948 Y64.324 E75.93051
G1 X64.456 Y64.534 E75.95794
G0 F1980 X64.431 Y64.63
G0 X58.67 Y71.67
G0 X58.6 Y71.6
G1 F900 X58.6 Y55.6 E76.75618
G1 X178.4 Y55.6 E82.73303
G1 X178.4 Y179.4 E88.90943
G1 X58.6 Y179.4 E94.88628
G1 X58.6 Y163.4 E95.68452
G1 X50.6 Y163.4 E96.08364
G1 X50.6 Y71.6 E100.66357
G1 X58.6 Y71.6 E101.06269
G0 F1980 X58.67 Y71.67
G0 X62.928 Y139.054
G0 X63.483 Y140.017
G0 X64.431 Y140.63
G0 X64.456 Y140.534
G1 F900 X65 Y140.605 E101.09006
G1 X65.544 Y140.534 E101.11743
G1 X66.052 Y140.324 E101.14485
G1 X66.489 Y139.989 E101.17232
G1 X66.824 Y139.552 E101.19979
G1 X67.034 Y139.044 E101.22722
G1 X67.105 Y138.5 E101.25459
G1 X67.034 Y137.956 E101.28196
G1 X66.824 Y137.448 E101.30938
G1 X66.489 Y137.011 E101.33685
G1 X66.052 Y136.676 E101.36433
G1 X65.544 Y136.466 E101.39175
G1 X65 Y136.395 E101.41912
G1 X64.456 Y136.466 E101.44649
G1 X63.948 Y136.676 E101.47392
G1 X63.511 Y137.011 E101.50139
G1 X63.176 Y137.448 E101.52886
G1 X62.966 Y137.956 E101.55628
G1 X62.895 Y138.5 E101.58365
G1 X62.966 Y139.044 E101.61102
G1 X63.176 Y139.552 E101.63845
G1 X63.511 Y139.989 E101.66592
G1 X63.948 Y140.324 E101.69339
G1 X64.456 Y140.534 E101.72081
G0 F1980 X64.431 Y140.63
G0 X74.676 Y169.023
G0 X75.964 Y170.08
G0 X75.989 Y169.984
G1 F900 X76.533 Y170.055 E101.74818
G1 X77.078 Y169.984 E101.7756
G1 X77.585 Y169.773 E101.803
G1 X78.022 Y169.439 E101.83044
G1 X78.357 Y169.002 E101.85791
G1 X78.567 Y168.494 E101.88534
G1 X78.638 Y167.95 E101.91271
G1 X78.567 Y167.406 E101.94008
G1 X78.357 Y166.898 E101.9675
G1 X78.022 Y166.461 E101.99497
G1 X77.585 Y166.127 E102.02241
G1 X77.078 Y165.916 E102.04981
G1 X76.533 Y165.845 E102.07723
G1 X75.989 Y165.916 E102.1046
G1 X75.48 Y166.127 E102.13209
G1 X75.045 Y166.461 E102.15945
G1 X74.71 Y166.897 E102.18689
G1 X74.499 Y167.406 E102.21437
G1 X74.428 Y167.95 E102.24175
G1 X74.499 Y168.494 E102.26912
G1 X74.71 Y169.003 E102.29661
G1 X75.045 Y169.439 E102.32404
G1 X75.48 Y169.773 E102.3514
G1 X75.989 Y169.984 E102.37889
G0 F1980 X75.964 Y170.08
G0 X77.088 Y170.022
G0 X106.164 Y153.68
G0 X106.189 Y153.584
G1 F900 X106.733 Y153.655 E102.40626
G1 X107.278 Y153.584 E102.43368
G1 X107.785 Y153.373 E102.46108
G1 X108.222 Y153.039 E102.48852
G1 X108.557 Y152.602 E102.51599
G1 X108.767 Y152.094 E102.54341
G1 X108.838 Y151.55 E102.57078
G1 X108.767 Y151.006 E102.59815
G1 X108.557 Y150.498 E102.62558
G1 X108.222 Y150.061 E102.65305
G1 X107.785 Y149.727 E102.68049
G1 X107.278 Y149.516 E102.70789
G1 X106.733 Y149.445 E102.73531
G1 X106.189 Y149.516 E102.76268
G1 X105.68 Y149.727 E102.79017
G1 X105.245 Y150.061 E102.81753
G1 X104.91 Y150.497 E102.84496
G1 X104.699 Y151.006 E102.87245
G1 X104.628 Y151.55 E102.89982
G1 X104.699 Y152.094 E102.92719
G1 X104.91 Y152.603 E102.95468
G1 X105.245 Y153.039 E102.98211
G1 X105.68 Y153.373 E103.00947
G1 X106.189 Y153.584 E103.03696
G0 F1980 X106.164 Y153.68
G0 X123.75 Y169.467
G0 X124.697 Y170.08
G0 X124.722 Y169.984
G1 F900 X125.267 Y170.055 E103.06438
G1 X125.811 Y169.984 E103.09175
G1 X126.32 Y169.773 E103.11924
G1 X126.755 Y169.439 E103.1466
G1 X127.09 Y169.003 E103.17403
G1 X127.301 Y168.494 E103.20152
G1 X127.372 Y167.95 E103.22889
G1 X127.301 Y167.406 E103.25627
G1 X127.09 Y166.897 E103.28375
G1 X126.755 Y166.461 E103.31119
G1 X126.32 Y166.127 E103.33855
G1 X125.811 Y165.916 E103.36604
G1 X125.267 Y165.845 E103.39341
G1 X124.722 Y165.916 E103.42083
G1 X124.215 Y166.127 E103.44822
G1 X123.778 Y166.461 E103.47567
G1 X123.443 Y166.898 E103.50314
G1 X123.233 Y167.406 E103.53056
G1 X123.162 Y167.95 E103.55793
G1 X123.233 Y168.494 E103.5853
G1 X123.443 Y169.002 E103.61273
G1 X123.778 Y169.439 E103.6402
G1 X124.215 Y169.773 E103.66764
G1 X124.722 Y169.984 E103.69504
G0 F1980 X124.826 Y169.594
;TYPE:WALL-OUTER
G1 F900 X125.267 Y169.652 E103.71723
G1 X125.707 Y169.594 E103.73937
G1 X126.118 Y169.424 E103.76156
G1 X126.47 Y169.154 E103.78369
G1 X126.741 Y168.801 E103.80589
G1 X126.911 Y168.39 E103.82808
G1 X126.969 Y167.95 E103.85022
G1 X126.911 Y167.51 E103.87237
G1 X126.741 Y167.099 E103.89456
G1 X126.47 Y166.746 E103.91676
G1 X126.118 Y166.476 E103.93889
G1 X125.707 Y166.306 E103.96108
G1 X125.267 Y166.248 E103.98322
G1 X124.826 Y166.306 E104.00541
G1 X124.416 Y166.476 E104.02756
G1 X124.063 Y166.746 E104.04973
G1 X123.793 Y167.099 E104.0719
G1 X123.623 Y167.51 E104.09409
G1 X123.565 Y167.95 E104.11623
G1 X123.623 Y168.39 E104.13837
G1 X123.793 Y168.801 E104.16056
G1 X124.063 Y169.154 E104.18274
G1 X124.416 Y169.424 E104.20491
G1 X124.826 Y169.594 E104.22705
G0 F1980 X125.024 Y169.62
G0 X124.96 Y170.115
G0 X124.196 Y169.807
G0 X106.229 Y153.689
G0 X106.293 Y153.194
G1 F900 X106.733 Y153.252 E104.24919
G1 X107.174 Y153.194 E104.27138
G1 X107.584 Y153.024 E104.29353
G1 X107.937 Y152.754 E104.3157
G1 X108.207 Y152.401 E104.33787
G1 X108.377 Y151.99 E104.36006
G1 X108.435 Y151.55 E104.3822
G1 X108.377 Y151.11 E104.40435
G1 X108.207 Y150.699 E104.42653
