;FLAVOR:Marlin
;TIME:9001
;Filament used: 8.28465m
;Layer height: 0.25
;MINX:48.8
;MINY:49.3
;MINZ:0.3
;MAXX:186.2
;MAXY:185.7
;MAXZ:3.05
;Generated with Cura_SteamEngine 4.12.1
M140 S60
M105
M190 S60
M104 S200
M105
M109 S200
M82 ;absolute extrusion mode
M201 X500.00 Y500.00 Z100.00 E5000.00 	;Setup machine max acceleration
M203 X500.00 Y500.00 Z10.00 E50.00 	;Setup machine max feedrate
M204 P500.00 R1000.00 T500.00 		;Setup Print/Retract/Travel acceleration
M205 X8.00 Y8.00 Z0.40 E5.00 		;Setup Jerk
M220 S100 				;Reset Feedrate
M221 S100 				;Reset Flowrate
G28					;Home the Machine
G92 E0
M300 P150 S587
G92 E0
G1 F1500 E-6.5
;LAYER_COUNT:12
;LAYER:0
M107
G0 F1980 X49.789 Y50.204 Z0.3
;TYPE:SKIRT
G1 F1500 E0
G1 F900 X50.18 Y49.883 E0.02524
G1 X50.617 Y49.628 E0.05048
G1 X51.088 Y49.444 E0.07571
G1 X51.582 Y49.338 E0.10092
G1 X52.24 Y49.301 E0.1338
G1 X182.339 Y49.3 E6.62446
G1 X183.037 Y49.31 E6.65929
G1 X183.54 Y49.357 E6.68449
G1 X184.03 Y49.483 E6.70973
G1 X184.494 Y49.685 E6.73498
G1 X184.92 Y49.957 E6.7602
G1 X185.298 Y50.292 E6.7854
G1 X185.618 Y50.683 E6.8106
G1 X185.873 Y51.12 E6.83585
G1 X186.056 Y51.591 E6.86105
G1 X186.163 Y52.085 E6.88627
G1 X186.199 Y52.74 E6.919
G1 X186.2 Y181.804 E13.35803
G1 X186.191 Y182.531 E13.3943
G1 X186.145 Y183.034 E13.4195
G1 X186.02 Y183.524 E13.44473
G1 X185.819 Y183.988 E13.46996
G1 X185.548 Y184.415 E13.49519
G1 X185.213 Y184.794 E13.52043
G1 X184.823 Y185.115 E13.54563
G1 X184.387 Y185.371 E13.57085
G1 X183.916 Y185.554 E13.59606
G1 X183.422 Y185.662 E13.62129
G1 X182.76 Y185.699 E13.65437
G1 X177.662 Y185.7 E13.90871
G1 X176.945 Y185.69 E13.94448
G1 X176.147 Y185.657 E13.98433
G1 X173.355 Y185.578 E14.12368
G1 X170.638 Y185.578 E14.25923
G1 X167.874 Y185.656 E14.39718
G1 X167.355 Y185.682 E14.42311
G1 X166.762 Y185.699 E14.4527
G1 X52.666 Y185.7 E20.14498
G1 X51.968 Y185.691 E20.1798
G1 X51.464 Y185.644 E20.20506
G1 X50.974 Y185.519 E20.23028
G1 X50.51 Y185.318 E20.25551
G1 X50.084 Y185.047 E20.2807
G1 X49.705 Y184.712 E20.30594
G1 X49.384 Y184.321 E20.33118
G1 X49.129 Y183.885 E20.35638
G1 X48.945 Y183.414 E20.3816
G1 X48.838 Y182.92 E20.40682
G1 X48.801 Y182.244 E20.4406
G1 X48.8 Y53.131 E26.88207
G1 X48.809 Y52.466 E26.91525
G1 X48.856 Y51.962 E26.9405
G1 X48.982 Y51.473 E26.9657
G1 X49.183 Y51.009 E26.99093
G1 X49.454 Y50.582 E27.01616
G1 X49.789 Y50.204 E27.04136
G1 F1500 E20.54136
;MESH:all_in_one_ender_3_case_-_right_lid.stl
G0 F1980 X52.614 Y51.835
G0 X52.614 Y53.114
G0 X172.604 Y58.42
G1 F1500 E27.04136
G0 F1980 X172.62 Y58.322
;TYPE:WALL-INNER
G1 F900 X173.128 Y58.349 E27.06674
G1 X173.628 Y58.267 E27.09201
G1 X174.102 Y58.079 E27.11745
G1 X174.524 Y57.793 E27.14289
G1 X174.872 Y57.423 E27.16823
G1 X175.135 Y56.988 E27.19359
G1 X175.298 Y56.505 E27.21902
G1 X175.352 Y56 E27.24436
G1 X175.298 Y55.495 E27.2697
G1 X175.135 Y55.012 E27.29513
G1 X174.873 Y54.577 E27.32046
G1 X174.522 Y54.206 E27.34594
G1 X174.102 Y53.921 E27.37127
G1 X173.628 Y53.733 E27.39671
G1 X173.128 Y53.651 E27.42199
G1 X172.62 Y53.678 E27.44737
G1 X172.129 Y53.814 E27.47278
G1 X171.681 Y54.053 E27.49812
G1 X171.291 Y54.381 E27.52354
G1 X170.983 Y54.788 E27.549
G1 X170.771 Y55.249 E27.57432
G1 X170.661 Y55.745 E27.59967
G1 X170.661 Y56.255 E27.62511
G1 X170.771 Y56.751 E27.65046
G1 X170.983 Y57.212 E27.67577
G1 X171.291 Y57.618 E27.7012
G1 X171.68 Y57.947 E27.72661
G1 X172.129 Y58.186 E27.75199
G1 X172.62 Y58.322 E27.77741
G0 F1980 X172.604 Y58.42
G0 X166.33 Y151.83
G0 X166.4 Y151.9
G1 F900 X166.4 Y181.9 E29.27411
G1 X52.6 Y181.9 E34.95162
G1 X52.6 Y53.1 E41.37748
G1 X182.4 Y53.1 E47.85323
G1 X182.4 Y181.9 E54.27908
G1 X177.6 Y181.9 E54.51856
G1 X177.6 Y151.9 E56.01526
G1 X166.4 Y151.9 E56.57403
G0 F1980 X166.8 Y152.3
;TYPE:WALL-OUTER
G1 F900 X166.8 Y182.3 E58.07074
G1 X52.2 Y182.3 E63.78816
G1 X52.2 Y52.7 E70.25393
G1 X182.8 Y52.7 E76.76959
G1 X182.8 Y182.3 E83.23536
G1 X177.2 Y182.3 E83.51474
G1 X177.2 Y152.3 E85.01145
G1 X166.8 Y152.3 E85.53031
G0 F1980 X166.8 Y152.5
G0 X166.3 Y152.5
G0 X172.552 Y58.406
G0 X172.685 Y57.925
G1 F900 X173.106 Y57.947 E85.55134
G1 X173.521 Y57.879 E85.57232
G1 X173.914 Y57.723 E85.59341
G1 X174.263 Y57.487 E85.61443
G1 X174.552 Y57.18 E85.63547
G1 X174.77 Y56.819 E85.65651
G1 X174.905 Y56.419 E85.67757
G1 X174.95 Y56 E85.69859
G1 X174.905 Y55.581 E85.71962
G1 X174.77 Y55.181 E85.74068
G1 X174.553 Y54.82 E85.76169
G1 X174.262 Y54.513 E85.7828
G1 X173.914 Y54.277 E85.80378
G1 X173.521 Y54.121 E85.82487
G1 X173.106 Y54.053 E85.84585
G1 X172.685 Y54.075 E85.86688
G1 X172.278 Y54.188 E85.88796
G1 X171.906 Y54.386 E85.90898
G1 X171.583 Y54.658 E85.93005
G1 X171.328 Y54.995 E85.95113
G1 X171.152 Y55.377 E85.97212
G1 X171.061 Y55.789 E85.99317
G1 X171.061 Y56.211 E86.01422
G1 X171.152 Y56.623 E86.03527
G1 X171.328 Y57.005 E86.05625
G1 X171.583 Y57.341 E86.0773
G1 X171.906 Y57.614 E86.0984
G1 X172.278 Y57.812 E86.11942
G1 X172.685 Y57.925 E86.14049
G0 F1980 X172.885 Y57.935
G0 X172.557 Y58.71
;TYPE:SKIN
G1 F900 X173.149 Y58.741 E86.17303
G1 X173.733 Y58.645 E86.20551
G1 X174.285 Y58.426 E86.2381
G1 X174.779 Y58.091 E86.27085
G1 X175.184 Y57.66 E86.30331
G1 X175.49 Y57.154 E86.33576
G1 X175.682 Y56.589 E86.36851
G1 X175.744 Y56 E86.40101
G1 X175.682 Y55.411 E86.43352
G1 X175.491 Y54.847 E86.46619
G1 X175.185 Y54.339 E86.49874
G1 X174.776 Y53.907 E86.53139
G1 X174.286 Y53.574 E86.5639
G1 X174.074 Y53.49 E86.57641
G1 X182.01 Y53.49 E87.01194
G1 X182.01 Y181.51 E94.03757
G1 X177.99 Y181.51 E94.25819
G1 X177.99 Y151.51 E95.90457
G1 X166.01 Y151.51 E96.56202
G1 X166.01 Y181.51 E98.2084
G1 X52.99 Y181.51 E104.41084
G1 X52.99 Y53.49 E111.43648
G1 X171.906 Y53.49 E117.9625
G1 X171.461 Y53.728 E117.9902
G1 X171.006 Y54.11 E118.0228
G1 X170.646 Y54.587 E118.05559
G1 X170.399 Y55.124 E118.08803
G1 X170.271 Y55.702 E118.12052
G1 X170.271 Y56.298 E118.15323
G1 X170.399 Y56.876 E118.18572
G1 X170.646 Y57.413 E118.21816
G1 X171.006 Y57.887 E118.25082
G1 X171.46 Y58.272 E118.28349
G1 X171.983 Y58.551 E118.31602
G1 X172.557 Y58.71 E118.34871
G0 F1980 X173.963 Y58.174
G0 X181.828 Y53.984
G1 F900 X181.515 Y53.67 E118.37304
G0 F1980 X180.949 Y53.67
G1 F900 X181.828 Y54.549 E118.44126
G0 F1980 X181.828 Y55.115
G1 F900 X180.383 Y53.67 E118.55341
G0 F1980 X179.817 Y53.67
G1 F900 X181.828 Y55.681 E118.70948
G0 F1980 X181.828 Y56.246
G1 F900 X179.252 Y53.67 E118.90941
G0 F1980 X178.686 Y53.67
G1 F900 X181.828 Y56.812 E119.15326
G0 F1980 X181.828 Y57.378
G1 F900 X178.12 Y53.67 E119.44104
G0 F1980 X177.555 Y53.67
G1 F900 X181.828 Y57.943 E119.77267
G0 F1980 X181.828 Y58.509
G1 F900 X176.989 Y53.67 E120.14823
G0 F1980 X176.423 Y53.67
G1 F900 X181.828 Y59.075 E120.56772
G0 F1980 X181.828 Y59.64
G1 F900 X175.858 Y53.67 E121.03106
G0 F1980 X175.292 Y53.67
G1 F900 X181.828 Y60.206 E121.53832
G0 F1980 X181.828 Y60.772
G1 F900 X175.391 Y54.334 E122.03794
G1 X175.321 Y54.264
G0 F1980 X175.856 Y55.365
G1 F900 X181.828 Y61.337 E122.50143
G0 F1980 X181.828 Y61.903
G1 F900 X175.923 Y55.998 E122.95973
G0 F1980 X175.87 Y56.511
G1 F900 X181.828 Y62.469 E123.42213
G0 F1980 X181.828 Y63.035
G1 F900 X175.747 Y56.953 E123.89412
G0 F1980 X175.579 Y57.351
G1 F900 X181.828 Y63.6 E124.37912
G0 F1980 X181.828 Y64.166
G1 F900 X175.366 Y57.704 E124.88064
G0 F1980 X175.103 Y58.006
G1 F900 X181.828 Y64.732 E125.40261
G0 F1980 X181.828 Y65.297
G1 F900 X174.815 Y58.283 E125.94693
G0 F1980 X174.477 Y58.512
G1 F900 X181.828 Y65.863 E126.51745
G0 F1980 X181.828 Y66.429
G1 F900 X174.095 Y58.695 E127.11766
G0 F1980 X173.671 Y58.837
G1 F900 X181.828 Y66.994 E127.75073
G0 F1980 X181.828 Y67.56
G1 F900 X173.186 Y58.917 E128.42148
G0 F1980 X172.596 Y58.893
G1 F900 X181.828 Y68.126 E129.13802
G0 F1980 X181.828 Y68.691
G1 F900 X171.788 Y58.651 E129.91724
G1 X171.718 Y58.581
G0 F1980 X170.358 Y57.221
G1 F900 X166.807 Y53.67 E130.19283
G0 F1980 X167.372 Y53.67
G1 F900 X170.11 Y56.408 E130.40533
G0 F1980 X170.09 Y55.821
G1 F900 X167.938 Y53.67 E130.57231
G0 F1980 X168.504 Y53.67
G1 F900 X170.168 Y55.333 E130.70142
G0 F1980 X170.302 Y54.902
G1 F900 X169.069 Y53.67 E130.79707
G0 F1980 X169.635 Y53.67
G1 F900 X170.48 Y54.515 E130.86266
G0 F1980 X170.72 Y54.189
G1 F900 X170.201 Y53.67 E130.90294
G0 F1980 X170.766 Y53.67
G1 F900 X170.986 Y53.889 E130.91997
G0 F1980 X166.241 Y53.67
G1 F900 X181.828 Y69.257 E132.12969
G0 F1980 X181.828 Y69.823
G1 F900 X165.675 Y53.67 E133.38334
G0 F1980 X165.11 Y53.67
G1 F900 X181.828 Y70.388 E134.68084
G0 F1980 X181.828 Y70.954
G1 F900 X164.544 Y53.67 E136.02227
G0 F1980 X163.978 Y53.67
G1 F900 X181.828 Y71.52 E137.40763
G0 F1980 X181.828 Y72.086
G1 F900 X163.413 Y53.67 E138.83687
G0 F1980 X162.847 Y53.67
G1 F900 X181.828 Y72.651 E140.31
G0 F1980 X181.828 Y73.217
G1 F900 X162.281 Y53.67 E141.82706
G0 F1980 X161.716 Y53.67
G1 F900 X181.828 Y73.783 E143.38801
G0 F1980 X181.828 Y74.348
G1 F900 X161.15 Y53.67 E144.99285
G0 F1980 X160.584 Y53.67
G1 F900 X181.828 Y74.914 E146.64162
G0 F1980 X181.828 Y75.48
G1 F900 X160.018 Y53.67 E148.33431
G0 F1980 X159.453 Y53.67
G1 F900 X181.828 Y76.045 E150.07086
G0 F1980 X181.828 Y76.611
G1 F900 X158.887 Y53.67 E151.85133
G0 F1980 X158.321 Y53.67
G1 F900 X181.828 Y77.177 E153.67573
G0 F1980 X181.828 Y77.742
G1 F900 X157.756 Y53.67 E155.54398
G0 F1980 X157.19 Y53.67
G1 F900 X181.828 Y78.308 E157.45616
G0 F1980 X181.828 Y78.874
G1 F900 X156.624 Y53.67 E159.41227
G0 F1980 X156.059 Y53.67
G1 F900 X181.828 Y79.439 E161.41222
G0 F1980 X181.828 Y80.005
G1 F900 X155.493 Y53.67 E163.45611
G0 F1980 X154.927 Y53.67
G1 F900 X181.828 Y80.571 E165.54392
G0 F1980 X181.828 Y81.136
G1 F900 X154.362 Y53.67 E167.67558
G0 F1980 X153.796 Y53.67
G1 F900 X181.828 Y81.702 E169.85117
G0 F1980 X181.828 Y82.268
G1 F900 X153.23 Y53.67 E172.07069
G0 F1980 X152.665 Y53.67
G1 F900 X181.828 Y82.834 E174.3341
G0 F1980 X181.828 Y83.399
G1 F900 X152.099 Y53.67 E176.64139
G0 F1980 X151.533 Y53.67
G1 F900 X181.828 Y83.965 E178.99262
G0 F1980 X181.828 Y84.531
G1 F900 X150.968 Y53.67 E181.38773
G0 F1980 X150.402 Y53.67
G1 F900 X181.828 Y85.096 E183.82673
G0 F1980 X181.828 Y85.662
G1 F900 X149.836 Y53.67 E186.30966
G0 F1980 X149.27 Y53.67
G1 F900 X181.828 Y86.228 E188.83652
G0 F1980 X181.828 Y86.793
G1 F900 X148.705 Y53.67 E191.40722
G0 F1980 X148.139 Y53.67
G1 F900 X181.828 Y87.359 E194.02186
G0 F1980 X181.828 Y87.925
G1 F900 X147.573 Y53.67 E196.68042
G0 F1980 X147.008 Y53.67
G1 F900 X181.828 Y88.49 E199.38283
G0 F1980 X181.828 Y89.056
G1 F900 X146.442 Y53.67 E202.12917
G0 F1980 X145.876 Y53.67
G1 F900 X181.828 Y89.622 E204.91944
G0 F1980 X181.828 Y90.187
G1 F900 X145.311 Y53.67 E207.75356
G0 F1980 X144.745 Y53.67
G1 F900 X181.828 Y90.753 E210.63161
G0 F1980 X181.828 Y91.319
G1 F900 X144.179 Y53.67 E213.55358
G0 F1980 X143.614 Y53.67
G1 F900 X181.828 Y91.884 E216.51941
G0 F1980 X181.828 Y92.45
G1 F900 X143.048 Y53.67 E219.52916
G0 F1980 X142.482 Y53.67
G1 F900 X181.828 Y93.016 E222.58284
G0 F1980 X181.828 Y93.582
G1 F900 X141.917 Y53.67 E225.68041
G0 F1980 X141.351 Y53.67
G1 F900 X181.828 Y94.147 E228.82187
G0 F1980 X181.828 Y94.713
G1 F900 X140.785 Y53.67 E232.00725
G0 F1980 X140.219 Y53.67
G1 F900 X181.828 Y95.279 E235.23657
G0 F1980 X181.828 Y95.844
G1 F900 X139.654 Y53.67 E238.50973
G0 F1980 X139.088 Y53.67
G1 F900 X181.828 Y96.41 E241.82682
G0 F1980 X181.828 Y96.976
G1 F900 X138.522 Y53.67 E245.18784
G0 F1980 X137.957 Y53.67
G1 F900 X181.828 Y97.541 E248.59271
G0 F1980 X181.828 Y98.107
G1 F900 X137.391 Y53.67 E252.04151
G0 F1980 X136.825 Y53.67
G1 F900 X181.828 Y98.673 E255.53423
G0 F1980 X181.828 Y99.238
G1 F900 X136.26 Y53.67 E259.07081
G0 F1980 X135.694 Y53.67
G1 F900 X181.828 Y99.804 E262.65131
G0 F1980 X181.828 Y100.37
G1 F900 X135.128 Y53.67 E266.27574
G0 F1980 X134.563 Y53.67
G1 F900 X181.828 Y100.935 E269.94402
G0 F1980 X181.828 Y101.501
G1 F900 X133.997 Y53.67 E273.65623
G0 F1980 X133.431 Y53.67
G1 F900 X181.828 Y102.067 E277.41237
G0 F1980 X181.828 Y102.633
G1 F900 X132.866 Y53.67 E281.21239
G0 F1980 X132.3 Y53.67
G1 F900 X181.828 Y103.198 E285.05631
G0 F1980 X181.828 Y103.764
G1 F900 X131.734 Y53.67 E288.94415
G0 F1980 X131.169 Y53.67
G1 F900 X181.828 Y104.33 E292.87588
G0 F1980 X181.828 Y104.895
G1 F900 X130.603 Y53.67 E296.8515
G0 F1980 X130.037 Y53.67
G1 F900 X181.828 Y105.461 E300.87105
G0 F1980 X181.828 Y106.027
G1 F900 X129.471 Y53.67 E304.93453
G0 F1980 X128.906 Y53.67
G1 F900 X181.828 Y106.592 E309.04185
G0 F1980 X181.828 Y107.158
G1 F900 X128.34 Y53.67 E313.19311
G0 F1980 X127.774 Y53.67
G1 F900 X181.828 Y107.724 E317.38829
G0 F1980 X181.828 Y108.289
G1 F900 X127.209 Y53.67 E321.62732
G0 F1980 X126.643 Y53.67
G1 F900 X181.828 Y108.855 E325.91028
G0 F1980 X181.828 Y109.421
G1 F900 X126.077 Y53.67 E330.23717
G0 F1980 X125.512 Y53.67
G1 F900 X181.828 Y109.986 E334.60791
G0 F1980 X181.828 Y110.552
G1 F900 X124.946 Y53.67 E339.02257
G0 F1980 X124.38 Y53.67
G1 F900 X181.828 Y111.118 E343.48117
G0 F1980 X181.828 Y111.683
G1 F900 X123.815 Y53.67 E347.98361
G0 F1980 X123.249 Y53.67
G1 F900 X181.828 Y112.249 E352.52998
G0 F1980 X181.828 Y112.815
G1 F900 X122.683 Y53.67 E357.12028
G0 F1980 X122.118 Y53.67
G1 F900 X181.828 Y113.381 E361.75447
G0 F1980 X181.828 Y113.946
G1 F900 X121.552 Y53.67 E366.43255
G0 F1980 X120.986 Y53.67
G1 F900 X181.828 Y114.512 E371.15455
G0 F1980 X181.828 Y115.078
G1 F900 X120.42 Y53.67 E375.92048
G0 F1980 X119.855 Y53.67
G1 F900 X181.828 Y115.643 E380.73027
G0 F1980 X181.828 Y116.209
G1 F900 X119.289 Y53.67 E385.58398
G0 F1980 X118.723 Y53.67
G1 F900 X181.828 Y116.775 E390.48162
G0 F1980 X181.828 Y117.34
G1 F900 X118.158 Y53.67 E395.4231
G0 F1980 X117.592 Y53.67
G1 F900 X181.828 Y117.906 E400.40852
G0 F1980 X181.828 Y118.472
G1 F900 X117.026 Y53.67 E405.43786
G0 F1980 X116.461 Y53.67
G1 F900 X181.828 Y119.037 E410.51106
G0 F1980 X181.828 Y119.603
G1 F900 X115.895 Y53.67 E415.62818
G0 F1980 X115.329 Y53.67
G1 F900 X181.828 Y120.169 E420.78923
G0 F1980 X181.828 Y120.734
G1 F900 X114.764 Y53.67 E425.99413
G0 F1980 X114.198 Y53.67
G1 F900 X181.828 Y121.3 E431.24296
G0 F1980 X181.828 Y121.866
G1 F900 X113.632 Y53.67 E436.53571
G0 F1980 X113.067 Y53.67
G1 F900 X181.828 Y122.432 E441.87236
G0 F1980 X181.828 Y122.997
G1 F900 X112.501 Y53.67 E447.25289
G0 F1980 X111.935 Y53.67
G1 F900 X181.828 Y123.563 E452.67735
G0 F1980 X181.828 Y124.129
G1 F900 X111.37 Y53.67 E458.14571
G0 F1980 X110.804 Y53.67
G1 F900 X181.828 Y124.694 E463.65794
G0 F1980 X181.828 Y125.26
G1 F900 X110.238 Y53.67 E469.21411
G0 F1980 X109.672 Y53.67
G1 F900 X181.828 Y125.826 E474.81421
G0 F1980 X181.828 Y126.391
G1 F900 X109.107 Y53.67 E480.45815
G0 F1980 X108.541 Y53.67
G1 F900 X181.828 Y126.957 E486.14603
G0 F1980 X181.828 Y127.523
G1 F900 X107.975 Y53.67 E491.87783
G0 F1980 X107.41 Y53.67
G1 F900 X181.828 Y128.088 E497.65348
G0 F1980 X181.828 Y128.654
G1 F900 X106.844 Y53.67 E503.47306
G0 F1980 X106.278 Y53.67
G1 F900 X181.828 Y129.22 E509.33656
G0 F1980 X181.828 Y129.785
G1 F900 X105.713 Y53.67 E515.24392
G0 F1980 X105.147 Y53.67
G1 F900 X181.828 Y130.351 E521.1952
G0 F1980 X181.828 Y130.917
G1 F900 X104.581 Y53.67 E527.19042
G0 F1980 X104.016 Y53.67
G1 F900 X181.828 Y131.482 E533.22948
G0 F1980 X181.828 Y132.048
G1 F900 X103.45 Y53.67 E539.31247
G0 F1980 X102.884 Y53.67
G1 F900 X181.828 Y132.614 E545.43939
G0 F1980 X181.828 Y133.18
G1 F900 X102.319 Y53.67 E551.61019
G0 F1980 X101.753 Y53.67
G1 F900 X181.828 Y133.745 E557.82489
G0 F1980 X181.828 Y134.311
G1 F900 X101.187 Y53.67 E564.08351
G0 F1980 X100.622 Y53.67
G1 F900 X181.828 Y134.877 E570.38603
G0 F1980 X181.828 Y135.442
G1 F900 X100.056 Y53.67 E576.73243
G0 F1980 X99.49 Y53.67
