;FLAVOR:Marlin
;TIME:9115
;Filament used: 8.39342m
;Layer height: 0.25
;MINX:48.8
;MINY:49.3
;MINZ:0.3
;MAXX:186.2
;MAXY:185.7
;MAXZ:3.05
;Generated with Cura_SteamEngine 4.12.1
M140 S60
M105
M190 S60
M104 S200
M105
M109 S200
M82 ;absolute extrusion mode
M201 X500.00 Y500.00 Z100.00 E5000.00 	;Setup machine max acceleration
M203 X500.00 Y500.00 Z10.00 E50.00 	;Setup machine max feedrate
M204 P500.00 R1000.00 T500.00 		;Setup Print/Retract/Travel acceleration
M205 X8.00 Y8.00 Z0.40 E5.00 		;Setup Jerk
M220 S100 				;Reset Feedrate
M221 S100 				;Reset Flowrate
G28					;Home the Machine
G92 E0
M300 P150 S587
G92 E0
G1 F1500 E-6.5
;LAYER_COUNT:12
;LAYER:0
M107
G0 F1980 X49.789 Y50.204 Z0.3
;TYPE:SKIRT
G1 F1500 E0
G1 F900 X50.18 Y49.883 E0.02524
G1 X50.617 Y49.628 E0.05048
G1 X51.088 Y49.444 E0.07571
G1 X51.582 Y49.338 E0.10092
G1 X52.24 Y49.301 E0.1338
G1 X182.339 Y49.3 E6.62446
G1 X183.037 Y49.31 E6.65929
G1 X183.54 Y49.357 E6.68449
G1 X184.03 Y49.483 E6.70973
G1 X184.494 Y49.685 E6.73498
G1 X184.92 Y49.957 E6.7602
G1 X185.298 Y50.292 E6.7854
G1 X185.618 Y50.683 E6.8106
G1 X185.873 Y51.12 E6.83585
G1 X186.056 Y51.591 E6.86105
G1 X186.163 Y52.085 E6.88627
G1 X186.199 Y52.74 E6.919
G1 X186.2 Y181.804 E13.35803
G1 X186.191 Y182.531 E13.3943
G1 X186.145 Y183.034 E13.4195
G1 X186.02 Y183.524 E13.44473
G1 X185.819 Y183.988 E13.46996
G1 X185.548 Y184.415 E13.49519
G1 X185.213 Y184.794 E13.52043
G1 X184.823 Y185.115 E13.54563
G1 X184.387 Y185.371 E13.57085
G1 X183.916 Y185.554 E13.59606
G1 X183.422 Y185.662 E13.62129
G1 X182.76 Y185.699 E13.65437
G1 X63.671 Y185.7 E19.59574
G1 X61.77 Y185.673 E19.69059
G1 X59.005 Y185.673 E19.82854
G1 X57.687 Y185.7 E19.89431
G1 X52.666 Y185.7 E20.14481
G1 X51.968 Y185.691 E20.17963
G1 X51.464 Y185.644 E20.20489
G1 X50.974 Y185.519 E20.23011
G1 X50.51 Y185.318 E20.25534
G1 X50.084 Y185.047 E20.28053
G1 X49.705 Y184.712 E20.30577
G1 X49.384 Y184.321 E20.33101
G1 X49.129 Y183.885 E20.35621
G1 X48.945 Y183.414 E20.38143
G1 X48.838 Y182.92 E20.40665
G1 X48.801 Y182.244 E20.44043
G1 X48.8 Y53.131 E26.8819
G1 X48.809 Y52.466 E26.91508
G1 X48.856 Y51.962 E26.94033
G1 X48.982 Y51.473 E26.96553
G1 X49.183 Y51.009 E26.99076
G1 X49.454 Y50.582 E27.01599
G1 X49.789 Y50.204 E27.04119
G1 F1500 E20.54119
;MESH:all_in_one_ender_3_case_-_left_lid.stl
G0 F1980 X52.614 Y51.835
G0 X52.614 Y53.114
G0 X61.115 Y58.223
G1 F1500 E27.04119
G0 F1980 X61.62 Y58.322
;TYPE:WALL-INNER
G1 F900 X62.128 Y58.349 E27.06657
G1 X62.628 Y58.267 E27.09184
G1 X63.102 Y58.079 E27.11728
G1 X63.524 Y57.793 E27.14272
G1 X63.872 Y57.423 E27.16806
G1 X64.135 Y56.988 E27.19342
G1 X64.298 Y56.505 E27.21885
G1 X64.352 Y56 E27.24419
G1 X64.298 Y55.495 E27.26953
G1 X64.135 Y55.012 E27.29496
G1 X63.873 Y54.577 E27.32029
G1 X63.522 Y54.206 E27.34577
G1 X63.102 Y53.921 E27.3711
G1 X62.628 Y53.733 E27.39654
G1 X62.128 Y53.651 E27.42182
G1 X61.62 Y53.678 E27.4472
G1 X61.129 Y53.814 E27.47261
G1 X60.681 Y54.053 E27.49795
G1 X60.291 Y54.381 E27.52337
G1 X59.983 Y54.788 E27.54883
G1 X59.771 Y55.249 E27.57415
G1 X59.661 Y55.745 E27.5995
G1 X59.661 Y56.255 E27.62494
G1 X59.771 Y56.751 E27.65029
G1 X59.983 Y57.212 E27.6756
G1 X60.291 Y57.618 E27.70103
G1 X60.68 Y57.947 E27.72644
G1 X61.129 Y58.186 E27.75182
G1 X61.62 Y58.322 E27.77724
G0 F1980 X61.604 Y58.42
G0 X57.33 Y166.83
G0 X57.4 Y166.9
G1 F900 X57.4 Y181.9 E28.52559
G1 X52.6 Y181.9 E28.76506
G1 X52.6 Y53.1 E35.19092
G1 X182.4 Y53.1 E41.66667
G1 X182.4 Y181.9 E48.09253
G1 X63.6 Y181.9 E54.01949
G1 X63.6 Y166.9 E54.76784
G1 X57.4 Y166.9 E55.07716
G0 F1980 X57.8 Y167.3
;TYPE:WALL-OUTER
G1 F900 X57.8 Y182.3 E55.82551
G1 X52.2 Y182.3 E56.1049
G1 X52.2 Y52.7 E62.57067
G1 X182.8 Y52.7 E69.08633
G1 X182.8 Y182.3 E75.5521
G1 X63.2 Y182.3 E81.51896
G1 X63.2 Y167.3 E82.26732
G1 X57.8 Y167.3 E82.53672
G0 F1980 X57.8 Y167.5
G0 X57.3 Y167.5
G0 X61.552 Y58.406
G0 X61.685 Y57.925
G1 F900 X62.106 Y57.947 E82.55776
G1 X62.521 Y57.879 E82.57874
G1 X62.914 Y57.723 E82.59983
G1 X63.263 Y57.487 E82.62085
G1 X63.552 Y57.18 E82.64189
G1 X63.77 Y56.819 E82.66293
G1 X63.905 Y56.419 E82.68399
G1 X63.95 Y56 E82.70501
G1 X63.905 Y55.581 E82.72604
G1 X63.77 Y55.181 E82.7471
G1 X63.553 Y54.82 E82.76811
G1 X63.262 Y54.513 E82.78922
G1 X62.914 Y54.277 E82.81019
G1 X62.521 Y54.121 E82.83129
G1 X62.106 Y54.053 E82.85227
G1 X61.685 Y54.075 E82.8733
G1 X61.278 Y54.188 E82.89438
G1 X60.906 Y54.386 E82.9154
G1 X60.583 Y54.658 E82.93647
G1 X60.328 Y54.995 E82.95755
G1 X60.152 Y55.377 E82.97853
G1 X60.061 Y55.789 E82.99958
G1 X60.061 Y56.211 E83.02064
G1 X60.152 Y56.623 E83.04169
G1 X60.328 Y57.005 E83.06267
G1 X60.583 Y57.341 E83.08372
G1 X60.906 Y57.614 E83.10482
G1 X61.278 Y57.812 E83.12584
G1 X61.685 Y57.925 E83.14691
G0 F1980 X61.885 Y57.935
G0 X61.557 Y58.71
;TYPE:SKIN
G1 F900 X62.149 Y58.741 E83.17945
G1 X62.733 Y58.645 E83.21193
G1 X63.285 Y58.426 E83.24452
G1 X63.779 Y58.091 E83.27727
G1 X64.184 Y57.66 E83.30973
G1 X64.49 Y57.154 E83.34218
G1 X64.682 Y56.589 E83.37493
G1 X64.744 Y56 E83.40743
G1 X64.682 Y55.411 E83.43993
G1 X64.491 Y54.847 E83.47261
G1 X64.185 Y54.339 E83.50516
G1 X63.776 Y53.907 E83.53781
G1 X63.286 Y53.574 E83.57032
G1 X63.074 Y53.49 E83.58283
G1 X182.01 Y53.49 E90.10995
G1 X182.01 Y181.51 E97.13559
G1 X63.99 Y181.51 E103.61243
G1 X63.99 Y166.51 E104.43562
G1 X57.01 Y166.51 E104.81868
G1 X57.01 Y181.51 E105.64187
G1 X52.99 Y181.51 E105.86248
G1 X52.99 Y53.49 E112.88812
G1 X60.906 Y53.49 E113.32254
G1 X60.461 Y53.728 E113.35024
G1 X60.006 Y54.11 E113.38284
G1 X59.646 Y54.587 E113.41564
G1 X59.399 Y55.124 E113.44807
G1 X59.271 Y55.702 E113.48056
G1 X59.271 Y56.298 E113.51327
G1 X59.399 Y56.876 E113.54576
G1 X59.646 Y57.413 E113.5782
G1 X60.006 Y57.887 E113.61086
G1 X60.46 Y58.272 E113.64353
G1 X60.983 Y58.551 E113.67606
G1 X61.557 Y58.71 E113.70875
G0 F1980 X181.828 Y53.984
G1 F900 X181.515 Y53.67 E113.73308
G0 F1980 X180.949 Y53.67
G1 F900 X181.828 Y54.549 E113.8013
G0 F1980 X181.828 Y55.115
G1 F900 X180.383 Y53.67 E113.91345
G0 F1980 X179.817 Y53.67
G1 F900 X181.828 Y55.681 E114.06952
G0 F1980 X181.828 Y56.246
G1 F900 X179.252 Y53.67 E114.26945
G0 F1980 X178.686 Y53.67
G1 F900 X181.828 Y56.812 E114.5133
G0 F1980 X181.828 Y57.378
G1 F900 X178.12 Y53.67 E114.80108
G0 F1980 X177.555 Y53.67
G1 F900 X181.828 Y57.943 E115.13271
G0 F1980 X181.828 Y58.509
G1 F900 X176.989 Y53.67 E115.50827
G0 F1980 X176.423 Y53.67
G1 F900 X181.828 Y59.075 E115.92776
G0 F1980 X181.828 Y59.64
G1 F900 X175.858 Y53.67 E116.3911
G0 F1980 X175.292 Y53.67
G1 F900 X181.828 Y60.206 E116.89836
G0 F1980 X181.828 Y60.772
G1 F900 X174.726 Y53.67 E117.44956
G0 F1980 X174.161 Y53.67
G1 F900 X181.828 Y61.337 E118.0446
G0 F1980 X181.828 Y61.903
G1 F900 X173.595 Y53.67 E118.68357
G0 F1980 X173.029 Y53.67
G1 F900 X181.828 Y62.469 E119.36647
G0 F1980 X181.828 Y63.035
G1 F900 X172.464 Y53.67 E120.09326
G0 F1980 X171.898 Y53.67
G1 F900 X181.828 Y63.6 E120.86393
G0 F1980 X181.828 Y64.166
G1 F900 X171.332 Y53.67 E121.67854
G0 F1980 X170.766 Y53.67
G1 F900 X181.828 Y64.732 E122.53707
G0 F1980 X181.828 Y65.297
G1 F900 X170.201 Y53.67 E123.43945
G0 F1980 X169.635 Y53.67
G1 F900 X181.828 Y65.863 E124.38576
G0 F1980 X181.828 Y66.429
G1 F900 X169.069 Y53.67 E125.376
G0 F1980 X168.504 Y53.67
G1 F900 X181.828 Y66.994 E126.41009
G0 F1980 X181.828 Y67.56
G1 F900 X167.938 Y53.67 E127.4881
G0 F1980 X167.372 Y53.67
G1 F900 X181.828 Y68.126 E128.61005
G0 F1980 X181.828 Y68.691
G1 F900 X166.807 Y53.67 E129.77584
G0 F1980 X166.241 Y53.67
G1 F900 X181.828 Y69.257 E130.98556
G0 F1980 X181.828 Y69.823
G1 F900 X165.675 Y53.67 E132.23921
G0 F1980 X165.11 Y53.67
G1 F900 X181.828 Y70.388 E133.53671
G0 F1980 X181.828 Y70.954
G1 F900 X164.544 Y53.67 E134.87814
G0 F1980 X163.978 Y53.67
G1 F900 X181.828 Y71.52 E136.2635
G0 F1980 X181.828 Y72.086
G1 F900 X163.413 Y53.67 E137.69274
G0 F1980 X162.847 Y53.67
G1 F900 X181.828 Y72.651 E139.16587
G0 F1980 X181.828 Y73.217
G1 F900 X162.281 Y53.67 E140.68294
G0 F1980 X161.716 Y53.67
G1 F900 X181.828 Y73.783 E142.24389
G0 F1980 X181.828 Y74.348
G1 F900 X161.15 Y53.67 E143.84872
G0 F1980 X160.584 Y53.67
G1 F900 X181.828 Y74.914 E145.49749
G0 F1980 X181.828 Y75.48
G1 F900 X160.018 Y53.67 E147.19019
G0 F1980 X159.453 Y53.67
G1 F900 X181.828 Y76.045 E148.92673
G0 F1980 X181.828 Y76.611
G1 F900 X158.887 Y53.67 E150.7072
G0 F1980 X158.321 Y53.67
G1 F900 X181.828 Y77.177 E152.5316
G0 F1980 X181.828 Y77.742
G1 F900 X157.756 Y53.67 E154.39985
G0 F1980 X157.19 Y53.67
G1 F900 X181.828 Y78.308 E156.31203
G0 F1980 X181.828 Y78.874
G1 F900 X156.624 Y53.67 E158.26814
G0 F1980 X156.059 Y53.67
G1 F900 X181.828 Y79.439 E160.26809
G0 F1980 X181.828 Y80.005
G1 F900 X155.493 Y53.67 E162.31198
G0 F1980 X154.927 Y53.67
G1 F900 X181.828 Y80.571 E164.39979
G0 F1980 X181.828 Y81.136
G1 F900 X154.362 Y53.67 E166.53145
G0 F1980 X153.796 Y53.67
G1 F900 X181.828 Y81.702 E168.70704
G0 F1980 X181.828 Y82.268
G1 F900 X153.23 Y53.67 E170.92656
G0 F1980 X152.665 Y53.67
G1 F900 X181.828 Y82.834 E173.18997
G0 F1980 X181.828 Y83.399
G1 F900 X152.099 Y53.67 E175.49726
G0 F1980 X151.533 Y53.67
G1 F900 X181.828 Y83.965 E177.84849
G0 F1980 X181.828 Y84.531
G1 F900 X150.968 Y53.67 E180.2436
G0 F1980 X150.402 Y53.67
G1 F900 X181.828 Y85.096 E182.6826
G0 F1980 X181.828 Y85.662
G1 F900 X149.836 Y53.67 E185.16553
G0 F1980 X149.27 Y53.67
G1 F900 X181.828 Y86.228 E187.69239
G0 F1980 X181.828 Y86.793
G1 F900 X148.705 Y53.67 E190.26309
G0 F1980 X148.139 Y53.67
G1 F900 X181.828 Y87.359 E192.87773
G0 F1980 X181.828 Y87.925
G1 F900 X147.573 Y53.67 E195.53629
G0 F1980 X147.008 Y53.67
G1 F900 X181.828 Y88.49 E198.2387
G0 F1980 X181.828 Y89.056
G1 F900 X146.442 Y53.67 E200.98505
G0 F1980 X145.876 Y53.67
G1 F900 X181.828 Y89.622 E203.77531
G0 F1980 X181.828 Y90.187
G1 F900 X145.311 Y53.67 E206.60943
G0 F1980 X144.745 Y53.67
G1 F900 X181.828 Y90.753 E209.48748
G0 F1980 X181.828 Y91.319
G1 F900 X144.179 Y53.67 E212.40945
G0 F1980 X143.614 Y53.67
G1 F900 X181.828 Y91.884 E215.37528
G0 F1980 X181.828 Y92.45
G1 F900 X143.048 Y53.67 E218.38503
G0 F1980 X142.482 Y53.67
G1 F900 X181.828 Y93.016 E221.43871
G0 F1980 X181.828 Y93.582
G1 F900 X141.917 Y53.67 E224.53628
G0 F1980 X141.351 Y53.67
G1 F900 X181.828 Y94.147 E227.67774
G0 F1980 X181.828 Y94.713
G1 F900 X140.785 Y53.67 E230.86312
G0 F1980 X140.219 Y53.67
G1 F900 X181.828 Y95.279 E234.09244
G0 F1980 X181.828 Y95.844
G1 F900 X139.654 Y53.67 E237.3656
G0 F1980 X139.088 Y53.67
G1 F900 X181.828 Y96.41 E240.68269
G0 F1980 X181.828 Y96.976
G1 F900 X138.522 Y53.67 E244.04371
G0 F1980 X137.957 Y53.67
G1 F900 X181.828 Y97.541 E247.44858
G0 F1980 X181.828 Y98.107
G1 F900 X137.391 Y53.67 E250.89738
G0 F1980 X136.825 Y53.67
G1 F900 X181.828 Y98.673 E254.3901
G0 F1980 X181.828 Y99.238
G1 F900 X136.26 Y53.67 E257.92668
G0 F1980 X135.694 Y53.67
G1 F900 X181.828 Y99.804 E261.50718
G0 F1980 X181.828 Y100.37
G1 F900 X135.128 Y53.67 E265.13161
G0 F1980 X134.563 Y53.67
G1 F900 X181.828 Y100.935 E268.79989
G0 F1980 X181.828 Y101.501
G1 F900 X133.997 Y53.67 E272.5121
G0 F1980 X133.431 Y53.67
G1 F900 X181.828 Y102.067 E276.26824
G0 F1980 X181.828 Y102.633
G1 F900 X132.866 Y53.67 E280.06827
G0 F1980 X132.3 Y53.67
G1 F900 X181.828 Y103.198 E283.91218
G0 F1980 X181.828 Y103.764
G1 F900 X131.734 Y53.67 E287.80002
G0 F1980 X131.169 Y53.67
G1 F900 X181.828 Y104.33 E291.73175
G0 F1980 X181.828 Y104.895
G1 F900 X130.603 Y53.67 E295.70738
G0 F1980 X130.037 Y53.67
G1 F900 X181.828 Y105.461 E299.72692
G0 F1980 X181.828 Y106.027
G1 F900 X129.471 Y53.67 E303.7904
G0 F1980 X128.906 Y53.67
G1 F900 X181.828 Y106.592 E307.89773
G0 F1980 X181.828 Y107.158
G1 F900 X128.34 Y53.67 E312.04898
G0 F1980 X127.774 Y53.67
G1 F900 X181.828 Y107.724 E316.24416
G0 F1980 X181.828 Y108.289
G1 F900 X127.209 Y53.67 E320.48319
G0 F1980 X126.643 Y53.67
G1 F900 X181.828 Y108.855 E324.76615
G0 F1980 X181.828 Y109.421
G1 F900 X126.077 Y53.67 E329.09304
G0 F1980 X125.512 Y53.67
G1 F900 X181.828 Y109.986 E333.46378
G0 F1980 X181.828 Y110.552
G1 F900 X124.946 Y53.67 E337.87844
G0 F1980 X124.38 Y53.67
G1 F900 X181.828 Y111.118 E342.33704
G0 F1980 X181.828 Y111.683
G1 F900 X123.815 Y53.67 E346.83948
G0 F1980 X123.249 Y53.67
G1 F900 X181.828 Y112.249 E351.38585
G0 F1980 X181.828 Y112.815
G1 F900 X122.683 Y53.67 E355.97615
G0 F1980 X122.118 Y53.67
G1 F900 X181.828 Y113.381 E360.61034
G0 F1980 X181.828 Y113.946
G1 F900 X121.552 Y53.67 E365.28842
G0 F1980 X120.986 Y53.67
G1 F900 X181.828 Y114.512 E370.01042
G0 F1980 X181.828 Y115.078
G1 F900 X120.42 Y53.67 E374.77635
G0 F1980 X119.855 Y53.67
G1 F900 X181.828 Y115.643 E379.58614
G0 F1980 X181.828 Y116.209
G1 F900 X119.289 Y53.67 E384.43985
G0 F1980 X118.723 Y53.67
G1 F900 X181.828 Y116.775 E389.33749
G0 F1980 X181.828 Y117.34
G1 F900 X118.158 Y53.67 E394.27898
G0 F1980 X117.592 Y53.67
G1 F900 X181.828 Y117.906 E399.26439
G0 F1980 X181.828 Y118.472
G1 F900 X117.026 Y53.67 E404.29374
G0 F1980 X116.461 Y53.67
G1 F900 X181.828 Y119.037 E409.36693
G0 F1980 X181.828 Y119.603
G1 F900 X115.895 Y53.67 E414.48405
G0 F1980 X115.329 Y53.67
G1 F900 X181.828 Y120.169 E419.6451
G0 F1980 X181.828 Y120.734
G1 F900 X114.764 Y53.67 E424.85
G0 F1980 X114.198 Y53.67
G1 F900 X181.828 Y121.3 E430.09883
G0 F1980 X181.828 Y121.866
G1 F900 X113.632 Y53.67 E435.39159
G0 F1980 X113.067 Y53.67
G1 F900 X181.828 Y122.432 E440.72823
G0 F1980 X181.828 Y122.997
G1 F900 X112.501 Y53.67 E446.10876
G0 F1980 X111.935 Y53.67
G1 F900 X181.828 Y123.563 E451.53323
G0 F1980 X181.828 Y124.129
G1 F900 X111.37 Y53.67 E457.00158
G0 F1980 X110.804 Y53.67
G1 F900 X181.828 Y124.694 E462.51382
G0 F1980 X181.828 Y125.26
G1 F900 X110.238 Y53.67 E468.06998
G0 F1980 X109.672 Y53.67
G1 F900 X181.828 Y125.826 E473.67008
G0 F1980 X181.828 Y126.391
G1 F900 X109.107 Y53.67 E479.31402
G0 F1980 X108.541 Y53.67
G1 F900 X181.828 Y126.957 E485.0019
G0 F1980 X181.828 Y127.523
G1 F900 X107.975 Y53.67 E490.7337
G0 F1980 X107.41 Y53.67
G1 F900 X181.828 Y128.088 E496.50935
G0 F1980 X181.828 Y128.654
G1 F900 X106.844 Y53.67 E502.32893
G0 F1980 X106.278 Y53.67
G1 F900 X181.828 Y129.22 E508.19243
G0 F1980 X181.828 Y129.785
G1 F900 X105.713 Y53.67 E514.09979
G0 F1980 X105.147 Y53.67
G1 F900 X181.828 Y130.351 E520.05108
G0 F1980 X181.828 Y130.917
G1 F900 X104.581 Y53.67 E526.04629
G0 F1980 X104.016 Y53.67
G1 F900 X181.828 Y131.482 E532.08535
G0 F1980 X181.828 Y132.048
G1 F900 X103.45 Y53.67 E538.16834
G0 F1980 X102.884 Y53.67
G1 F900 X181.828 Y132.614 E544.29526
G0 F1980 X181.828 Y133.18
G1 F900 X102.319 Y53.67 E550.46607
G0 F1980 X101.753 Y53.67
G1 F900 X181.828 Y133.745 E556.68076
G0 F1980 X181.828 Y134.311
G1 F900 X101.187 Y53.67 E562.93939
G0 F1980 X100.622 Y53.67
G1 F900 X181.828 Y134.877 E569.2419
G0 F1980 X181.828 Y135.442
G1 F900 X100.056 Y53.67 E575.5883
G0 F1980 X99.49 Y53.67
G1 F900 X181.828 Y136.008 E581.97863
G0 F1980 X181.828 Y136.574
G1 F900 X98.924 Y53.67 E588.41289
G0 F1980 X98.359 Y53.67
G1 F900 X181.828 Y137.139 E594.891
G0 F1980 X181.828 Y137.705
G1 F900 X97.793 Y53.67 E601.41303
G0 F1980 X97.227 Y53.67
G1 F900 X181.828 Y138.271 E607.97899
G0 F1980 X181.828 Y138.836
G1 F900 X96.662 Y53.67 E614.58881
G0 F1980 X96.096 Y53.67
G1 F900 X181.828 Y139.402 E621.24255
G0 F1980 X181.828 Y139.968
G1 F900 X95.53 Y53.67 E627.94022
G0 F1980 X94.965 Y53.67
G1 F900 X181.828 Y140.533 E634.68174
G0 F1980 X181.828 Y141.099
G1 F900 X94.399 Y53.67 E641.46718
G0 F1980 X93.833 Y53.67
G1 F900 X181.828 Y141.665 E648.29656
G0 F1980 X181.828 Y142.23
G1 F900 X93.268 Y53.67 E655.16978
G0 F1980 X92.702 Y53.67
G1 F900 X181.828 Y142.796 E662.08694
G0 F1980 X181.828 Y143.362
G1 F900 X92.136 Y53.67 E669.04802
