;FLAVOR:Marlin
;TIME:828
;Filament used: 0.801976m, 0m
;Layer height: 0.2
;MINX:93.9
;MINY:92.9
;MINZ:0.3
;MAXX:141.1
;MAXY:140.1
;MAXZ:1.9
;Generated with Cura_SteamEngine 4.7.1
T0
M140 S60
M105
M190 S60
M104 S190
M105
M109 S190
M82 ;absolute extrusion mode
M201 X500.00 Y500.00 Z100.00 E5000.00 	;Setup machine max acceleration
M203 X500.00 Y500.00 Z10.00 E50.00 	;Setup machine max feedrate
M204 P500.00 R1000.00 T500.00 		;Setup Print/Retract/Travel acceleration
M205 X8.00 Y8.00 Z0.40 E5.00 		;Setup Jerk
M220 S100 				;Reset Feedrate
M221 S100 				;Reset Flowrate
G28				;Home the Machine
G29 				;Bed Level
G92 E0
M300 P150 S587
G92 E0
G1 F1500 E-6.5
;LAYER_COUNT:9
;LAYER:0
M107
G0 F3600 X94.897 Y94.031 Z0.3
;TYPE:SKIRT
G1 F1500 E0
G1 X95.294 Y93.671 E0.02674
G1 X95.741 Y93.373 E0.05354
G1 X96.226 Y93.145 E0.08028
G1 X96.74 Y92.992 E0.10703
G1 X97.408 Y92.91 E0.14061
G1 X97.83 Y92.9 E0.16167
G1 X136.845 Y92.9 E2.10813
G1 X137.543 Y92.91 E2.14296
G1 X138.077 Y92.958 E2.16971
G1 X138.598 Y93.084 E2.19645
G1 X139.095 Y93.287 E2.22324
G1 X139.556 Y93.561 E2.24999
G1 X139.971 Y93.9 E2.27673
G1 X140.331 Y94.298 E2.3035
G1 X140.628 Y94.744 E2.33023
G1 X140.856 Y95.23 E2.35702
G1 X141.008 Y95.744 E2.38376
G1 X141.09 Y96.409 E2.41719
G1 X141.1 Y96.83 E2.43819
G1 X141.1 Y135.809 E4.38286
G1 X141.091 Y136.536 E4.41914
G1 X141.044 Y137.07 E4.44588
G1 X140.919 Y137.591 E4.47261
G1 X140.717 Y138.088 E4.49938
G1 X140.444 Y138.55 E4.52615
G1 X140.106 Y138.966 E4.55289
G1 X139.709 Y139.327 E4.57966
G1 X139.263 Y139.625 E4.60642
G1 X138.778 Y139.853 E4.63316
G1 X138.264 Y140.007 E4.65993
G1 X137.592 Y140.09 E4.69371
G1 X137.17 Y140.1 E4.71477
G1 X98.161 Y140.1 E6.66094
G1 X97.463 Y140.091 E6.69576
G1 X96.928 Y140.044 E6.72256
G1 X96.407 Y139.918 E6.7493
G1 X95.91 Y139.716 E6.77607
G1 X95.449 Y139.443 E6.8028
G1 X95.033 Y139.104 E6.82957
G1 X94.672 Y138.708 E6.8563
G1 X94.374 Y138.262 E6.88306
G1 X94.146 Y137.776 E6.90984
G1 X93.993 Y137.262 E6.9366
G1 X93.91 Y136.588 E6.97048
G1 X93.9 Y136.158 E6.99194
G1 X93.9 Y97.125 E8.9393
G1 X93.909 Y96.46 E8.97248
G1 X93.957 Y95.926 E8.99923
G1 X94.083 Y95.405 E9.02597
G1 X94.285 Y94.908 E9.05274
G1 X94.558 Y94.447 E9.07947
G1 X94.897 Y94.031 E9.10624
G0 F3600 X95.289 Y94.204
G1 F1500 X95.68 Y93.883 E9.13148
G1 X96.117 Y93.628 E9.15672
G1 X96.588 Y93.444 E9.18195
G1 X97.082 Y93.338 E9.20716
G1 X97.74 Y93.301 E9.24004
G1 X136.839 Y93.3 E11.19069
G1 X137.537 Y93.31 E11.22552
G1 X138.04 Y93.357 E11.25073
G1 X138.53 Y93.483 E11.27597
G1 X138.994 Y93.685 E11.30121
G1 X139.42 Y93.957 E11.32643
G1 X139.798 Y94.292 E11.35163
G1 X140.118 Y94.683 E11.37684
G1 X140.373 Y95.12 E11.40208
G1 X140.556 Y95.591 E11.42729
G1 X140.663 Y96.085 E11.45251
G1 X140.699 Y96.74 E11.48523
G1 X140.7 Y135.804 E13.43414
G1 X140.691 Y136.531 E13.47042
G1 X140.645 Y137.034 E13.49562
G1 X140.52 Y137.524 E13.52085
G1 X140.319 Y137.988 E13.54607
G1 X140.048 Y138.415 E13.5713
G1 X139.713 Y138.794 E13.59654
G1 X139.323 Y139.115 E13.62174
G1 X138.887 Y139.371 E13.64697
G1 X138.416 Y139.554 E13.67217
G1 X137.922 Y139.662 E13.6974
G1 X137.26 Y139.699 E13.73048
G1 X98.166 Y139.7 E15.68089
G1 X97.468 Y139.691 E15.71572
G1 X96.964 Y139.644 E15.74097
G1 X96.474 Y139.519 E15.7662
G1 X96.01 Y139.318 E15.79143
G1 X95.584 Y139.047 E15.81662
G1 X95.205 Y138.712 E15.84185
G1 X94.884 Y138.321 E15.86709
G1 X94.629 Y137.885 E15.89229
G1 X94.445 Y137.414 E15.91752
G1 X94.338 Y136.92 E15.94273
G1 X94.301 Y136.244 E15.97651
G1 X94.3 Y97.131 E17.92787
G1 X94.309 Y96.466 E17.96105
G1 X94.356 Y95.962 E17.9863
G1 X94.482 Y95.473 E18.01149
G1 X94.683 Y95.009 E18.03672
G1 X94.954 Y94.582 E18.06195
G1 X95.289 Y94.204 E18.08715
G1 F1500 E11.58715
;MESH:Body1.stl
G0 F3600 X98.114 Y95.835
G0 X98.114 Y97.114
G0 X135.7 Y134.7
;TYPE:WALL-INNER
G1 F1500 E18.08715
G1 X99.3 Y134.7 E19.90315
G1 X99.3 Y98.3 E21.71916
G1 X135.7 Y98.3 E23.53516
G1 X135.7 Y134.7 E25.35116
G0 F3600 X136.1 Y135.1
G1 F1500 X98.9 Y135.1 E27.20708
G1 X98.9 Y97.9 E29.063
G1 X136.1 Y97.9 E30.91891
G1 X136.1 Y135.1 E32.77483
G0 F3600 X136.5 Y135.5
G1 F1500 X98.5 Y135.5 E34.67065
G1 X98.5 Y97.5 E36.56648
G1 X136.5 Y97.5 E38.46231
G1 X136.5 Y135.5 E40.35814
G0 F3600 X136.9 Y135.9
G1 F1500 X98.1 Y135.9 E42.29388
G1 X98.1 Y97.1 E44.22962
G1 X136.9 Y97.1 E46.16536
G1 X136.9 Y135.9 E48.1011
G0 F3600 X137.3 Y136.3
;TYPE:WALL-OUTER
G1 F1500 X97.7 Y136.3 E50.07675
G1 X97.7 Y96.7 E52.0524
G1 X137.3 Y96.7 E54.02805
G1 X137.3 Y136.3 E56.0037
G0 F3600 X137.1 Y136.3
G0 X136.86 Y135.86
G0 X136.8 Y135.86
G0 X135.31 Y134.31
;TYPE:SKIN
G1 F1500 X99.69 Y134.31 E57.78079
G1 X99.69 Y98.69 E59.55788
G1 X135.31 Y98.69 E61.33497
G1 X135.31 Y134.31 E63.11206
G0 F3600 X135.129 Y99.491
G1 F1500 X134.507 Y98.869 E63.15595
G0 F3600 X133.942 Y98.869
G1 F1500 X135.129 Y100.057 E63.23973
G0 F3600 X135.129 Y100.622
G1 F1500 X133.376 Y98.869 E63.36341
G0 F3600 X132.81 Y98.869
G1 F1500 X135.129 Y101.188 E63.52703
G0 F3600 X135.129 Y101.754
G1 F1500 X132.245 Y98.869 E63.73055
G0 F3600 X131.679 Y98.869
G1 F1500 X135.129 Y102.319 E63.97397
G0 F3600 X135.129 Y102.885
G1 F1500 X131.113 Y98.869 E64.25732
G0 F3600 X130.548 Y98.869
G1 F1500 X135.129 Y103.451 E64.58057
G0 F3600 X135.129 Y104.016
G1 F1500 X129.982 Y98.869 E64.94371
G0 F3600 X129.416 Y98.869
G1 F1500 X135.129 Y104.582 E65.3468
G0 F3600 X135.129 Y105.148
G1 F1500 X128.851 Y98.869 E65.78978
G0 F3600 X128.285 Y98.869
G1 F1500 X135.129 Y105.713 E66.27266
G0 F3600 X135.129 Y106.279
G1 F1500 X127.719 Y98.869 E66.79548
G0 F3600 X127.154 Y98.869
G1 F1500 X135.129 Y106.845 E67.35819
G0 F3600 X135.129 Y107.41
G1 F1500 X126.588 Y98.869 E67.9608
G0 F3600 X126.022 Y98.869
G1 F1500 X135.129 Y107.976 E68.60335
G0 F3600 X135.129 Y108.542
G1 F1500 X125.457 Y98.869 E69.2858
G0 F3600 X124.891 Y98.869
G1 F1500 X135.129 Y109.107 E70.00815
G0 F3600 X135.129 Y109.673
G1 F1500 X124.325 Y98.869 E70.77043
G0 F3600 X123.759 Y98.869
G1 F1500 X135.129 Y110.239 E71.57264
G0 F3600 X135.129 Y110.805
G1 F1500 X123.194 Y98.869 E72.41476
G0 F3600 X122.628 Y98.869
G1 F1500 X135.129 Y111.37 E73.29677
G0 F3600 X135.129 Y111.936
G1 F1500 X122.062 Y98.869 E74.21872
G0 F3600 X121.497 Y98.869
G1 F1500 X135.129 Y112.502 E75.18056
G0 F3600 X135.129 Y113.067
G1 F1500 X120.931 Y98.869 E76.18231
G0 F3600 X120.365 Y98.869
G1 F1500 X135.129 Y113.633 E77.22399
G0 F3600 X135.129 Y114.199
G1 F1500 X119.8 Y98.869 E78.30557
G0 F3600 X119.234 Y98.869
G1 F1500 X135.129 Y114.764 E79.42704
G0 F3600 X135.129 Y115.33
G1 F1500 X118.668 Y98.869 E80.58846
G0 F3600 X118.103 Y98.869
G1 F1500 X135.129 Y115.896 E81.78977
G0 F3600 X135.129 Y116.461
G1 F1500 X117.537 Y98.869 E83.03098
G0 F3600 X116.971 Y98.869
G1 F1500 X135.129 Y117.027 E84.31212
G0 F3600 X135.129 Y117.593
G1 F1500 X116.406 Y98.869 E85.63317
G0 F3600 X115.84 Y98.869
G1 F1500 X135.129 Y118.158 E86.99411
G0 F3600 X135.129 Y118.724
G1 F1500 X115.274 Y98.869 E88.39499
G0 F3600 X114.708 Y98.869
G1 F1500 X135.129 Y119.29 E89.8358
G0 F3600 X135.129 Y119.856
G1 F1500 X114.143 Y98.869 E91.31651
G0 F3600 X113.577 Y98.869
G1 F1500 X135.129 Y120.421 E92.83712
G0 F3600 X135.129 Y120.987
G1 F1500 X113.011 Y98.869 E94.39767
G0 F3600 X112.446 Y98.869
G1 F1500 X135.129 Y121.553 E95.99811
G0 F3600 X135.129 Y122.118
G1 F1500 X111.88 Y98.869 E97.63845
G0 F3600 X111.314 Y98.869
G1 F1500 X135.129 Y122.684 E99.31873
G0 F3600 X135.129 Y123.25
G1 F1500 X110.749 Y98.869 E101.0389
G0 F3600 X110.183 Y98.869
G1 F1500 X135.129 Y123.815 E102.79898
G0 F3600 X135.129 Y124.381
G1 F1500 X109.617 Y98.869 E104.59899
G0 F3600 X109.052 Y98.869
G1 F1500 X135.129 Y124.947 E106.4389
G0 F3600 X135.129 Y125.512
G1 F1500 X108.486 Y98.869 E108.31871
G0 F3600 X107.92 Y98.869
G1 F1500 X135.129 Y126.078 E110.23845
G0 F3600 X135.129 Y126.644
G1 F1500 X107.355 Y98.869 E112.19809
G0 F3600 X106.789 Y98.869
G1 F1500 X135.129 Y127.209 E114.19763
G0 F3600 X135.129 Y127.775
G1 F1500 X106.223 Y98.869 E116.2371
G0 F3600 X105.658 Y98.869
G1 F1500 X135.129 Y128.341 E118.31648
G0 F3600 X135.129 Y128.906
G1 F1500 X105.092 Y98.869 E120.43575
G0 F3600 X104.526 Y98.869
G1 F1500 X135.129 Y129.472 E122.59496
G0 F3600 X135.129 Y130.038
G1 F1500 X103.96 Y98.869 E124.7941
G0 F3600 X103.395 Y98.869
G1 F1500 X135.129 Y130.604 E127.03314
G0 F3600 X135.129 Y131.169
G1 F1500 X102.829 Y98.869 E129.31208
G0 F3600 X102.263 Y98.869
G1 F1500 X135.129 Y131.735 E131.63095
G0 F3600 X135.129 Y132.301
G1 F1500 X101.698 Y98.869 E133.98972
G0 F3600 X101.132 Y98.869
G1 F1500 X135.129 Y132.866 E136.3884
G0 F3600 X135.129 Y133.432
G1 F1500 X100.566 Y98.869 E138.827
G0 F3600 X100.001 Y98.869
G1 F1500 X135.129 Y133.998 E141.30551
G0 F3600 X134.694 Y134.128
G1 F1500 X99.869 Y99.303 E143.7626
G0 F3600 X99.869 Y99.869
G1 F1500 X134.128 Y134.128 E146.17976
G0 F3600 X133.563 Y134.128
G1 F1500 X99.869 Y100.435 E148.55702
G0 F3600 X99.869 Y101.001
G1 F1500 X132.997 Y134.128 E150.89434
G0 F3600 X132.431 Y134.128
G1 F1500 X99.869 Y101.566 E153.19176
G0 F3600 X99.869 Y102.132
G1 F1500 X131.866 Y134.128 E155.44929
G0 F3600 X131.3 Y134.128
G1 F1500 X99.869 Y102.698 E157.66688
G0 F3600 X99.869 Y103.263
G1 F1500 X130.734 Y134.128 E159.84457
G0 F3600 X130.169 Y134.128
G1 F1500 X99.869 Y103.829 E161.98237
G0 F3600 X99.869 Y104.395
G1 F1500 X129.603 Y134.128 E164.08023
G0 F3600 X129.037 Y134.128
G1 F1500 X99.869 Y104.96 E166.13819
G0 F3600 X99.869 Y105.526
G1 F1500 X128.472 Y134.128 E168.15625
G0 F3600 X127.906 Y134.128
G1 F1500 X99.869 Y106.092 E170.13437
G0 F3600 X99.869 Y106.657
G1 F1500 X127.34 Y134.128 E172.0726
G0 F3600 X126.775 Y134.128
G1 F1500 X99.869 Y107.223 E173.97093
G0 F3600 X99.869 Y107.789
G1 F1500 X126.209 Y134.128 E175.82932
G0 F3600 X125.643 Y134.128
G1 F1500 X99.869 Y108.354 E177.64782
G0 F3600 X99.869 Y108.92
G1 F1500 X125.077 Y134.128 E179.42638
G0 F3600 X124.512 Y134.128
G1 F1500 X99.869 Y109.486 E181.16504
G0 F3600 X99.869 Y110.051
G1 F1500 X123.946 Y134.128 E182.8638
G0 F3600 X123.38 Y134.128
G1 F1500 X99.869 Y110.617 E184.52263
G0 F3600 X99.869 Y111.183
G1 F1500 X122.815 Y134.128 E186.14156
G0 F3600 X122.249 Y134.128
G1 F1500 X99.869 Y111.749 E187.72055
G0 F3600 X99.869 Y112.314
G1 F1500 X121.683 Y134.128 E189.25965
G0 F3600 X121.118 Y134.128
G1 F1500 X99.869 Y112.88 E190.75885
G0 F3600 X99.869 Y113.446
G1 F1500 X120.552 Y134.128 E192.21811
G0 F3600 X119.986 Y134.128
G1 F1500 X99.869 Y114.011 E193.63747
G0 F3600 X99.869 Y114.577
G1 F1500 X119.421 Y134.128 E195.01694
G0 F3600 X118.855 Y134.128
G1 F1500 X99.869 Y115.143 E196.35646
G0 F3600 X99.869 Y115.708
G1 F1500 X118.289 Y134.128 E197.6561
G0 F3600 X117.724 Y134.128
G1 F1500 X99.869 Y116.274 E198.91583
G0 F3600 X99.869 Y116.84
G1 F1500 X117.158 Y134.128 E200.13562
G0 F3600 X116.592 Y134.128
G1 F1500 X99.869 Y117.405 E201.31552
G0 F3600 X99.869 Y117.971
G1 F1500 X116.027 Y134.128 E202.45552
G0 F3600 X115.461 Y134.128
G1 F1500 X99.869 Y118.537 E203.55559
G0 F3600 X99.869 Y119.102
G1 F1500 X114.895 Y134.128 E204.61575
G0 F3600 X114.329 Y134.128
G1 F1500 X99.869 Y119.668 E205.63598
G0 F3600 X99.869 Y120.234
G1 F1500 X113.764 Y134.128 E206.61631
G0 F3600 X113.198 Y134.128
G1 F1500 X99.869 Y120.8 E207.55671
G0 F3600 X99.869 Y121.365
G1 F1500 X112.632 Y134.128 E208.45721
G0 F3600 X112.067 Y134.128
G1 F1500 X99.869 Y121.931 E209.31781
G0 F3600 X99.869 Y122.497
G1 F1500 X111.501 Y134.128 E210.13847
G0 F3600 X110.935 Y134.128
G1 F1500 X99.869 Y123.062 E210.91924
G0 F3600 X99.869 Y123.628
G1 F1500 X110.37 Y134.128 E211.66011
G0 F3600 X109.804 Y134.128
G1 F1500 X99.869 Y124.194 E212.36104
G0 F3600 X99.869 Y124.759
G1 F1500 X109.238 Y134.128 E213.02207
G0 F3600 X108.673 Y134.128
G1 F1500 X99.869 Y125.325 E213.64321
G0 F3600 X99.869 Y125.891
G1 F1500 X108.107 Y134.128 E214.22441
G0 F3600 X107.541 Y134.128
G1 F1500 X99.869 Y126.456 E214.76571
G0 F3600 X99.869 Y127.022
G1 F1500 X106.976 Y134.128 E215.26711
G0 F3600 X106.41 Y134.128
G1 F1500 X99.869 Y127.588 E215.72858
G0 F3600 X99.869 Y128.153
G1 F1500 X105.844 Y134.128 E216.15015
G0 F3600 X105.279 Y134.128
G1 F1500 X99.869 Y128.719 E216.53182
G0 F3600 X99.869 Y129.285
G1 F1500 X104.713 Y134.128 E216.87355
G0 F3600 X104.147 Y134.128
G1 F1500 X99.869 Y129.85 E217.17539
G0 F3600 X99.869 Y130.416
G1 F1500 X103.581 Y134.128 E217.43729
G0 F3600 X103.016 Y134.128
G1 F1500 X99.869 Y130.982 E217.65929
G0 F3600 X99.869 Y131.548
G1 F1500 X102.45 Y134.128 E217.84136
G0 F3600 X101.884 Y134.128
G1 F1500 X99.869 Y132.113 E217.98353
G0 F3600 X99.869 Y132.679
G1 F1500 X101.319 Y134.128 E218.0858
G0 F3600 X100.753 Y134.128
G1 F1500 X99.869 Y133.245 E218.14814
G0 F3600 X99.869 Y133.81
G1 F1500 X100.187 Y134.128 E218.17057
;MESH:NONMESH
G0 F600 X100.187 Y134.128 Z0.5
G0 F3600 X135.7 Y134.7
;TIME_ELAPSED:184.106668
;LAYER:1
M106 S255
;TYPE:WALL-INNER
;MESH:Body1.stl
G1 F2760 X99.3 Y134.7 E219.38124
G1 X99.3 Y98.3 E220.59191
G1 X135.7 Y98.3 E221.80258
G1 X135.7 Y134.7 E223.01325
G0 F5400 X136.1 Y135.1
G1 F2760 X98.9 Y135.1 E224.25052
G1 X98.9 Y97.9 E225.4878
G1 X136.1 Y97.9 E226.72508
G1 X136.1 Y135.1 E227.96236
G0 F5400 X136.5 Y135.5
G1 F2760 X98.5 Y135.5 E229.22624
G1 X98.5 Y97.5 E230.49013
G1 X136.5 Y97.5 E231.75401
G1 X136.5 Y135.5 E233.0179
G0 F5400 X136.9 Y135.9
G1 F2760 X98.1 Y135.9 E234.30839
G1 X98.1 Y97.1 E235.59888
G1 X136.9 Y97.1 E236.88938
G1 X136.9 Y135.9 E238.17987
G0 F5400 X137.3 Y136.3
;TYPE:WALL-OUTER
G1 F1770 X97.7 Y136.3 E239.49697
G1 X97.7 Y96.7 E240.81407
G1 X137.3 Y96.7 E242.13117
G1 X137.3 Y136.3 E243.44827
G0 F5400 X137.1 Y136.3
G0 X136.86 Y135.86
G0 X136.8 Y135.86
G0 X135.31 Y134.31
;TYPE:SKIN
G1 F1500 X99.69 Y134.31 E244.633
G1 X99.69 Y98.69 E245.81773
G1 X135.31 Y98.69 E247.00245
G1 X135.31 Y134.31 E248.18718
G0 F5400 X135.128 Y133.571
G1 F1500 X134.57 Y134.129 E248.21343
G0 F5400 X134.005 Y134.129
G1 F1500 X135.128 Y133.006 E248.26625
G0 F5400 X135.128 Y132.44
G1 F1500 X133.439 Y134.129 E248.34569
G0 F5400 X132.873 Y134.129
G1 F1500 X135.128 Y131.874 E248.45176
G0 F5400 X135.128 Y131.309
G1 F1500 X132.308 Y134.129 E248.58441
G0 F5400 X131.742 Y134.129
G1 F1500 X135.128 Y130.743 E248.74367
G0 F5400 X135.128 Y130.177
G1 F1500 X131.176 Y134.129 E248.92956
G0 F5400 X130.611 Y134.129
G1 F1500 X135.128 Y129.611 E249.14205
G0 F5400 X135.128 Y129.046
G1 F1500 X130.045 Y134.129 E249.38114
G0 F5400 X129.479 Y134.129
G1 F1500 X135.128 Y128.48 E249.64685
G0 F5400 X135.128 Y127.914
G1 F1500 X128.914 Y134.129 E249.93916
G0 F5400 X128.348 Y134.129
G1 F1500 X135.128 Y127.349 E250.25807
G0 F5400 X135.128 Y126.783
G1 F1500 X127.782 Y134.129 E250.60361
G0 F5400 X127.216 Y134.129
G1 F1500 X135.128 Y126.217 E250.97576
G0 F5400 X135.128 Y125.652
G1 F1500 X126.651 Y134.129 E251.3745
G0 F5400 X126.085 Y134.129
G1 F1500 X135.128 Y125.086 E251.79985
G0 F5400 X135.128 Y124.52
G1 F1500 X125.519 Y134.129 E252.25183
G0 F5400 X124.954 Y134.129
G1 F1500 X135.128 Y123.955 E252.73038
G0 F5400 X135.128 Y123.389
G1 F1500 X124.388 Y134.129 E253.23556
G0 F5400 X123.822 Y134.129
G1 F1500 X135.128 Y122.823 E253.76736
G0 F5400 X135.128 Y122.258
G1 F1500 X123.257 Y134.129 E254.32573
G0 F5400 X122.691 Y134.129
G1 F1500 X135.128 Y121.692 E254.91073
G0 F5400 X135.128 Y121.126
G1 F1500 X122.125 Y134.129 E255.52235
G0 F5400 X121.56 Y134.129
G1 F1500 X135.128 Y120.56 E256.16057
G0 F5400 X135.128 Y119.995
G1 F1500 X120.994 Y134.129 E256.82539
G0 F5400 X120.428 Y134.129
G1 F1500 X135.128 Y119.429 E257.51684
G0 F5400 X135.128 Y118.863
G1 F1500 X119.863 Y134.129 E258.23488
G0 F5400 X119.297 Y134.129
G1 F1500 X135.128 Y118.298 E258.97952
G0 F5400 X135.128 Y117.732
G1 F1500 X118.731 Y134.129 E259.75079
G0 F5400 X118.166 Y134.129
G1 F1500 X135.128 Y117.166 E260.54865
