;FLAVOR:Marlin
;TIME:1930
;Filament used: 1.61431m
;Layer height: 0.25
;MINX:60.779
;MINY:49.272
;MINZ:0.3
;MAXX:174.222
;MAXY:183.943
;MAXZ:1.8
;POSTPROCESSED
;Generated with Cura_SteamEngine 4.12.1
;
;

M140 S60
M105
M190 S60
M104 S200
M105
M109 S200
M82 ;absolute extrusion mode
M201 X500.00 Y500.00 Z100.00 E5000.00 	;Setup machine max acceleration
M203 X500.00 Y500.00 Z10.00 E50.00 	;Setup machine max feedrate
M204 P500.00 R1000.00 T500.00 		;Setup Print/Retract/Travel acceleration
M205 X8.00 Y8.00 Z0.40 E5.00 		;Setup Jerk
M220 S100 				;Reset Feedrate
M221 S100 				;Reset Flowrate
G28					;Home the Machine
G92 E0
M300 P150 S587
G92 E0
G1 F1500 E-6.5
;LAYER_COUNT:7
;LAYER:0
M107
G0 F1980 X63.414 Y110.017 Z0.3
;TYPE:SKIRT
G1 F1500 E0
G1 F900 X63.859 Y109.777 E0.02522
G1 X64.061 Y109.676 E0.03649
G1 X64.578 Y109.444 E0.06476
G1 X66.903 Y108.445 E0.19101
G1 X69.395 Y107.292 E0.328
G1 X71.834 Y106.077 E0.46395
G1 X74.256 Y104.784 E0.60092
G1 X76.649 Y103.419 E0.73836
G1 X78.965 Y102.009 E0.87364
G1 X81.269 Y100.516 E1.01061
G1 X83.536 Y98.954 E1.14796
G1 X85.729 Y97.348 E1.28357
G1 X87.9 Y95.663 E1.42068
G1 X90.01 Y93.929 E1.55693
G1 X92.075 Y92.129 E1.6936
G1 X94.1 Y90.264 E1.83095
G1 X96.045 Y88.365 E1.96656
G1 X97.966 Y86.381 E2.10434
G1 X99.811 Y84.365 E2.24068
G1 X101.596 Y82.299 E2.3769
G1 X103.31 Y80.201 E2.51206
G1 X104.993 Y78.015 E2.64969
G1 X106.606 Y75.793 E2.78668
G1 X108.145 Y73.542 E2.92272
G1 X109.629 Y71.234 E3.05962
G1 X111.068 Y68.85 E3.19854
G1 X112.388 Y66.515 E3.33236
G1 X113.665 Y64.103 E3.46852
G1 X114.891 Y61.618 E3.60677
G1 X116.022 Y59.149 E3.74225
G1 X117.095 Y56.625 E3.87908
G1 X118.106 Y54.049 E4.01714
G1 X118.817 Y52.087 E4.12126
G1 X119.054 Y51.411 E4.15699
G1 X119.259 Y50.948 E4.18226
G1 X119.534 Y50.524 E4.20747
G1 X119.872 Y50.148 E4.23269
G1 X120.265 Y49.83 E4.25792
G1 X120.703 Y49.578 E4.28313
G1 X121.176 Y49.399 E4.30836
G1 X121.671 Y49.296 E4.33358
G1 X122.176 Y49.272 E4.35881
G1 X122.678 Y49.328 E4.38401
G1 X123.166 Y49.462 E4.40925
G1 X123.626 Y49.671 E4.43446
G1 X124.047 Y49.951 E4.45969
G1 X124.419 Y50.293 E4.4849
G1 X124.733 Y50.69 E4.51015
G1 X124.98 Y51.13 E4.53532
G1 X125.143 Y51.564 E4.55845
G1 X125.481 Y52.71 E4.61806
G1 X125.617 Y53.195 E4.64319
G1 X126.439 Y55.841 E4.78142
G1 X127.323 Y58.421 E4.91749
G1 X128.263 Y60.937 E5.05148
G1 X129.323 Y63.545 E5.19193
G1 X130.412 Y66.018 E5.32675
G1 X131.576 Y68.471 E5.46221
G1 X132.841 Y70.957 E5.60137
G1 X134.137 Y73.333 E5.73639
G1 X135.513 Y75.693 E5.87269
G1 X136.968 Y78.034 E6.0102
G1 X138.472 Y80.308 E6.14622
G1 X140.051 Y82.555 E6.28323
G1 X141.68 Y84.74 E6.4192
G1 X143.385 Y86.896 E6.55634
G1 X145.147 Y88.999 E6.69321
G1 X146.954 Y91.035 E6.82903
G1 X148.82 Y93.023 E6.96506
G1 X150.763 Y94.979 E7.1026
G1 X152.744 Y96.863 E7.239
G1 X154.794 Y98.704 E7.37646
G1 X156.865 Y100.463 E7.51202
G1 X159.007 Y102.179 E7.64895
G1 X161.18 Y103.821 E7.78483
G1 X163.424 Y105.418 E7.92224
G1 X165.706 Y106.949 E8.05934
G1 X167.998 Y108.393 E8.19449
G1 X170.273 Y109.724 E8.32599
G1 X171.054 Y110.194 E8.37146
G1 X171.233 Y110.31 E8.3821
G1 X171.665 Y110.611 E8.40837
G1 X172.119 Y110.983 E8.43766
G1 X172.496 Y111.354 E8.46404
G1 X172.829 Y111.736 E8.48933
G1 X173.21 Y112.268 E8.52197
G1 X173.532 Y112.831 E8.55433
G1 X173.758 Y113.329 E8.58161
G1 X173.983 Y114.005 E8.61716
G1 X174.123 Y114.617 E8.64848
G1 X174.186 Y115.119 E8.67372
G1 X174.222 Y115.735 E8.70451
G1 X174.2 Y116.401 E8.73775
G1 X174.123 Y116.91 E8.76343
G1 X173.956 Y117.626 E8.80012
G1 X173.414 Y119.772 E8.91054
G1 X172.81 Y122.488 E9.04935
G1 X172.3 Y125.131 E9.18365
G1 X171.856 Y127.845 E9.32085
G1 X171.49 Y130.555 E9.45728
G1 X171.201 Y133.281 E9.59404
G1 X170.99 Y135.996 E9.7299
G1 X170.855 Y138.744 E9.86716
G1 X170.797 Y141.454 E10.0024
G1 X170.818 Y144.245 E10.14165
G1 X170.871 Y145.968 E10.22765
G1 X170.887 Y146.415 E10.24996
G1 X170.887 Y147.175 E10.28788
G1 X170.885 Y147.293 E10.29377
G1 X170.859 Y147.997 E10.32891
G1 X170.851 Y148.13 E10.33556
G1 X170.777 Y149.056 E10.38191
G1 X170.736 Y149.386 E10.3985
G1 X170.535 Y150.624 E10.46107
G1 X170.456 Y151.007 E10.48058
G1 X170.31 Y151.607 E10.51139
G1 X170.27 Y151.755 E10.51904
G1 X170.096 Y152.345 E10.54972
G1 X170.053 Y152.481 E10.55684
G1 X169.863 Y153.033 E10.58597
G1 X169.812 Y153.171 E10.59331
G1 X169.59 Y153.731 E10.62336
G1 X169.531 Y153.871 E10.63094
G1 X169.284 Y154.417 E10.66084
G1 X169.216 Y154.557 E10.6686
G1 X168.948 Y155.08 E10.69792
G1 X168.876 Y155.212 E10.70542
G1 X168.574 Y155.739 E10.73572
G1 X168.498 Y155.865 E10.74307
G1 X168.182 Y156.362 E10.77245
G1 X168.094 Y156.493 E10.78032
G1 X167.025 Y158.004 E10.87266
G1 X166.604 Y158.595 E10.90887
G1 X165.068 Y160.863 E11.04552
G1 X163.575 Y163.207 E11.18417
G1 X162.189 Y165.527 E11.319
G1 X160.839 Y167.936 E11.45677
G1 X159.582 Y170.337 E11.59198
G1 X158.751 Y172.039 E11.68648
G1 X158.357 Y172.712 E11.72538
G1 X158.03 Y173.143 E11.75237
G1 X157.551 Y173.648 E11.7871
G1 X156.943 Y174.137 E11.82603
G1 X156.413 Y174.487 E11.85771
G1 X155.865 Y174.784 E11.88881
G1 X155.192 Y175.073 E11.92535
G1 X154.631 Y175.273 E11.95506
G1 X154.043 Y175.45 E11.9857
G1 X153.468 Y175.592 E12.01525
G1 X152.902 Y175.707 E12.04406
G1 X152.302 Y175.798 E12.07434
G1 X151.718 Y175.86 E12.10364
G1 X148.955 Y176.173 E12.24237
G1 X146.276 Y176.554 E12.37737
G1 X143.558 Y177.02 E12.51495
G1 X140.906 Y177.55 E12.64987
G1 X138.219 Y178.169 E12.78744
G1 X135.566 Y178.859 E12.9242
G1 X134.764 Y179.09 E12.96584
G1 X132.709 Y179.653 E13.07214
G1 X130.066 Y180.418 E13.20942
G1 X127.428 Y181.262 E13.3476
G1 X124.856 Y182.166 E13.48361
G1 X121.417 Y183.504 E13.66771
G1 X120.77 Y183.728 E13.70187
G1 X120.018 Y183.878 E13.74013
G1 X119.591 Y183.923 E13.76155
G1 X119.055 Y183.943 E13.78831
G1 X118.181 Y183.919 E13.83193
G1 X117.736 Y183.856 E13.85435
G1 X117.209 Y183.755 E13.88112
G1 X114.525 Y183.277 E14.01713
G1 X111.793 Y182.87 E14.15494
G1 X109.108 Y182.547 E14.28986
G1 X106.353 Y182.294 E14.42788
G1 X103.611 Y182.121 E14.56495
G1 X100.892 Y182.026 E14.70069
G1 X98.139 Y182.008 E14.83804
G1 X95.426 Y182.067 E14.97342
G1 X94.61 Y182.092 E15.01415
G1 X93.481 Y182.091 E15.07048
G1 X91.484 Y182.06 E15.17012
G1 X88.752 Y182.056 E15.30642
G1 X85.996 Y182.13 E15.44397
G1 X84.205 Y182.22 E15.53344
G1 X83.613 Y182.254 E15.56302
G1 X82.761 Y182.298 E15.60558
G1 X82.003 Y182.331 E15.64343
G1 X81.503 Y182.338 E15.66838
G1 X80.63 Y182.314 E15.71195
G1 X80.167 Y182.273 E15.73514
G1 X79.53 Y182.141 E15.7676
G1 X79.29 Y182.065 E15.78016
G1 X78.822 Y181.874 E15.80538
G1 X78.179 Y181.472 E15.84321
G1 X77.561 Y180.948 E15.88363
G1 X77.177 Y180.533 E15.91184
G1 X76.736 Y179.914 E15.94976
G1 X76.407 Y179.267 E15.98597
G1 X75.984 Y178.132 E16.0464
G1 X74.986 Y175.563 E16.1839
G1 X73.934 Y173.07 E16.3189
G1 X72.785 Y170.541 E16.45748
G1 X71.599 Y168.123 E16.59184
G1 X70.318 Y165.683 E16.72933
G1 X68.971 Y163.287 E16.86647
G1 X67.576 Y160.961 E17.00178
G1 X65.336 Y157.508 E17.20712
G1 X64.81 Y156.733 E17.25385
G1 X64.351 Y155.915 E17.30065
G1 X64.173 Y155.504 E17.32299
G1 X63.988 Y154.979 E17.35077
G1 X63.845 Y154.463 E17.37748
G1 X63.712 Y153.698 E17.41622
G1 X63.666 Y153.033 E17.44947
G1 X63.67 Y152.632 E17.46948
G1 X63.708 Y152.07 E17.49758
G1 X63.757 Y151.569 E17.5227
G1 X63.992 Y148.862 E17.65826
G1 X64.152 Y146.1 E17.79629
G1 X64.233 Y143.361 E17.933
G1 X64.237 Y140.642 E18.06865
G1 X64.163 Y137.89 E18.20599
G1 X64.013 Y135.176 E18.3416
G1 X63.783 Y132.427 E18.47923
G1 X63.481 Y129.73 E18.61462
G1 X63.098 Y127.01 E18.75166
G1 X62.637 Y124.302 E18.88871
G1 X62.109 Y121.637 E19.02425
G1 X61.183 Y117.713 E19.2254
G1 X60.99 Y116.859 E19.26908
G1 X60.889 Y116.233 E19.30072
G1 X60.82 Y115.614 E19.33179
G1 X60.807 Y115.453 E19.33985
G1 X60.779 Y114.947 E19.36513
G1 X60.782 Y114.183 E19.40325
G1 X60.835 Y113.654 E19.42977
G1 X60.945 Y113.16 E19.45502
G1 X61.18 Y112.491 E19.4904
G1 X61.303 Y112.223 E19.50511
G1 X61.579 Y111.737 E19.53299
G1 X61.923 Y111.274 E19.56177
G1 X62.383 Y110.792 E19.59501
G1 X63.002 Y110.281 E19.63505
G1 X63.414 Y110.017 E19.65947
G1 F1500 E13.15947
;MESH:Feliz2022.stl
G0 F1980 X65.949 Y111.643
G0 X66.37 Y112.647
G0 X89.57 Y138.827
G0 X90.438 Y138.777
;TYPE:WALL-INNER
G1 F1500 E19.65947
G1 F900 X90.339 Y137.32 E19.73232
G1 X90.292 Y136.344 E19.78107
G1 X90.264 Y135.366 E19.82989
G1 X90.255 Y134.387 E19.87873
G1 X90.265 Y133.186 E19.93865
G1 X90.297 Y132.013 E19.99719
G1 X90.351 Y130.86 E20.05478
G1 X90.425 Y129.744 E20.11058
G1 X90.439 Y129.556 E20.11999
G1 X90.522 Y128.662 E20.16478
G1 X90.541 Y128.472 E20.17431
G1 X90.642 Y127.602 E20.218
G1 X90.665 Y127.421 E20.2271
G1 X90.81 Y126.398 E20.27865
G1 X90.979 Y125.406 E20.32886
G1 X91.172 Y124.444 E20.37781
G1 X91.391 Y123.5 E20.42615
G1 X91.629 Y122.612 E20.47202
G1 X91.84 Y121.914 E20.5084
G1 X91.897 Y121.735 E20.51777
G1 X92.124 Y121.074 E20.55264
G1 X92.186 Y120.903 E20.56171
G1 X92.432 Y120.271 E20.59555
G1 X92.503 Y120.102 E20.60469
G1 X92.77 Y119.489 E20.63805
G1 X93.301 Y118.396 E20.69868
G1 X92.823 Y117.804 E20.73664
G1 X92.387 Y117.91 E20.75902
G1 X90.802 Y117.793 E20.83831
G1 X89.84 Y117.725 E20.88643
G1 X87.958 Y117.607 E20.98051
G1 X87.315 Y117.569 E21.01264
G1 X86.685 Y117.535 E21.04412
G1 X85.196 Y117.463 E21.11849
G1 X83.757 Y117.408 E21.19034
G1 X82.374 Y117.372 E21.25936
G1 X81.845 Y117.363 E21.28575
G1 X81.05 Y117.355 E21.32542
G1 X80.366 Y117.353 E21.35954
G1 X79.406 Y117.354 E21.40744
G1 X78.293 Y117.36 E21.46297
G1 X77.029 Y117.376 E21.52603
G1 X75.998 Y117.396 E21.57748
G1 X75.193 Y117.416 E21.61765
G1 X74.234 Y117.451 E21.66553
G1 X73.312 Y117.497 E21.71159
G1 X72.086 Y117.578 E21.77288
G1 X71.783 Y118.214 E21.80803
G1 X72.353 Y119.019 E21.85724
G1 X72.658 Y119.429 E21.88274
G1 X73.1 Y119.997 E21.91864
G1 X73.579 Y120.588 E21.9566
G1 X74.09 Y121.195 E21.99618
G1 X74.631 Y121.818 E22.03735
G1 X75.199 Y122.454 E22.07989
G1 X75.683 Y122.985 E22.11573
G1 X76.422 Y123.773 E22.16963
G1 X76.966 Y124.347 E22.20909
G1 X77.775 Y125.18 E22.26702
G1 X78.619 Y126.032 E22.32685
G1 X79.257 Y126.667 E22.37176
G1 X80.163 Y127.555 E22.43505
G1 X81.095 Y128.455 E22.49969
G1 X81.812 Y129.142 E22.54923
G1 X82.954 Y130.3 E22.63037
G1 X84.087 Y131.486 E22.7122
G1 X85.207 Y132.704 E22.79475
G1 X86.312 Y133.961 E22.87825
G1 X86.761 Y134.501 E22.91329
G1 X87.189 Y135.055 E22.94821
G1 X87.589 Y135.612 E22.98243
G1 X87.964 Y136.176 E23.01622
G1 X88.32 Y136.757 E23.05021
G1 X88.651 Y137.342 E23.08374
G1 X88.966 Y137.951 E23.11795
G1 X89.475 Y139.026 E23.17729
G1 X90.438 Y138.777 E23.22692
G0 F1980 X99.798 Y152.552
G0 X100.75 Y153.587
G0 X101.715 Y154.293
G0 X103.46 Y155.117
G1 F900 X104.261 Y155.179 E23.267
G1 X104.864 Y155.142 E23.29714
G1 X105.448 Y155.028 E23.32682
G1 X106.057 Y154.815 E23.35901
G1 X106.537 Y154.576 E23.38576
G1 X107.031 Y154.251 E23.41526
G1 X107.5 Y153.861 E23.4457
G1 X107.936 Y153.414 E23.47685
G1 X108.345 Y152.917 E23.50896
G1 X108.746 Y152.346 E23.54377
G1 X109.114 Y151.733 E23.57944
G1 X109.446 Y151.089 E23.61559
G1 X109.689 Y150.545 E23.64531
G1 X109.749 Y150.404 E23.65296
G1 X110.021 Y149.69 E23.69108
G1 X110.266 Y148.94 E23.73044
G1 X110.486 Y148.157 E23.77102
G1 X110.678 Y147.347 E23.81255
G1 X111.018 Y145.845 E23.88938
G1 X111.315 Y144.348 E23.96552
G1 X111.568 Y142.862 E24.04072
G1 X111.775 Y141.395 E24.11464
G1 X111.808 Y141.114 E24.12875
G1 X111.938 Y139.938 E24.18778
G1 X112.055 Y138.499 E24.25981
G1 X112.127 Y137.079 E24.33075
G1 X112.15 Y135.681 E24.4005
G1 X112.147 Y134.92 E24.43847
G1 X112.142 Y134.381 E24.46536
G1 X112.128 Y133.648 E24.50194
G1 X112.115 Y133.135 E24.52754
G1 X112.068 Y131.944 E24.587
G1 X112.029 Y131.261 E24.62113
G1 X111.983 Y130.594 E24.65449
G1 X111.909 Y129.716 E24.69845
G1 X111.888 Y129.501 E24.70923
G1 X111.796 Y128.674 E24.75074
G1 X111.658 Y127.682 E24.80071
G1 X111.492 Y126.742 E24.84833
G1 X111.317 Y125.886 E24.89192
G1 X111.098 Y125.042 E24.93542
G1 X110.837 Y124.22 E24.97845
G1 X110.538 Y123.417 E25.0212
G1 X110.201 Y122.635 E25.06368
G1 X109.827 Y121.876 E25.10589
G1 X109.42 Y121.136 E25.14803
G1 X108.974 Y120.41 E25.19054
G1 X108.49 Y119.744 E25.23161
G1 X107.924 Y119.1 E25.27439
G1 X107.359 Y118.588 E25.31243
G1 X106.816 Y118.195 E25.34587
G1 X106.178 Y117.846 E25.38215
G1 X105.502 Y117.593 E25.41816
G1 X104.793 Y117.441 E25.45434
G1 X104.058 Y117.39 E25.49109
G1 X103.22 Y117.465 E25.53307
G1 X102.638 Y117.605 E25.56293
G1 X101.838 Y117.928 E25.60598
G1 X100.996 Y118.447 E25.65532
G1 X100.584 Y118.773 E25.68153
G1 X100.193 Y119.13 E25.70795
G1 X99.813 Y119.523 E25.73522
G1 X99.446 Y119.952 E25.76339
G1 X99.088 Y120.414 E25.79255
G1 X98.744 Y120.906 E25.8225
G1 X98.68 Y121.001 E25.82821
G1 X98.402 Y121.441 E25.85418
G1 X98.07 Y122.005 E25.88683
G1 X97.7 Y122.697 E25.92598
G1 X97.383 Y123.358 E25.96255
G1 X97.091 Y124.028 E25.99902
G1 X96.816 Y124.711 E26.03575
G1 X96.565 Y125.408 E26.07271
G1 X96.333 Y126.117 E26.10993
G1 X96.121 Y126.839 E26.14747
G1 X95.931 Y127.571 E26.1852
G1 X95.761 Y128.315 E26.22327
G1 X95.61 Y129.073 E26.26183
G1 X95.482 Y129.841 E26.30068
G1 X95.373 Y130.619 E26.33987
G1 X95.283 Y131.407 E26.37944
G1 X95.215 Y132.207 E26.4195
G1 X95.164 Y133.017 E26.45999
G1 X95.136 Y133.836 E26.50087
G1 X95.126 Y134.665 E26.54223
G1 X95.139 Y135.906 E26.60415
G1 X95.178 Y137.125 E26.665
G1 X95.248 Y138.318 E26.72462
G1 X95.345 Y139.484 E26.78299
G1 X95.365 Y139.694 E26.79352
G1 X95.469 Y140.632 E26.8406
G1 X95.624 Y141.747 E26.89676
G1 X95.656 Y141.955 E26.90726
G1 X95.807 Y142.838 E26.95195
G1 X95.845 Y143.045 E26.96245
G1 X96.019 Y143.903 E27.00613
G1 X96.064 Y144.109 E27.01665
G1 X96.263 Y144.943 E27.05943
G1 X96.314 Y145.147 E27.06992
G1 X96.535 Y145.953 E27.11161
G1 X96.593 Y146.156 E27.12215
G1 X96.84 Y146.939 E27.16311
G1 X96.907 Y147.139 E27.17363
G1 X97.176 Y147.897 E27.21376
G1 X97.251 Y148.096 E27.22437
G1 X97.545 Y148.828 E27.26372
G1 X97.629 Y149.022 E27.27427
G1 X97.948 Y149.732 E27.3131
G1 X98.382 Y150.6 E27.36152
G1 X98.852 Y151.444 E27.40972
G1 X99.168 Y151.945 E27.43927
G1 X99.674 Y152.655 E27.48276
G1 X100.027 Y153.08 E27.51033
G1 X100.642 Y153.707 E27.55414
G1 X101.239 Y154.19 E27.59246
G1 X101.937 Y154.616 E27.63325
G1 X102.682 Y154.928 E27.67355
G1 X103.46 Y155.117 E27.71349
G0 F1980 X101.775 Y158.874
G1 F900 X100.174 Y158.226 E27.79966
G1 X99.505 Y157.895 E27.8369
G1 X98.845 Y157.511 E27.87499
G1 X98.229 Y157.091 E27.91219
G1 X97.526 Y156.535 E27.95691
G1 X96.922 Y155.987 E27.99759
G1 X96.877 Y155.944 E28.0007
G1 X96.246 Y155.286 E28.04618
G1 X95.654 Y154.58 E28.09215
G1 X95.11 Y153.842 E28.13789
G1 X94.596 Y153.046 E28.18516
G1 X94.111 Y152.194 E28.23407
G1 X93.672 Y151.315 E28.28309
G1 X93.246 Y150.352 E28.33563
G1 X92.838 Y149.348 E28.3897
G1 X92.459 Y148.324 E28.44417
G1 X91.955 Y146.817 E28.52345
G1 X90.971 Y146.952 E28.573
G1 X90.914 Y148.046 E28.62765
G1 X90.862 Y148.617 E28.65626
G1 X90.786 Y149.2 E28.68559
G1 X90.694 Y149.743 E28.71307
G1 X90.578 Y150.289 E28.74092
G1 X90.435 Y150.849 E28.76975
G1 X90.283 Y151.346 E28.79568
G1 X90.102 Y151.858 E28.82277
G1 X89.892 Y152.378 E28.85075
G1 X89.672 Y152.863 E28.87732
G1 X89.434 Y153.326 E28.90329
G1 X89.16 Y153.808 E28.93095
G1 X88.873 Y154.263 E28.95779
G1 X88.576 Y154.691 E28.98378
G1 X88.248 Y155.123 E29.01084
G1 X87.898 Y155.543 E29.03812
G1 X87.512 Y155.966 E29.06669
G1 X87.109 Y156.364 E29.09495
G1 X86.707 Y156.721 E29.12177
G1 X86.287 Y157.055 E29.14854
G1 X85.845 Y157.37 E29.17562
G1 X85.387 Y157.657 E29.20259
G1 X84.938 Y157.904 E29.22815
G1 X84.042 Y158.334 E29.27773
G1 X84.157 Y159.296 E29.32607
G1 X83.94 Y168.412 E29.781
G1 X93.594 Y168.412 E30.26264
G1 X94.13 Y168.457 E30.28947
G1 X94.461 Y168.561 E30.30678
G1 X94.649 Y168.695 E30.3183
G1 X94.769 Y168.885 E30.32951
G1 X94.834 Y169.183 E30.34473
G1 X94.826 Y169.344 E30.35277
G1 X94.658 Y169.536 E30.3655
G1 X94.322 Y169.702 E30.3842
G1 X93.981 Y169.762 E30.40147
G1 X83.915 Y169.762 E30.90367
G1 X83.915 Y176.973 E31.26342
G1 X85.353 Y176.923 E31.33521
G1 X86.885 Y176.878 E31.41167
G1 X87.6 Y176.861 E31.44736
G1 X88.936 Y176.838 E31.51402
G1 X89.554 Y176.832 E31.54485
G1 X91.67 Y176.832 E31.65042
