;FLAVOR:Marlin
;TIME:2821
;Filament used: 2.22016m
;Layer height: 0.25
;MINX:61.192
;MINY:27.806
;MINZ:0.3
;MAXX:173.813
;MAXY:205.433
;MAXZ:1.8
;POSTPROCESSED
;Generated with Cura_SteamEngine 4.12.1
;
;

M140 S60
M105
M190 S60
M104 S200
M105
M109 S200
M82 ;absolute extrusion mode
M201 X500.00 Y500.00 Z100.00 E5000.00 	;Setup machine max acceleration
M203 X500.00 Y500.00 Z10.00 E50.00 	;Setup machine max feedrate
M204 P500.00 R1000.00 T500.00 		;Setup Print/Retract/Travel acceleration
M205 X8.00 Y8.00 Z0.40 E5.00 		;Setup Jerk
M220 S100 				;Reset Feedrate
M221 S100 				;Reset Flowrate
G28					;Home the Machine
G92 E0
M300 P150 S587
G92 E0
G1 F1500 E-6.5
;LAYER_COUNT:7
;LAYER:0
M107
G0 F1980 X88.75 Y29.852 Z0.3
;TYPE:SKIRT
G1 F1500 E0
G1 F900 X88.968 Y29.396 E0.02522
G1 X89.255 Y28.98 E0.05043
G1 X89.604 Y28.614 E0.07566
G1 X90.007 Y28.308 E0.10091
G1 X90.452 Y28.069 E0.12611
G1 X90.93 Y27.903 E0.15135
G1 X91.428 Y27.815 E0.17658
G1 X91.933 Y27.806 E0.20178
G1 X92.434 Y27.877 E0.22702
G1 X92.917 Y28.025 E0.25223
G1 X93.371 Y28.248 E0.27746
G1 X93.784 Y28.54 E0.3027
G1 X94.146 Y28.893 E0.32792
G1 X94.562 Y29.497 E0.36451
G1 X95.201 Y30.699 E0.43243
G1 X96.508 Y33.073 E0.56763
G1 X97.924 Y35.482 E0.70704
G1 X99.351 Y37.762 E0.84123
G1 X100.883 Y40.06 E0.97902
G1 X102.463 Y42.292 E1.11545
G1 X104.124 Y44.499 E1.25326
G1 X105.811 Y46.619 E1.38843
G1 X107.579 Y48.713 E1.52515
G1 X109.411 Y50.763 E1.66232
G1 X111.265 Y52.724 E1.79696
G1 X113.225 Y54.682 E1.93517
G1 X115.203 Y56.549 E2.07087
G1 X117.273 Y58.395 E2.20925
G1 X119.36 Y60.153 E2.34538
G1 X121.486 Y61.844 E2.48091
G1 X123.681 Y63.49 E2.61779
G1 X125.913 Y65.068 E2.75416
G1 X128.199 Y66.588 E2.89112
G1 X130.512 Y68.033 E3.02719
G1 X132.905 Y69.436 E3.16558
G1 X135.296 Y70.749 E3.30167
G1 X137.723 Y71.994 E3.43776
G1 X140.167 Y73.161 E3.57288
G1 X142.691 Y74.279 E3.7106
G1 X145.24 Y75.324 E3.84804
G1 X147.779 Y76.281 E3.98341
G1 X150.329 Y77.164 E4.11804
G1 X152.467 Y77.871 E4.23039
G1 X152.58 Y77.91 E4.23635
G1 X153.694 Y78.325 E4.29566
G1 X153.813 Y78.372 E4.30204
G1 X154.916 Y78.834 E4.36171
G1 X155.033 Y78.886 E4.36809
G1 X156.128 Y79.397 E4.42838
G1 X156.238 Y79.451 E4.43449
G1 X157.292 Y79.993 E4.49362
G1 X157.407 Y80.055 E4.50014
G1 X158.483 Y80.665 E4.56185
G1 X158.592 Y80.73 E4.56818
G1 X159.638 Y81.379 E4.62959
G1 X159.749 Y81.451 E4.63619
G1 X160.768 Y82.143 E4.69765
G1 X160.873 Y82.217 E4.70406
G1 X161.856 Y82.944 E4.76505
G1 X161.959 Y83.024 E4.77156
G1 X162.977 Y83.843 E4.83674
G1 X163.081 Y83.93 E4.84351
G1 X163.99 Y84.727 E4.90382
G1 X164.085 Y84.814 E4.91025
G1 X165.165 Y85.841 E4.9846
G1 X165.251 Y85.926 E4.99063
G1 X165.762 Y86.45 E5.02715
G1 X165.948 Y86.65 E5.04078
G1 X166.636 Y87.416 E5.09214
G1 X166.846 Y87.664 E5.10836
G1 X167.548 Y88.521 E5.16363
G1 X167.692 Y88.707 E5.17536
G1 X168.299 Y89.519 E5.22594
G1 X168.479 Y89.773 E5.24147
G1 X169.108 Y90.703 E5.29749
G1 X169.243 Y90.915 E5.31002
G1 X169.762 Y91.763 E5.35963
G1 X169.91 Y92.018 E5.37434
G1 X170.415 Y92.933 E5.42648
G1 X170.552 Y93.197 E5.44131
G1 X171.034 Y94.176 E5.49576
G1 X171.092 Y94.301 E5.50263
G1 X171.558 Y95.361 E5.5604
G1 X171.661 Y95.613 E5.57398
G1 X172.079 Y96.698 E5.63199
G1 X172.126 Y96.827 E5.63884
G1 X172.469 Y97.846 E5.69248
G1 X172.764 Y98.806 E5.74259
G1 X173.53 Y101.185 E5.86728
G1 X173.657 Y101.596 E5.88874
G1 X173.768 Y102.09 E5.914
G1 X173.8 Y102.489 E5.93397
G1 X173.813 Y103.291 E5.97398
G1 X173.813 Y111.074 E6.36228
G1 X173.802 Y111.781 E6.39756
G1 X173.754 Y112.284 E6.42277
G1 X173.608 Y112.829 E6.45091
G1 X173.547 Y112.996 E6.45978
G1 X172.36 Y116.407 E6.63997
G1 X172.301 Y116.584 E6.64928
G1 X171.773 Y118.061 E6.72753
G1 X171.581 Y118.553 E6.75388
G1 X170.59 Y121.162 E6.89312
G1 X169.689 Y123.757 E7.03016
G1 X168.871 Y126.346 E7.16562
G1 X168.121 Y128.977 E7.30211
G1 X167.446 Y131.626 E7.4385
G1 X166.832 Y134.349 E7.57776
G1 X166.321 Y136.977 E7.71133
G1 X165.865 Y139.719 E7.85
G1 X165.496 Y142.41 E7.98551
G1 X165.203 Y145.11 E8.12101
G1 X164.983 Y147.861 E8.25869
G1 X164.842 Y150.606 E8.39582
G1 X164.778 Y153.326 E8.53156
G1 X164.792 Y156.077 E8.66881
G1 X164.883 Y158.802 E8.80484
G1 X165.163 Y162.879 E9.00872
G1 X165.384 Y165.332 E9.1316
G1 X165.392 Y165.438 E9.1369
G1 X165.429 Y166.092 E9.16958
G1 X165.43 Y166.669 E9.19837
G1 X165.322 Y167.644 E9.24731
G1 X165.227 Y168.087 E9.26991
G1 X164.838 Y169.423 E9.33933
G1 X164.681 Y169.934 E9.366
G1 X163.953 Y172.566 E9.50224
G1 X163.298 Y175.227 E9.63896
G1 X162.712 Y177.928 E9.77685
G1 X162.217 Y180.573 E9.9111
G1 X161.787 Y183.298 E10.04874
G1 X161.431 Y186.052 E10.18728
G1 X161.403 Y186.314 E10.20042
G1 X161.264 Y187.44 E10.25703
G1 X161.187 Y187.94 E10.28227
G1 X161.076 Y188.543 E10.31285
G1 X160.992 Y188.93 E10.33261
G1 X160.827 Y189.593 E10.3667
G1 X160.723 Y189.962 E10.38582
G1 X160.555 Y190.501 E10.41399
G1 X160.392 Y190.973 E10.4389
G1 X160.173 Y191.551 E10.46974
G1 X160.011 Y191.94 E10.49076
G1 X159.757 Y192.507 E10.52176
G1 X159.567 Y192.897 E10.5434
G1 X159.264 Y193.478 E10.57609
G1 X158.82 Y194.248 E10.62044
G1 X158.52 Y194.724 E10.64851
G1 X158.178 Y195.232 E10.67906
G1 X157.849 Y195.692 E10.70728
G1 X157.58 Y196.047 E10.7295
G1 X157.154 Y196.58 E10.76354
G1 X156.856 Y196.93 E10.78647
G1 X156.397 Y197.44 E10.82071
G1 X156.174 Y197.676 E10.8369
G1 X155.67 Y198.185 E10.87264
G1 X155.427 Y198.415 E10.88933
G1 X154.869 Y198.919 E10.92685
G1 X154.66 Y199.097 E10.94054
G1 X154.036 Y199.607 E10.98075
G1 X153.871 Y199.733 E10.99111
G1 X153.257 Y200.186 E11.02917
G1 X153.055 Y200.326 E11.04144
G1 X152.393 Y200.765 E11.08107
G1 X152.223 Y200.871 E11.09106
G1 X151.517 Y201.292 E11.13207
G1 X151.402 Y201.358 E11.13869
G1 X150.78 Y201.695 E11.17398
G1 X150.635 Y201.768 E11.18208
G1 X149.515 Y202.303 E11.244
G1 X149.4 Y202.356 E11.25032
G1 X148.709 Y202.653 E11.28784
G1 X148.602 Y202.697 E11.29362
G1 X147.702 Y203.046 E11.34177
G1 X147.595 Y203.085 E11.34746
G1 X146.861 Y203.34 E11.38622
G1 X145.861 Y203.653 E11.4385
G1 X145.768 Y203.681 E11.44335
G1 X144.935 Y203.913 E11.48649
G1 X143.927 Y204.165 E11.53832
G1 X143.133 Y204.346 E11.57895
G1 X141.1 Y204.791 E11.68278
G1 X138.977 Y205.233 E11.79097
G1 X138.299 Y205.362 E11.8254
G1 X137.752 Y205.418 E11.85283
G1 X136.755 Y205.433 E11.90258
G1 X134.937 Y205.428 E11.99328
G1 X134.427 Y205.423 E12.01872
G1 X133.663 Y205.41 E12.05685
G1 X132.837 Y205.391 E12.09807
G1 X132.494 Y205.381 E12.11519
G1 X131.783 Y205.348 E12.1507
G1 X131.281 Y205.284 E12.17594
G1 X130.583 Y205.083 E12.21218
G1 X128.708 Y204.475 E12.31052
G1 X126.663 Y203.883 E12.41674
G1 X126.168 Y203.728 E12.44261
G1 X125.931 Y203.661 E12.4549
G1 X124.84 Y203.334 E12.51172
G1 X124.731 Y203.299 E12.51744
G1 X123.293 Y202.811 E12.5932
G1 X122.764 Y202.611 E12.62141
G1 X122.362 Y202.445 E12.64311
G1 X121.121 Y201.888 E12.71097
G1 X120.364 Y201.524 E12.75288
G1 X119.542 Y201.103 E12.79896
G1 X118.883 Y200.746 E12.83635
G1 X116.739 Y199.509 E12.95984
G1 X115.177 Y198.601 E13.04998
G1 X112.809 Y197.312 E13.18449
G1 X110.365 Y196.071 E13.32124
G1 X107.887 Y194.899 E13.45799
G1 X105.355 Y193.789 E13.59592
G1 X102.804 Y192.753 E13.73329
G1 X100.297 Y191.822 E13.86671
G1 X97.669 Y190.926 E14.00523
G1 X95.054 Y190.116 E14.14181
G1 X92.452 Y189.391 E14.27657
G1 X89.765 Y188.723 E14.4147
G1 X87.04 Y188.124 E14.5539
G1 X86.089 Y187.94 E14.60223
G1 X85.547 Y187.82 E14.62992
G1 X85.407 Y187.786 E14.63711
G1 X84.724 Y187.602 E14.6724
G1 X84.584 Y187.561 E14.67968
G1 X83.891 Y187.34 E14.71597
G1 X83.76 Y187.295 E14.72288
G1 X83.275 Y187.117 E14.74865
G1 X83.122 Y187.056 E14.75687
G1 X81.96 Y186.56 E14.8199
G1 X81.564 Y186.372 E14.84177
G1 X80.705 Y185.918 E14.89024
G1 X80.59 Y185.854 E14.89681
G1 X80.018 Y185.521 E14.92983
G1 X79.911 Y185.456 E14.93608
G1 X79.26 Y185.042 E14.97457
G1 X79.156 Y184.973 E14.98079
G1 X78.572 Y184.567 E15.01628
G1 X77.958 Y184.112 E15.05441
G1 X77.865 Y184.041 E15.06024
G1 X77.417 Y183.683 E15.08885
G1 X76.684 Y183.059 E15.13688
G1 X76.168 Y182.59 E15.17167
G1 X76.098 Y182.525 E15.17643
G1 X75.542 Y181.984 E15.21514
G1 X75.059 Y181.487 E15.24971
G1 X74.308 Y180.663 E15.30533
G1 X74.229 Y180.573 E15.31131
G1 X73.646 Y179.881 E15.35645
G1 X73.565 Y179.781 E15.36287
G1 X72.999 Y179.052 E15.40892
G1 X72.926 Y178.954 E15.41501
G1 X72.418 Y178.245 E15.45853
G1 X72.342 Y178.134 E15.46524
G1 X71.841 Y177.369 E15.51086
G1 X71.774 Y177.262 E15.51716
G1 X71.204 Y176.312 E15.57243
G1 X70.896 Y175.753 E15.60427
G1 X70.287 Y174.513 E15.6732
G1 X70.08 Y174.056 E15.69823
G1 X70.02 Y173.913 E15.70596
G1 X69.494 Y172.566 E15.77811
G1 X69.303 Y172.014 E15.80725
G1 X68.888 Y170.604 E15.88058
G1 X68.736 Y170.001 E15.9116
G1 X68.443 Y168.575 E15.98423
G1 X68.422 Y168.462 E15.98997
G1 X68.335 Y167.945 E16.01612
G1 X68.316 Y167.812 E16.02282
G1 X68.234 Y167.147 E16.05625
G1 X68.18 Y166.457 E16.09078
G1 X68.18 Y165.8 E16.12356
G1 X68.214 Y165.041 E16.16147
G1 X68.324 Y163.146 E16.25617
G1 X68.406 Y160.396 E16.39343
G1 X68.41 Y157.677 E16.52908
G1 X68.336 Y154.926 E16.66637
G1 X68.186 Y152.208 E16.80218
G1 X67.957 Y149.466 E16.93946
G1 X67.655 Y146.77 E17.0748
G1 X67.269 Y144.029 E17.2129
G1 X66.812 Y141.335 E17.34923
G1 X66.275 Y138.645 E17.48608
G1 X65.674 Y136.018 E17.62053
G1 X64.985 Y133.349 E17.75805
G1 X64.223 Y130.712 E17.89499
G1 X63.383 Y128.086 E18.03254
G1 X62.688 Y126.09 E18.13799
G1 X61.986 Y124.141 E18.24134
G1 X61.813 Y123.61 E18.2692
G1 X61.734 Y123.342 E18.28314
G1 X61.484 Y122.435 E18.33008
G1 X61.307 Y121.746 E18.36557
G1 X61.207 Y121.009 E18.40267
G1 X61.192 Y120.137 E18.44618
G1 X61.198 Y119.762 E18.4649
G1 X61.25 Y119.239 E18.49112
G1 X61.389 Y118.555 E18.52594
G1 X61.563 Y117.825 E18.56338
G1 X61.658 Y117.471 E18.58167
G1 X61.809 Y116.965 E18.60801
G1 X61.845 Y116.852 E18.61393
G1 X62.06 Y116.218 E18.64733
G1 X62.304 Y115.605 E18.68024
G1 X62.568 Y115.029 E18.71185
G1 X62.736 Y114.702 E18.7302
G1 X63.287 Y113.708 E18.7869
G1 X64.021 Y112.428 E18.86051
G1 X65.305 Y110.036 E18.99595
G1 X66.542 Y107.568 E19.13368
G1 X67.693 Y105.102 E19.26945
G1 X68.788 Y102.567 E19.40722
G1 X69.799 Y100.033 E19.54333
G1 X70.742 Y97.462 E19.67996
G1 X71.604 Y94.888 E19.81538
G1 X72.406 Y92.248 E19.95304
G1 X73.13 Y89.595 E20.09024
G1 X73.775 Y86.942 E20.22645
G1 X74.346 Y84.258 E20.36335
G1 X74.839 Y81.572 E20.49959
G1 X75.149 Y79.622 E20.5981
G1 X75.199 Y79.291 E20.6148
G1 X75.307 Y78.691 E20.64522
G1 X75.376 Y78.39 E20.66063
G1 X75.567 Y77.712 E20.69577
G1 X75.785 Y77.112 E20.72762
G1 X76.012 Y76.599 E20.7556
G1 X76.246 Y76.149 E20.78091
G1 X77.337 Y74.15 E20.89452
G1 X78.591 Y71.693 E21.03215
G1 X79.753 Y69.245 E21.16734
G1 X80.868 Y66.712 E21.30541
G1 X81.911 Y64.158 E21.44305
G1 X82.86 Y61.616 E21.57842
G1 X83.745 Y59.03 E21.71478
G1 X84.552 Y56.439 E21.85017
G1 X85.303 Y53.764 E21.98879
G1 X85.954 Y51.162 E22.1226
G1 X86.559 Y48.427 E22.26235
G1 X87.068 Y45.751 E22.39825
G1 X87.502 Y43.064 E22.53404
G1 X87.862 Y40.357 E22.67028
G1 X88.146 Y37.625 E22.80732
G1 X88.355 Y34.879 E22.94471
G1 X88.471 Y32.488 E23.06414
G1 X88.508 Y31.49 E23.11397
G1 X88.541 Y30.838 E23.14654
G1 X88.606 Y30.337 E23.17174
G1 X88.75 Y29.852 E23.19698
G1 F1500 E16.69698
;MESH:HappyNewYear2.stl
G0 F1980 X90.291 Y52.128
G0 X91.368 Y52.166
G0 X92.449 Y88.273
;TYPE:WALL-INNER
G1 F1500 E23.19698
G1 F900 X91.673 Y86.558 E23.29089
G1 X91.006 Y85.23 E23.36504
G1 X90.296 Y83.965 E23.43741
G1 X89.539 Y82.765 E23.50819
G1 X89.136 Y82.181 E23.54359
G1 X88.721 Y81.616 E23.57857
G1 X88.29 Y81.064 E23.61351
G1 X87.841 Y80.527 E23.64843
G1 X87.377 Y80.005 E23.68327
G1 X86.894 Y79.496 E23.71828
G1 X86.391 Y79.001 E23.75349
G1 X85.859 Y78.509 E23.78964
G1 X85.26 Y78.057 E23.82708
G1 X84.602 Y77.716 E23.86405
G1 X83.914 Y77.499 E23.90004
G1 X83.208 Y77.407 E23.93556
G1 X82.503 Y77.442 E23.97078
G1 X81.815 Y77.607 E24.00608
G1 X81.161 Y77.902 E24.04187
G1 X80.563 Y78.326 E24.07845
G1 X80.088 Y78.809 E24.11224
G1 X79.733 Y79.332 E24.14378
G1 X79.503 Y79.906 E24.17463
G1 X79.414 Y80.519 E24.20553
G1 X79.465 Y81.15 E24.23712
G1 X79.644 Y81.789 E24.27022
G1 X79.939 Y82.441 E24.30593
G1 X80.343 Y83.12 E24.34534
G1 X80.863 Y83.835 E24.38945
G1 X81.419 Y84.481 E24.43197
G1 X82.009 Y85.062 E24.47328
G1 X82.629 Y85.582 E24.51366
G1 X83.277 Y86.047 E24.55345
G1 X83.95 Y86.457 E24.59276
G1 X84.647 Y86.822 E24.63202
G1 X85.364 Y87.143 E24.67121
G1 X86.1 Y87.427 E24.71057
G1 X86.852 Y87.678 E24.75012
G1 X87.62 Y87.901 E24.79002
G1 X88.404 Y88.103 E24.83041
G1 X89.998 Y88.455 E24.91185
G1 X91.995 Y88.847 E25.01338
G1 X92.449 Y88.273 E25.04989
G0 F1980 X101.506 Y100.756
G0 X109.992 Y110.017
G0 X112.856 Y112.102
G1 F900 X112.843 Y110.521 E25.12877
G1 X112.768 Y109.939 E25.15805
G1 X112.628 Y109.357 E25.18791
G1 X112.428 Y108.781 E25.21833
G1 X112.17 Y108.215 E25.24937
G1 X111.86 Y107.66 E25.28108
G1 X111.5 Y107.117 E25.31358
G1 X111.093 Y106.591 E25.34677
G1 X110.642 Y106.084 E25.38062
G1 X110.151 Y105.598 E25.41509
G1 X109.62 Y105.138 E25.45014
G1 X109.054 Y104.704 E25.48572
G1 X108.453 Y104.301 E25.52182
G1 X107.822 Y103.932 E25.55829
G1 X107.162 Y103.601 E25.59513
G1 X106.095 Y103.15 E25.65292
G1 X105.525 Y103.799 E25.69601
G1 X106.975 Y106.295 E25.84003
G1 X107.609 Y107.328 E25.90049
G1 X108.285 Y108.317 E25.96026
G1 X108.652 Y108.801 E25.99056
G1 X109.039 Y109.266 E26.02075
G1 X109.45 Y109.712 E26.051
G1 X109.888 Y110.139 E26.08152
G1 X110.357 Y110.544 E26.11244
G1 X110.858 Y110.925 E26.14384
G1 X111.397 Y111.279 E26.17601
G1 X112.856 Y112.102 E26.25958
G0 F1980 X105.056 Y108.248
G0 X104.99 Y121.98
G0 X109.991 Y126.539
G1 F900 X110.379 Y124.925 E26.3424
G1 X110.562 Y124.364 E26.37184
G1 X110.793 Y123.826 E26.40105
G1 X111.026 Y123.403 E26.42514
G1 X111.297 Y123.022 E26.44847
G1 X111.585 Y122.707 E26.46976
G1 X111.904 Y122.442 E26.49045
G1 X112.228 Y122.246 E26.50935
G1 X112.586 Y122.098 E26.52867
G1 X112.972 Y122.004 E26.54849
G1 X113.379 Y121.966 E26.56889
G1 X113.849 Y121.986 E26.59236
G1 X114.32 Y122.065 E26.61618
G1 X114.855 Y122.217 E26.64393
G1 X115.408 Y122.433 E26.67355
G1 X115.999 Y122.725 E26.70644
G1 X116.803 Y123.186 E26.75267
G1 X117.601 Y123.692 E26.79982
G1 X118.375 Y124.221 E26.84659
G1 X119.156 Y124.782 E26.89456
G1 X120.739 Y125.967 E26.99322
G1 X122.725 Y127.434 E27.1164
G1 X123.442 Y126.876 E27.16173
G1 X123.131 Y126.106 E27.20316
G1 X122.91 Y125.411 E27.23954
G1 X122.789 Y124.759 E27.27262
G1 X122.768 Y124.141 E27.30347
G1 X122.853 Y123.598 E27.33089
G1 X123.046 Y123.126 E27.35634
G1 X123.356 Y122.726 E27.38158
G1 X123.812 Y122.389 E27.40987
G1 X124.478 Y122.114 E27.44582
G1 X125.055 Y122.041 E27.47484
G1 X125.61 Y122.143 E27.50299
G1 X126.15 Y122.401 E27.53285
G1 X126.691 Y122.795 E27.56624
G1 X126.958 Y123.03 E27.58398
G1 X127.514 Y123.574 E27.62279
G1 X128.083 Y124.162 E27.66361
G1 X129.204 Y125.268 E27.74218
G1 X129.933 Y123.993 E27.81545
G1 X130.263 Y123.499 E27.84509
G1 X130.606 Y123.066 E27.87265
G1 X130.954 Y122.705 E27.89766
G1 X131.291 Y122.427 E27.91946
G1 X131.626 Y122.217 E27.93918
G1 X131.96 Y122.07 E27.95739
G1 X132.31 Y121.979 E27.97543
G1 X132.653 Y121.947 E27.99262
G1 X133.029 Y121.972 E28.01142
G1 X133.416 Y122.056 E28.03118
G1 X133.834 Y122.206 E28.05333
G1 X134.274 Y122.423 E28.07781
G1 X134.749 Y122.719 E28.10573
G1 X135.235 Y123.079 E28.13591
G1 X135.746 Y123.517 E28.16948
G1 X136.518 Y124.269 E28.22325
G1 X137.253 Y125.054 E28.2769
G1 X137.935 Y125.86 E28.32958
G1 X138.567 Y126.691 E28.38166
G1 X139.573 Y128.148 E28.47
G1 X140.54 Y129.619 E28.55782
G1 X140.988 Y130.346 E28.60043
G1 X141.42 Y131.09 E28.64335
G1 X141.834 Y131.854 E28.6867
G1 X142.21 Y132.615 E28.72905
G1 X142.552 Y133.38 E28.77086
G1 X142.864 Y134.172 E28.81332
G1 X143.124 Y134.95 E28.85425
G1 X143.355 Y135.786 E28.89752
G1 X143.53 Y136.606 E28.93935
G1 X143.66 Y137.471 E28.98299
G1 X143.733 Y138.335 E29.02625
G1 X143.75 Y139.222 E29.07051
G1 X143.718 Y139.749 E29.09685
G1 X143.642 Y140.252 E29.12223
G1 X143.393 Y141.06 E29.16441
G1 X143.037 Y141.644 E29.19853
G1 X142.818 Y141.872 E29.21431
G1 X142.307 Y142.196 E29.24449
G1 X141.688 Y142.351 E29.27633
G1 X140.917 Y142.331 E29.31481
G1 X140.083 Y142.122 E29.3577
