;FLAVOR:Marlin
;TIME:7872
;Filament used: 3.42198m
;Layer height: 0.28
;MINX:23.849
;MINY:27.501
;MINZ:0.2
;MAXX:211.151
;MAXY:207.499
;MAXZ:1.32
;Generated with Cura_SteamEngine 4.12.1
M140 S50
M105
M190 S50
M104 S200
M105
M109 S200
M82 ;absolute extrusion mode
M201 X500.00 Y500.00 Z100.00 E5000.00 ;Setup machine max acceleration
M203 X500.00 Y500.00 Z10.00 E50.00 ;Setup machine max feedrate
M204 P500.00 R1000.00 T500.00 ;Setup Print/Retract/Travel acceleration
M205 X8.00 Y8.00 Z0.40 E5.00 ;Setup Jerk
M220 S100 ;Reset Feedrate
M221 S100 ;Reset Flowrate

G28 ;Home
G90
G92 E0 ;Reset Extruder
G1 Z2.0 F3000 ;Move Z Axis up

G92 E0 ;Reset Extruder
G1 Z2.0 F3000 ;Move Z Axis up
G92 E0
G92 E0
G1 F2700 E-5
;LAYER_COUNT:5
;LAYER:0
M107
G0 F6000 X39.377 Y42.934 Z0.2
;TYPE:SKIRT
G1 F2700 E0
G1 F900 X40.312 Y42.126 E0.0411
G1 X40.471 Y41.991 E0.04804
G1 X41.201 Y41.384 E0.07962
G1 X42.87 Y39.92 E0.15346
G1 X43.628 Y39.238 E0.18737
G1 X44.434 Y38.579 E0.222
G1 X44.635 Y38.43 E0.23032
G1 X45.547 Y37.823 E0.26676
G1 X46.371 Y37.375 E0.29795
G1 X46.88 Y37.141 E0.31659
G1 X47.219 Y36.996 E0.32885
G1 X47.87 Y36.742 E0.35209
G1 X48.846 Y36.396 E0.38653
G1 X49.024 Y36.335 E0.39279
G1 X51.415 Y35.454 E0.47754
G1 X53.732 Y34.524 E0.56058
G1 X56.025 Y33.529 E0.64372
G1 X58.318 Y32.455 E0.72793
G1 X60.555 Y31.33 E0.81122
G1 X63.091 Y29.958 E0.90712
G1 X63.445 Y29.759 E0.92062
G1 X64.454 Y29.258 E0.95809
G1 X64.643 Y29.176 E0.96494
G1 X65.934 Y28.709 E1.01061
G1 X66.999 Y28.453 E1.04704
G1 X67.333 Y28.39 E1.05834
G1 X68.025 Y28.282 E1.08164
G1 X69.09 Y28.152 E1.11732
G1 X69.748 Y28.08 E1.13934
G1 X72.079 Y27.762 E1.21759
G1 X73.043 Y27.618 E1.25
G1 X73.875 Y27.526 E1.27784
G1 X73.944 Y27.521 E1.28015
G1 X75.18 Y27.501 E1.32126
G1 X75.429 Y27.511 E1.32955
G1 X76.436 Y27.598 E1.36317
G1 X76.916 Y27.664 E1.37928
G1 X77.036 Y27.683 E1.38332
G1 X80.46 Y28.151 E1.49826
G1 X81.551 Y28.28 E1.5348
G1 X81.925 Y28.331 E1.54736
G1 X82.975 Y28.533 E1.58292
G1 X83.217 Y28.592 E1.59121
G1 X84.117 Y28.853 E1.62237
G1 X84.677 Y29.058 E1.64221
G1 X85.462 Y29.371 E1.67032
G1 X86.89 Y29.963 E1.72173
G1 X89.242 Y30.86 E1.80546
G1 X91.611 Y31.687 E1.88891
G1 X94.01 Y32.45 E1.97264
G1 X96.41 Y33.139 E2.05569
G1 X98.874 Y33.771 E2.1403
G1 X101.343 Y34.333 E2.22452
G1 X103.798 Y34.815 E2.30773
G1 X106.255 Y35.227 E2.39059
G1 X108.763 Y35.576 E2.47481
G1 X111.258 Y35.851 E2.5583
G1 X113.804 Y36.059 E2.64326
G1 X116.266 Y36.19 E2.72526
G1 X118.817 Y36.253 E2.81013
G1 X121.338 Y36.245 E2.89398
G1 X123.834 Y36.166 E2.97704
G1 X126.352 Y36.015 E3.06094
G1 X128.84 Y35.795 E3.14402
G1 X131.371 Y35.5 E3.22877
G1 X133.832 Y35.141 E3.31149
G1 X136.328 Y34.705 E3.39576
G1 X138.818 Y34.196 E3.48029
G1 X141.223 Y33.636 E3.56242
G1 X143.677 Y32.988 E3.64684
G1 X146.077 Y32.282 E3.73005
G1 X148.505 Y31.492 E3.81497
G1 X150.525 Y30.773 E3.88628
G1 X150.797 Y30.68 E3.89584
G1 X152.049 Y30.333 E3.93906
G1 X152.324 Y30.274 E3.94841
G1 X153.365 Y30.102 E3.9835
G1 X154.442 Y29.977 E4.01956
G1 X158.273 Y29.455 E4.14816
G1 X158.402 Y29.435 E4.1525
G1 X159.745 Y29.315 E4.19735
G1 X160.527 Y29.319 E4.22336
G1 X160.776 Y29.329 E4.23165
G1 X161.915 Y29.434 E4.26969
G1 X164.618 Y29.826 E4.36053
G1 X165.905 Y29.974 E4.40362
G1 X167.068 Y30.12 E4.44261
G1 X168.035 Y30.285 E4.47524
G1 X168.242 Y30.33 E4.48228
G1 X169.149 Y30.568 E4.51347
G1 X170.282 Y30.987 E4.55365
G1 X170.531 Y31.095 E4.56267
G1 X171.565 Y31.61 E4.60109
G1 X171.776 Y31.729 E4.60915
G1 X174.004 Y32.942 E4.69353
G1 X176.295 Y34.105 E4.77898
G1 X178.536 Y35.165 E4.86143
G1 X180.84 Y36.175 E4.94511
G1 X183.203 Y37.135 E5.02994
G1 X185.494 Y37.989 E5.11126
G1 X185.882 Y38.122 E5.1249
G1 X187.27 Y38.617 E5.17391
G1 X188.314 Y39.051 E5.21152
G1 X188.513 Y39.146 E5.21885
G1 X189.341 Y39.586 E5.25004
G1 X189.844 Y39.899 E5.26974
G1 X189.977 Y39.987 E5.27505
G1 X191.007 Y40.759 E5.31786
G1 X192.159 Y41.734 E5.36806
G1 X192.338 Y41.889 E5.37593
G1 X195.106 Y44.136 E5.49451
G1 X195.296 Y44.293 E5.50271
G1 X196.125 Y45.053 E5.54012
G1 X196.326 Y45.257 E5.54964
G1 X197.104 Y46.136 E5.58868
G1 X197.539 Y46.717 E5.61282
G1 X198.482 Y48.071 E5.6677
G1 X198.608 Y48.256 E5.67515
G1 X200.095 Y50.314 E5.7596
G1 X200.402 Y50.72 E5.77653
G1 X200.55 Y50.92 E5.7848
G1 X200.786 Y51.247 E5.79821
G1 X201.469 Y52.319 E5.84049
G1 X201.569 Y52.498 E5.84731
G1 X201.991 Y53.336 E5.87852
G1 X202.322 Y54.154 E5.90787
G1 X202.418 Y54.422 E5.91733
G1 X202.645 Y55.13 E5.94206
G1 X202.785 Y55.623 E5.95911
G1 X203.519 Y58.075 E6.04424
G1 X204.314 Y60.482 E6.12855
G1 X205.168 Y62.835 E6.21181
G1 X206.08 Y65.148 E6.2945
G1 X207.087 Y67.499 E6.37957
G1 X208.144 Y69.79 E6.46348
G1 X209.062 Y71.639 E6.53214
G1 X209.153 Y71.83 E6.53918
G1 X209.281 Y72.11 E6.54942
G1 X209.435 Y72.458 E6.56208
G1 X209.778 Y73.331 E6.59327
G1 X210.074 Y74.351 E6.6286
G1 X210.151 Y74.673 E6.63961
G1 X210.381 Y75.978 E6.68368
G1 X210.419 Y76.307 E6.6947
G1 X210.659 Y78.602 E6.77145
G1 X210.895 Y80.323 E6.82922
G1 X211.052 Y81.55 E6.87037
G1 X211.113 Y82.162 E6.89082
G1 X211.127 Y82.358 E6.89736
G1 X211.151 Y83.439 E6.93332
G1 X211.143 Y83.735 E6.94317
G1 X211.068 Y84.752 E6.97709
G1 X211.036 Y85.018 E6.986
G1 X210.992 Y85.342 E6.99687
G1 X210.663 Y87.917 E7.08322
G1 X210.49 Y89.66 E7.14147
G1 X210.466 Y89.88 E7.14883
G1 X210.386 Y90.549 E7.17124
G1 X210.212 Y91.584 E7.20615
G1 X210.168 Y91.786 E7.21303
G1 X209.929 Y92.693 E7.24422
G1 X209.703 Y93.35 E7.26733
G1 X209.613 Y93.587 E7.27576
G1 X209.163 Y94.612 E7.313
G1 X208.855 Y95.226 E7.33584
G1 X207.699 Y97.619 E7.42424
G1 X206.692 Y99.862 E7.50601
G1 X205.698 Y102.248 E7.59198
G1 X204.81 Y104.576 E7.67485
G1 X203.979 Y106.945 E7.75835
G1 X203.217 Y109.334 E7.84175
G1 X202.835 Y110.628 E7.88663
G1 X202.599 Y111.442 E7.91482
G1 X202.305 Y112.316 E7.94549
G1 X202.269 Y112.41 E7.94884
G1 X201.897 Y113.271 E7.98003
G1 X201.652 Y113.747 E7.99784
G1 X201.539 Y113.954 E8.00568
G1 X200.995 Y114.847 E8.04046
G1 X200.79 Y115.15 E8.05263
G1 X200.575 Y115.456 E8.06507
G1 X200.129 Y116.067 E8.09023
G1 X199.593 Y116.78 E8.11989
G1 X198.078 Y118.951 E8.20795
G1 X197.661 Y119.543 E8.23203
G1 X197.332 Y119.991 E8.25052
G1 X196.539 Y120.944 E8.29175
G1 X196.344 Y121.153 E8.30126
G1 X195.594 Y121.883 E8.33607
G1 X195.16 Y122.251 E8.355
G1 X194.224 Y123.003 E8.39493
G1 X193.724 Y123.395 E8.41606
G1 X191.701 Y125.069 E8.5034
G1 X190.044 Y126.458 E8.57531
G1 X188.111 Y128.124 E8.66019
G1 X186.247 Y129.824 E8.74409
G1 X184.444 Y131.566 E8.82748
G1 X182.645 Y133.403 E8.913
G1 X180.975 Y135.209 E8.99481
G1 X179.307 Y137.119 E9.07915
G1 X177.713 Y139.049 E9.16241
G1 X176.14 Y141.069 E9.24756
G1 X174.681 Y143.056 E9.32955
G1 X173.231 Y145.154 E9.41437
G1 X171.866 Y147.251 E9.49759
G1 X170.546 Y149.414 E9.58187
G1 X169.317 Y151.559 E9.6641
G1 X168.106 Y153.818 E9.74935
G1 X166.981 Y156.069 E9.83305
G1 X165.934 Y158.321 E9.91565
G1 X164.931 Y160.648 E9.99993
G1 X164 Y162.982 E10.0835
G1 X163.868 Y163.329 E10.09585
G1 X163.621 Y163.949 E10.11805
G1 X163.234 Y164.81 E10.14945
G1 X163.14 Y164.997 E10.15641
G1 X161.971 Y167.406 E10.24547
G1 X160.933 Y169.709 E10.32949
G1 X159.969 Y172.02 E10.41277
G1 X159.055 Y174.394 E10.49738
G1 X158.25 Y176.686 E10.57818
G1 X157.077 Y180.432 E10.70873
G1 X156.804 Y181.374 E10.74135
G1 X156.709 Y181.684 E10.75214
G1 X156.619 Y181.963 E10.76189
G1 X156.212 Y183.032 E10.79993
G1 X156.117 Y183.247 E10.80775
G1 X155.472 Y184.487 E10.85424
G1 X155.344 Y184.699 E10.86248
G1 X154.698 Y185.651 E10.90074
G1 X154.56 Y185.833 E10.90834
G1 X152.97 Y188.001 E10.99776
G1 X151.716 Y189.806 E11.07086
G1 X151.408 Y190.229 E11.08826
G1 X151.223 Y190.47 E11.09837
G1 X150.332 Y191.493 E11.14349
G1 X150.264 Y191.562 E11.14671
G1 X149.703 Y192.093 E11.1724
G1 X149.509 Y192.264 E11.18101
G1 X148.965 Y192.726 E11.20474
G1 X147.899 Y193.612 E11.25085
G1 X146.243 Y195.064 E11.3241
G1 X145.416 Y195.806 E11.36105
G1 X144.317 Y196.672 E11.40759
G1 X144.117 Y196.81 E11.41567
G1 X143.323 Y197.309 E11.44686
G1 X142.467 Y197.749 E11.47888
G1 X142.267 Y197.841 E11.4862
G1 X141.309 Y198.228 E11.52056
G1 X140.282 Y198.588 E11.55676
G1 X137.795 Y199.501 E11.64487
G1 X135.447 Y200.44 E11.72898
G1 X133.153 Y201.433 E11.81212
G1 X130.874 Y202.498 E11.89579
G1 X128.608 Y203.635 E11.98011
G1 X126.725 Y204.641 E12.05112
G1 X125.444 Y205.345 E12.09974
G1 X124.604 Y205.761 E12.13091
G1 X124.065 Y205.982 E12.15029
G1 X123.981 Y206.014 E12.15328
G1 X123.091 Y206.311 E12.18449
G1 X122.111 Y206.543 E12.21798
G1 X121.757 Y206.61 E12.22996
G1 X121.042 Y206.721 E12.25403
G1 X119.821 Y206.869 E12.29494
G1 X119.386 Y206.916 E12.30949
G1 X117.049 Y207.233 E12.38793
G1 X116.048 Y207.383 E12.4216
G1 X115.126 Y207.481 E12.45244
G1 X115.064 Y207.485 E12.4545
G1 X113.913 Y207.499 E12.49279
G1 X113.665 Y207.489 E12.50104
G1 X112.657 Y207.402 E12.53469
G1 X112.172 Y207.335 E12.55098
G1 X111.952 Y207.301 E12.55838
G1 X108.656 Y206.852 E12.66902
G1 X107.55 Y206.721 E12.70606
G1 X107.17 Y206.669 E12.71882
G1 X106.11 Y206.464 E12.75473
G1 X105.869 Y206.405 E12.76298
G1 X104.969 Y206.144 E12.79415
G1 X103.81 Y205.678 E12.8357
G1 X103.58 Y205.57 E12.84415
G1 X102.891 Y205.217 E12.8699
G1 X102.431 Y204.96 E12.88742
G1 X100.149 Y203.726 E12.97371
G1 X97.899 Y202.593 E13.05749
G1 X95.628 Y201.527 E13.14094
G1 X93.316 Y200.522 E13.22478
G1 X90.995 Y199.588 E13.308
G1 X88.344 Y198.613 E13.40194
G1 X87.228 Y198.221 E13.44129
G1 X86.162 Y197.783 E13.47962
G1 X85.955 Y197.685 E13.48723
G1 X85.125 Y197.248 E13.51843
G1 X84.157 Y196.613 E13.55694
G1 X83.947 Y196.459 E13.5656
G1 X83.446 Y196.07 E13.5867
G1 X83.147 Y195.821 E13.59964
G1 X81.457 Y194.386 E13.67338
G1 X80.11 Y193.306 E13.7308
G1 X79.263 Y192.623 E13.76699
G1 X78.559 Y192.004 E13.79817
G1 X78.151 Y191.592 E13.81745
G1 X77.887 Y191.311 E13.83028
G1 X77.275 Y190.601 E13.86146
G1 X76.876 Y190.064 E13.88371
G1 X76.102 Y188.95 E13.92882
G1 X75.972 Y188.757 E13.93656
G1 X74.491 Y186.694 E14.02103
G1 X73.999 Y186.039 E14.04828
G1 X73.848 Y185.833 E14.05677
G1 X73.654 Y185.562 E14.06786
G1 X73.071 Y184.658 E14.10363
G1 X72.985 Y184.509 E14.10936
G1 X72.518 Y183.605 E14.1432
G1 X72.415 Y183.381 E14.1514
G1 X72.06 Y182.513 E14.18259
G1 X71.851 Y181.873 E14.20498
G1 X71.46 Y180.536 E14.25131
G1 X70.714 Y178.11 E14.33573
G1 X69.904 Y175.72 E14.41966
G1 X69.015 Y173.318 E14.50485
G1 X68.094 Y171.035 E14.58673
G1 X67.066 Y168.678 E14.67226
G1 X66.002 Y166.417 E14.75537
G1 X65.339 Y165.088 E14.80477
G1 X65.111 Y164.601 E14.82265
G1 X64.988 Y164.321 E14.83282
G1 X64.554 Y163.161 E14.87402
G1 X64.424 Y162.723 E14.88921
G1 X64.182 Y161.847 E14.91944
G1 X64.047 Y161.33 E14.93721
G1 X63.34 Y158.884 E15.0219
G1 X62.574 Y156.497 E15.10528
G1 X61.741 Y154.124 E15.18892
G1 X60.834 Y151.763 E15.27305
G1 X59.864 Y149.437 E15.35687
G1 X58.837 Y147.155 E15.4401
G1 X57.739 Y144.89 E15.52382
G1 X56.567 Y142.638 E15.60826
G1 X55.352 Y140.455 E15.69135
G1 X54.061 Y138.282 E15.77542
G1 X52.734 Y136.187 E15.8579
G1 X51.303 Y134.062 E15.94311
G1 X49.859 Y132.045 E16.02561
G1 X48.314 Y130.009 E16.11062
G1 X46.737 Y128.049 E16.19429
G1 X45.12 Y126.153 E16.27717
G1 X43.424 Y124.274 E16.36136
G1 X41.689 Y122.458 E16.4449
G1 X39.509 Y120.312 E16.54664
G1 X39.095 Y119.914 E16.56574
G1 X38.998 Y119.818 E16.57028
G1 X38.299 Y119.058 E16.60463
G1 X38.084 Y118.801 E16.61577
G1 X37.643 Y118.237 E16.63958
G1 X37.375 Y117.868 E16.65475
G1 X36.628 Y116.809 E16.69785
G1 X35.106 Y114.779 E16.78224
G1 X34.83 Y114.427 E16.79712
G1 X34.59 Y114.112 E16.81029
G1 X34.369 Y113.812 E16.82268
G1 X34.088 Y113.416 E16.83883
G1 X33.578 Y112.628 E16.87005
G1 X33.269 Y112.065 E16.89141
G1 X33.206 Y111.942 E16.89601
G1 X32.814 Y111.089 E16.92723
G1 X32.616 Y110.568 E16.94577
G1 X32.509 Y110.263 E16.95652
G1 X32.316 Y109.655 E16.97774
G1 X32.103 Y108.913 E17.00341
G1 X31.341 Y106.39 E17.09107
G1 X30.544 Y103.997 E17.17496
G1 X29.68 Y101.63 E17.25877
G1 X28.755 Y99.3 E17.34215
G1 X27.765 Y96.998 E17.4255
G1 X26.691 Y94.686 E17.51028
G1 X25.897 Y93.084 E17.56975
G1 X25.675 Y92.608 E17.58722
G1 X25.549 Y92.32 E17.59768
G1 X25.21 Y91.446 E17.62886
G1 X24.933 Y90.488 E17.66203
G1 X24.853 Y90.156 E17.67338
G1 X24.619 Y88.837 E17.71794
G1 X24.574 Y88.439 E17.73126
G1 X24.343 Y86.217 E17.80556
G1 X24.102 Y84.469 E17.86425
G1 X23.946 Y83.253 E17.90503
G1 X23.879 Y82.554 E17.92838
G1 X23.867 Y82.366 E17.93465
G1 X23.849 Y81.358 E17.96818
G1 X23.857 Y81.071 E17.97773
G1 X23.929 Y80.091 E18.01041
G1 X23.994 Y79.557 E18.0283
G1 X24.035 Y79.264 E18.03814
G1 X24.047 Y79.132 E18.04255
G1 X24.274 Y77.503 E18.09726
G1 X24.483 Y75.546 E18.16272
G1 X24.641 Y74.207 E18.20756
G1 X24.79 Y73.281 E18.23876
G1 X24.995 Y72.45 E18.26722
G1 X25.063 Y72.214 E18.27539
G1 X25.201 Y71.769 E18.29089
G1 X25.536 Y70.893 E18.32208
G1 X25.764 Y70.397 E18.34024
G1 X26.921 Y68.042 E18.42751
G1 X27.974 Y65.736 E18.51183
G1 X28.943 Y63.445 E18.59456
G1 X29.874 Y61.064 E18.67959
G1 X30.713 Y58.714 E18.76258
G1 X31.496 Y56.312 E18.84661
G1 X31.991 Y54.664 E18.90384
G1 X32.3 Y53.599 E18.94073
G1 X32.4 Y53.276 E18.95197
G1 X32.504 Y52.955 E18.9632
G1 X32.83 Y52.076 E18.99438
G1 X33.05 Y51.588 E19.01218
G1 X33.156 Y51.367 E19.02033
G1 X33.597 Y50.539 E19.05154
G1 X33.987 Y49.925 E19.07573
G1 X34.215 Y49.596 E19.08904
G1 X34.498 Y49.205 E19.1051
G1 X35.783 Y47.476 E19.17675
G1 X37.426 Y45.13 E19.27201
G1 X37.642 Y44.83 E19.2843
G1 X38.222 Y44.093 E19.3155
G1 X38.863 Y43.408 E19.3467
G1 X39.377 Y42.934 E19.36995
G0 F6000 X39.638 Y43.237
G1 F900 X40.573 Y42.429 E19.41105
G1 X41.436 Y41.709 E19.44844
G1 X43.208 Y40.155 E19.52683
G1 X43.896 Y39.536 E19.55761
G1 X44.673 Y38.901 E19.59098
G1 X44.874 Y38.752 E19.59931
G1 X45.752 Y38.166 E19.63441
G1 X46.562 Y37.727 E19.66506
G1 X47.037 Y37.509 E19.68244
G1 X47.376 Y37.364 E19.6947
G1 X48.003 Y37.119 E19.71709
G1 X48.979 Y36.773 E19.75153
G1 X49.179 Y36.705 E19.75856
G1 X51.535 Y35.836 E19.84208
G1 X53.891 Y34.891 E19.92651
G1 X56.175 Y33.9 E20.00932
G1 X58.502 Y32.809 E20.0948
G1 X60.746 Y31.681 E20.17834
G1 X63.249 Y30.327 E20.27299
G1 X63.641 Y30.107 E20.28794
G1 X64.613 Y29.625 E20.32402
G1 X64.802 Y29.543 E20.33087
G1 X66.047 Y29.093 E20.3749
G1 X67.073 Y28.846 E20.41
G1 X67.407 Y28.783 E20.42131
G1 X68.074 Y28.679 E20.44376
G1 X69.133 Y28.549 E20.47925
G1 X69.809 Y28.475 E20.50187
G1 X72.193 Y28.15 E20.58189
G1 X73.102 Y28.014 E20.61246
G1 X73.904 Y27.925 E20.6393
G1 X73.973 Y27.92 E20.6416
G1 X75.164 Y27.901 E20.68122
G1 X75.413 Y27.911 E20.68951
G1 X76.383 Y27.994 E20.72189
G1 X76.854 Y28.059 E20.7377
G1 X77.023 Y28.085 E20.74339
G1 X80.415 Y28.549 E20.85726
G1 X81.504 Y28.678 E20.89373
G1 X81.868 Y28.727 E20.90595
G1 X82.88 Y28.922 E20.94023
G1 X83.122 Y28.981 E20.94851
G1 X84.006 Y29.237 E20.97912
G1 X84.529 Y29.43 E20.99766
G1 X85.308 Y29.741 E21.02556
G1 X86.73 Y30.33 E21.07675
G1 X89.073 Y31.223 E21.16015
G1 X91.495 Y32.07 E21.24549
G1 X93.884 Y32.829 E21.32886
G1 X96.347 Y33.536 E21.41409
G1 X98.748 Y34.152 E21.49653
G1 X101.25 Y34.721 E21.58188
G1 X103.727 Y35.208 E21.66584
G1 X106.206 Y35.623 E21.74944
G1 X108.732 Y35.975 E21.83426
G1 X111.221 Y36.25 E21.91755
G1 X113.749 Y36.456 E22.00191
G1 X116.27 Y36.591 E22.08588
G1 X118.808 Y36.654 E22.17032
G1 X121.318 Y36.646 E22.25381
G1 X123.87 Y36.564 E22.33873
G1 X126.375 Y36.414 E22.4222
G1 X128.92 Y36.189 E22.50717
G1 X131.408 Y35.899 E22.59048
G1 X133.888 Y35.538 E22.67384
G1 X136.406 Y35.097 E22.75886
G1 X138.882 Y34.592 E22.84291
G1 X141.343 Y34.018 E22.92696
G1 X143.787 Y33.372 E23.01104
G1 X146.209 Y32.66 E23.095
G1 X148.615 Y31.877 E23.17916
G1 X150.655 Y31.151 E23.25118
G1 X150.927 Y31.058 E23.26074
G1 X152.132 Y30.724 E23.30233
G1 X152.407 Y30.665 E23.31168
G1 X153.411 Y30.499 E23.34553
G1 X154.493 Y30.374 E23.38176
G1 X158.462 Y29.831 E23.515
G1 X159.756 Y29.715 E23.55821
G1 X160.511 Y29.719 E23.58332
G1 X160.76 Y29.729 E23.59161
G1 X161.858 Y29.83 E23.62828
G1 X164.581 Y30.225 E23.7198
G1 X165.855 Y30.371 E23.76245
G1 X167.018 Y30.517 E23.80143
G1 X167.95 Y30.676 E23.83288
G1 X168.157 Y30.721 E23.83992
G1 X169.047 Y30.955 E23.87053
G1 X170.123 Y31.354 E23.9087
G1 X170.372 Y31.462 E23.91773
G1 X171.369 Y31.958 E23.95477
