;FLAVOR:Marlin
;TIME:3962
;Filament used: 0.802633m
;Layer height: 0.08
;MINX:68.935
;MINY:88.648
;MINZ:0.2
;MAXX:166.048
;MAXY:143.853
;MAXZ:2.52
;Generated with Cura_SteamEngine 4.12.1
M140 S50
M105
M190 S50
M104 S200
M105
M109 S200
M82 ;absolute extrusion mode
M201 X500.00 Y500.00 Z100.00 E5000.00 ;Setup machine max acceleration
M203 X500.00 Y500.00 Z10.00 E50.00 ;Setup machine max feedrate
M204 P500.00 R1000.00 T500.00 ;Setup Print/Retract/Travel acceleration
M205 X8.00 Y8.00 Z0.40 E5.00 ;Setup Jerk
M220 S100 ;Reset Feedrate
M221 S100 ;Reset Flowrate

G28 ;Home
G90
G92 E0 ;Reset Extruder
G1 Z2.0 F3000 ;Move Z Axis up

G92 E0 ;Reset Extruder
G1 Z2.0 F3000 ;Move Z Axis up
G92 E0
G92 E0
G1 F2700 E-5
;LAYER_COUNT:30
;LAYER:0
M107
G0 F6000 X79.99 Y92.898 Z0.2
;TYPE:SKIRT
G1 F2700 E0
G1 F900 X80.603 Y92.383 E0.02663
G1 X80.792 Y92.238 E0.03455
G1 X81.451 Y91.778 E0.06128
G1 X81.686 Y91.629 E0.07054
G1 X82.325 Y91.26 E0.09508
G1 X82.796 Y91.013 E0.11277
G1 X83.946 Y90.508 E0.15454
G1 X84.332 Y90.37 E0.16818
G1 X85.262 Y90.094 E0.20044
G1 X85.616 Y90.014 E0.21251
G1 X85.945 Y89.947 E0.22368
G1 X86.769 Y89.819 E0.25142
G1 X86.99 Y89.795 E0.25881
G1 X87.565 Y89.751 E0.27799
G1 X87.633 Y89.748 E0.28025
G1 X88.149 Y89.74 E0.29742
G1 X88.452 Y89.744 E0.3075
G1 X88.905 Y89.761 E0.32257
G1 X89.125 Y89.775 E0.32991
G1 X89.566 Y89.812 E0.34463
G1 X92.178 Y90.015 E0.43176
G1 X94.751 Y90.143 E0.51745
G1 X97.319 Y90.197 E0.60288
G1 X99.919 Y90.18 E0.68936
G1 X102.451 Y90.09 E0.77362
G1 X104.343 Y89.974 E0.83667
G1 X104.924 Y89.948 E0.85601
G1 X107.567 Y89.79 E0.94408
G1 X110.112 Y89.566 E1.02905
G1 X112.675 Y89.266 E1.11488
G1 X115.231 Y88.895 E1.20078
G1 X115.783 Y88.802 E1.2194
G1 X115.995 Y88.769 E1.22654
G1 X116.274 Y88.729 E1.23591
G1 X117.118 Y88.648 E1.26411
G1 X117.966 Y88.648 E1.29232
G1 X118.74 Y88.717 E1.31816
G1 X121.494 Y89.056 E1.41045
G1 X124.064 Y89.299 E1.49631
G1 X125.227 Y89.381 E1.53509
G1 X125.553 Y89.41 E1.54597
G1 X126.002 Y89.462 E1.56101
G1 X126.095 Y89.475 E1.56413
G1 X126.567 Y89.553 E1.58004
G1 X127.354 Y89.706 E1.60671
G1 X127.747 Y89.791 E1.62008
G1 X130.379 Y90.346 E1.70955
G1 X132.904 Y90.803 E1.79489
G1 X135.433 Y91.187 E1.87997
G1 X138.035 Y91.498 E1.96713
G1 X138.857 Y91.603 E1.99469
G1 X139.293 Y91.669 E2.00936
G1 X139.456 Y91.698 E2.01487
G1 X139.881 Y91.784 E2.02929
G1 X141.04 Y92.048 E2.06883
G1 X143.589 Y92.592 E2.15552
G1 X146.147 Y93.062 E2.24202
G1 X148.638 Y93.447 E2.32585
G1 X151.212 Y93.771 E2.41214
G1 X152.7 Y93.908 E2.46184
G1 X152.847 Y93.929 E2.46678
G1 X153.999 Y94.043 E2.50528
G1 X154.84 Y94.167 E2.53356
G1 X155.08 Y94.214 E2.54169
G1 X155.904 Y94.416 E2.56991
G1 X156.705 Y94.695 E2.59812
G1 X157.476 Y95.048 E2.62632
G1 X158.211 Y95.472 E2.65455
G1 X158.902 Y95.963 E2.68274
G1 X159.545 Y96.517 E2.71097
G1 X160.132 Y97.129 E2.73917
G1 X160.494 Y97.572 E2.7582
G1 X160.576 Y97.679 E2.76269
G1 X161.059 Y98.375 E2.79086
G1 X161.475 Y99.115 E2.8191
G1 X161.82 Y99.89 E2.84731
G1 X162.07 Y100.627 E2.8732
G1 X162.259 Y101.275 E2.89565
G1 X162.672 Y102.763 E2.94701
G1 X163.436 Y105.244 E3.03335
G1 X164.252 Y107.648 E3.11779
G1 X165.299 Y110.455 E3.21743
G1 X165.44 Y110.818 E3.23039
G1 X165.71 Y111.622 E3.2586
G1 X165.902 Y112.449 E3.28683
G1 X166.016 Y113.289 E3.31503
G1 X166.043 Y113.731 E3.32976
G1 X166.048 Y113.862 E3.33412
G1 X166.041 Y114.71 E3.36232
G1 X165.974 Y115.411 E3.38574
G1 X165.848 Y116.331 E3.41663
G1 X165.697 Y117.339 E3.45053
G1 X165.385 Y119.904 E3.53647
G1 X165.15 Y122.438 E3.62111
G1 X164.982 Y125.055 E3.70833
G1 X164.906 Y126.92 E3.77042
G1 X164.898 Y127.191 E3.77943
G1 X164.869 Y127.685 E3.79589
G1 X164.845 Y127.966 E3.80527
G1 X164.801 Y128.374 E3.81892
G1 X164.776 Y128.564 E3.82529
G1 X164.626 Y129.399 E3.85351
G1 X164.518 Y129.824 E3.8681
G1 X164.384 Y130.301 E3.88458
G1 X164.204 Y130.869 E3.90439
G1 X162.959 Y134.389 E4.02858
G1 X162.556 Y135.595 E4.07087
G1 X162.385 Y136.064 E4.08747
G1 X162.287 Y136.311 E4.09631
G1 X162.013 Y136.932 E4.11889
G1 X161.901 Y137.162 E4.12739
G1 X161.749 Y137.459 E4.13849
G1 X161.525 Y137.858 E4.15371
G1 X161.412 Y138.048 E4.16106
G1 X161.098 Y138.541 E4.1805
G1 X160.958 Y138.745 E4.18873
G1 X160.656 Y139.158 E4.20575
G1 X160.598 Y139.233 E4.2089
G1 X159.993 Y139.938 E4.2398
G1 X159.583 Y140.368 E4.25956
G1 X159.166 Y140.777 E4.27899
G1 X159.128 Y140.812 E4.28071
G1 X158.378 Y141.432 E4.31307
G1 X158.072 Y141.658 E4.32573
G1 X157.17 Y142.244 E4.3615
G1 X156.788 Y142.461 E4.37611
G1 X156.032 Y142.844 E4.4043
G1 X155.394 Y143.102 E4.42719
G1 X155.011 Y143.24 E4.44073
G1 X153.823 Y143.578 E4.48181
G1 X153.582 Y143.629 E4.49001
G1 X152.856 Y143.752 E4.5145
G1 X152.644 Y143.779 E4.5216
G1 X151.536 Y143.851 E4.55853
G1 X150.925 Y143.853 E4.57886
G1 X149.668 Y143.769 E4.62076
G1 X149.392 Y143.731 E4.63002
G1 X149.103 Y143.686 E4.63975
G1 X148.286 Y143.546 E4.66732
G1 X145.702 Y143.142 E4.75431
G1 X143.659 Y142.895 E4.82276
G1 X143.437 Y142.862 E4.83022
G1 X142.703 Y142.78 E4.85478
G1 X141.795 Y142.671 E4.8852
G1 X140.942 Y142.583 E4.91372
G1 X138.376 Y142.37 E4.99936
G1 X135.782 Y142.229 E5.08577
G1 X133.211 Y142.16 E5.17131
G1 X130.649 Y142.166 E5.25652
G1 X128.075 Y142.244 E5.34217
G1 X125.494 Y142.395 E5.42816
G1 X122.947 Y142.617 E5.5132
G1 X119.566 Y143.022 E5.62646
G1 X119.119 Y143.084 E5.64146
G1 X118.845 Y143.118 E5.65065
G1 X118.472 Y143.158 E5.66313
G1 X118.117 Y143.189 E5.67498
G1 X117.716 Y143.216 E5.68834
G1 X117.205 Y143.236 E5.70535
G1 X116.342 Y143.245 E5.73406
G1 X116.041 Y143.243 E5.74407
G1 X114.726 Y143.212 E5.78782
G1 X113.448 Y143.175 E5.83034
G1 X110.877 Y143.171 E5.91586
G1 X108.295 Y143.242 E6.00177
G1 X104.694 Y143.461 E6.12176
G1 X103.619 Y143.547 E6.15763
G1 X102.772 Y143.575 E6.18581
G1 X101.925 Y143.523 E6.21404
G1 X101.087 Y143.392 E6.24225
G1 X100.265 Y143.182 E6.27047
G1 X99.466 Y142.896 E6.29869
G1 X99.043 Y142.708 E6.31409
G1 X96.728 Y141.611 E6.39929
G1 X94.33 Y140.555 E6.48644
G1 X91.942 Y139.581 E6.57222
G1 X89.566 Y138.694 E6.65657
G1 X87.097 Y137.849 E6.74337
G1 X85.417 Y137.317 E6.80198
G1 X85.081 Y137.208 E6.81373
G1 X84.003 Y136.834 E6.85168
G1 X83.773 Y136.75 E6.85982
G1 X83.097 Y136.493 E6.88388
G1 X82.31 Y136.177 E6.91208
G1 X82.128 Y136.102 E6.91863
G1 X81.17 Y135.691 E6.9533
G1 X80.51 Y135.393 E6.97739
G1 X80.344 Y135.316 E6.98347
G1 X79.523 Y134.925 E7.01372
G1 X79.336 Y134.833 E7.02065
G1 X78.643 Y134.483 E7.04647
G1 X78.463 Y134.389 E7.05323
G1 X77.676 Y133.969 E7.0829
G1 X77.492 Y133.868 E7.08988
G1 X76.843 Y133.502 E7.11466
G1 X76.639 Y133.384 E7.1225
G1 X76.22 Y133.133 E7.13874
G1 X75.796 Y132.862 E7.15548
G1 X75.556 Y132.698 E7.16515
G1 X74.742 Y132.122 E7.19832
G1 X74.383 Y131.858 E7.21314
G1 X74.004 Y131.561 E7.22915
G1 X73.796 Y131.385 E7.23821
G1 X73.281 Y130.937 E7.26092
G1 X72.887 Y130.574 E7.27874
G1 X72.734 Y130.424 E7.28586
G1 X72.467 Y130.151 E7.29856
G1 X72.169 Y129.823 E7.3133
G1 X72.025 Y129.657 E7.32061
G1 X71.689 Y129.247 E7.33824
G1 X71.629 Y129.169 E7.34151
G1 X71.326 Y128.751 E7.35869
G1 X70.977 Y128.239 E7.3793
G1 X70.606 Y127.646 E7.40256
G1 X70.419 Y127.31 E7.41535
G1 X70.322 Y127.127 E7.42224
G1 X70.06 Y126.589 E7.44214
G1 X69.983 Y126.417 E7.44841
G1 X69.769 Y125.898 E7.46708
G1 X69.615 Y125.487 E7.48168
G1 X69.299 Y124.462 E7.51735
G1 X69.249 Y124.257 E7.52437
G1 X69.122 Y123.644 E7.54519
G1 X69.085 Y123.428 E7.55248
G1 X68.98 Y122.565 E7.5814
G1 X68.959 Y122.278 E7.59097
G1 X68.935 Y121.534 E7.61573
G1 X68.937 Y121.326 E7.62265
G1 X68.963 Y120.736 E7.64229
G1 X68.983 Y120.471 E7.65113
G1 X69.06 Y119.793 E7.67382
G1 X69.099 Y119.537 E7.68244
G1 X69.206 Y118.96 E7.70195
G1 X69.266 Y118.687 E7.71125
G1 X69.52 Y117.767 E7.74299
G1 X69.663 Y117.339 E7.758
G1 X69.971 Y116.544 E7.78636
G1 X70.512 Y115.323 E7.83078
G1 X70.554 Y115.213 E7.8347
G1 X71.094 Y113.996 E7.87898
G1 X72.092 Y111.57 E7.96623
G1 X72.994 Y109.178 E8.05126
G1 X73.826 Y106.773 E8.1359
G1 X74.6 Y104.31 E8.22177
G1 X75.61 Y100.664 E8.3476
G1 X75.81 Y99.882 E8.37445
G1 X75.886 Y99.601 E8.38413
G1 X76.031 Y99.102 E8.40141
G1 X76.195 Y98.594 E8.41917
G1 X76.349 Y98.172 E8.43411
G1 X76.428 Y97.968 E8.44138
G1 X76.579 Y97.602 E8.45455
G1 X76.708 Y97.318 E8.46493
G1 X76.84 Y97.039 E8.47519
G1 X76.982 Y96.75 E8.4859
G1 X77.311 Y96.161 E8.50834
G1 X77.518 Y95.82 E8.52161
G1 X77.858 Y95.301 E8.54225
G1 X78.045 Y95.036 E8.55303
G1 X78.378 Y94.593 E8.57147
G1 X78.52 Y94.416 E8.57901
G1 X79.003 Y93.862 E8.60346
G1 X79.197 Y93.657 E8.61285
G1 X79.643 Y93.217 E8.63368
G1 X79.99 Y92.898 E8.64936
G0 F6000 X80.261 Y93.193
G1 F900 X80.846 Y92.701 E8.67479
G1 X81.035 Y92.556 E8.68271
G1 X81.665 Y92.116 E8.70827
G1 X81.9 Y91.967 E8.71752
G1 X82.511 Y91.614 E8.74099
G1 X82.982 Y91.367 E8.75868
G1 X84.081 Y90.885 E8.79859
G1 X84.467 Y90.747 E8.81223
G1 X85.355 Y90.482 E8.84305
G1 X85.696 Y90.406 E8.85467
G1 X86.025 Y90.339 E8.86584
G1 X86.813 Y90.216 E8.89236
G1 X87.034 Y90.192 E8.89976
G1 X87.583 Y90.15 E8.91807
G1 X87.651 Y90.147 E8.92033
G1 X88.144 Y90.14 E8.93673
G1 X88.447 Y90.144 E8.94681
G1 X88.879 Y90.16 E8.96119
G1 X89.099 Y90.174 E8.96852
G1 X89.355 Y90.194 E8.97706
G1 X89.563 Y90.213 E8.98401
G1 X92.164 Y90.415 E9.07078
G1 X94.723 Y90.542 E9.156
G1 X97.313 Y90.597 E9.24216
G1 X99.901 Y90.58 E9.32824
G1 X102.525 Y90.487 E9.41557
G1 X104.361 Y90.374 E9.47675
G1 X104.898 Y90.35 E9.49463
G1 X107.59 Y90.189 E9.58433
G1 X110.161 Y89.962 E9.67017
G1 X112.738 Y89.661 E9.75646
G1 X115.266 Y89.294 E9.84143
G1 X115.849 Y89.196 E9.86109
G1 X116.331 Y89.125 E9.87729
G1 X117.156 Y89.047 E9.90486
G1 X117.985 Y89.049 E9.93243
G1 X118.688 Y89.113 E9.95591
G1 X118.82 Y89.131 E9.96034
G1 X121.444 Y89.453 E10.04827
G1 X124.039 Y89.698 E10.13496
G1 X125.192 Y89.78 E10.17341
G1 X125.518 Y89.809 E10.18429
G1 X125.947 Y89.858 E10.19865
G1 X126.04 Y89.871 E10.20178
G1 X126.49 Y89.946 E10.21695
G1 X127.277 Y90.099 E10.24362
G1 X127.524 Y90.151 E10.25201
G1 X127.725 Y90.196 E10.25886
G1 X130.29 Y90.736 E10.34605
G1 X132.844 Y91.199 E10.43238
G1 X135.356 Y91.581 E10.51689
G1 X137.985 Y91.894 E10.60494
G1 X138.807 Y91.999 E10.63251
G1 X139.223 Y92.063 E10.64651
G1 X139.386 Y92.092 E10.65201
G1 X139.792 Y92.174 E10.66579
G1 X140.947 Y92.437 E10.70519
G1 X143.532 Y92.989 E10.7931
G1 X146.051 Y93.451 E10.87828
G1 X148.598 Y93.845 E10.964
G1 X151.156 Y94.167 E11.04975
G1 X152.663 Y94.306 E11.10009
G1 X152.812 Y94.327 E11.1051
G1 X153.96 Y94.441 E11.14347
G1 X154.763 Y94.559 E11.17046
G1 X155.003 Y94.606 E11.17859
G1 X155.808 Y94.805 E11.20617
G1 X156.59 Y95.08 E11.23375
G1 X157.342 Y95.429 E11.26132
G1 X158.057 Y95.849 E11.2889
G1 X158.729 Y96.336 E11.3165
G1 X159.35 Y96.885 E11.34407
G1 X159.915 Y97.491 E11.37163
G1 X160.176 Y97.815 E11.38547
G1 X160.258 Y97.922 E11.38995
G1 X160.73 Y98.604 E11.41754
G1 X161.134 Y99.328 E11.44511
G1 X161.467 Y100.087 E11.47268
G1 X161.686 Y100.739 E11.49556
G1 X161.873 Y101.382 E11.51783
G1 X162.288 Y102.876 E11.5694
G1 X163.05 Y105.353 E11.6556
G1 X163.874 Y107.78 E11.74084
G1 X164.923 Y110.591 E11.84064
G1 X165.067 Y110.963 E11.8539
G1 X165.33 Y111.749 E11.88147
G1 X165.515 Y112.558 E11.90907
G1 X165.644 Y113.746 E11.94882
G1 X165.649 Y113.877 E11.95318
G1 X165.64 Y114.706 E11.98075
G1 X165.577 Y115.358 E12.00254
G1 X165.453 Y116.272 E12.03322
G1 X165.298 Y117.308 E12.06806
G1 X164.988 Y119.855 E12.1534
G1 X164.747 Y122.445 E12.23991
G1 X164.583 Y125.012 E12.32547
G1 X164.506 Y126.904 E12.38845
G1 X164.498 Y127.179 E12.3976
G1 X164.471 Y127.651 E12.41332
G1 X164.447 Y127.932 E12.4227
G1 X164.405 Y128.322 E12.43575
G1 X164.38 Y128.512 E12.44212
G1 X164.133 Y129.716 E12.483
G1 X163.999 Y130.193 E12.49948
G1 X163.827 Y130.735 E12.51839
G1 X162.569 Y134.289 E12.64379
G1 X162.176 Y135.468 E12.68512
G1 X162.013 Y135.917 E12.70101
G1 X161.915 Y136.164 E12.70985
G1 X161.653 Y136.757 E12.73141
G1 X161.541 Y136.987 E12.73992
G1 X161.396 Y137.272 E12.75055
G1 X161.182 Y137.654 E12.76512
G1 X161.069 Y137.844 E12.77247
G1 X160.768 Y138.314 E12.79103
G1 X160.628 Y138.518 E12.79926
G1 X160.34 Y138.913 E12.81552
G1 X160.282 Y138.988 E12.81867
G1 X159.703 Y139.662 E12.84823
G1 X159.293 Y140.092 E12.86799
G1 X158.895 Y140.483 E12.88654
G1 X158.857 Y140.518 E12.88826
G1 X158.14 Y141.11 E12.91919
G1 X157.834 Y141.336 E12.93184
G1 X156.973 Y141.896 E12.966
G1 X156.591 Y142.113 E12.98061
G1 X155.851 Y142.487 E13.00819
G1 X155.258 Y142.726 E13.02946
G1 X154.875 Y142.864 E13.043
G1 X153.74 Y143.187 E13.08225
G1 X153.499 Y143.238 E13.09044
G1 X152.806 Y143.355 E13.11381
G1 X152.594 Y143.382 E13.12092
G1 X151.535 Y143.451 E13.15622
G1 X150.924 Y143.453 E13.17654
G1 X149.723 Y143.373 E13.21658
G1 X149.447 Y143.335 E13.22584
G1 X149.171 Y143.292 E13.23513
G1 X148.35 Y143.152 E13.26283
G1 X145.755 Y142.746 E13.35019
G1 X143.707 Y142.498 E13.41881
G1 X143.468 Y142.463 E13.42684
G1 X142.751 Y142.382 E13.45084
G1 X141.886 Y142.278 E13.47982
G1 X141.013 Y142.188 E13.50901
G1 X138.363 Y141.968 E13.59745
G1 X135.815 Y141.829 E13.68232
G1 X133.221 Y141.76 E13.76863
G1 X130.635 Y141.766 E13.85464
G1 X128.041 Y141.845 E13.94096
G1 X125.469 Y141.995 E14.02665
G1 X122.929 Y142.217 E14.11145
G1 X119.521 Y142.625 E14.22561
G1 X119.065 Y142.688 E14.24092
G1 X118.802 Y142.72 E14.24973
G1 X118.429 Y142.76 E14.26221
G1 X118.09 Y142.79 E14.27353
G1 X117.689 Y142.817 E14.2869
G1 X117.201 Y142.836 E14.30314
G1 X116.338 Y142.845 E14.33185
G1 X116.05 Y142.843 E14.34143
G1 X114.738 Y142.812 E14.38508
G1 X113.46 Y142.775 E14.4276
G1 X110.866 Y142.771 E14.51388
G1 X108.291 Y142.841 E14.59955
G1 X104.637 Y143.064 E14.72131
G1 X103.587 Y143.148 E14.75635
G1 X102.759 Y143.175 E14.7839
G1 X101.931 Y143.121 E14.8115
G1 X101.113 Y142.989 E14.83906
G1 X100.311 Y142.778 E14.86664
G1 X99.214 Y142.347 E14.90584
G1 X96.882 Y141.241 E14.99168
G1 X94.494 Y140.19 E15.07846
G1 X92.067 Y139.201 E15.16563
G1 X89.72 Y138.324 E15.24896
G1 X87.181 Y137.455 E15.33822
G1 X85.675 Y136.977 E15.39077
G1 X85.533 Y136.934 E15.39571
G1 X85.212 Y136.83 E15.40693
G1 X84.134 Y136.456 E15.44488
G1 X83.914 Y136.376 E15.45267
G1 X83.246 Y136.122 E15.47644
G1 X82.459 Y135.806 E15.50464
G1 X82.285 Y135.734 E15.51091
G1 X81.496 Y135.397 E15.53944
G1 X80.675 Y135.028 E15.56938
G1 X79.695 Y134.563 E15.60546
G1 X79.516 Y134.476 E15.61208
G1 X78.823 Y134.126 E15.6379
G1 X77.864 Y133.616 E15.67403
G1 X77.689 Y133.52 E15.68066
G1 X77.04 Y133.154 E15.70545
G1 X76.845 Y133.041 E15.71294
G1 X76.426 Y132.79 E15.72919
G1 X76.02 Y132.531 E15.7452
G1 X75.787 Y132.371 E15.75461
G1 X74.973 Y131.795 E15.78777
G1 X74.621 Y131.537 E15.80229
G1 X74.257 Y131.251 E15.81768
G1 X74.059 Y131.084 E15.8263
G1 X73.544 Y130.636 E15.849
G1 X73.167 Y130.288 E15.86607
G1 X73.014 Y130.138 E15.87319
G1 X72.756 Y129.874 E15.88547
G1 X72.471 Y129.561 E15.89955
G1 X72.327 Y129.395 E15.90686
G1 X72.006 Y129.004 E15.92369
G1 X71.946 Y128.926 E15.92696
G1 X71.657 Y128.526 E15.94337
G1 X71.308 Y128.014 E15.96398
G1 X70.953 Y127.448 E15.9862
G1 X70.772 Y127.123 E15.99858
G1 X70.675 Y126.94 E16.00546
G1 X70.425 Y126.426 E16.02447
G1 X70.348 Y126.254 E16.03074
G1 X70.144 Y125.758 E16.04858
G1 X69.99 Y125.347 E16.06318
G1 X69.688 Y124.367 E16.09729
G1 X69.638 Y124.162 E16.1043
G1 X69.516 Y123.576 E16.12421
G1 X69.479 Y123.36 E16.1315
G1 X69.379 Y122.536 E16.15911
G1 X69.358 Y122.249 E16.16868
G1 X69.335 Y121.538 E16.19234
G1 X69.337 Y121.33 E16.19926
G1 X69.361 Y120.766 E16.21803
G1 X69.381 Y120.501 E16.22687
G1 X69.455 Y119.853 E16.24857
G1 X69.494 Y119.597 E16.25718
G1 X69.596 Y119.046 E16.27582
G1 X69.656 Y118.773 E16.28511
G1 X69.899 Y117.894 E16.31545
G1 X70.042 Y117.466 E16.33045
G1 X70.337 Y116.706 E16.35757
G1 X70.851 Y115.547 E16.39974
G1 X70.919 Y115.375 E16.40589
G1 X71.471 Y114.131 E16.45116
G1 X72.472 Y111.697 E16.53869
G1 X73.363 Y109.334 E16.62269
G1 X74.21 Y106.887 E16.70881
G1 X74.975 Y104.453 E16.79367
G1 X75.998 Y100.761 E16.92109
G1 X76.197 Y99.981 E16.94787
G1 X76.271 Y99.712 E16.95715
G1 X76.416 Y99.213 E16.97443
G1 X76.572 Y98.729 E16.99134
G1 X76.722 Y98.316 E17.00596
G1 X76.801 Y98.112 E17.01323
G1 X76.946 Y97.761 E17.02587
G1 X77.069 Y97.489 E17.03579
G1 X77.201 Y97.21 E17.04606
