;FLAVOR:Marlin
;TIME:1809
;Filament used: 1.21076m, 0m
;Layer height: 0.15
;MINX:87.7
;MINY:89.075
;MINZ:0.3
;MAXX:147.3
;MAXY:143.675
;MAXZ:2.25
;POSTPROCESSED
;Generated with Cura_SteamEngine 4.7.1
T0
M140 S60
M105
M190 S60
M104 S190
M105
M109 S190
M82 ;absolute extrusion mode
M201 X500.00 Y500.00 Z100.00 E5000.00 	;Setup machine max acceleration
M203 X500.00 Y500.00 Z10.00 E50.00 	;Setup machine max feedrate
M204 P500.00 R1000.00 T500.00 		;Setup Print/Retract/Travel acceleration
M205 X8.00 Y8.00 Z0.40 E5.00 		;Setup Jerk
M220 S100 				;Reset Feedrate
M221 S100 				;Reset Flowrate
G28				;Home the Machine
G29 				;Bed Level
G92 E0
M300 P150 S587
G92 E0
G1 F1500 E-6.5
;LAYER_COUNT:14
;LAYER:0
M107
G0 F3600 X89.62 Y90.575 Z0.3
;TYPE:SKIRT
G1 F1500 E0
G1 X90.042 Y90.22 E0.02751
G1 X90.671 Y89.821 E0.06467
G1 X91.161 Y89.569 E0.09216
G1 X91.878 Y89.316 E0.1301
G1 X92.667 Y89.143 E0.1704
G1 X93.501 Y89.075 E0.21214
G1 X140.033 Y89.076 E2.53363
G1 X140.374 Y89.091 E2.55066
G1 X140.951 Y89.143 E2.57957
G1 X141.592 Y89.257 E2.61205
G1 X142.179 Y89.414 E2.64236
G1 X142.809 Y89.644 E2.67582
G1 X143.364 Y89.904 E2.7064
G1 X143.932 Y90.232 E2.73912
G1 X144.429 Y90.58 E2.76939
G1 X144.936 Y91.006 E2.80243
G1 X145.369 Y91.439 E2.83298
G1 X145.795 Y91.946 E2.86602
G1 X146.143 Y92.443 E2.89629
G1 X146.471 Y93.011 E2.92901
G1 X146.73 Y93.564 E2.95948
G1 X146.96 Y94.193 E2.99289
G1 X147.118 Y94.783 E3.02336
G1 X147.233 Y95.436 E3.05644
G1 X147.286 Y96.044 E3.08689
G1 X147.3 Y96.374 E3.10337
G1 X147.299 Y136.408 E5.10067
G1 X147.284 Y136.75 E5.11775
G1 X147.232 Y137.326 E5.1466
G1 X147.118 Y137.966 E5.17904
G1 X146.961 Y138.553 E5.20935
G1 X146.732 Y139.181 E5.2427
G1 X146.472 Y139.737 E5.27332
G1 X146.143 Y140.307 E5.30616
G1 X145.795 Y140.804 E5.33643
G1 X145.369 Y141.311 E5.36946
G1 X144.936 Y141.744 E5.40001
G1 X144.429 Y142.17 E5.43305
G1 X143.932 Y142.518 E5.46332
G1 X143.364 Y142.846 E5.49605
G1 X142.809 Y143.106 E5.52662
G1 X142.177 Y143.336 E5.56018
G1 X141.589 Y143.493 E5.59054
G1 X140.938 Y143.608 E5.62352
G1 X140.328 Y143.661 E5.65407
G1 X139.999 Y143.675 E5.6705
G1 X94.967 Y143.674 E7.91715
G1 X94.626 Y143.659 E7.93418
G1 X94.049 Y143.607 E7.96308
G1 X93.408 Y143.493 E7.99557
G1 X92.821 Y143.336 E8.02588
G1 X92.191 Y143.106 E8.05934
G1 X91.636 Y142.846 E8.08992
G1 X91.068 Y142.518 E8.12264
G1 X90.571 Y142.17 E8.15291
G1 X90.064 Y141.744 E8.18595
G1 X89.631 Y141.311 E8.2165
G1 X89.205 Y140.804 E8.24954
G1 X88.857 Y140.307 E8.27981
G1 X88.528 Y139.737 E8.31264
G1 X88.268 Y139.181 E8.34326
G1 X88.039 Y138.553 E8.37661
G1 X87.882 Y137.966 E8.40693
G1 X87.767 Y137.314 E8.43996
G1 X87.714 Y136.706 E8.47041
G1 X87.7 Y136.376 E8.48688
G1 X87.701 Y94.851 E10.55858
G1 X87.785 Y93.94 E10.60422
G1 X87.892 Y93.399 E10.63173
G1 X88.139 Y92.685 E10.66942
G1 X88.365 Y92.182 E10.69694
G1 X88.761 Y91.546 E10.73431
G1 X89.093 Y91.106 E10.76181
G1 X89.62 Y90.575 E10.79914
G0 F3600 X89.9 Y90.862
G1 F1500 X90.499 Y90.395 E10.83703
G1 X90.88 Y90.162 E10.85931
G1 X91.579 Y89.837 E10.89777
G1 X92.005 Y89.695 E10.92017
G1 X92.711 Y89.541 E10.95622
G1 X93.501 Y89.475 E10.99577
G1 X140.033 Y89.476 E13.31726
G1 X140.338 Y89.49 E13.3325
G1 X140.915 Y89.542 E13.3614
G1 X141.488 Y89.643 E13.39043
G1 X142.075 Y89.8 E13.42074
G1 X142.639 Y90.006 E13.4507
G1 X143.194 Y90.266 E13.48128
G1 X143.702 Y90.56 E13.51056
G1 X144.199 Y90.908 E13.54083
G1 X144.653 Y91.289 E13.5704
G1 X145.086 Y91.722 E13.60095
G1 X145.467 Y92.176 E13.63052
G1 X145.815 Y92.673 E13.66079
G1 X146.109 Y93.181 E13.69007
G1 X146.368 Y93.734 E13.72054
G1 X146.573 Y94.296 E13.75038
G1 X146.731 Y94.886 E13.78085
G1 X146.834 Y95.471 E13.81049
G1 X146.887 Y96.079 E13.84094
G1 X146.9 Y96.374 E13.85567
G1 X146.899 Y136.408 E15.85297
G1 X146.885 Y136.714 E15.86825
G1 X146.833 Y137.29 E15.89711
G1 X146.732 Y137.862 E15.92609
G1 X146.575 Y138.449 E15.9564
G1 X146.37 Y139.011 E15.98625
G1 X146.11 Y139.567 E16.01687
G1 X145.815 Y140.077 E16.04626
G1 X145.467 Y140.574 E16.07653
G1 X145.086 Y141.028 E16.1061
G1 X144.653 Y141.461 E16.13665
G1 X144.199 Y141.842 E16.16622
G1 X143.702 Y142.19 E16.19649
G1 X143.194 Y142.484 E16.22577
G1 X142.639 Y142.744 E16.25635
G1 X142.074 Y142.95 E16.28635
G1 X141.486 Y143.107 E16.31672
G1 X140.903 Y143.209 E16.34624
G1 X140.293 Y143.262 E16.37679
G1 X139.999 Y143.275 E16.39147
G1 X94.967 Y143.274 E18.63813
G1 X94.662 Y143.26 E18.65336
G1 X94.085 Y143.208 E18.68227
G1 X93.512 Y143.107 E18.71129
G1 X92.925 Y142.95 E18.74161
G1 X92.361 Y142.744 E18.77156
G1 X91.806 Y142.484 E18.80214
G1 X91.298 Y142.19 E18.83142
G1 X90.801 Y141.842 E18.86169
G1 X90.347 Y141.461 E18.89126
G1 X89.914 Y141.028 E18.92181
G1 X89.533 Y140.574 E18.95138
G1 X89.185 Y140.077 E18.98165
G1 X88.89 Y139.567 E19.01105
G1 X88.63 Y139.011 E19.04167
G1 X88.425 Y138.449 E19.07151
G1 X88.268 Y137.862 E19.10183
G1 X88.166 Y137.279 E19.13136
G1 X88.113 Y136.671 E19.1618
G1 X88.1 Y136.376 E19.17654
G1 X88.101 Y94.851 E21.24823
G1 X88.182 Y93.989 E21.29142
G1 X88.361 Y93.245 E21.3296
G1 X88.515 Y92.822 E21.35206
G1 X88.853 Y92.141 E21.38999
G1 X89.097 Y91.763 E21.41243
G1 X89.581 Y91.173 E21.45051
G1 X89.9 Y90.862 E21.47273
G0 F3600 X90.179 Y91.148
G1 F1500 X90.708 Y90.737 E21.50615
G1 X91.089 Y90.504 E21.52844
G1 X91.705 Y90.217 E21.56234
G1 X92.131 Y90.075 E21.58474
G1 X92.754 Y89.939 E21.61656
G1 X93.501 Y89.875 E21.65396
G1 X140.033 Y89.876 E23.97545
G1 X140.302 Y89.888 E23.98889
G1 X140.879 Y89.94 E24.01779
G1 X141.385 Y90.03 E24.04343
G1 X141.972 Y90.187 E24.07374
G1 X142.47 Y90.368 E24.10018
G1 X143.025 Y90.628 E24.13076
G1 X143.473 Y90.888 E24.1566
G1 X143.97 Y91.236 E24.18687
G1 X144.37 Y91.572 E24.21293
G1 X144.803 Y92.005 E24.24348
G1 X145.139 Y92.405 E24.26954
G1 X145.487 Y92.902 E24.29981
G1 X145.747 Y93.351 E24.3257
G1 X146.006 Y93.904 E24.35616
G1 X146.187 Y94.4 E24.38251
G1 X146.345 Y94.99 E24.41298
G1 X146.436 Y95.505 E24.43907
G1 X146.489 Y96.113 E24.46952
G1 X146.5 Y96.374 E24.48255
G1 X146.499 Y136.408 E26.47985
G1 X146.487 Y136.678 E26.49334
G1 X146.435 Y137.254 E26.52219
G1 X146.345 Y137.759 E26.54778
G1 X146.188 Y138.346 E26.5781
G1 X146.008 Y138.842 E26.60442
G1 X145.748 Y139.398 E26.63505
G1 X145.487 Y139.848 E26.661
G1 X145.139 Y140.345 E26.69127
G1 X144.803 Y140.745 E26.71733
G1 X144.37 Y141.178 E26.74788
G1 X143.97 Y141.514 E26.77394
G1 X143.473 Y141.862 E26.80421
G1 X143.025 Y142.122 E26.83006
G1 X142.47 Y142.382 E26.86063
G1 X141.971 Y142.563 E26.88711
G1 X141.383 Y142.72 E26.91748
G1 X140.869 Y142.811 E26.94352
G1 X140.259 Y142.864 E26.97407
G1 X139.999 Y142.875 E26.98705
G1 X94.967 Y142.874 E29.23371
G1 X94.698 Y142.862 E29.24714
G1 X94.121 Y142.81 E29.27604
G1 X93.615 Y142.72 E29.30168
G1 X93.028 Y142.563 E29.332
G1 X92.53 Y142.382 E29.35843
G1 X91.975 Y142.122 E29.38901
G1 X91.527 Y141.862 E29.41485
G1 X91.03 Y141.514 E29.44512
G1 X90.63 Y141.178 E29.47119
G1 X90.197 Y140.745 E29.50174
G1 X89.861 Y140.345 E29.5278
G1 X89.513 Y139.848 E29.55807
G1 X89.252 Y139.398 E29.58402
G1 X88.992 Y138.842 E29.61464
G1 X88.812 Y138.346 E29.64097
G1 X88.655 Y137.759 E29.67128
G1 X88.564 Y137.245 E29.69732
G1 X88.511 Y136.637 E29.72777
G1 X88.5 Y136.376 E29.74081
G1 X88.501 Y94.851 E31.8125
G1 X88.579 Y94.038 E31.85324
G1 X88.737 Y93.382 E31.88691
G1 X88.891 Y92.959 E31.90937
G1 X89.19 Y92.358 E31.94286
G1 X89.434 Y91.98 E31.9653
G1 X89.86 Y91.459 E31.99888
G1 X90.179 Y91.148 E32.0211
G0 F3600 X90.458 Y91.434
G1 F1500 X90.917 Y91.078 E32.05008
G1 X91.298 Y90.845 E32.07237
G1 X91.832 Y90.596 E32.10176
G1 X92.258 Y90.454 E32.12416
G1 X92.798 Y90.336 E32.15174
G1 X93.501 Y90.275 E32.18694
G1 X140.033 Y90.276 E34.50844
G1 X140.266 Y90.286 E34.52007
G1 X140.843 Y90.338 E34.54897
G1 X141.282 Y90.416 E34.57122
G1 X141.869 Y90.573 E34.60153
G1 X142.3 Y90.731 E34.62444
G1 X142.855 Y90.991 E34.65501
G1 X143.243 Y91.215 E34.67736
G1 X143.74 Y91.563 E34.70763
G1 X144.087 Y91.855 E34.73026
G1 X144.52 Y92.288 E34.76081
G1 X144.812 Y92.635 E34.78344
G1 X145.16 Y93.132 E34.81371
G1 X145.385 Y93.52 E34.83608
G1 X145.644 Y94.073 E34.86655
G1 X145.801 Y94.503 E34.88939
G1 X145.959 Y95.093 E34.91986
G1 X146.037 Y95.54 E34.9425
G1 X146.09 Y96.148 E34.97294
G1 X146.1 Y96.374 E34.98423
G1 X146.099 Y136.408 E36.98153
G1 X146.088 Y136.642 E36.99322
G1 X146.036 Y137.218 E37.02208
G1 X145.959 Y137.656 E37.04426
G1 X145.802 Y138.243 E37.07458
G1 X145.645 Y138.672 E37.09737
G1 X145.385 Y139.228 E37.12799
G1 X145.16 Y139.618 E37.15045
G1 X144.812 Y140.115 E37.18072
G1 X144.52 Y140.462 E37.20335
G1 X144.087 Y140.895 E37.2339
G1 X143.74 Y141.187 E37.25653
G1 X143.243 Y141.535 E37.28679
G1 X142.855 Y141.759 E37.30915
G1 X142.3 Y142.019 E37.33972
G1 X141.868 Y142.177 E37.36267
G1 X141.28 Y142.334 E37.39304
G1 X140.834 Y142.412 E37.41562
G1 X140.224 Y142.465 E37.44617
G1 X139.999 Y142.475 E37.45741
G1 X94.967 Y142.474 E39.70406
G1 X94.734 Y142.464 E39.7157
G1 X94.157 Y142.412 E39.7446
G1 X93.718 Y142.334 E39.76685
G1 X93.131 Y142.177 E39.79716
G1 X92.7 Y142.019 E39.82006
G1 X92.145 Y141.759 E39.85064
G1 X91.757 Y141.535 E39.87299
G1 X91.26 Y141.187 E39.90326
G1 X90.913 Y140.895 E39.92589
G1 X90.48 Y140.462 E39.95644
G1 X90.188 Y140.115 E39.97906
G1 X89.84 Y139.618 E40.00933
G1 X89.615 Y139.228 E40.0318
G1 X89.355 Y138.672 E40.06242
G1 X89.198 Y138.243 E40.08521
G1 X89.041 Y137.656 E40.11552
G1 X88.963 Y137.21 E40.13811
G1 X88.91 Y136.602 E40.16856
G1 X88.9 Y136.376 E40.17985
G1 X88.901 Y94.851 E42.25154
G1 X88.976 Y94.088 E42.28979
G1 X89.113 Y93.519 E42.31899
G1 X89.267 Y93.096 E42.34145
G1 X89.526 Y92.575 E42.37047
G1 X89.77 Y92.197 E42.39292
G1 X90.139 Y91.745 E42.42203
G1 X90.458 Y91.434 E42.44426
G0 F3600 X90.737 Y91.721
G1 F1500 X91.125 Y91.419 E42.46879
G1 X91.506 Y91.186 E42.49107
G1 X91.958 Y90.976 E42.51593
G1 X92.841 Y90.734 E42.56161
G1 X93.501 Y90.675 E42.59467
G1 X140.033 Y90.676 E44.91616
G1 X140.23 Y90.685 E44.926
G1 X140.807 Y90.737 E44.9549
G1 X141.178 Y90.803 E44.9737
G1 X141.765 Y90.96 E45.00402
G1 X142.13 Y91.093 E45.0234
G1 X142.685 Y91.353 E45.05397
G1 X143.014 Y91.543 E45.07293
G1 X143.511 Y91.891 E45.1032
G1 X143.805 Y92.137 E45.12232
G1 X144.238 Y92.57 E45.15287
G1 X144.484 Y92.864 E45.172
G1 X144.832 Y93.361 E45.20227
G1 X145.022 Y93.69 E45.22122
G1 X145.281 Y94.243 E45.25169
G1 X145.414 Y94.607 E45.27102
G1 X145.572 Y95.197 E45.3015
G1 X145.639 Y95.575 E45.32065
G1 X145.692 Y96.183 E45.3511
G1 X145.7 Y96.374 E45.36063
G1 X145.699 Y136.408 E47.35794
G1 X145.69 Y136.606 E47.36783
G1 X145.638 Y137.182 E47.39668
G1 X145.572 Y137.552 E47.41543
G1 X145.415 Y138.139 E47.44575
G1 X145.283 Y138.503 E47.46506
G1 X145.023 Y139.059 E47.49569
G1 X144.832 Y139.389 E47.51471
G1 X144.484 Y139.886 E47.54498
G1 X144.238 Y140.18 E47.5641
G1 X143.805 Y140.613 E47.59465
G1 X143.511 Y140.859 E47.61378
G1 X143.014 Y141.207 E47.64405
G1 X142.685 Y141.397 E47.663
G1 X142.13 Y141.657 E47.69358
G1 X141.765 Y141.791 E47.71298
G1 X141.177 Y141.948 E47.74334
G1 X140.799 Y142.014 E47.76248
G1 X140.189 Y142.067 E47.79303
G1 X139.999 Y142.075 E47.80252
G1 X94.967 Y142.074 E50.04917
G1 X94.77 Y142.065 E50.05901
G1 X94.193 Y142.013 E50.08792
G1 X93.822 Y141.947 E50.10672
G1 X93.235 Y141.79 E50.13703
G1 X92.87 Y141.657 E50.15641
G1 X92.315 Y141.397 E50.18699
G1 X91.986 Y141.207 E50.20594
G1 X91.489 Y140.859 E50.23621
G1 X91.195 Y140.613 E50.25534
G1 X90.762 Y140.18 E50.28589
G1 X90.516 Y139.886 E50.30501
G1 X90.168 Y139.389 E50.33528
G1 X89.977 Y139.059 E50.35431
G1 X89.717 Y138.503 E50.38493
G1 X89.585 Y138.139 E50.40425
G1 X89.428 Y137.552 E50.43456
G1 X89.361 Y137.175 E50.45366
G1 X89.308 Y136.567 E50.48411
G1 X89.3 Y136.376 E50.49365
G1 X89.301 Y94.851 E52.56534
G1 X89.373 Y94.137 E52.60114
G1 X89.489 Y93.655 E52.62588
G1 X89.643 Y93.232 E52.64833
G1 X89.862 Y92.792 E52.67285
G1 X90.106 Y92.414 E52.6953
G1 X90.418 Y92.032 E52.71991
G1 X90.737 Y91.721 E52.74213
G0 F3600 X91.016 Y92.007
G1 F1500 X91.715 Y91.527 E52.78444
G1 X92.511 Y91.213 E52.82713
G1 X93.305 Y91.086 E52.86725
G1 X93.501 Y91.075 E52.87704
G1 X140.033 Y91.076 E55.19853
G1 X140.195 Y91.083 E55.20662
G1 X140.772 Y91.135 E55.23552
G1 X141.075 Y91.189 E55.25088
G1 X141.662 Y91.346 E55.28119
G1 X141.961 Y91.455 E55.29707
G1 X142.516 Y91.715 E55.32765
G1 X142.784 Y91.871 E55.34312
G1 X143.281 Y92.219 E55.37339
G1 X143.522 Y92.42 E55.38904
G1 X143.955 Y92.853 E55.41959
G1 X144.156 Y93.094 E55.43525
G1 X144.504 Y93.591 E55.46552
G1 X144.66 Y93.86 E55.48103
G1 X144.919 Y94.413 E55.5115
G1 X145.028 Y94.71 E55.52728
G1 X145.186 Y95.3 E55.55776
G1 X145.24 Y95.61 E55.57346
G1 X145.293 Y96.218 E55.6039
G1 X145.3 Y96.374 E55.61169
G1 X145.299 Y136.408 E57.609
G1 X145.292 Y136.57 E57.61709
G1 X145.24 Y137.146 E57.64594
G1 X145.186 Y137.449 E57.6613
G1 X145.029 Y138.036 E57.69161
G1 X144.921 Y138.333 E57.70738
G1 X144.661 Y138.889 E57.738
G1 X144.504 Y139.159 E57.75358
G1 X144.156 Y139.656 E57.78385
G1 X143.955 Y139.897 E57.79951
G1 X143.522 Y140.33 E57.83006
G1 X143.281 Y140.531 E57.84572
G1 X142.784 Y140.879 E57.87599
G1 X142.516 Y141.035 E57.89146
G1 X141.961 Y141.295 E57.92203
G1 X141.661 Y141.404 E57.93796
G1 X141.073 Y141.561 E57.96832
G1 X140.765 Y141.615 E57.98392
G1 X140.155 Y141.668 E58.01447
G1 X139.999 Y141.675 E58.02226
G1 X94.967 Y141.674 E60.26891
G1 X94.805 Y141.667 E60.277
G1 X94.228 Y141.615 E60.30591
G1 X93.925 Y141.561 E60.32126
G1 X93.338 Y141.404 E60.35158
G1 X93.039 Y141.295 E60.36746
G1 X92.484 Y141.035 E60.39803
G1 X92.216 Y140.879 E60.4135
G1 X91.719 Y140.531 E60.44377
G1 X91.478 Y140.33 E60.45943
G1 X91.045 Y139.897 E60.48998
G1 X90.844 Y139.656 E60.50564
G1 X90.496 Y139.159 E60.53591
G1 X90.339 Y138.889 E60.55149
G1 X90.079 Y138.333 E60.58211
G1 X89.971 Y138.036 E60.59788
G1 X89.814 Y137.449 E60.62819
G1 X89.76 Y137.14 E60.64384
G1 X89.707 Y136.532 E60.67429
G1 X89.7 Y136.376 E60.68208
G1 X89.701 Y94.851 E62.75377
G1 X89.77 Y94.186 E62.78713
G1 X90.019 Y93.369 E62.82974
G1 X90.442 Y92.631 E62.87217
G1 X91.016 Y92.007 E62.91447
G0 F3600 X91.296 Y92.294
G1 F1500 X91.924 Y91.869 E62.95231
G1 X92.637 Y91.593 E62.99045
G1 X93.349 Y91.483 E63.02639
G1 X93.501 Y91.475 E63.03399
G1 X140.033 Y91.476 E65.35548
G1 X140.159 Y91.482 E65.36177
G1 X140.736 Y91.534 E65.39067
G1 X140.972 Y91.576 E65.40263
G1 X141.559 Y91.733 E65.43295
G1 X141.791 Y91.817 E65.44526
G1 X142.346 Y92.077 E65.47583
G1 X142.555 Y92.198 E65.48788
G1 X143.052 Y92.546 E65.51815
G1 X143.239 Y92.703 E65.53033
G1 X143.672 Y93.136 E65.56089
G1 X143.829 Y93.323 E65.57307
G1 X144.177 Y93.82 E65.60334
G1 X144.298 Y94.029 E65.61538
G1 X144.557 Y94.582 E65.64585
G1 X144.641 Y94.814 E65.65816
G1 X144.799 Y95.404 E65.68863
G1 X144.842 Y95.644 E65.7008
G1 X144.895 Y96.252 E65.73124
G1 X144.9 Y96.374 E65.73734
G1 X144.899 Y136.408 E67.73464
G1 X144.893 Y136.534 E67.74093
G1 X144.841 Y137.11 E67.76979
G1 X144.799 Y137.346 E67.78175
G1 X144.642 Y137.933 E67.81206
G1 X144.558 Y138.164 E67.82432
G1 X144.298 Y138.72 E67.85495
G1 X144.177 Y138.93 E67.86704
G1 X143.829 Y139.427 E67.89731
G1 X143.672 Y139.614 E67.90949
G1 X143.239 Y140.047 E67.94004
G1 X143.052 Y140.204 E67.95222
G1 X142.555 Y140.552 E67.98249
G1 X142.346 Y140.673 E67.99454
G1 X141.791 Y140.933 E68.02512
G1 X141.558 Y141.018 E68.03749
G1 X140.97 Y141.175 E68.06785
G1 X140.73 Y141.217 E68.08001
G1 X140.12 Y141.27 E68.11056
G1 X139.999 Y141.275 E68.1166
G1 X94.967 Y141.274 E70.36325
G1 X94.841 Y141.268 E70.36955
G1 X94.264 Y141.216 E70.39845
G1 X94.028 Y141.174 E70.41041
G1 X93.441 Y141.017 E70.44072
G1 X93.209 Y140.933 E70.45303
G1 X92.654 Y140.673 E70.48361
G1 X92.445 Y140.552 E70.49566
