;FLAVOR:Marlin
;TIME:1433
;Filament used: 1.29974m, 0m
;Layer height: 0.2
;MINX:52.267
;MINY:125.627
;MINZ:0.3
;MAXX:163.447
;MAXY:198.284
;MAXZ:1.7
;Generated with Cura_SteamEngine 4.7.1
T0
M140 S60
M105
M190 S60
M104 S200
M105
M109 S200
M82 ;absolute extrusion mode
M201 X500.00 Y500.00 Z100.00 E5000.00 	;Setup machine max acceleration
M203 X500.00 Y500.00 Z10.00 E50.00 	;Setup machine max feedrate
M204 P500.00 R1000.00 T500.00 		;Setup Print/Retract/Travel acceleration
M205 X8.00 Y8.00 Z0.40 E5.00 		;Setup Jerk
M220 S100 				;Reset Feedrate
M221 S100 				;Reset Flowrate
G28				;Home the Machine
#G29 				;Bed Level
G92 E0
M300 P150 S587
G92 E0
;LAYER_COUNT:8
;LAYER:0
M107
G0 F2160 X70.333 Y126.044 Z0.3
;TYPE:SKIRT
G1 F900 X70.824 Y125.829 E0.02674
G1 X71.342 Y125.689 E0.05351
G1 X71.875 Y125.627 E0.08028
G1 X72.619 Y125.674 E0.11748
G1 X73.307 Y125.86 E0.15303
G1 X74.516 Y126.32 E0.21757
G1 X77.072 Y127.252 E0.3533
G1 X79.681 Y128.12 E0.49048
G1 X82.263 Y128.899 E0.62503
G1 X84.893 Y129.611 E0.76096
G1 X87.579 Y130.259 E0.89881
G1 X90.201 Y130.812 E1.0325
G1 X92.91 Y131.305 E1.16988
G1 X95.598 Y131.715 E1.30553
G1 X98.315 Y132.052 E1.44212
G1 X101.032 Y132.311 E1.57829
G1 X103.753 Y132.492 E1.71434
G1 X106.451 Y132.596 E1.84904
G1 X109.217 Y132.624 E1.98705
G1 X111.908 Y132.575 E2.12132
G1 X114.64 Y132.448 E2.25777
G1 X117.362 Y132.244 E2.39395
G1 X120.081 Y131.963 E2.53033
G1 X122.781 Y131.607 E2.6662
G1 X125.457 Y131.175 E2.80143
G1 X128.16 Y130.662 E2.93869
G1 X130.822 Y130.077 E3.07467
G1 X133.42 Y129.43 E3.20824
G1 X136.085 Y128.684 E3.34631
G1 X138.688 Y127.875 E3.4823
G1 X141.268 Y126.995 E3.6183
G1 X142.964 Y126.349 E3.70884
G1 X142.995 Y126.339 E3.71047
G1 X144.323 Y125.847 E3.78112
G1 X144.839 Y125.699 E3.8079
G1 X145.37 Y125.629 E3.83463
G1 X145.907 Y125.638 E3.86142
G1 X146.435 Y125.728 E3.88814
G1 X146.945 Y125.894 E3.9149
G1 X147.424 Y126.135 E3.94165
G1 X147.863 Y126.444 E3.96844
G1 X148.25 Y126.815 E3.99518
G1 X148.578 Y127.239 E4.02193
G1 X148.839 Y127.707 E4.04866
G1 X149.028 Y128.209 E4.07542
G1 X149.15 Y128.808 E4.10592
G1 X149.197 Y129.214 E4.12631
G1 X149.557 Y131.975 E4.26522
G1 X149.989 Y134.679 E4.40184
G1 X150.489 Y137.327 E4.53628
G1 X151.079 Y140.028 E4.67421
G1 X151.734 Y142.664 E4.80972
G1 X152.453 Y145.25 E4.94363
G1 X153.268 Y147.885 E5.08124
G1 X154.151 Y150.478 E5.2179
G1 X155.097 Y153.022 E5.35331
G1 X156.117 Y155.544 E5.48903
G1 X157.201 Y158.016 E5.6237
G1 X158.398 Y160.553 E5.76365
G1 X158.467 Y160.71 E5.77221
G1 X158.682 Y161.228 E5.80019
G1 X158.912 Y161.958 E5.83837
G1 X159.428 Y163.923 E5.93973
G1 X160.19 Y166.528 E6.07514
G1 X161.022 Y169.104 E6.21019
G1 X161.949 Y171.713 E6.34833
G1 X162.792 Y173.903 E6.4654
G1 X163.034 Y174.509 E6.49796
G1 X163.26 Y175.173 E6.53295
G1 X163.388 Y175.693 E6.55967
G1 X163.443 Y176.304 E6.59027
G1 X163.447 Y176.676 E6.60884
G1 X163.409 Y177.211 E6.63559
G1 X163.293 Y177.734 E6.66232
G1 X163.099 Y178.234 E6.68908
G1 X162.834 Y178.7 E6.71582
G1 X162.658 Y178.94 E6.73067
G1 X162.342 Y179.335 E6.75591
G1 X161.211 Y180.713 E6.84485
G1 X159.531 Y182.879 E6.9816
G1 X157.912 Y185.093 E7.11844
G1 X156.374 Y187.328 E7.2538
G1 X154.908 Y189.591 E7.38832
G1 X154.448 Y190.356 E7.43285
G1 X154.403 Y190.42 E7.43676
G1 X153.476 Y191.918 E7.52465
G1 X152.555 Y193.358 E7.60992
G1 X152.248 Y193.852 E7.63894
G1 X151.924 Y194.314 E7.66709
G1 X151.513 Y194.826 E7.69985
G1 X151.11 Y195.263 E7.72951
G1 X150.614 Y195.716 E7.76302
G1 X150.09 Y196.118 E7.79597
G1 X149.543 Y196.481 E7.82872
G1 X148.97 Y196.805 E7.86156
G1 X148.866 Y196.86 E7.86743
G1 X148.39 Y197.097 E7.89396
G1 X148.178 Y197.194 E7.90559
G1 X147.551 Y197.457 E7.93951
G1 X147.32 Y197.544 E7.95183
G1 X146.535 Y197.811 E7.9932
G1 X145.931 Y197.974 E8.02441
G1 X145.766 Y198.008 E8.03281
G1 X144.975 Y198.155 E8.07295
G1 X144.349 Y198.237 E8.10445
G1 X143.767 Y198.277 E8.13355
G1 X143.251 Y198.284 E8.1593
G1 X142.469 Y198.257 E8.19834
G1 X141.824 Y198.196 E8.23066
G1 X141.637 Y198.167 E8.2401
G1 X140.801 Y198.018 E8.28247
G1 X140.294 Y197.902 E8.30841
G1 X140.214 Y197.882 E8.31253
G1 X139.574 Y197.712 E8.34557
G1 X139.497 Y197.697 E8.34948
G1 X138.198 Y197.343 E8.41665
G1 X135.078 Y196.596 E8.57671
G1 X133.294 Y196.21 E8.66777
G1 X132.779 Y196.072 E8.69437
G1 X130.722 Y195.47 E8.8013
G1 X128.082 Y194.777 E8.93747
G1 X125.462 Y194.168 E9.07167
G1 X122.771 Y193.623 E9.20865
G1 X120.085 Y193.157 E9.34466
G1 X117.364 Y192.763 E9.48182
G1 X114.661 Y192.451 E9.61757
G1 X111.977 Y192.217 E9.75198
G1 X109.213 Y192.055 E9.89012
G1 X106.518 Y191.973 E10.02463
G1 X103.789 Y191.967 E10.16078
G1 X101.061 Y192.038 E10.29693
G1 X98.329 Y192.188 E10.43344
G1 X95.616 Y192.413 E10.56925
G1 X92.893 Y192.717 E10.70595
G1 X90.193 Y193.096 E10.84197
G1 X87.524 Y193.548 E10.97702
G1 X84.86 Y194.075 E11.11251
G1 X82.148 Y194.694 E11.25129
G1 X79.573 Y195.359 E11.38397
G1 X76.778 Y196.167 E11.52912
G1 X75.868 Y196.444 E11.57658
G1 X75.109 Y196.619 E11.61544
G1 X74.504 Y196.725 E11.64609
G1 X73.934 Y196.794 E11.67473
G1 X73.267 Y196.839 E11.70808
G1 X72.676 Y196.858 E11.73758
G1 X72.024 Y196.841 E11.77012
G1 X71.51 Y196.805 E11.79583
G1 X71.274 Y196.777 E11.80769
G1 X70.32 Y196.635 E11.85581
G1 X69.695 Y196.505 E11.88765
G1 X69.064 Y196.333 E11.92028
G1 X68.417 Y196.112 E11.95439
G1 X67.846 Y195.879 E11.98516
G1 X67.319 Y195.634 E12.01416
G1 X66.587 Y195.221 E12.05609
G1 X66.127 Y194.917 E12.0836
G1 X65.543 Y194.472 E12.12023
G1 X65.157 Y194.132 E12.14589
G1 X64.761 Y193.744 E12.17355
G1 X64.401 Y193.344 E12.2004
G1 X64.071 Y192.932 E12.22673
G1 X63.698 Y192.399 E12.25919
G1 X63.378 Y191.913 E12.28822
G1 X62.178 Y190.118 E12.39594
G1 X61.862 Y189.654 E12.42395
G1 X60.82 Y188.085 E12.51791
G1 X60.572 Y187.7 E12.54076
G1 X59.053 Y185.484 E12.6748
G1 X57.441 Y183.267 E12.81155
G1 X55.762 Y181.09 E12.94871
G1 X54.011 Y178.949 E13.0867
G1 X53.135 Y177.924 E13.15397
G1 X52.818 Y177.492 E13.1807
G1 X52.569 Y177.017 E13.20746
G1 X52.393 Y176.51 E13.23424
G1 X52.294 Y175.983 E13.26099
G1 X52.267 Y175.468 E13.28672
G1 X52.272 Y174.841 E13.318
G1 X52.32 Y174.307 E13.34475
G1 X52.439 Y173.812 E13.37015
G1 X52.538 Y173.534 E13.38487
G1 X52.877 Y172.691 E13.4302
G1 X53.874 Y170.104 E13.56852
G1 X54.777 Y167.546 E13.70386
G1 X55.604 Y164.973 E13.83869
G1 X56.38 Y162.306 E13.97727
G1 X56.911 Y160.285 E14.08152
G1 X56.951 Y160.128 E14.0896
G1 X57.122 Y159.62 E14.11634
G1 X57.281 Y159.291 E14.13457
G1 X57.642 Y158.631 E14.1721
G1 X57.938 Y158.116 E14.20174
G1 X59.203 Y155.755 E14.33537
G1 X60.445 Y153.277 E14.47366
G1 X61.59 Y150.814 E14.60917
G1 X62.654 Y148.348 E14.74316
G1 X63.679 Y145.774 E14.88138
G1 X64.62 Y143.204 E15.01793
G1 X65.477 Y140.639 E15.15285
G1 X66.26 Y138.054 E15.2876
G1 X66.997 Y135.348 E15.42752
G1 X67.621 Y132.773 E15.55971
G1 X68.196 Y130.068 E15.69767
G1 X68.485 Y128.55 E15.77477
G1 X68.624 Y128.033 E15.80148
G1 X68.839 Y127.541 E15.82826
G1 X69.124 Y127.087 E15.85501
G1 X69.473 Y126.68 E15.88176
G1 X69.88 Y126.33 E15.90854
G1 X70.333 Y126.044 E15.93526
G0 F2160 X70.676 Y126.32
G1 F900 X71.151 Y126.145 E15.96052
G1 X71.646 Y126.046 E15.9857
G1 X72.152 Y126.027 E16.01097
G1 X72.553 Y126.069 E16.03108
G1 X73.165 Y126.234 E16.0627
G1 X74.374 Y126.694 E16.12724
G1 X76.945 Y127.632 E16.26378
G1 X79.512 Y128.486 E16.39875
G1 X82.181 Y129.291 E16.53783
G1 X84.801 Y130 E16.67324
G1 X87.475 Y130.645 E16.81048
G1 X90.129 Y131.206 E16.94581
G1 X92.844 Y131.7 E17.08349
G1 X95.525 Y132.11 E17.2188
G1 X98.265 Y132.449 E17.35654
G1 X101.001 Y132.71 E17.49366
G1 X103.714 Y132.89 E17.62931
G1 X106.466 Y132.997 E17.76671
G1 X109.22 Y133.024 E17.90411
G1 X111.899 Y132.975 E18.03779
G1 X114.688 Y132.845 E18.17709
G1 X117.397 Y132.642 E18.31262
G1 X120.137 Y132.359 E18.45004
G1 X122.83 Y132.004 E18.58556
G1 X125.524 Y131.57 E18.7217
G1 X128.249 Y131.052 E18.86008
G1 X130.899 Y130.47 E18.99544
G1 X133.519 Y129.817 E19.13015
G1 X136.207 Y129.065 E19.26941
G1 X138.821 Y128.253 E19.40597
G1 X141.37 Y127.383 E19.54034
G1 X143.106 Y126.722 E19.63302
G1 X143.136 Y126.713 E19.63458
G1 X144.462 Y126.222 E19.70512
G1 X144.949 Y126.085 E19.73036
G1 X145.451 Y126.025 E19.75559
G1 X145.956 Y126.046 E19.7808
G1 X146.452 Y126.146 E19.80605
G1 X146.925 Y126.322 E19.83122
G1 X147.365 Y126.571 E19.85645
G1 X147.761 Y126.887 E19.88172
G1 X148.101 Y127.26 E19.9069
G1 X148.379 Y127.683 E19.93216
G1 X148.586 Y128.144 E19.95737
G1 X148.753 Y128.854 E19.99376
G1 X148.806 Y129.311 E20.01671
G1 X149.156 Y131.997 E20.15185
G1 X149.595 Y134.744 E20.29063
G1 X150.099 Y137.414 E20.42619
G1 X150.687 Y140.109 E20.56381
G1 X151.346 Y142.762 E20.70019
G1 X152.084 Y145.413 E20.83748
G1 X152.879 Y147.986 E20.97184
G1 X153.773 Y150.609 E21.11009
G1 X154.722 Y153.164 E21.24607
G1 X155.744 Y155.689 E21.38197
G1 X156.844 Y158.199 E21.51869
G1 X158.036 Y160.724 E21.65799
G1 X158.098 Y160.863 E21.66559
G1 X158.313 Y161.381 E21.69357
G1 X158.527 Y162.065 E21.72932
G1 X159.042 Y164.031 E21.83072
G1 X159.811 Y166.658 E21.96728
G1 X160.645 Y169.238 E22.10255
G1 X161.57 Y171.842 E22.24042
G1 X162.421 Y174.051 E22.35852
G1 X162.663 Y174.657 E22.39108
G1 X162.879 Y175.297 E22.42478
G1 X162.999 Y175.789 E22.45004
G1 X163.043 Y176.321 E22.47668
G1 X163.047 Y176.677 E22.49444
G1 X163.009 Y177.181 E22.51965
G1 X162.892 Y177.673 E22.54488
G1 X162.7 Y178.141 E22.57012
G1 X162.346 Y178.69 E22.60271
G1 X162.033 Y179.081 E22.6277
G1 X160.889 Y180.475 E22.71767
G1 X159.208 Y182.643 E22.85453
G1 X157.604 Y184.837 E22.99013
G1 X156.042 Y187.106 E23.12756
G1 X154.554 Y189.404 E23.26414
G1 X154.105 Y190.15 E23.30758
G1 X154.061 Y190.211 E23.31133
G1 X153.139 Y191.703 E23.39883
G1 X152.215 Y193.147 E23.48436
G1 X151.908 Y193.641 E23.51338
G1 X151.612 Y194.063 E23.5391
G1 X151.201 Y194.575 E23.57185
G1 X150.824 Y194.983 E23.59957
G1 X150.348 Y195.416 E23.63167
G1 X149.866 Y195.787 E23.66202
G1 X149.338 Y196.137 E23.69362
G1 X148.78 Y196.453 E23.72561
G1 X148.687 Y196.502 E23.73086
G1 X148.211 Y196.739 E23.75739
G1 X148.023 Y196.825 E23.7677
G1 X147.396 Y197.088 E23.80162
G1 X147.191 Y197.166 E23.81256
G1 X146.49 Y197.405 E23.84951
G1 X146.008 Y197.544 E23.87454
G1 X145.693 Y197.615 E23.89065
G1 X144.902 Y197.762 E23.93079
G1 X144.319 Y197.838 E23.96012
G1 X143.756 Y197.877 E23.98828
G1 X143.265 Y197.884 E24.01278
G1 X142.483 Y197.857 E24.05181
G1 X141.883 Y197.801 E24.08188
G1 X141.708 Y197.773 E24.09072
G1 X140.872 Y197.624 E24.13308
G1 X140.317 Y197.496 E24.1615
G1 X139.649 Y197.318 E24.19599
G1 X139.602 Y197.311 E24.19836
G1 X138.291 Y196.954 E24.26615
G1 X135.204 Y196.215 E24.42451
G1 X133.379 Y195.819 E24.51768
G1 X132.886 Y195.687 E24.54314
G1 X130.822 Y195.083 E24.65043
G1 X128.211 Y194.398 E24.7851
G1 X125.543 Y193.776 E24.92178
G1 X122.841 Y193.229 E25.05932
G1 X120.139 Y192.761 E25.19613
G1 X117.44 Y192.37 E25.33219
G1 X114.702 Y192.053 E25.4697
G1 X111.966 Y191.815 E25.60672
G1 X109.282 Y191.658 E25.74085
G1 X106.497 Y191.573 E25.87986
G1 X103.78 Y191.567 E26.01541
G1 X101.028 Y191.639 E26.15276
G1 X98.31 Y191.788 E26.28856
G1 X95.571 Y192.015 E26.42568
G1 X92.864 Y192.317 E26.56157
G1 X90.142 Y192.699 E26.6987
G1 X87.451 Y193.155 E26.83487
G1 X84.765 Y193.687 E26.97148
G1 X82.07 Y194.302 E27.10939
G1 X82.061 Y194.303 E27.10984
G1 X79.434 Y194.982 E27.24521
G1 X76.697 Y195.773 E27.38735
G1 X75.752 Y196.061 E27.43663
G1 X75.026 Y196.228 E27.4738
G1 X74.456 Y196.328 E27.50267
G1 X73.886 Y196.397 E27.53132
G1 X73.384 Y196.43 E27.55642
G1 X73.241 Y196.439 E27.56356
G1 X72.682 Y196.458 E27.59147
G1 X72.039 Y196.442 E27.62356
G1 X71.481 Y196.4 E27.65148
G1 X71.333 Y196.381 E27.65892
G1 X70.379 Y196.239 E27.70704
G1 X69.797 Y196.118 E27.7367
G1 X69.187 Y195.952 E27.76824
G1 X68.55 Y195.735 E27.80181
G1 X68.002 Y195.51 E27.83136
G1 X67.504 Y195.279 E27.85875
G1 X66.79 Y194.876 E27.89966
G1 X66.363 Y194.595 E27.92516
G1 X65.807 Y194.171 E27.96004
G1 X65.429 Y193.839 E27.98514
G1 X65.058 Y193.477 E28.011
G1 X64.698 Y193.077 E28.03785
G1 X64.398 Y192.703 E28.06177
G1 X64.025 Y192.17 E28.09423
G1 X63.733 Y191.725 E28.12078
G1 X62.49 Y189.865 E28.23239
G1 X62.195 Y189.432 E28.25853
G1 X61.156 Y187.869 E28.35217
G1 X60.914 Y187.493 E28.37447
G1 X59.357 Y185.221 E28.51189
G1 X57.753 Y183.016 E28.64792
G1 X56.086 Y180.854 E28.78413
G1 X54.321 Y178.696 E28.92321
G1 X53.439 Y177.664 E28.99094
G1 X53.142 Y177.255 E29.01616
G1 X52.913 Y176.805 E29.04135
G1 X52.758 Y176.323 E29.06661
G1 X52.674 Y175.684 E29.09876
G1 X52.672 Y174.848 E29.14047
G1 X52.72 Y174.344 E29.16573
G1 X52.909 Y173.683 E29.20003
G1 X53.26 Y172.81 E29.24697
G1 X54.248 Y170.244 E29.38415
G1 X55.148 Y167.696 E29.51897
G1 X55.993 Y165.069 E29.65664
G1 X56.757 Y162.44 E29.79323
G1 X57.339 Y160.227 E29.90739
G1 X57.502 Y159.748 E29.93264
G1 X57.632 Y159.483 E29.94736
G1 X57.989 Y158.83 E29.98449
G1 X58.271 Y158.339 E30.01274
G1 X59.592 Y155.874 E30.15226
G1 X60.787 Y153.488 E30.2854
G1 X61.955 Y150.975 E30.42365
G1 X63.034 Y148.476 E30.55945
G1 X64.05 Y145.923 E30.69654
G1 X64.988 Y143.362 E30.83261
G1 X65.866 Y140.734 E30.97084
G1 X66.643 Y138.17 E31.10451
G1 X67.373 Y135.491 E31.24303
G1 X68.012 Y132.856 E31.37831
G1 X68.595 Y130.113 E31.51821
G1 X68.878 Y128.625 E31.59378
G1 X69.011 Y128.138 E31.61896
G1 X69.22 Y127.677 E31.64422
G1 X69.498 Y127.255 E31.66943
G1 X69.84 Y126.882 E31.69468
G1 X70.236 Y126.568 E31.71989
G1 X70.676 Y126.32 E31.74509
;MESH:Cupid.stl
G0 F2160 X70.839 Y135.414
G0 X71.72 Y135.485
G0 X71.39 Y146.079
G0 X71.244 Y157.968
G0 X71.838 Y159.991
;TYPE:WALL-INNER
G1 F900 X72.474 Y159.987 E31.77682
G1 X72.976 Y159.98 E31.80187
G1 X73.446 Y159.989 E31.82532
G1 X73.49 Y159.991 E31.82752
G1 X73.866 Y160.02 E31.84633
G1 X74.418 Y160.108 E31.87422
G1 X74.71 Y160.193 E31.88939
G1 X74.707 Y160.38 E31.89872
G1 X74.632 Y160.9 E31.92493
G1 X74.514 Y161.558 E31.95828
G1 X74.464 Y162.315 E31.99613
G1 X74.529 Y163.12 E32.03643
G1 X74.712 Y163.83 E32.07301
G1 X74.9 Y164.516 E32.10849
G1 X75.01 Y165.15 E32.1406
G1 X75.102 Y165.889 E32.17775
G1 X75.597 Y169.452 E32.35721
G1 X75.608 Y169.529 E32.3611
G1 X75.77 Y169.429 E32.36606
G1 X75.775 Y169.518
G1 X75.803 Y169.935 E32.38691
G1 X76.599 Y171.797 E32.48794
G1 X76.953 Y172.513 E32.52779
G1 X77.436 Y173.237 E32.57121
G1 X77.915 Y173.654 E32.60289
G1 X79.07 Y174.394 E32.67133
G1 X79.551 Y174.721 E32.70034
G1 X80.027 Y175.07 E32.72979
G1 X80.445 Y175.411 E32.75671
G1 X80.639 Y175.593 E32.76998
G1 X79.549 Y177.934 E32.89881
G1 X78.913 Y179.389 E32.97803
G1 X78.299 Y179.588 E33.01023
G1 X78.689 Y181.853 E33.1249
G1 X78.944 Y182.735 E33.1707
G1 X79.668 Y183.872 E33.23795
G1 X79.982 Y184.497 E33.27285
G1 X80.068 Y184.74 E33.28571
G1 X80.126 Y185.082 E33.30301
G1 X80.122 Y185.319 E33.31484
G1 X79.905 Y186.992 E33.399
G1 X80.06 Y187.038 E33.40707
G1 X80.321 Y187.116 E33.42066
G1 X80.167 Y187.341 E33.42876
G1 X79.74 Y187.964 E33.46644
G1 X79.846 Y188.13 E33.47627
G1 X79.895 Y188.205 E33.48074
G1 X79.826 Y188.227 E33.48128
G1 X79.561 Y188.314 E33.49138
G1 X78.826 Y188.734 E33.53361
G1 X77.426 Y189.695 E33.61833
G1 X76.771 Y190.129 E33.65753
G1 X76.146 Y190.508 E33.694
G1 X75.578 Y190.809 E33.72607
G1 X74.963 Y191.076 E33.75952
G1 X74.351 Y191.271 E33.79156
G1 X73.688 Y191.404 E33.8253
G1 X73.247 Y191.446 E33.8474
G1 X72.699 Y191.467 E33.87476
G1 X72.198 Y191.45 E33.89977
G1 X71.671 Y191.399 E33.92619
G1 X71.186 Y191.316 E33.95073
G1 X70.709 Y191.197 E33.97526
G1 X70.228 Y191.035 E34.00058
G1 X69.8 Y190.846 E34.02392
G1 X69.382 Y190.609 E34.0479
G1 X69.015 Y190.349 E34.07034
G1 X68.68 Y190.046 E34.09287
G1 X68.387 Y189.708 E34.11519
G1 X68.114 Y189.304 E34.13951
