;FLAVOR:Marlin
;TIME:4072
;Filament used: 3.10071m, 0m
;Layer height: 0.15
;MINX:57.418
;MINY:72.169
;MINZ:0.3
;MAXX:177.582
;MAXY:187.757
;MAXZ:2.25
;POSTPROCESSED
;Generated with Cura_SteamEngine 4.7.1
T0
M140 S60
M105
M190 S60
M104 S190
M105
M109 S190
M82 ;absolute extrusion mode
M201 X500.00 Y500.00 Z100.00 E5000.00 	;Setup machine max acceleration
M203 X500.00 Y500.00 Z10.00 E50.00 	;Setup machine max feedrate
M204 P500.00 R1000.00 T500.00 		;Setup Print/Retract/Travel acceleration
M205 X8.00 Y8.00 Z0.40 E5.00 		;Setup Jerk
M220 S100 				;Reset Feedrate
M221 S100 				;Reset Flowrate
G28				;Home the Machine
G29 				;Bed Level
G92 E0
M300 P150 S587
G92 E0
G1 F1500 E-6.5
;LAYER_COUNT:14
;LAYER:0
M107
G0 F3600 X64.063 Y107.917 Z0.3
;TYPE:SKIRT
G1 F1500 E0
G1 X64.561 Y107.643 E0.02836
G1 X65.275 Y107.295 E0.06799
G1 X65.786 Y107.077 E0.0957
G1 X66.524 Y106.805 E0.13494
G1 X67.056 Y106.639 E0.16275
G1 X67.79 Y106.448 E0.20058
G1 X68.338 Y106.334 E0.22851
G1 X68.735 Y106.263 E0.24863
G1 X82.187 Y104.183 E0.92773
G1 X82.352 Y104.032 E0.93889
G1 X83.065 Y103.456 E0.98462
G1 X83.447 Y103.166 E1.00854
G1 X84.17 Y102.652 E1.0528
G1 X84.588 Y102.375 E1.07782
G1 X85.018 Y102.118 E1.10281
G1 X85.754 Y101.707 E1.14487
G1 X85.921 Y101.616 E1.15436
G1 X86.665 Y101.224 E1.19631
G1 X87.02 Y101.048 E1.21608
G1 X87.775 Y100.698 E1.2576
G1 X88.311 Y100.474 E1.28658
G1 X89.061 Y100.192 E1.32655
G1 X89.785 Y99.959 E1.3645
G1 X90.579 Y99.746 E1.40551
G1 X91.241 Y99.599 E1.43934
G1 X92.083 Y99.45 E1.48201
G1 X92.55 Y99.382 E1.50555
G1 X93.293 Y99.296 E1.54287
G1 X93.513 Y98.861 E1.56719
G1 X94.09 Y97.992 E1.61923
G1 X94.337 Y97.669 E1.63951
G1 X94.848 Y97.067 E1.67891
G1 X95.567 Y96.392 E1.72811
G1 X96.003 Y96.032 E1.75632
G1 X96.636 Y95.561 E1.79568
G1 X97.582 Y95.021 E1.85003
G1 X97.784 Y94.924 E1.86121
G1 X105.569 Y79.502 E2.72309
G1 X105.756 Y79.153 E2.74284
G1 X106.032 Y78.669 E2.77064
G1 X106.443 Y78.024 E2.80879
G1 X106.766 Y77.568 E2.83667
G1 X107.264 Y76.937 E2.87678
G1 X107.632 Y76.517 E2.90464
G1 X108.175 Y75.957 E2.94355
G1 X108.584 Y75.575 E2.97147
G1 X109.159 Y75.087 E3.0091
G1 X109.602 Y74.747 E3.03696
G1 X110.264 Y74.292 E3.07703
G1 X110.737 Y74.001 E3.10474
G1 X111.437 Y73.618 E3.14455
G1 X111.939 Y73.376 E3.17235
G1 X112.639 Y73.079 E3.21029
G1 X113.165 Y72.886 E3.23824
G1 X113.901 Y72.657 E3.2767
G1 X114.439 Y72.518 E3.30442
G1 X115.234 Y72.356 E3.3449
G1 X115.788 Y72.273 E3.37285
G1 X116.552 Y72.197 E3.41115
G1 X117.108 Y72.169 E3.43892
G1 X117.892 Y72.169 E3.47804
G1 X118.448 Y72.197 E3.50581
G1 X119.212 Y72.273 E3.54412
G1 X119.766 Y72.356 E3.57206
G1 X120.561 Y72.518 E3.61254
G1 X121.099 Y72.657 E3.64026
G1 X121.835 Y72.886 E3.67872
G1 X122.361 Y73.079 E3.70667
G1 X123.061 Y73.376 E3.74461
G1 X123.563 Y73.618 E3.77241
G1 X124.263 Y74.001 E3.81222
G1 X124.736 Y74.292 E3.83993
G1 X125.398 Y74.747 E3.88
G1 X125.841 Y75.087 E3.90786
G1 X126.416 Y75.575 E3.94549
G1 X126.825 Y75.957 E3.97341
G1 X127.368 Y76.518 E4.01236
G1 X127.735 Y76.937 E4.04015
G1 X128.226 Y77.558 E4.07965
G1 X128.55 Y78.014 E4.10755
G1 X128.974 Y78.679 E4.1469
G1 X129.249 Y79.163 E4.17467
G1 X129.43 Y79.501 E4.1938
G1 X140.967 Y102.354 E5.47099
G1 X166.264 Y106.263 E6.74804
G1 X166.662 Y106.334 E6.76821
G1 X167.21 Y106.448 E6.79614
G1 X167.944 Y106.639 E6.83398
G1 X168.476 Y106.805 E6.86178
G1 X169.226 Y107.082 E6.90167
G1 X169.737 Y107.301 E6.92941
G1 X170.428 Y107.638 E6.96776
G1 X170.918 Y107.908 E6.99567
G1 X171.107 Y108.014 E7.00649
G1 X171.607 Y108.335 E7.03613
G1 X172.063 Y108.652 E7.06384
G1 X172.654 Y109.105 E7.10099
G1 X173.08 Y109.466 E7.12884
G1 X173.663 Y110.015 E7.1688
G1 X174.049 Y110.417 E7.1966
G1 X174.563 Y111.008 E7.23568
G1 X174.907 Y111.447 E7.2635
G1 X175.352 Y112.078 E7.30202
G1 X175.651 Y112.549 E7.32986
G1 X176.04 Y113.235 E7.3692
G1 X176.29 Y113.734 E7.39705
G1 X176.606 Y114.454 E7.43627
G1 X176.805 Y114.977 E7.46419
G1 X177.042 Y115.705 E7.50239
G1 X177.188 Y116.242 E7.53015
G1 X177.356 Y117.015 E7.56962
G1 X177.447 Y117.565 E7.59743
G1 X177.537 Y118.349 E7.6368
G1 X177.572 Y118.906 E7.66464
G1 X177.582 Y119.675 E7.70301
G1 X177.562 Y120.232 E7.73082
G1 X177.493 Y121.024 E7.77048
G1 X177.416 Y121.579 E7.79844
G1 X177.27 Y122.346 E7.83739
G1 X177.139 Y122.886 E7.86511
G1 X176.922 Y123.622 E7.90339
G1 X176.737 Y124.151 E7.93135
G1 X176.441 Y124.878 E7.97051
G1 X176.206 Y125.381 E7.99821
G1 X175.836 Y126.078 E8.03758
G1 X175.55 Y126.557 E8.06542
G1 X175.111 Y127.213 E8.1048
G1 X174.777 Y127.662 E8.13271
G1 X174.28 Y128.265 E8.1717
G1 X173.904 Y128.677 E8.19953
G1 X173.638 Y128.955 E8.21872
G1 X163.204 Y139.311 E8.95215
G1 X163.212 Y139.549 E8.96403
G1 X163.158 Y140.336 E9.00339
G1 X163.031 Y141.086 E9.04134
G1 X162.904 Y141.664 E9.07086
G1 X162.696 Y142.426 E9.11027
G1 X162.412 Y143.162 E9.14963
G1 X162.077 Y143.827 E9.18678
G1 X161.89 Y144.158 E9.20574
G1 X161.467 Y144.825 E9.24515
G1 X160.979 Y145.446 E9.28455
G1 X160.402 Y146.041 E9.3259
G1 X159.991 Y146.422 E9.35386
G1 X159.385 Y146.929 E9.39328
G1 X158.731 Y147.372 E9.43269
G1 X157.846 Y147.834 E9.4825
G1 X157.356 Y148.051 E9.50923
G1 X156.619 Y148.334 E9.54862
G1 X155.857 Y148.541 E9.58801
G1 X155.725 Y148.565 E9.59471
G1 X159.568 Y172.257 E10.79216
G1 X159.62 Y172.635 E10.81119
G1 X159.682 Y173.187 E10.8389
G1 X159.731 Y173.974 E10.87824
G1 X159.737 Y174.533 E10.90613
G1 X159.704 Y175.329 E10.94588
G1 X159.653 Y175.885 E10.97374
G1 X159.545 Y176.652 E11.01238
G1 X159.439 Y177.201 E11.04027
G1 X159.258 Y177.939 E11.07818
G1 X159.1 Y178.472 E11.10592
G1 X158.834 Y179.226 E11.14581
G1 X158.621 Y179.743 E11.17371
G1 X158.285 Y180.455 E11.21298
G1 X158.022 Y180.946 E11.24077
G1 X157.623 Y181.609 E11.27938
G1 X157.311 Y182.074 E11.30732
G1 X156.845 Y182.699 E11.34621
G1 X156.491 Y183.127 E11.37392
G1 X155.946 Y183.72 E11.4141
G1 X155.548 Y184.111 E11.44194
G1 X154.973 Y184.623 E11.48035
G1 X154.537 Y184.974 E11.50827
G1 X153.914 Y185.427 E11.5467
G1 X153.449 Y185.731 E11.57442
G1 X152.775 Y186.125 E11.61337
G1 X152.28 Y186.382 E11.6412
G1 X151.554 Y186.713 E11.681
G1 X151.033 Y186.919 E11.70895
G1 X150.313 Y187.163 E11.74688
G1 X149.779 Y187.316 E11.77459
G1 X148.997 Y187.497 E11.81464
G1 X148.446 Y187.595 E11.84256
G1 X147.68 Y187.693 E11.88109
G1 X147.123 Y187.736 E11.90896
G1 X146.34 Y187.757 E11.94804
G1 X145.785 Y187.744 E11.97573
G1 X145.021 Y187.688 E12.01395
G1 X144.465 Y187.62 E12.0419
G1 X143.659 Y187.478 E12.08273
G1 X143.117 Y187.353 E12.11048
G1 X142.391 Y187.149 E12.1481
G1 X141.86 Y186.971 E12.17604
G1 X141.117 Y186.678 E12.21589
G1 X140.61 Y186.448 E12.24367
G1 X140.265 Y186.281 E12.26279
G1 X117.5 Y174.573 E13.53994
G1 X94.735 Y186.281 E14.81709
G1 X94.384 Y186.451 E14.83655
G1 X93.878 Y186.68 E14.86426
G1 X93.149 Y186.967 E14.90335
G1 X92.617 Y187.146 E14.93135
G1 X91.87 Y187.357 E14.97008
G1 X91.328 Y187.481 E14.99782
G1 X90.549 Y187.618 E15.03728
G1 X89.993 Y187.687 E15.06523
G1 X89.215 Y187.744 E15.10415
G1 X88.66 Y187.757 E15.13184
G1 X87.877 Y187.736 E15.17092
G1 X87.32 Y187.693 E15.19879
G1 X86.554 Y187.595 E15.23732
G1 X86.003 Y187.497 E15.26524
G1 X85.221 Y187.316 E15.30529
G1 X84.687 Y187.163 E15.333
G1 X83.967 Y186.919 E15.37093
G1 X83.446 Y186.713 E15.39888
G1 X82.72 Y186.382 E15.43869
G1 X82.225 Y186.125 E15.46651
G1 X81.551 Y185.731 E15.50546
G1 X81.086 Y185.427 E15.53318
G1 X80.471 Y184.981 E15.57108
G1 X80.035 Y184.631 E15.59897
G1 X79.445 Y184.105 E15.63841
G1 X79.047 Y183.713 E15.66628
G1 X78.509 Y183.127 E15.70597
G1 X78.155 Y182.699 E15.73368
G1 X77.689 Y182.074 E15.77257
G1 X77.377 Y181.609 E15.80051
G1 X76.978 Y180.946 E15.83911
G1 X76.715 Y180.455 E15.8669
G1 X76.379 Y179.743 E15.90618
G1 X76.166 Y179.226 E15.93408
G1 X75.9 Y178.472 E15.97397
G1 X75.742 Y177.939 E16.0017
G1 X75.561 Y177.201 E16.03961
G1 X75.455 Y176.652 E16.06751
G1 X75.347 Y175.888 E16.106
G1 X75.296 Y175.334 E16.13376
G1 X75.263 Y174.535 E16.17366
G1 X75.269 Y173.977 E16.2015
G1 X75.317 Y173.195 E16.24058
G1 X75.379 Y172.64 E16.26845
G1 X75.432 Y172.257 E16.28774
G1 X79.532 Y146.989 E17.56485
G1 X61.362 Y128.955 E18.84205
G1 X61.096 Y128.677 E18.86125
G1 X60.72 Y128.265 E18.88907
G1 X60.223 Y127.662 E18.92806
G1 X59.889 Y127.213 E18.95598
G1 X59.45 Y126.557 E18.99536
G1 X59.164 Y126.078 E19.02319
G1 X58.794 Y125.381 E19.06256
G1 X58.559 Y124.878 E19.09026
G1 X58.263 Y124.151 E19.12942
G1 X58.078 Y123.622 E19.15738
G1 X57.861 Y122.886 E19.19566
G1 X57.73 Y122.346 E19.22338
G1 X57.584 Y121.579 E19.26234
G1 X57.507 Y121.024 E19.29029
G1 X57.438 Y120.233 E19.3299
G1 X57.418 Y119.678 E19.35761
G1 X57.428 Y118.908 E19.39603
G1 X57.463 Y118.351 E19.42387
G1 X57.552 Y117.571 E19.46304
G1 X57.643 Y117.019 E19.49095
G1 X57.812 Y116.242 E19.53062
G1 X57.958 Y115.705 E19.55839
G1 X58.194 Y114.98 E19.59642
G1 X58.392 Y114.459 E19.62423
G1 X58.709 Y113.736 E19.66362
G1 X58.959 Y113.237 E19.69146
G1 X59.344 Y112.557 E19.73045
G1 X59.643 Y112.085 E19.75832
G1 X60.091 Y111.45 E19.79709
G1 X60.434 Y111.012 E19.82485
G1 X60.949 Y110.418 E19.86407
G1 X61.336 Y110.015 E19.89195
G1 X61.918 Y109.468 E19.93179
G1 X62.345 Y109.106 E19.95972
G1 X62.937 Y108.652 E19.99694
G1 X63.393 Y108.335 E20.02465
G1 X64.063 Y107.917 E20.06405
G0 F3600 X64.275 Y108.257
G1 F1500 X64.296 Y108.247 E20.06521
G1 X64.755 Y107.993 E20.09138
G1 X65.432 Y107.663 E20.12895
G1 X65.943 Y107.445 E20.15667
G1 X66.643 Y107.187 E20.19389
G1 X67.175 Y107.021 E20.22169
G1 X67.872 Y106.84 E20.25762
G1 X68.42 Y106.726 E20.28555
G1 X68.796 Y106.658 E20.30461
G1 X82.368 Y104.56 E20.98976
G1 X82.604 Y104.343 E21.00576
G1 X83.317 Y103.767 E21.05149
G1 X83.679 Y103.492 E21.07417
G1 X84.402 Y102.978 E21.11842
G1 X84.929 Y102.634 E21.14982
G1 X85.213 Y102.467 E21.16626
G1 X85.949 Y102.056 E21.20831
G1 X86.108 Y101.97 E21.21733
G1 X86.852 Y101.578 E21.25929
G1 X87.189 Y101.411 E21.27805
G1 X87.944 Y101.061 E21.31957
G1 X88.452 Y100.848 E21.34705
G1 X89.202 Y100.566 E21.38703
G1 X89.889 Y100.346 E21.42302
G1 X90.683 Y100.133 E21.46403
G1 X91.311 Y99.993 E21.49613
G1 X92.153 Y99.844 E21.53879
G1 X92.596 Y99.78 E21.56112
G1 X93.551 Y99.671 E21.60908
G1 X93.87 Y99.042 E21.64426
G1 X94.408 Y98.235 E21.69265
G1 X94.655 Y97.912 E21.71294
G1 X95.153 Y97.326 E21.7513
G1 X95.821 Y96.701 E21.79694
G1 X96.257 Y96.341 E21.82515
G1 X96.875 Y95.883 E21.86353
G1 X97.756 Y95.381 E21.91411
G1 X98.08 Y95.225 E21.93206
G1 X105.926 Y79.682 E22.8007
G1 X106.104 Y79.351 E22.81945
G1 X106.38 Y78.867 E22.84724
G1 X106.769 Y78.256 E22.88338
G1 X107.092 Y77.8 E22.91126
G1 X107.565 Y77.2 E22.94938
G1 X107.933 Y76.78 E22.97723
G1 X108.448 Y76.249 E23.01414
G1 X108.857 Y75.867 E23.04206
G1 X109.403 Y75.405 E23.07774
G1 X109.846 Y75.065 E23.1056
G1 X110.473 Y74.632 E23.14362
G1 X110.946 Y74.341 E23.17133
G1 X111.611 Y73.978 E23.20912
G1 X112.113 Y73.736 E23.23693
G1 X112.777 Y73.455 E23.2729
G1 X113.303 Y73.262 E23.30085
G1 X114.001 Y73.044 E23.33733
G1 X114.539 Y72.905 E23.36506
G1 X115.294 Y72.752 E23.40349
G1 X115.848 Y72.669 E23.43144
G1 X116.572 Y72.596 E23.46774
G1 X117.128 Y72.568 E23.49551
G1 X117.872 Y72.568 E23.53263
G1 X118.428 Y72.596 E23.56041
G1 X119.152 Y72.669 E23.59671
G1 X119.706 Y72.752 E23.62466
G1 X120.461 Y72.905 E23.66309
G1 X120.999 Y73.044 E23.69081
G1 X121.697 Y73.262 E23.7273
G1 X122.223 Y73.455 E23.75525
G1 X122.887 Y73.736 E23.79122
G1 X123.389 Y73.978 E23.81902
G1 X124.054 Y74.341 E23.85682
G1 X124.527 Y74.632 E23.88453
G1 X125.154 Y75.065 E23.92254
G1 X125.597 Y75.405 E23.9504
G1 X126.143 Y75.867 E23.98609
G1 X126.552 Y76.249 E24.01401
G1 X127.068 Y76.781 E24.05098
G1 X127.435 Y77.2 E24.07877
G1 X127.9 Y77.79 E24.11625
G1 X128.224 Y78.246 E24.14416
G1 X128.626 Y78.876 E24.18144
G1 X128.901 Y79.36 E24.20921
G1 X129.073 Y79.681 E24.22738
G1 X140.702 Y102.717 E25.51479
G1 X166.203 Y106.658 E26.80215
G1 X166.58 Y106.726 E26.82126
G1 X167.128 Y106.84 E26.84918
G1 X167.825 Y107.021 E26.88511
G1 X168.357 Y107.187 E26.91291
G1 X169.068 Y107.449 E26.95072
G1 X169.579 Y107.668 E26.97845
G1 X170.235 Y107.989 E27.01489
G1 X170.725 Y108.259 E27.0428
G1 X170.718 Y108.271 E27.0435
G1 X171.379 Y108.663 E27.08184
G1 X171.835 Y108.98 E27.10954
G1 X172.395 Y109.41 E27.14477
G1 X172.821 Y109.771 E27.17263
G1 X173.375 Y110.292 E27.21057
G1 X173.761 Y110.694 E27.23837
G1 X174.248 Y111.255 E27.27543
G1 X174.592 Y111.694 E27.30326
G1 X175.014 Y112.292 E27.33977
G1 X175.313 Y112.763 E27.36761
G1 X175.682 Y113.414 E27.40494
G1 X175.932 Y113.913 E27.43279
G1 X176.232 Y114.596 E27.47
G1 X176.431 Y115.119 E27.49792
G1 X176.656 Y115.81 E27.53418
G1 X176.802 Y116.347 E27.56194
G1 X176.962 Y117.08 E27.59937
G1 X177.053 Y117.63 E27.62718
G1 X177.137 Y118.374 E27.66454
G1 X177.172 Y118.931 E27.69238
G1 X177.182 Y119.661 E27.7288
G1 X177.162 Y120.218 E27.75661
G1 X177.097 Y120.969 E27.79422
G1 X177.02 Y121.524 E27.82217
G1 X176.881 Y122.252 E27.85915
G1 X176.75 Y122.792 E27.88687
G1 X176.544 Y123.49 E27.92318
G1 X176.359 Y124.019 E27.95114
G1 X176.078 Y124.708 E27.98826
G1 X175.843 Y125.211 E28.01596
G1 X175.493 Y125.873 E28.05332
G1 X175.207 Y126.352 E28.08115
G1 X174.79 Y126.975 E28.11855
G1 X174.456 Y127.424 E28.14647
G1 X173.985 Y127.995 E28.1834
G1 X173.609 Y128.407 E28.21123
G1 X173.356 Y128.671 E28.22947
G1 X162.798 Y139.15 E28.97161
G1 X162.811 Y139.562 E28.99218
G1 X162.756 Y140.329 E29.03054
G1 X162.641 Y141 E29.06451
G1 X162.514 Y141.578 E29.09403
G1 X162.31 Y142.32 E29.13242
G1 X162.03 Y143.036 E29.17078
G1 X161.729 Y143.63 E29.204
G1 X161.542 Y143.961 E29.22297
G1 X161.129 Y144.61 E29.26135
G1 X160.651 Y145.213 E29.29974
G1 X160.13 Y145.748 E29.33699
G1 X159.719 Y146.129 E29.36495
G1 X159.128 Y146.622 E29.40335
G1 X158.49 Y147.051 E29.44171
G1 X157.684 Y147.468 E29.48698
G1 X157.194 Y147.685 E29.51372
G1 X156.476 Y147.96 E29.55208
G1 X155.733 Y148.158 E29.59044
G1 X155.268 Y148.24 E29.614
G1 X159.174 Y172.321 E30.8311
G1 X159.223 Y172.68 E30.84918
G1 X159.285 Y173.232 E30.87689
G1 X159.331 Y173.979 E30.91423
G1 X159.337 Y174.538 E30.94212
G1 X159.306 Y175.293 E30.97982
G1 X159.255 Y175.849 E31.00768
G1 X159.152 Y176.576 E31.04431
G1 X159.046 Y177.125 E31.0722
G1 X158.875 Y177.825 E31.10815
G1 X158.717 Y178.358 E31.13589
G1 X158.464 Y179.074 E31.17377
G1 X158.251 Y179.591 E31.20167
G1 X157.932 Y180.266 E31.23892
G1 X157.669 Y180.757 E31.26671
G1 X157.291 Y181.386 E31.30332
G1 X156.979 Y181.851 E31.33126
G1 X156.536 Y182.444 E31.36818
G1 X156.182 Y182.872 E31.39589
G1 X155.666 Y183.435 E31.434
G1 X155.268 Y183.826 E31.46183
G1 X154.722 Y184.311 E31.49827
G1 X154.286 Y184.662 E31.52619
G1 X153.695 Y185.092 E31.56265
G1 X153.23 Y185.396 E31.59037
G1 X152.591 Y185.77 E31.62731
G1 X152.096 Y186.027 E31.65514
G1 X151.407 Y186.341 E31.69291
G1 X150.886 Y186.547 E31.72086
G1 X150.203 Y186.779 E31.75685
G1 X149.669 Y186.932 E31.78456
G1 X148.927 Y187.104 E31.82256
G1 X148.376 Y187.202 E31.85048
G1 X147.65 Y187.294 E31.88699
G1 X147.093 Y187.337 E31.91487
G1 X146.35 Y187.357 E31.95195
G1 X145.795 Y187.344 E31.97964
G1 X145.07 Y187.291 E32.01591
G1 X144.514 Y187.223 E32.04386
G1 X143.749 Y187.089 E32.0826
G1 X143.207 Y186.964 E32.11035
G1 X142.518 Y186.769 E32.14608
G1 X141.987 Y186.591 E32.17402
G1 X141.282 Y186.314 E32.21181
G1 X140.775 Y186.084 E32.23958
G1 X140.448 Y185.926 E32.2577
G1 X117.5 Y174.124 E33.54512
G1 X94.552 Y185.926 E34.83254
G1 X94.219 Y186.087 E34.85099
G1 X93.713 Y186.316 E34.8787
G1 X93.022 Y186.588 E34.91575
G1 X92.49 Y186.767 E34.94375
G1 X91.78 Y186.967 E34.98055
G1 X91.238 Y187.091 E35.00829
G1 X90.499 Y187.221 E35.04573
G1 X89.943 Y187.29 E35.07368
G1 X89.205 Y187.344 E35.1106
