;FLAVOR:Marlin
;TIME:1395
;Filament used: 1.69895m, 0m
;Layer height: 0.2
;MINX:98.756
;MINY:89.251
;MINZ:0.3
;MAXX:132.043
;MAXY:133.251
;MAXZ:12.3
;Generated with Cura_SteamEngine 4.7.1
T0
M140 S60
M105
M190 S60
M104 S190
M105
M109 S190
M82 ;absolute extrusion mode
M201 X500.00 Y500.00 Z100.00 E5000.00 	;Setup machine max acceleration
M203 X500.00 Y500.00 Z10.00 E50.00 	;Setup machine max feedrate
M204 P500.00 R1000.00 T500.00 		;Setup Print/Retract/Travel acceleration
M205 X8.00 Y8.00 Z0.40 E5.00 		;Setup Jerk
M220 S100 				;Reset Feedrate
M221 S100 				;Reset Flowrate
G28				;Home the Machine
G29 				;Bed Level
G92 E0
M300 P150 S587
G92 E0
G1 F1500 E-6.5
;LAYER_COUNT:61
;LAYER:0
M107
G0 F1500 X100.637 Y91.495 Z0.3
;TYPE:SKIRT
G1 F1500 E0
G1 F900 X101.045 Y91.091 E0.02865
G1 X101.437 Y90.76 E0.05424
G1 X101.944 Y90.397 E0.08535
G1 X102.263 Y90.202 E0.104
G1 X102.708 Y89.972 E0.129
G1 X103.231 Y89.742 E0.1575
G1 X103.801 Y89.542 E0.18764
G1 X104.407 Y89.396 E0.21874
G1 X105.003 Y89.305 E0.24881
G1 X105.51 Y89.269 E0.27417
G1 X106.257 Y89.251 E0.31145
G1 X126.506 Y89.251 E1.32168
G1 X127.204 Y89.261 E1.35651
G1 X127.768 Y89.309 E1.38474
G1 X128.318 Y89.436 E1.41291
G1 X128.846 Y89.64 E1.44115
G1 X129.34 Y89.915 E1.46935
G1 X129.789 Y90.258 E1.49754
G1 X130.186 Y90.66 E1.52573
G1 X130.523 Y91.115 E1.55398
G1 X130.791 Y91.612 E1.58215
G1 X130.987 Y92.142 E1.61034
G1 X131.107 Y92.695 E1.63857
G1 X131.154 Y93.448 E1.67621
G1 X131.156 Y93.566 E1.6821
G1 X131.156 Y128.565 E3.42821
G1 X131.147 Y129.292 E3.46448
G1 X131.1 Y129.855 E3.49267
G1 X130.974 Y130.406 E3.52087
G1 X130.772 Y130.934 E3.54907
G1 X130.497 Y131.428 E3.57728
G1 X130.155 Y131.878 E3.60548
G1 X129.753 Y132.276 E3.6337
G1 X129.3 Y132.613 E3.66187
G1 X128.803 Y132.883 E3.69008
G1 X128.273 Y133.08 E3.71829
G1 X127.721 Y133.201 E3.74649
G1 X126.938 Y133.249 E3.78562
G1 X126.826 Y133.251 E3.79121
G1 X106.406 Y133.251 E4.80997
G1 X105.701 Y133.241 E4.84515
G1 X104.924 Y133.188 E4.884
G1 X104.315 Y133.087 E4.9148
G1 X103.82 Y132.964 E4.94025
G1 X103.275 Y132.782 E4.96891
G1 X102.811 Y132.587 E4.99402
G1 X102.282 Y132.313 E5.02375
G1 X101.847 Y132.041 E5.04934
G1 X101.383 Y131.701 E5.07804
G1 X101.001 Y131.371 E5.10322
G1 X100.599 Y130.965 E5.13173
G1 X100.041 Y130.254 E5.17682
G1 X99.724 Y129.763 E5.20598
G1 X99.431 Y129.223 E5.23663
G1 X99.191 Y128.642 E5.26799
G1 X99.007 Y128.058 E5.29854
G1 X98.826 Y127.152 E5.34463
G1 X98.774 Y126.492 E5.37766
G1 X98.756 Y125.699 E5.41724
G1 X98.756 Y96.901 E6.85397
G1 X98.766 Y96.194 E6.88925
G1 X98.819 Y95.418 E6.92805
G1 X98.926 Y94.784 E6.96013
G1 X99.177 Y93.893 E7.00631
G1 X99.432 Y93.282 E7.03935
G1 X99.699 Y92.769 E7.0682
G1 X100.226 Y91.977 E7.11566
G1 X100.637 Y91.495 E7.14726
G0 F1500 X100.937 Y91.76
G1 F900 X101.315 Y91.387 E7.17376
G1 X102.022 Y90.824 E7.21885
G1 X102.468 Y90.546 E7.24507
G1 X102.869 Y90.339 E7.26758
G1 X103.392 Y90.109 E7.29608
G1 X103.905 Y89.928 E7.32322
G1 X104.496 Y89.786 E7.35355
G1 X105.046 Y89.703 E7.3813
G1 X105.615 Y89.664 E7.40975
G1 X106.261 Y89.651 E7.44199
G1 X126.501 Y89.651 E8.45177
G1 X127.199 Y89.661 E8.48659
G1 X127.733 Y89.709 E8.51334
G1 X128.254 Y89.835 E8.54008
G1 X128.751 Y90.038 E8.56687
G1 X129.212 Y90.312 E8.59362
G1 X129.627 Y90.651 E8.62036
G1 X129.987 Y91.049 E8.64713
G1 X130.284 Y91.495 E8.67386
G1 X130.512 Y91.981 E8.70065
G1 X130.664 Y92.495 E8.72739
G1 X130.745 Y93.155 E8.76056
G1 X130.756 Y93.566 E8.78107
G1 X130.756 Y128.56 E10.52693
G1 X130.747 Y129.287 E10.56321
G1 X130.7 Y129.821 E10.58995
G1 X130.575 Y130.342 E10.61668
G1 X130.373 Y130.839 E10.64345
G1 X130.1 Y131.301 E10.67022
G1 X129.762 Y131.717 E10.69696
G1 X129.365 Y132.078 E10.72373
G1 X128.919 Y132.376 E10.75049
G1 X128.434 Y132.604 E10.77723
G1 X127.92 Y132.758 E10.804
G1 X127.248 Y132.841 E10.83778
G1 X126.826 Y132.851 E10.85884
G1 X106.412 Y132.851 E11.8773
G1 X105.707 Y132.841 E11.91247
G1 X104.961 Y132.789 E11.94978
G1 X104.396 Y132.695 E11.97836
G1 X103.546 Y132.457 E12.02239
G1 X102.97 Y132.219 E12.05349
G1 X102.482 Y131.966 E12.08091
G1 X101.741 Y131.476 E12.12523
G1 X101.266 Y131.071 E12.15637
G1 X100.895 Y130.696 E12.18269
G1 X100.377 Y130.037 E12.22451
G1 X100.06 Y129.546 E12.25367
G1 X99.796 Y129.06 E12.28126
G1 X99.563 Y128.495 E12.31175
G1 X99.394 Y127.955 E12.33998
G1 X99.223 Y127.108 E12.38309
G1 X99.173 Y126.466 E12.41522
G1 X99.156 Y125.694 E12.45374
G1 X99.156 Y96.907 E13.88993
G1 X99.166 Y96.2 E13.92521
G1 X99.218 Y95.455 E13.96247
G1 X99.318 Y94.866 E13.99227
G1 X99.551 Y94.035 E14.03533
G1 X99.798 Y93.442 E14.06738
G1 X100.045 Y92.969 E14.094
G1 X100.538 Y92.228 E14.1384
G1 X100.937 Y91.76 E14.16909
G0 F1500 X101.237 Y92.024
G1 F900 X101.693 Y91.587 E14.2006
G1 X102.241 Y91.159 E14.23529
G1 X102.674 Y90.889 E14.26074
G1 X103.03 Y90.705 E14.28074
G1 X103.553 Y90.475 E14.30924
G1 X104.113 Y90.286 E14.33873
G1 X104.95 Y90.115 E14.38135
G1 X105.56 Y90.067 E14.41188
G1 X106.265 Y90.051 E14.44706
G1 X126.495 Y90.051 E15.45634
G1 X127.193 Y90.061 E15.49116
G1 X127.696 Y90.108 E15.51637
G1 X128.186 Y90.234 E15.54161
G1 X128.65 Y90.436 E15.56686
G1 X129.076 Y90.708 E15.59207
G1 X129.454 Y91.043 E15.61727
G1 X129.774 Y91.434 E15.64248
G1 X130.029 Y91.871 E15.66772
G1 X130.212 Y92.342 E15.69293
G1 X130.319 Y92.836 E15.71815
G1 X130.355 Y93.472 E15.74993
G1 X130.356 Y128.555 E17.50023
G1 X130.347 Y129.282 E17.5365
G1 X130.301 Y129.785 E17.5617
G1 X130.176 Y130.275 E17.58693
G1 X129.975 Y130.739 E17.61216
G1 X129.704 Y131.166 E17.63739
G1 X129.369 Y131.545 E17.66262
G1 X128.979 Y131.866 E17.68782
G1 X128.543 Y132.122 E17.71305
G1 X128.072 Y132.305 E17.73826
G1 X127.578 Y132.413 E17.76349
G1 X126.916 Y132.45 E17.79656
G1 X106.418 Y132.451 E18.81921
G1 X105.713 Y132.441 E18.85439
G1 X104.998 Y132.391 E18.89015
G1 X104.476 Y132.303 E18.91656
G1 X103.688 Y132.083 E18.95738
G1 X103.128 Y131.852 E18.9876
G1 X102.681 Y131.619 E19.01275
G1 X101.991 Y131.163 E19.05401
G1 X101.53 Y130.771 E19.0842
G1 X101.088 Y130.308 E19.11613
G1 X100.713 Y129.82 E19.14684
G1 X100.396 Y129.329 E19.176
G1 X100.104 Y128.767 E19.20759
G1 X99.819 Y127.998 E19.24851
G1 X99.681 Y127.424 E19.27796
G1 X99.594 Y126.79 E19.30989
G1 X99.563 Y126.235 E19.33762
G1 X99.556 Y125.69 E19.36481
G1 X99.556 Y96.913 E20.8005
G1 X99.566 Y96.206 E20.83578
G1 X99.616 Y95.492 E20.87149
G1 X99.709 Y94.948 E20.89902
G1 X99.925 Y94.178 E20.93892
G1 X100.165 Y93.601 E20.9701
G1 X100.455 Y93.064 E21.00055
G1 X100.85 Y92.478 E21.0358
G1 X101.237 Y92.024 E21.06557
G1 F1500 E14.56557
;MESH:hinge_autoclose (1).STL
G0 F1500 X103.097 Y93.735
G0 X104.074 Y94.569
G0 X112.153 Y98.719
G0 X114.808 Y101.058
;TYPE:WALL-INNER
G1 F1500 E21.06557
G1 F900 X114.716 Y100.374 E21.1
G1 X114.512 Y99.722 E21.13408
G1 X114.2 Y99.108 E21.16844
G1 X113.787 Y98.555 E21.20288
G1 X113.288 Y98.083 E21.23714
G1 X112.716 Y97.701 E21.27146
G1 X112.685 Y97.688 E21.27314
G1 X112.087 Y97.42 E21.30583
G1 X111.421 Y97.25 E21.34012
G1 X110.736 Y97.197 E21.3744
G1 X110.05 Y97.258 E21.40876
G1 X109.388 Y97.433 E21.44292
G1 X108.758 Y97.719 E21.47744
G1 X108.191 Y98.109 E21.51177
G1 X107.697 Y98.585 E21.546
G1 X107.291 Y99.144 E21.58047
G1 X106.986 Y99.759 E21.61471
G1 X106.787 Y100.415 E21.64892
G1 X106.703 Y101.096 E21.68315
G1 X106.735 Y101.785 E21.71756
G1 X106.884 Y102.46 E21.75205
G1 X107.146 Y103.097 E21.78641
G1 X107.51 Y103.682 E21.82078
G1 X107.966 Y104.192 E21.85492
G1 X108.502 Y104.624 E21.88926
G1 X109.106 Y104.956 E21.92365
G1 X109.754 Y105.18 E21.95785
G1 X110.43 Y105.293 E21.99205
G1 X111.12 Y105.291 E22.02647
G1 X111.798 Y105.17 E22.06083
G1 X112.444 Y104.938 E22.09507
G1 X113.042 Y104.602 E22.1293
G1 X113.581 Y104.162 E22.16401
G1 X114.029 Y103.645 E22.19814
G1 X114.389 Y103.056 E22.23258
G1 X114.639 Y102.417 E22.26681
G1 X114.779 Y101.75 E22.30081
G1 X114.808 Y101.058 E22.33537
G0 F1500 X114.407 Y101.077
G1 F900 X114.324 Y100.461 E22.36638
G1 X114.14 Y99.873 E22.39712
G1 X113.859 Y99.32 E22.42806
G1 X113.487 Y98.822 E22.45907
G1 X113.038 Y98.397 E22.48992
G1 X112.522 Y98.052 E22.52089
G1 X112.491 Y98.039 E22.52256
G1 X111.955 Y97.799 E22.55186
G1 X111.356 Y97.646 E22.58271
G1 X110.738 Y97.598 E22.61363
G1 X110.119 Y97.653 E22.64463
G1 X109.523 Y97.811 E22.6754
G1 X108.956 Y98.069 E22.70648
G1 X108.445 Y98.42 E22.7374
G1 X108 Y98.849 E22.76824
G1 X107.634 Y99.352 E22.79928
G1 X107.359 Y99.907 E22.83018
G1 X107.18 Y100.498 E22.86099
G1 X107.104 Y101.111 E22.8918
G1 X107.133 Y101.732 E22.92282
G1 X107.267 Y102.34 E22.95388
G1 X107.503 Y102.914 E22.98484
G1 X107.831 Y103.441 E23.01581
G1 X108.242 Y103.901 E23.04659
G1 X108.725 Y104.29 E23.07753
G1 X109.269 Y104.589 E23.1085
G1 X109.853 Y104.791 E23.13933
G1 X110.463 Y104.893 E23.17018
G1 X111.084 Y104.891 E23.20116
G1 X111.695 Y104.782 E23.23213
G1 X112.277 Y104.573 E23.26298
G1 X112.816 Y104.27 E23.29383
G1 X113.301 Y103.874 E23.32507
G1 X113.705 Y103.408 E23.35584
G1 X114.029 Y102.878 E23.38683
G1 X114.254 Y102.302 E23.41768
G1 X114.381 Y101.7 E23.44837
G1 X114.407 Y101.077 E23.47948
G0 F1500 X114.006 Y101.096
G1 F900 X113.932 Y100.548 E23.50707
G1 X113.768 Y100.024 E23.53446
G1 X113.518 Y99.532 E23.562
G1 X113.187 Y99.089 E23.58959
G1 X112.787 Y98.711 E23.61704
G1 X112.328 Y98.403 E23.64462
G1 X112.297 Y98.39 E23.6463
G1 X111.823 Y98.178 E23.6722
G1 X111.29 Y98.042 E23.69965
G1 X110.74 Y97.999 E23.72717
G1 X110.189 Y98.048 E23.75477
G1 X109.658 Y98.189 E23.78218
G1 X109.154 Y98.419 E23.80982
G1 X108.699 Y98.731 E23.83734
G1 X108.303 Y99.113 E23.86479
G1 X107.977 Y99.56 E23.89239
G1 X107.732 Y100.055 E23.91995
G1 X107.573 Y100.581 E23.94736
G1 X107.505 Y101.126 E23.97476
G1 X107.531 Y101.679 E24.00238
G1 X107.65 Y102.22 E24.03002
G1 X107.86 Y102.731 E24.05758
G1 X108.152 Y103.2 E24.08514
G1 X108.518 Y103.61 E24.11256
G1 X108.948 Y103.956 E24.1401
G1 X109.432 Y104.222 E24.16765
G1 X109.952 Y104.402 E24.19511
G1 X110.496 Y104.493 E24.22262
G1 X111.048 Y104.491 E24.25016
G1 X111.592 Y104.394 E24.27773
G1 X112.11 Y104.208 E24.30519
G1 X112.59 Y103.938 E24.33267
G1 X113.021 Y103.586 E24.36043
G1 X113.381 Y103.171 E24.38784
G1 X113.669 Y102.7 E24.41538
G1 X113.869 Y102.187 E24.44285
G1 X113.875 Y102.155 E24.44447
G1 X113.975 Y101.684 E24.4685
G1 X113.983 Y101.65 E24.47024
G1 X114.006 Y101.096 E24.4979
G0 F1500 X113.605 Y101.115
G1 F900 X113.54 Y100.635 E24.52207
G1 X113.396 Y100.175 E24.54612
G1 X113.177 Y99.744 E24.57024
G1 X112.887 Y99.356 E24.5944
G1 X112.536 Y99.024 E24.61851
G1 X112.134 Y98.754 E24.64267
G1 X111.691 Y98.557 E24.66685
G1 X111.224 Y98.438 E24.6909
G1 X110.742 Y98.4 E24.71502
G1 X110.259 Y98.443 E24.73921
G1 X109.793 Y98.567 E24.76327
G1 X109.352 Y98.768 E24.78745
G1 X108.953 Y99.042 E24.8116
G1 X108.606 Y99.377 E24.83566
G1 X108.32 Y99.768 E24.85983
G1 X108.105 Y100.202 E24.88399
G1 X107.966 Y100.664 E24.90806
G1 X107.906 Y101.142 E24.9321
G1 X107.929 Y101.626 E24.95627
G1 X108.033 Y102.1 E24.98048
G1 X108.217 Y102.548 E25.00464
G1 X108.473 Y102.959 E25.0288
G1 X108.794 Y103.319 E25.05286
G1 X109.171 Y103.622 E25.07699
G1 X109.595 Y103.855 E25.10113
G1 X110.051 Y104.013 E25.12521
G1 X110.528 Y104.093 E25.14934
G1 X111.012 Y104.091 E25.17349
G1 X111.489 Y104.006 E25.19766
G1 X111.943 Y103.843 E25.22172
G1 X112.364 Y103.606 E25.24583
G1 X112.741 Y103.298 E25.27011
G1 X113.057 Y102.934 E25.29416
G1 X113.309 Y102.521 E25.3183
G1 X113.485 Y102.072 E25.34236
G1 X113.585 Y101.6 E25.36643
G1 X113.605 Y101.115 E25.39065
G0 F1500 X113.204 Y101.134
;TYPE:WALL-OUTER
G1 F900 X113.148 Y100.722 E25.41139
G1 X113.024 Y100.326 E25.43209
G1 X112.836 Y99.956 E25.4528
G1 X112.587 Y99.623 E25.47354
G1 X112.285 Y99.337 E25.4943
G1 X111.94 Y99.105 E25.51504
G1 X111.56 Y98.936 E25.53579
G1 X111.158 Y98.834 E25.55648
G1 X110.744 Y98.801 E25.5772
G1 X110.329 Y98.838 E25.59798
G1 X109.928 Y98.945 E25.61869
G1 X109.55 Y99.117 E25.63941
G1 X109.207 Y99.353 E25.66018
G1 X108.909 Y99.641 E25.68086
G1 X108.663 Y99.977 E25.70163
G1 X108.478 Y100.349 E25.72236
G1 X108.359 Y100.747 E25.74308
G1 X108.307 Y101.158 E25.76375
G1 X108.327 Y101.573 E25.78448
G1 X108.416 Y101.98 E25.80527
G1 X108.574 Y102.365 E25.82603
G1 X108.794 Y102.718 E25.84678
G1 X109.07 Y103.028 E25.86749
G1 X109.394 Y103.288 E25.88821
G1 X109.758 Y103.488 E25.90893
G1 X110.15 Y103.624 E25.92963
G1 X110.56 Y103.693 E25.95038
G1 X110.976 Y103.691 E25.97113
G1 X111.386 Y103.618 E25.99191
G1 X111.776 Y103.478 E26.01258
G1 X112.138 Y103.274 E26.03331
G1 X112.461 Y103.01 E26.05412
G1 X112.733 Y102.697 E26.07481
G1 X112.949 Y102.342 E26.09554
G1 X113.101 Y101.956 E26.11624
G1 X113.187 Y101.55 E26.13695
G1 X113.204 Y101.134 E26.15772
G0 F1500 X113.178 Y100.936
G0 X113.614 Y100.878
G0 X113.673 Y100.871
G0 X114.808 Y121.058
;TYPE:WALL-INNER
G1 F900 X114.716 Y120.374 E26.19215
G1 X114.512 Y119.722 E26.22623
G1 X114.2 Y119.108 E26.26059
G1 X113.787 Y118.555 E26.29503
G1 X113.288 Y118.083 E26.3293
G1 X112.716 Y117.701 E26.36361
G1 X112.685 Y117.688 E26.36529
G1 X112.087 Y117.42 E26.39798
G1 X111.421 Y117.25 E26.43227
G1 X110.736 Y117.197 E26.46655
G1 X110.05 Y117.258 E26.50091
G1 X109.388 Y117.433 E26.53507
G1 X108.758 Y117.719 E26.56959
G1 X108.191 Y118.109 E26.60392
G1 X107.697 Y118.585 E26.63815
G1 X107.291 Y119.144 E26.67262
G1 X106.986 Y119.759 E26.70687
G1 X106.787 Y120.415 E26.74107
G1 X106.703 Y121.096 E26.7753
G1 X106.735 Y121.785 E26.80971
G1 X106.884 Y122.46 E26.8442
G1 X107.146 Y123.097 E26.87856
G1 X107.51 Y123.682 E26.91294
G1 X107.966 Y124.192 E26.94707
G1 X108.502 Y124.624 E26.98141
G1 X109.106 Y124.956 E27.0158
G1 X109.754 Y125.18 E27.05
G1 X110.43 Y125.293 E27.0842
G1 X111.12 Y125.291 E27.11862
G1 X111.798 Y125.17 E27.15298
G1 X112.444 Y124.938 E27.18723
G1 X113.042 Y124.602 E27.22145
G1 X113.581 Y124.162 E27.25616
G1 X114.029 Y123.645 E27.29029
G1 X114.389 Y123.056 E27.32473
G1 X114.639 Y122.417 E27.35896
G1 X114.779 Y121.75 E27.39296
G1 X114.808 Y121.058 E27.42752
G0 F1500 X114.407 Y121.077
G1 F900 X114.324 Y120.461 E27.45853
G1 X114.14 Y119.873 E27.48927
G1 X113.859 Y119.32 E27.52021
G1 X113.487 Y118.822 E27.55123
G1 X113.038 Y118.397 E27.58207
G1 X112.522 Y118.052 E27.61304
G1 X112.491 Y118.039 E27.61471
G1 X111.955 Y117.799 E27.64401
G1 X111.356 Y117.646 E27.67486
G1 X110.738 Y117.598 E27.70578
G1 X110.119 Y117.653 E27.73679
G1 X109.523 Y117.811 E27.76755
G1 X108.956 Y118.069 E27.79863
G1 X108.445 Y118.42 E27.82956
G1 X108 Y118.849 E27.86039
G1 X107.634 Y119.352 E27.89143
G1 X107.359 Y119.907 E27.92233
G1 X107.18 Y120.498 E27.95314
G1 X107.104 Y121.111 E27.98395
G1 X107.133 Y121.732 E28.01497
G1 X107.267 Y122.34 E28.04603
G1 X107.503 Y122.914 E28.07699
G1 X107.831 Y123.441 E28.10796
G1 X108.242 Y123.901 E28.13874
G1 X108.725 Y124.29 E28.16968
G1 X109.269 Y124.589 E28.20065
G1 X109.853 Y124.791 E28.23148
G1 X110.463 Y124.893 E28.26233
G1 X111.084 Y124.891 E28.29332
G1 X111.695 Y124.782 E28.32428
G1 X112.277 Y124.573 E28.35513
G1 X112.816 Y124.27 E28.38598
G1 X113.301 Y123.874 E28.41722
G1 X113.705 Y123.408 E28.44799
G1 X114.029 Y122.878 E28.47898
G1 X114.254 Y122.302 E28.50983
G1 X114.381 Y121.7 E28.54052
G1 X114.407 Y121.077 E28.57163
G0 F1500 X114.006 Y121.096
G1 F900 X113.932 Y120.548 E28.59922
G1 X113.768 Y120.024 E28.62661
G1 X113.518 Y119.532 E28.65415
G1 X113.187 Y119.089 E28.68174
G1 X112.787 Y118.711 E28.70919
G1 X112.328 Y118.403 E28.73677
G1 X112.297 Y118.39 E28.73845
G1 X111.823 Y118.178 E28.76435
G1 X111.29 Y118.042 E28.7918
G1 X110.74 Y117.999 E28.81932
G1 X110.189 Y118.048 E28.84692
G1 X109.658 Y118.189 E28.87433
G1 X109.154 Y118.419 E28.90197
G1 X108.699 Y118.731 E28.92949
