;FLAVOR:Marlin
;TIME:2267
;Filament used: 2.68673m, 0m
;Layer height: 0.2
;MINX:93.972
;MINY:93.5
;MINZ:0.3
;MAXX:141.028
;MAXY:141.5
;MAXZ:8.9
;Generated with Cura_SteamEngine 4.7.1
T0
M140 S60
M105
M190 S60
M104 S190
M105
M109 S190
M82 ;absolute extrusion mode
M201 X500.00 Y500.00 Z100.00 E5000.00 	;Setup machine max acceleration
M203 X500.00 Y500.00 Z10.00 E50.00 	;Setup machine max feedrate
M204 P500.00 R1000.00 T500.00 		;Setup Print/Retract/Travel acceleration
M205 X8.00 Y8.00 Z0.40 E5.00 		;Setup Jerk
M220 S100 				;Reset Feedrate
M221 S100 				;Reset Flowrate
G28				;Home the Machine
G29 				;Bed Level
G92 E0
M300 P150 S587
G92 E0
G1 F1500 E-6.5
;LAYER_COUNT:44
;LAYER:0
M107
G0 F2400 X94.976 Y94.869 Z0.3
;TYPE:SKIRT
G1 F1500 E0
G1 F1200 X95.378 Y94.472 E0.02819
G1 X95.832 Y94.135 E0.0564
G1 X96.329 Y93.866 E0.08459
G1 X96.859 Y93.669 E0.1128
G1 X97.412 Y93.55 E0.14102
G1 X98.19 Y93.502 E0.17991
G1 X98.302 Y93.5 E0.1855
G1 X117.956 Y93.5 E1.16604
G1 X118.233 Y93.504 E1.17986
G1 X120.465 Y93.504 E1.29122
G1 X120.525 Y93.508 E1.29422
G1 X121.578 Y93.5 E1.34675
G1 X136.377 Y93.5 E2.08508
G1 X137.075 Y93.51 E2.1199
G1 X137.639 Y93.558 E2.14814
G1 X138.189 Y93.685 E2.1763
G1 X138.717 Y93.889 E2.20454
G1 X139.211 Y94.164 E2.23275
G1 X139.66 Y94.507 E2.26094
G1 X140.057 Y94.909 E2.28913
G1 X140.394 Y95.364 E2.31738
G1 X140.662 Y95.861 E2.34555
G1 X140.858 Y96.391 E2.37374
G1 X140.978 Y96.944 E2.40197
G1 X141.025 Y97.718 E2.44066
G1 X141.027 Y97.83 E2.44625
G1 X141.028 Y136.824 E4.39166
G1 X141.019 Y137.54 E4.42739
G1 X140.972 Y138.104 E4.45562
G1 X140.846 Y138.655 E4.48382
G1 X140.643 Y139.183 E4.51204
G1 X140.368 Y139.677 E4.54025
G1 X140.027 Y140.127 E4.56842
G1 X139.625 Y140.525 E4.59664
G1 X139.171 Y140.862 E4.62485
G1 X138.674 Y141.131 E4.65305
G1 X138.144 Y141.328 E4.68125
G1 X137.592 Y141.449 E4.70945
G1 X136.818 Y141.497 E4.74814
G1 X136.704 Y141.499 E4.75383
G1 X121.899 Y141.5 E5.49245
G1 X121.624 Y141.496 E5.50617
G1 X119.392 Y141.497 E5.61753
G1 X119.319 Y141.492 E5.62118
G1 X118.277 Y141.5 E5.67316
G1 X98.622 Y141.5 E6.65376
G1 X97.924 Y141.49 E6.68858
G1 X97.36 Y141.442 E6.71682
G1 X96.81 Y141.315 E6.74498
G1 X96.282 Y141.111 E6.77322
G1 X95.788 Y140.836 E6.80143
G1 X95.339 Y140.493 E6.82962
G1 X94.942 Y140.091 E6.85781
G1 X94.605 Y139.636 E6.88606
G1 X94.337 Y139.139 E6.91423
G1 X94.141 Y138.609 E6.94242
G1 X94.021 Y138.056 E6.97065
G1 X93.973 Y137.266 E7.01014
G1 X93.972 Y98.12 E8.96314
G1 X93.981 Y97.455 E8.99632
G1 X94.029 Y96.892 E9.02451
G1 X94.155 Y96.341 E9.05271
G1 X94.358 Y95.813 E9.08093
G1 X94.634 Y95.319 E9.10916
G1 X94.976 Y94.869 E9.13736
G0 F2400 X95.369 Y95.031
G1 F1200 X95.766 Y94.671 E9.1641
G1 X96.213 Y94.373 E9.1909
G1 X96.698 Y94.145 E9.21764
G1 X97.212 Y93.992 E9.24439
G1 X97.88 Y93.91 E9.27797
G1 X98.302 Y93.9 E9.29903
G1 X117.95 Y93.9 E10.27927
G1 X118.227 Y93.904 E10.29309
G1 X120.465 Y93.904 E10.40475
G1 X120.523 Y93.908 E10.40765
G1 X121.581 Y93.9 E10.46043
G1 X136.372 Y93.9 E11.19836
G1 X137.07 Y93.91 E11.23318
G1 X137.604 Y93.958 E11.25993
G1 X138.125 Y94.084 E11.28667
G1 X138.622 Y94.287 E11.31346
G1 X139.083 Y94.561 E11.34021
G1 X139.498 Y94.9 E11.36695
G1 X139.858 Y95.298 E11.39372
G1 X140.155 Y95.744 E11.42046
G1 X140.383 Y96.23 E11.44724
G1 X140.535 Y96.744 E11.47398
G1 X140.617 Y97.409 E11.50741
G1 X140.627 Y97.83 E11.52842
G1 X140.628 Y136.819 E13.47359
G1 X140.619 Y137.535 E13.50931
G1 X140.572 Y138.069 E13.53605
G1 X140.447 Y138.591 E13.56283
G1 X140.245 Y139.088 E13.5896
G1 X139.972 Y139.549 E13.61633
G1 X139.633 Y139.965 E13.6431
G1 X139.236 Y140.326 E13.66987
G1 X138.791 Y140.624 E13.69659
G1 X138.305 Y140.852 E13.72337
G1 X137.792 Y141.006 E13.7501
G1 X137.122 Y141.089 E13.78378
G1 X136.704 Y141.099 E13.80464
G1 X121.905 Y141.1 E14.54296
G1 X121.63 Y141.096 E14.55668
G1 X119.392 Y141.097 E14.66834
G1 X119.322 Y141.092 E14.67184
G1 X118.274 Y141.1 E14.72413
G1 X98.627 Y141.1 E15.70432
G1 X97.929 Y141.09 E15.73915
G1 X97.395 Y141.042 E15.76589
G1 X96.874 Y140.916 E15.79264
G1 X96.377 Y140.713 E15.81942
G1 X95.916 Y140.439 E15.84618
G1 X95.501 Y140.1 E15.87291
G1 X95.141 Y139.702 E15.89968
G1 X94.844 Y139.256 E15.92642
G1 X94.616 Y138.77 E15.9532
G1 X94.464 Y138.256 E15.97994
G1 X94.382 Y137.588 E16.01352
G1 X94.372 Y137.158 E16.03498
G1 X94.372 Y98.125 E17.98234
G1 X94.381 Y97.46 E18.01552
G1 X94.429 Y96.926 E18.04227
G1 X94.555 Y96.405 E18.06901
G1 X94.757 Y95.908 E18.09578
G1 X95.03 Y95.447 E18.12251
G1 X95.369 Y95.031 E18.14928
G0 F2400 X95.426 Y95.582
G1 F1200 X95.761 Y95.204 E18.17448
G1 X96.152 Y94.883 E18.19972
G1 X96.589 Y94.628 E18.22496
G1 X97.06 Y94.444 E18.25019
G1 X97.554 Y94.338 E18.27539
G1 X98.212 Y94.301 E18.30827
G1 X117.944 Y94.3 E19.29271
G1 X118.221 Y94.304 E19.30653
G1 X120.465 Y94.304 E19.41848
G1 X120.52 Y94.308 E19.42123
G1 X121.584 Y94.3 E19.47432
G1 X136.366 Y94.3 E20.21179
G1 X137.064 Y94.31 E20.24662
G1 X137.567 Y94.357 E20.27183
G1 X138.057 Y94.483 E20.29707
G1 X138.521 Y94.685 E20.32231
G1 X138.947 Y94.957 E20.34753
G1 X139.325 Y95.292 E20.37273
G1 X139.645 Y95.683 E20.39794
G1 X139.9 Y96.12 E20.42318
G1 X140.083 Y96.591 E20.44839
G1 X140.19 Y97.085 E20.47361
G1 X140.226 Y97.74 E20.50633
G1 X140.228 Y136.814 E22.45574
G1 X140.219 Y137.53 E22.49147
G1 X140.172 Y138.034 E22.51672
G1 X140.047 Y138.524 E22.54195
G1 X139.847 Y138.988 E22.56716
G1 X139.576 Y139.414 E22.59235
G1 X139.241 Y139.793 E22.61758
G1 X138.85 Y140.114 E22.64282
G1 X138.414 Y140.37 E22.66805
G1 X137.943 Y140.554 E22.69327
G1 X137.449 Y140.661 E22.71849
G1 X136.795 Y140.698 E22.75117
G1 X121.911 Y140.7 E23.49374
G1 X121.635 Y140.696 E23.50751
G1 X119.391 Y140.697 E23.61946
G1 X119.324 Y140.692 E23.62281
G1 X118.271 Y140.7 E23.67535
G1 X98.633 Y140.7 E24.65509
G1 X97.935 Y140.69 E24.68992
G1 X97.432 Y140.643 E24.71512
G1 X96.942 Y140.517 E24.74037
G1 X96.478 Y140.315 E24.76561
G1 X96.052 Y140.043 E24.79083
G1 X95.674 Y139.708 E24.81603
G1 X95.354 Y139.317 E24.84124
G1 X95.099 Y138.88 E24.86648
G1 X94.916 Y138.409 E24.89169
G1 X94.809 Y137.915 E24.91691
G1 X94.773 Y137.245 E24.95038
G1 X94.772 Y98.131 E26.90179
G1 X94.781 Y97.466 E26.93497
G1 X94.828 Y96.962 E26.96022
G1 X94.954 Y96.473 E26.98541
G1 X95.155 Y96.009 E27.01064
G1 X95.426 Y95.582 E27.03587
G1 F1500 E20.53587
;MESH:PerfectHinge40mm.STL
G0 F2400 X104.684 Y101.401
G0 X106.545 Y102.377
G0 X115.684 Y108.315
G0 X116.962 Y108.314
G0 X118.148 Y109.5
;TYPE:WALL-INNER
G1 F1500 E27.03587
G1 F1200 X118.347 Y109.5 E27.0458
G1 X122.805 Y109.5 E27.26821
G1 X123.004 Y109.5 E27.27814
G1 X123.004 Y109.301 E27.28456
G1 X123.003 Y99.499 E27.77359
G1 X123.003 Y99.3 E27.78351
G1 X123.202 Y99.3 E27.78994
G1 X127.693 Y99.3 E28.01399
G1 X128.251 Y99.3 E28.04183
G1 X128.434 Y99.3 E28.05096
G1 X128.251 Y99.366 E28.05216
G1 X127.784 Y99.671 E28.06884
G1 X127.464 Y99.881 E28.08794
G1 X126.812 Y100.566 E28.13512
G1 X126.339 Y101.384 E28.18226
G1 X126.084 Y102.239 E28.22677
G1 X126.07 Y102.283 E28.22907
G1 X126.068 Y102.328 E28.23132
G1 X126.014 Y103.176 E28.27371
G1 X126.01 Y103.224 E28.27612
G1 X126.171 Y104.152 E28.32311
G1 X126.543 Y105.022 E28.37031
G1 X127.046 Y105.702 E28.41251
G1 X127.183 Y105.845 E28.42239
G1 X129.926 Y108.589 E28.61596
G1 X130.066 Y108.729 E28.62584
G1 X130.206 Y108.589 E28.6322
G1 X133.067 Y105.723 E28.83424
G1 X133.579 Y105.039 E28.87687
G1 X133.956 Y104.173 E28.92399
G1 X134.12 Y103.25 E28.97076
G1 X134.071 Y102.309 E29.01777
G1 X133.8 Y101.401 E29.06504
G1 X133.333 Y100.581 E29.11212
G1 X132.684 Y99.894 E29.15927
G1 X132.347 Y99.671 E29.17943
G1 X131.896 Y99.372 E29.20643
G1 X131.699 Y99.3 E29.21689
G1 X131.896 Y99.3 E29.21764
G1 X132.438 Y99.3 E29.23408
G1 X135.227 Y99.3 E29.37323
G1 X135.228 Y135.501 E31.1793
G1 X135.228 Y135.7 E31.18923
G1 X135.029 Y135.7 E31.19566
G1 X132.572 Y135.7 E31.31824
G1 X132.571 Y135.7 E31.31829
G1 X132.092 Y135.7 E31.34218
G1 X132.431 Y135.361 E31.35505
G1 X133.067 Y134.723 E31.4
G1 X133.579 Y134.039 E31.44262
G1 X133.956 Y133.173 E31.48974
G1 X134.12 Y132.25 E31.53651
G1 X134.071 Y131.309 E31.58352
G1 X133.8 Y130.401 E31.6308
G1 X133.333 Y129.581 E31.67788
G1 X132.684 Y128.894 E31.72503
G1 X131.896 Y128.372 E31.77219
G1 X131.01 Y128.049 E31.81923
G1 X130.077 Y127.938 E31.86611
G1 X129.142 Y128.045 E31.91306
G1 X128.251 Y128.366 E31.96031
G1 X127.464 Y128.881 E32.00723
G1 X126.812 Y129.566 E32.05441
G1 X126.339 Y130.384 E32.10156
G1 X126.084 Y131.239 E32.14607
G1 X126.07 Y131.283 E32.14837
G1 X126.068 Y131.328 E32.15062
G1 X126.014 Y132.176 E32.19301
G1 X126.01 Y132.224 E32.19542
G1 X126.171 Y133.152 E32.24241
G1 X126.543 Y134.022 E32.28961
G1 X127.046 Y134.702 E32.33181
G1 X127.183 Y134.845 E32.34169
G1 X127.697 Y135.36 E32.37799
G1 X128.037 Y135.7 E32.40198
G1 X127.557 Y135.7 E32.41486
G1 X127.556 Y135.7 E32.41491
G1 X123.004 Y135.7 E32.64201
G1 X123.004 Y125.5 E33.15089
G1 X118.149 Y125.5 E33.39311
G1 X118.148 Y109.699 E34.18143
G1 X118.148 Y109.5 E34.18785
G0 F2400 X129.926 Y108.023
G1 F1200 X130.066 Y108.163 E34.19773
G1 X130.206 Y108.023 E34.20409
G1 X132.764 Y105.461 E34.38472
G1 X133.231 Y104.837 E34.4236
G1 X133.57 Y104.057 E34.46603
G1 X133.718 Y103.225 E34.50819
G1 X133.674 Y102.377 E34.55056
G1 X133.43 Y101.559 E34.59314
G1 X133.009 Y100.821 E34.63553
G1 X132.425 Y100.202 E34.67799
G1 X131.715 Y99.732 E34.72047
G1 X130.917 Y99.441 E34.76285
G1 X130.076 Y99.341 E34.8051
G1 X129.234 Y99.437 E34.84738
G1 X128.431 Y99.726 E34.88996
G1 X127.722 Y100.19 E34.93223
G1 X127.135 Y100.807 E34.97472
G1 X126.709 Y101.544 E35.01719
G1 X126.48 Y102.31 E35.05707
G1 X126.466 Y102.354 E35.05938
G1 X126.464 Y102.399 E35.06162
G1 X126.416 Y103.154 E35.09937
G1 X126.412 Y103.202 E35.10177
G1 X126.557 Y104.038 E35.1441
G1 X126.892 Y104.822 E35.18664
G1 X127.352 Y105.443 E35.22519
G1 X127.469 Y105.565 E35.23363
G1 X129.926 Y108.023 E35.40702
G0 F2400 X130.066 Y107.597
G1 F1200 X130.206 Y107.457 E35.41689
G1 X132.461 Y105.199 E35.5761
G1 X132.883 Y104.635 E35.61124
G1 X133.184 Y103.941 E35.64898
G1 X133.316 Y103.2 E35.68654
G1 X133.277 Y102.445 E35.72425
G1 X133.06 Y101.717 E35.76215
G1 X132.685 Y101.061 E35.79985
G1 X132.166 Y100.51 E35.83761
G1 X131.534 Y100.092 E35.87542
G1 X130.824 Y99.833 E35.91312
G1 X130.075 Y99.744 E35.95075
G1 X129.325 Y99.829 E35.98841
G1 X128.611 Y100.086 E36.02627
G1 X127.98 Y100.499 E36.06389
G1 X127.458 Y101.048 E36.10169
G1 X127.079 Y101.704 E36.13949
G1 X126.862 Y102.425 E36.17705
G1 X126.86 Y102.47 E36.1793
G1 X126.818 Y103.132 E36.21239
G1 X126.814 Y103.18 E36.21479
G1 X126.943 Y103.924 E36.25247
G1 X127.241 Y104.622 E36.29033
G1 X127.658 Y105.184 E36.32524
G1 X127.755 Y105.285 E36.33223
G1 X129.926 Y107.457 E36.48544
G1 X130.066 Y107.597 E36.49181
G0 F2400 X130.066 Y107.031
G1 F1200 X130.206 Y106.891 E36.50169
G1 X132.158 Y104.937 E36.63948
G1 X132.535 Y104.433 E36.67088
G1 X132.798 Y103.825 E36.70393
G1 X132.914 Y103.175 E36.73687
G1 X132.88 Y102.513 E36.76994
G1 X132.69 Y101.876 E36.80311
G1 X132.361 Y101.301 E36.83616
G1 X131.907 Y100.818 E36.86923
G1 X131.353 Y100.452 E36.90236
G1 X130.731 Y100.225 E36.93539
G1 X130.074 Y100.147 E36.9684
G1 X129.416 Y100.221 E37.00143
G1 X128.791 Y100.446 E37.03457
G1 X128.238 Y100.808 E37.06755
G1 X127.781 Y101.289 E37.10065
G1 X127.449 Y101.864 E37.13377
G1 X127.258 Y102.496 E37.16671
G1 X127.216 Y103.158 E37.19981
G1 X127.329 Y103.81 E37.23282
G1 X127.59 Y104.421 E37.26597
G1 X127.965 Y104.926 E37.29735
G1 X128.041 Y105.006 E37.30285
G1 X129.926 Y106.891 E37.43585
G1 X130.066 Y107.031 E37.44222
G0 F2400 X130.066 Y106.465
;TYPE:WALL-OUTER
G1 F1200 X130.207 Y106.324 E37.45217
G1 X131.855 Y104.675 E37.56848
G1 X132.186 Y104.231 E37.59611
G1 X132.412 Y103.709 E37.62449
G1 X132.512 Y103.15 E37.65282
G1 X132.483 Y102.581 E37.68124
G1 X132.32 Y102.035 E37.70967
G1 X132.037 Y101.541 E37.73807
G1 X131.647 Y101.126 E37.76649
G1 X131.172 Y100.812 E37.79489
G1 X130.638 Y100.617 E37.82325
G1 X130.073 Y100.55 E37.85164
G1 X129.507 Y100.613 E37.88005
G1 X128.971 Y100.806 E37.90847
G1 X128.496 Y101.117 E37.9368
G1 X128.104 Y101.53 E37.96521
G1 X127.818 Y102.024 E37.99369
G1 X127.654 Y102.567 E38.02199
G1 X127.618 Y103.136 E38.05043
G1 X127.715 Y103.696 E38.07878
G1 X127.939 Y104.22 E38.10722
G1 X128.272 Y104.668 E38.13506
G1 X128.328 Y104.727 E38.13912
G1 X129.925 Y106.324 E38.2518
G1 X130.066 Y106.465 E38.25822
G0 F2400 X130.207 Y106.324
G0 X130.517 Y106.635
G0 X130.559 Y106.678
G0 X127.219 Y131.489
G0 X127.291 Y132.821
G0 X127.814 Y133.775
G0 X129.856 Y135.961
G0 X129.926 Y135.891
;TYPE:WALL-INNER
G1 F1200 X130.066 Y136.031 E38.2681
G1 X130.206 Y135.891 E38.27447
G1 X132.158 Y133.937 E38.41226
G1 X132.535 Y133.433 E38.44366
G1 X132.798 Y132.825 E38.47671
G1 X132.914 Y132.175 E38.50965
G1 X132.88 Y131.513 E38.54273
G1 X132.69 Y130.876 E38.57589
G1 X132.361 Y130.301 E38.60894
G1 X131.907 Y129.818 E38.64201
G1 X131.353 Y129.452 E38.67514
G1 X130.731 Y129.225 E38.70817
G1 X130.074 Y129.147 E38.74118
G1 X129.416 Y129.221 E38.77421
G1 X128.791 Y129.446 E38.80735
G1 X128.238 Y129.808 E38.84033
G1 X127.781 Y130.289 E38.87343
G1 X127.449 Y130.864 E38.90656
G1 X127.258 Y131.496 E38.93949
G1 X127.216 Y132.158 E38.97259
G1 X127.329 Y132.81 E39.0056
G1 X127.59 Y133.421 E39.03875
G1 X127.965 Y133.926 E39.07013
G1 X128.041 Y134.006 E39.07564
G1 X129.926 Y135.891 E39.20863
G0 F2400 X130.066 Y135.465
;TYPE:WALL-OUTER
G1 F1200 X130.207 Y135.324 E39.21858
G1 X131.855 Y133.675 E39.33489
G1 X132.186 Y133.231 E39.36252
G1 X132.412 Y132.709 E39.3909
G1 X132.512 Y132.15 E39.41923
G1 X132.483 Y131.581 E39.44766
G1 X132.32 Y131.035 E39.47608
G1 X132.037 Y130.541 E39.50449
G1 X131.647 Y130.126 E39.5329
G1 X131.172 Y129.812 E39.56131
G1 X130.638 Y129.617 E39.58967
G1 X130.073 Y129.55 E39.61805
G1 X129.507 Y129.613 E39.64647
G1 X128.971 Y129.806 E39.67489
G1 X128.496 Y130.117 E39.70321
G1 X128.104 Y130.53 E39.73162
G1 X127.818 Y131.024 E39.7601
G1 X127.654 Y131.567 E39.7884
G1 X127.618 Y132.136 E39.81684
G1 X127.715 Y132.696 E39.8452
G1 X127.939 Y133.22 E39.87363
G1 X128.272 Y133.668 E39.90148
G1 X128.328 Y133.727 E39.90554
G1 X129.925 Y135.324 E40.01821
G1 X130.066 Y135.465 E40.02464
G0 F2400 X130.207 Y135.324
G0 X130.517 Y135.635
G0 X130.559 Y135.678
G0 X127.935 Y133.951
G0 X122.604 Y125.9
;TYPE:WALL-INNER
G1 F1200 X117.749 Y125.9 E40.26685
G1 X117.748 Y109.299 E41.09508
G1 X117.748 Y109.1 E41.10501
G1 X117.947 Y109.1 E41.11143
G1 X122.405 Y109.1 E41.33384
G1 X122.604 Y109.1 E41.34377
G1 X122.604 Y108.901 E41.3502
G1 X122.603 Y99.099 E41.83922
G1 X122.603 Y98.9 E41.84915
G1 X122.802 Y98.9 E41.85557
G1 X135.627 Y98.9 E42.49541
G1 X135.628 Y135.901 E44.3414
G1 X135.628 Y136.1 E44.35133
G1 X135.429 Y136.1 E44.35775
G1 X131.609 Y136.1 E44.54833
G1 X131.608 Y136.1 E44.54838
G1 X131.128 Y136.1 E44.57233
G1 X131.467 Y135.76 E44.58523
G1 X132.764 Y134.461 E44.67681
G1 X133.231 Y133.837 E44.71569
G1 X133.57 Y133.057 E44.75813
G1 X133.718 Y132.225 E44.80029
G1 X133.674 Y131.377 E44.84265
G1 X133.43 Y130.559 E44.88524
G1 X133.009 Y129.821 E44.92763
G1 X132.425 Y129.202 E44.97008
G1 X131.715 Y128.732 E45.01256
G1 X130.917 Y128.441 E45.05494
G1 X130.076 Y128.341 E45.09719
G1 X129.234 Y128.437 E45.13947
G1 X128.431 Y128.726 E45.18205
G1 X127.722 Y129.19 E45.22432
G1 X127.135 Y129.807 E45.26681
G1 X126.709 Y130.544 E45.30928
G1 X126.48 Y131.31 E45.34917
G1 X126.466 Y131.354 E45.35147
G1 X126.464 Y131.399 E45.35372
G1 X126.416 Y132.154 E45.39146
G1 X126.412 Y132.202 E45.39386
G1 X126.557 Y133.038 E45.4362
G1 X126.892 Y133.822 E45.47873
G1 X127.352 Y134.443 E45.51729
G1 X127.469 Y134.565 E45.52572
