;FLAVOR:Marlin
;TIME:4004
;Filament used: 2.19998m, 0m
;Layer height: 0.2
;MINX:50.423
;MINY:64.64
;MINZ:0.2
;MAXX:174.208
;MAXY:175.14
;MAXZ:1.2
;Generated with Cura_SteamEngine 4.8.0
T0
M140 S60
M105
M190 S60
M104 S200
M105
M109 S200
M82 ;absolute extrusion mode
M201 X500.00 Y500.00 Z100.00 E5000.00 	;Setup machine max acceleration
M203 X500.00 Y500.00 Z10.00 E50.00 	;Setup machine max feedrate
M204 P500.00 R1000.00 T500.00 		;Setup Print/Retract/Travel acceleration
M205 X8.00 Y8.00 Z0.40 E5.00 		;Setup Jerk
M220 S100 				;Reset Feedrate
M221 S100 				;Reset Flowrate
G28				;Home the Machine
#G29 				;Bed Level
G92 E0
M300 P150 S587
G92 E0
G1 F1500 E-5.5
;LAYER_COUNT:6
;LAYER:0
M107
G0 F2160 X71.261 Y79.052 Z0.2
;TYPE:SKIRT
G1 F1500 E0
G1 F900 X71.389 Y78.939 E0.00426
G1 X71.862 Y78.543 E0.01965
G1 X72.11 Y78.347 E0.02753
G1 X72.541 Y78.026 E0.04094
G1 X72.679 Y77.929 E0.04515
G1 X73.925 Y77.092 E0.08259
G1 X76.226 Y75.499 E0.1524
G1 X78.412 Y73.893 E0.22007
G1 X80.55 Y72.226 E0.28769
G1 X82.691 Y70.457 E0.35697
G1 X84.72 Y68.683 E0.4242
G1 X87.237 Y66.337 E0.51003
G1 X87.822 Y65.898 E0.52828
G1 X88.107 Y65.728 E0.53656
G1 X88.577 Y65.494 E0.54965
G1 X89.299 Y65.261 E0.56858
G1 X89.879 Y65.13 E0.58341
G1 X90.277 Y65.066 E0.59347
G1 X90.785 Y65.026 E0.60618
G1 X91.373 Y65.023 E0.62085
G1 X92.176 Y65.112 E0.641
G1 X92.474 Y65.181 E0.64863
G1 X93.124 Y65.348 E0.66537
G1 X95.122 Y65.89 E0.71701
G1 X97.79 Y66.535 E0.78548
G1 X100.436 Y67.095 E0.85295
G1 X103.15 Y67.591 E0.92177
G1 X105.819 Y67.998 E0.98912
G1 X108.573 Y68.341 E1.05835
G1 X111.252 Y68.597 E1.12548
G1 X113.991 Y68.781 E1.19396
G1 X116.691 Y68.886 E1.26136
G1 X119.466 Y68.916 E1.33059
G1 X122.173 Y68.868 E1.39813
G1 X124.903 Y68.743 E1.4663
G1 X127.6 Y68.542 E1.53376
G1 X130.335 Y68.26 E1.60235
G1 X133.072 Y67.901 E1.67121
G1 X135.715 Y67.477 E1.73798
G1 X138.448 Y66.959 E1.80737
G1 X141.064 Y66.386 E1.87417
G1 X143.754 Y65.717 E1.94332
G1 X146.101 Y65.051 E2.00418
G1 X146.829 Y64.852 E2.023
G1 X147.34 Y64.744 E2.03603
G1 X147.725 Y64.683 E2.04576
G1 X148.231 Y64.643 E2.05842
G1 X148.818 Y64.64 E2.07306
G1 X149.573 Y64.72 E2.092
G1 X150.174 Y64.864 E2.10742
G1 X150.824 Y65.1 E2.12467
G1 X151.366 Y65.383 E2.13992
G1 X151.943 Y65.778 E2.15736
G1 X152.292 Y66.073 E2.16876
G1 X152.788 Y66.59 E2.18663
G1 X153.627 Y67.669 E2.22073
G1 X155.353 Y69.825 E2.28962
G1 X157.121 Y71.91 E2.35781
G1 X158.947 Y73.944 E2.426
G1 X160.841 Y75.937 E2.49458
G1 X163.152 Y78.222 E2.57565
G1 X163.916 Y78.953 E2.60203
G1 X164.03 Y79.068 E2.60607
G1 X164.462 Y79.522 E2.6217
G1 X164.576 Y79.647 E2.62592
G1 X164.92 Y80.046 E2.63906
G1 X165.031 Y80.181 E2.64342
G1 X165.475 Y80.752 E2.66147
G1 X165.879 Y81.307 E2.67859
G1 X166.169 Y81.732 E2.69142
G1 X166.491 Y82.25 E2.70664
G1 X166.575 Y82.395 E2.71082
G1 X167.04 Y83.245 E2.73499
G1 X167.108 Y83.378 E2.73871
G1 X167.517 Y84.209 E2.76182
G1 X167.674 Y84.561 E2.77143
G1 X168.03 Y85.466 E2.79569
G1 X168.078 Y85.597 E2.79917
G1 X168.284 Y86.19 E2.81483
G1 X168.328 Y86.325 E2.81837
G1 X168.543 Y87.037 E2.83693
G1 X168.582 Y87.176 E2.84053
G1 X168.755 Y87.85 E2.85789
G1 X168.784 Y87.972 E2.86101
G1 X168.923 Y88.609 E2.87728
G1 X168.95 Y88.746 E2.88076
G1 X169.09 Y89.54 E2.90087
G1 X169.111 Y89.68 E2.9044
G1 X169.19 Y90.269 E2.91923
G1 X169.204 Y90.39 E2.92227
G1 X169.277 Y91.132 E2.94087
G1 X169.288 Y91.271 E2.94434
G1 X169.334 Y92.067 E2.96423
G1 X169.339 Y92.202 E2.9676
G1 X169.351 Y92.844 E2.98362
G1 X169.351 Y92.978 E2.98696
G1 X169.334 Y93.81 E3.00772
G1 X169.329 Y93.946 E3.01112
G1 X169.287 Y94.649 E3.02868
G1 X169.276 Y94.786 E3.03211
G1 X169.211 Y95.437 E3.04843
G1 X169.195 Y95.574 E3.05187
G1 X169.082 Y96.379 E3.07215
G1 X169.059 Y96.517 E3.07564
G1 X168.628 Y98.883 E3.13563
G1 X168.479 Y99.677 E3.15578
G1 X168.044 Y102.38 E3.22408
G1 X167.686 Y105.074 E3.29187
G1 X167.401 Y107.828 E3.36094
G1 X167.198 Y110.524 E3.42838
G1 X167.07 Y113.259 E3.49668
G1 X167.019 Y115.966 E3.56422
G1 X167.046 Y118.737 E3.63334
G1 X167.149 Y121.443 E3.70089
G1 X167.328 Y124.137 E3.76824
G1 X167.59 Y126.902 E3.83753
G1 X167.922 Y129.588 E3.90504
G1 X168.335 Y132.298 E3.97342
G1 X168.821 Y134.984 E4.04151
G1 X169.385 Y137.658 E4.10968
G1 X170.018 Y140.295 E4.17733
G1 X170.734 Y142.937 E4.24561
G1 X171.526 Y145.571 E4.31422
G1 X172.382 Y148.147 E4.38194
G1 X173.545 Y151.309 E4.46598
G1 X173.794 Y151.975 E4.48372
G1 X173.961 Y152.51 E4.4977
G1 X174.111 Y153.193 E4.51514
G1 X174.204 Y154.026 E4.53605
G1 X174.208 Y154.504 E4.54797
G1 X174.171 Y155.039 E4.56135
G1 X174.062 Y155.652 E4.57688
G1 X173.983 Y155.963 E4.58489
G1 X173.725 Y156.657 E4.60336
G1 X173.465 Y157.149 E4.61724
G1 X173.079 Y157.718 E4.63439
G1 X172.787 Y158.067 E4.64574
G1 X172.263 Y158.573 E4.66391
G1 X171.057 Y159.514 E4.70207
G1 X168.941 Y161.211 E4.76973
G1 X166.84 Y162.997 E4.83852
G1 X164.808 Y164.824 E4.90668
G1 X162.848 Y166.689 E4.97417
G1 X160.529 Y169.039 E5.05653
G1 X159.896 Y169.703 E5.07941
G1 X159.777 Y169.821 E5.08359
G1 X159.321 Y170.255 E5.0993
G1 X159.195 Y170.37 E5.10355
G1 X158.74 Y170.762 E5.11853
G1 X158.305 Y171.106 E5.13237
G1 X158.21 Y171.178 E5.13534
G1 X157.458 Y171.724 E5.15852
G1 X157.001 Y172.031 E5.17226
G1 X156.432 Y172.38 E5.18891
G1 X155.887 Y172.687 E5.20451
G1 X155.731 Y172.769 E5.20891
G1 X154.932 Y173.162 E5.23112
G1 X154.802 Y173.222 E5.23469
G1 X154.102 Y173.531 E5.25378
G1 X153.973 Y173.585 E5.25727
G1 X153.432 Y173.798 E5.27177
G1 X153.298 Y173.848 E5.27534
G1 X152.531 Y174.114 E5.29559
G1 X152.399 Y174.157 E5.29905
G1 X151.919 Y174.302 E5.31156
G1 X151.783 Y174.339 E5.31508
G1 X150.836 Y174.582 E5.33946
G1 X150.253 Y174.71 E5.35435
G1 X150.107 Y174.739 E5.35807
G1 X149.277 Y174.884 E5.37908
G1 X148.623 Y174.975 E5.39556
G1 X148.485 Y174.991 E5.39902
G1 X147.651 Y175.071 E5.41992
G1 X147.519 Y175.081 E5.42322
G1 X146.767 Y175.124 E5.44201
G1 X146.637 Y175.129 E5.44526
G1 X146.069 Y175.14 E5.45943
G1 X145.934 Y175.14 E5.4628
G1 X145.024 Y175.122 E5.4855
G1 X144.883 Y175.117 E5.48902
G1 X144.108 Y175.07 E5.50839
G1 X143.976 Y175.059 E5.51169
G1 X143.221 Y174.984 E5.53062
G1 X142.587 Y174.898 E5.54658
G1 X141.704 Y174.737 E5.56897
G1 X141.577 Y174.711 E5.5722
G1 X140.827 Y174.545 E5.59136
G1 X140.676 Y174.508 E5.59524
G1 X139.985 Y174.322 E5.61309
G1 X139.859 Y174.286 E5.61636
G1 X139.292 Y174.11 E5.63117
G1 X138.927 Y173.984 E5.6408
G1 X136.329 Y173.105 E5.70922
G1 X133.733 Y172.306 E5.77697
G1 X131.112 Y171.582 E5.8448
G1 X128.386 Y170.91 E5.91484
G1 X125.78 Y170.348 E5.98134
G1 X123.105 Y169.848 E6.04923
G1 X120.389 Y169.418 E6.11782
G1 X117.671 Y169.067 E6.18618
G1 X114.953 Y168.795 E6.25432
G1 X112.249 Y168.6 E6.32195
G1 X109.514 Y168.481 E6.39024
G1 X106.775 Y168.44 E6.45857
G1 X104.037 Y168.476 E6.52688
G1 X101.334 Y168.587 E6.59436
G1 X98.601 Y168.778 E6.6627
G1 X95.876 Y169.046 E6.73101
G1 X93.165 Y169.389 E6.79917
G1 X90.479 Y169.809 E6.86699
G1 X87.776 Y170.308 E6.93555
G1 X85.144 Y170.871 E7.00269
G1 X84.604 Y171 E7.01654
G1 X83.11 Y171.326 E7.05469
G1 X82.969 Y171.353 E7.05827
G1 X82.123 Y171.501 E7.07969
G1 X81.527 Y171.585 E7.09471
G1 X81.398 Y171.6 E7.09795
G1 X80.544 Y171.684 E7.11935
G1 X80.404 Y171.695 E7.12286
G1 X79.622 Y171.74 E7.1424
G1 X79.49 Y171.745 E7.14569
G1 X78.915 Y171.756 E7.16004
G1 X78.781 Y171.756 E7.16338
G1 X77.924 Y171.739 E7.18476
G1 X77.788 Y171.734 E7.18816
G1 X76.995 Y171.687 E7.20797
G1 X76.864 Y171.677 E7.21125
G1 X76.075 Y171.6 E7.23103
G1 X75.474 Y171.518 E7.24616
G1 X74.544 Y171.35 E7.26973
G1 X74.412 Y171.324 E7.27309
G1 X73.738 Y171.175 E7.29031
G1 X73.598 Y171.141 E7.2939
G1 X72.882 Y170.951 E7.31238
G1 X72.755 Y170.914 E7.31568
G1 X72.136 Y170.724 E7.33183
G1 X72.005 Y170.681 E7.33527
G1 X71.387 Y170.464 E7.35161
G1 X71.25 Y170.413 E7.35526
G1 X70.584 Y170.147 E7.37314
G1 X70.45 Y170.09 E7.37678
G1 X69.564 Y169.691 E7.40102
G1 X69.291 Y169.554 E7.40864
G1 X68.21 Y168.954 E7.43948
G1 X67.791 Y168.699 E7.45171
G1 X67.273 Y168.355 E7.46722
G1 X67.147 Y168.267 E7.47106
G1 X66.646 Y167.901 E7.48653
G1 X66.526 Y167.809 E7.49031
G1 X66.076 Y167.449 E7.50468
G1 X65.944 Y167.338 E7.50898
G1 X65.481 Y166.928 E7.52441
G1 X65.361 Y166.816 E7.52851
G1 X64.935 Y166.401 E7.54334
G1 X64.823 Y166.287 E7.54733
G1 X64.458 Y165.897 E7.56065
G1 X64.336 Y165.76 E7.56523
G1 X63.951 Y165.3 E7.58019
G1 X63.498 Y164.71 E7.59875
G1 X63.308 Y164.441 E7.60696
G1 X62.54 Y163.295 E7.64138
G1 X60.987 Y161.046 E7.70955
G1 X59.375 Y158.847 E7.77757
G1 X57.694 Y156.685 E7.84588
G1 X55.968 Y154.59 E7.91359
G1 X54.17 Y152.529 E7.98182
G1 X51.624 Y149.792 E8.07507
G1 X51.325 Y149.427 E8.08684
G1 X51.058 Y148.975 E8.09993
G1 X50.844 Y148.442 E8.11426
G1 X50.662 Y147.856 E8.12957
G1 X50.518 Y147.202 E8.14627
G1 X50.467 Y146.88 E8.1544
G1 X50.426 Y146.37 E8.16717
G1 X50.423 Y145.779 E8.18191
G1 X50.503 Y145.024 E8.20085
G1 X50.649 Y144.416 E8.21645
G1 X50.883 Y143.772 E8.23354
G1 X51.182 Y143.2 E8.24964
G1 X51.234 Y143.107 E8.2523
G1 X51.628 Y142.43 E8.27184
G1 X52.318 Y141.28 E8.30529
G1 X53.668 Y138.878 E8.37402
G1 X54.932 Y136.473 E8.4418
G1 X56.141 Y134.008 E8.51029
G1 X57.263 Y131.54 E8.57791
G1 X58.342 Y128.984 E8.64712
G1 X59.319 Y126.464 E8.71454
G1 X60.238 Y123.883 E8.78288
G1 X61.079 Y121.295 E8.85077
G1 X61.852 Y118.665 E8.91915
G1 X62.536 Y116.066 E8.98619
G1 X63.173 Y113.34 E9.05602
G1 X63.709 Y110.699 E9.12324
G1 X64.177 Y108.009 E9.19135
G1 X64.569 Y105.317 E9.25921
G1 X64.887 Y102.591 E9.32767
G1 X65.125 Y99.874 E9.39571
G1 X65.286 Y97.164 E9.46343
G1 X65.381 Y93.864 E9.54578
G1 X65.393 Y92.8 E9.57233
G1 X65.399 Y92.633 E9.57649
G1 X65.455 Y91.702 E9.59976
G1 X65.466 Y91.572 E9.60301
G1 X65.533 Y90.89 E9.62011
G1 X65.549 Y90.753 E9.62355
G1 X65.662 Y89.938 E9.64407
G1 X65.684 Y89.799 E9.64759
G1 X65.804 Y89.134 E9.66444
G1 X65.83 Y89.004 E9.66775
G1 X65.989 Y88.283 E9.68617
G1 X66.024 Y88.14 E9.68984
G1 X66.189 Y87.519 E9.70587
G1 X66.226 Y87.389 E9.70924
G1 X66.423 Y86.75 E9.72592
G1 X66.466 Y86.62 E9.72933
G1 X66.711 Y85.924 E9.74774
G1 X66.762 Y85.789 E9.75134
G1 X66.996 Y85.204 E9.76706
G1 X67.05 Y85.076 E9.77052
G1 X67.429 Y84.229 E9.79367
G1 X67.66 Y83.762 E9.80667
G1 X67.98 Y83.174 E9.82337
G1 X68.281 Y82.668 E9.83805
G1 X68.378 Y82.516 E9.84255
G1 X69.059 Y81.51 E9.87285
G1 X69.338 Y81.131 E9.88459
G1 X69.723 Y80.652 E9.89992
G1 X69.832 Y80.522 E9.90416
G1 X70.228 Y80.076 E9.91903
G1 X70.332 Y79.965 E9.92283
G1 X70.752 Y79.532 E9.93788
G1 X70.879 Y79.407 E9.94232
G1 X71.261 Y79.052 E9.95533
G0 F2160 X71.466 Y79.272
G1 F900 X71.582 Y79.168 E9.95922
G1 X72.049 Y78.777 E9.97441
G1 X72.289 Y78.588 E9.98203
G1 X72.72 Y78.267 E9.99544
G1 X72.846 Y78.178 E9.99928
G1 X74.104 Y77.334 E10.03707
G1 X76.383 Y75.756 E10.10622
G1 X78.594 Y74.131 E10.17467
G1 X80.77 Y72.435 E10.24349
G1 X82.849 Y70.717 E10.31077
G1 X84.927 Y68.9 E10.37962
G1 X87.441 Y66.557 E10.46535
G1 X87.975 Y66.156 E10.48201
G1 X88.26 Y65.986 E10.49028
G1 X88.71 Y65.764 E10.5028
G1 X89.385 Y65.548 E10.52048
G1 X89.936 Y65.425 E10.53456
G1 X90.787 Y65.326 E10.55593
G1 X91.375 Y65.323 E10.5706
G1 X92.109 Y65.404 E10.58902
G1 X92.399 Y65.472 E10.59645
G1 X93.045 Y65.638 E10.61309
G1 X95.037 Y66.179 E10.66458
G1 X97.697 Y66.821 E10.73284
G1 X100.386 Y67.391 E10.80141
G1 X103.122 Y67.891 E10.87079
G1 X105.774 Y68.295 E10.93771
G1 X108.506 Y68.635 E11.00638
G1 X111.24 Y68.896 E11.07489
G1 X113.959 Y69.079 E11.14287
G1 X116.713 Y69.187 E11.21162
G1 X119.432 Y69.215 E11.27945
G1 X122.191 Y69.167 E11.34829
G1 X124.94 Y69.041 E11.41693
G1 X127.654 Y68.839 E11.48482
G1 X130.368 Y68.559 E11.55288
G1 X133.092 Y68.202 E11.62141
G1 X135.781 Y67.77 E11.68935
G1 X138.495 Y67.256 E11.75825
G1 X141.128 Y66.679 E11.82549
G1 X143.813 Y66.011 E11.89451
G1 X146.18 Y65.34 E11.95588
G1 X146.908 Y65.141 E11.97471
G1 X147.504 Y65.02 E11.98988
G1 X148.233 Y64.943 E12.00817
G1 X148.82 Y64.94 E12.02281
G1 X149.509 Y65.013 E12.04009
G1 X150.1 Y65.154 E12.05525
G1 X150.694 Y65.37 E12.07102
G1 X151.222 Y65.647 E12.08589
G1 X151.749 Y66.007 E12.10181
G1 X152.098 Y66.302 E12.11321
G1 X152.551 Y66.774 E12.12953
G1 X153.393 Y67.856 E12.16373
G1 X155.133 Y70.029 E12.23317
G1 X156.914 Y72.13 E12.30188
G1 X158.736 Y74.158 E12.36989
G1 X160.608 Y76.129 E12.43769
G1 X162.965 Y78.459 E12.52037
G1 X163.708 Y79.17 E12.54602
G1 X163.813 Y79.275 E12.54973
G1 X164.245 Y79.729 E12.56536
G1 X164.349 Y79.843 E12.56921
G1 X164.693 Y80.242 E12.58235
G1 X164.794 Y80.365 E12.58632
G1 X165.238 Y80.936 E12.60436
G1 X165.636 Y81.483 E12.62124
G1 X165.921 Y81.9 E12.63384
G1 X166.235 Y82.407 E12.64871
G1 X166.312 Y82.539 E12.65252
G1 X166.777 Y83.389 E12.67669
G1 X166.839 Y83.51 E12.68009
G1 X167.248 Y84.341 E12.70319
G1 X167.394 Y84.671 E12.71219
G1 X167.75 Y85.576 E12.73645
G1 X167.795 Y85.695 E12.73962
G1 X168.001 Y86.288 E12.75528
G1 X168.041 Y86.411 E12.75851
G1 X168.256 Y87.123 E12.77706
G1 X168.291 Y87.251 E12.78037
G1 X168.491 Y88.036 E12.80058
G1 X168.63 Y88.673 E12.81684
G1 X168.654 Y88.798 E12.82002
G1 X168.794 Y89.592 E12.84013
G1 X168.814 Y89.72 E12.84336
G1 X168.893 Y90.309 E12.85819
G1 X168.906 Y90.42 E12.86098
G1 X168.979 Y91.162 E12.87957
G1 X168.989 Y91.288 E12.88273
G1 X169.035 Y92.084 E12.90262
G1 X169.039 Y92.207 E12.90569
G1 X169.051 Y92.849 E12.9217
G1 X169.051 Y92.972 E12.92477
G1 X169.034 Y93.804 E12.94553
G1 X169.029 Y93.928 E12.94863
G1 X168.987 Y94.631 E12.96619
G1 X168.977 Y94.756 E12.96932
G1 X168.912 Y95.407 E12.98564
G1 X168.897 Y95.532 E12.98878
G1 X168.784 Y96.337 E13.00906
G1 X168.764 Y96.464 E13.01227
G1 X168.333 Y98.828 E13.07221
G1 X168.185 Y99.617 E13.09223
G1 X167.748 Y102.33 E13.16078
G1 X167.385 Y105.071 E13.22975
G1 X167.104 Y107.776 E13.29759
G1 X166.9 Y110.486 E13.36539
G1 X166.769 Y113.288 E13.43536
G1 X166.719 Y115.963 E13.5021
G1 X166.745 Y118.714 E13.57073
G1 X166.851 Y121.474 E13.63962
G1 X167.031 Y124.187 E13.70745
G1 X167.29 Y126.926 E13.77608
G1 X167.626 Y129.637 E13.84422
G1 X168.036 Y132.33 E13.91217
G1 X168.529 Y135.054 E13.98123
G1 X169.093 Y137.724 E14.0493
G1 X169.727 Y140.37 E14.11717
G1 X170.45 Y143.039 E14.18615
G1 X171.235 Y145.647 E14.25409
G1 X172.1 Y148.251 E14.32254
G1 X173.265 Y151.417 E14.40669
G1 X173.512 Y152.075 E14.42423
G1 X173.674 Y152.598 E14.43788
G1 X173.816 Y153.248 E14.45448
G1 X173.904 Y154.029 E14.47409
G1 X173.874 Y154.995 E14.49819
G1 X173.771 Y155.579 E14.51299
G1 X173.692 Y155.89 E14.52099
G1 X173.456 Y156.523 E14.53784
G1 X173.202 Y157.006 E14.55146
G1 X172.849 Y157.525 E14.56711
G1 X172.557 Y157.874 E14.57846
G1 X172.079 Y158.336 E14.59505
G1 X170.906 Y159.251 E14.63216
G1 X168.734 Y160.993 E14.70161
G1 X166.658 Y162.757 E14.76957
G1 X164.614 Y164.596 E14.83815
G1 X162.624 Y166.489 E14.90667
G1 X160.312 Y168.832 E14.98878
G1 X159.679 Y169.496 E15.01166
G1 X159.571 Y169.604 E15.01547
G1 X159.115 Y170.038 E15.03118
G1 X158.999 Y170.142 E15.03506
G1 X158.544 Y170.534 E15.05004
G1 X158.121 Y170.869 E15.0635
G1 X158.034 Y170.935 E15.06623
G1 X157.194 Y171.543 E15.09209
G1 X156.844 Y171.775 E15.10257
G1 X156.275 Y172.124 E15.11922
G1 X155.741 Y172.425 E15.13451
G1 X155.598 Y172.5 E15.13854
G1 X154.799 Y172.893 E15.16075
G1 X154.681 Y172.948 E15.164
G1 X153.981 Y173.257 E15.18309
G1 X153.863 Y173.306 E15.18627
G1 X153.322 Y173.519 E15.20078
G1 X153.2 Y173.564 E15.20402
G1 X152.433 Y173.83 E15.22427
G1 X152.312 Y173.869 E15.22744
G1 X151.832 Y174.014 E15.23995
G1 X151.708 Y174.049 E15.24316
G1 X150.883 Y174.262 E15.26442
G1 X150.772 Y174.289 E15.26727
G1 X150.189 Y174.417 E15.28216
G1 X150.055 Y174.443 E15.28556
G1 X149.225 Y174.588 E15.30658
G1 X149.109 Y174.606 E15.30951
G1 X148.582 Y174.678 E15.32278
G1 X148.457 Y174.693 E15.32592
G1 X147.623 Y174.773 E15.34682
G1 X147.502 Y174.782 E15.34984
G1 X146.75 Y174.825 E15.36863
G1 X146.063 Y174.84 E15.38577
G1 X145.94 Y174.84 E15.38884
G1 X145.03 Y174.822 E15.41155
G1 X144.901 Y174.817 E15.41477
G1 X144.126 Y174.77 E15.43414
G1 X144.006 Y174.761 E15.43714
G1 X143.251 Y174.686 E15.45606
G1 X142.641 Y174.603 E15.47142
G1 X141.758 Y174.442 E15.49381
G1 X141.642 Y174.419 E15.49676
G1 X140.892 Y174.253 E15.51592
G1 X140.754 Y174.219 E15.51947
G1 X140.063 Y174.033 E15.53732
