;FLAVOR:Marlin
;TIME:1280
;Filament used: 0.425061m, 0m
;Layer height: 0.1
;MINX:94.245
;MINY:83.273
;MINZ:0.2
;MAXX:140.755
;MAXY:150.535
;MAXZ:1.2
;Generated with Cura_SteamEngine 4.8.0
T0
M140 S60
M105
M190 S60
M104 S200
M105
M109 S200
M82 ;absolute extrusion mode
M201 X500.00 Y500.00 Z100.00 E5000.00 	;Setup machine max acceleration
M203 X500.00 Y500.00 Z10.00 E50.00 	;Setup machine max feedrate
M204 P500.00 R1000.00 T500.00 		;Setup Print/Retract/Travel acceleration
M205 X8.00 Y8.00 Z0.40 E5.00 		;Setup Jerk
M220 S100 				;Reset Feedrate
M221 S100 				;Reset Flowrate
G28				;Home the Machine
#G29 				;Bed Level
G92 E0
M300 P150 S587
G92 E0
G1 F1500 E-5.5
;LAYER_COUNT:11
;LAYER:0
M107
G0 F2160 X114.384 Y84.821 Z0.2
;TYPE:SKIRT
G1 F1500 E0
G1 F900 X114.705 Y84.405 E0.01311
G1 X115.085 Y84.043 E0.0262
G1 X115.515 Y83.742 E0.03929
G1 X115.986 Y83.51 E0.05239
G1 X116.487 Y83.353 E0.06549
G1 X117.006 Y83.273 E0.07859
G1 X117.531 Y83.273 E0.09168
G1 X118.05 Y83.353 E0.10478
G1 X118.551 Y83.51 E0.11788
G1 X119.022 Y83.741 E0.13096
G1 X119.452 Y84.042 E0.14406
G1 X119.832 Y84.404 E0.15715
G1 X120.153 Y84.82 E0.17026
G1 X120.375 Y85.211 E0.18147
G1 X120.966 Y86.433 E0.21533
G1 X122.215 Y88.93 E0.28498
G1 X123.504 Y91.335 E0.35305
G1 X124.846 Y93.675 E0.42034
G1 X126.276 Y96.015 E0.48874
G1 X127.781 Y98.328 E0.55758
G1 X129.331 Y100.568 E0.62553
G1 X130.929 Y102.745 E0.6929
G1 X132.622 Y104.918 E0.76161
G1 X134.361 Y107.024 E0.82974
G1 X135.353 Y108.157 E0.86731
G1 X136.331 Y109.294 E0.90472
G1 X136.44 Y109.428 E0.90903
G1 X136.847 Y109.952 E0.92558
G1 X137.294 Y110.567 E0.94454
G1 X137.652 Y111.098 E0.96052
G1 X137.992 Y111.653 E0.97675
G1 X138.297 Y112.195 E0.99227
G1 X138.377 Y112.347 E0.99655
G1 X138.793 Y113.191 E1.02002
G1 X138.855 Y113.326 E1.02373
G1 X139.121 Y113.93 E1.04019
G1 X139.174 Y114.055 E1.04358
G1 X139.436 Y114.72 E1.06141
G1 X139.485 Y114.853 E1.06495
G1 X139.685 Y115.429 E1.08016
G1 X139.729 Y115.563 E1.08367
G1 X139.948 Y116.288 E1.10257
G1 X139.985 Y116.421 E1.10601
G1 X140.144 Y117.035 E1.12183
G1 X140.175 Y117.165 E1.12516
G1 X140.331 Y117.88 E1.14342
G1 X140.358 Y118.021 E1.147
G1 X140.496 Y118.81 E1.16698
G1 X140.516 Y118.935 E1.17014
G1 X140.586 Y119.445 E1.18298
G1 X140.602 Y119.578 E1.18632
G1 X140.682 Y120.396 E1.20682
G1 X140.692 Y120.531 E1.2102
G1 X140.739 Y121.338 E1.23037
G1 X140.744 Y121.472 E1.23371
G1 X140.755 Y122.037 E1.24781
G1 X140.755 Y122.17 E1.25113
G1 X140.738 Y123.059 E1.27331
G1 X140.733 Y123.194 E1.27668
G1 X140.692 Y123.895 E1.29419
G1 X140.681 Y124.033 E1.29765
G1 X140.621 Y124.64 E1.31286
G1 X140.606 Y124.773 E1.3162
G1 X140.487 Y125.634 E1.33788
G1 X140.464 Y125.778 E1.34152
G1 X140.338 Y126.472 E1.35911
G1 X140.312 Y126.601 E1.3624
G1 X140.178 Y127.207 E1.37788
G1 X140.144 Y127.346 E1.38145
G1 X139.955 Y128.059 E1.39985
G1 X139.919 Y128.185 E1.40312
G1 X139.649 Y129.067 E1.42613
G1 X139.503 Y129.482 E1.4371
G1 X139.176 Y130.301 E1.4591
G1 X139.118 Y130.438 E1.46281
G1 X138.682 Y131.407 E1.48932
G1 X138.553 Y131.665 E1.49651
G1 X137.953 Y132.746 E1.52735
G1 X137.699 Y133.163 E1.53953
G1 X137.346 Y133.695 E1.55546
G1 X137.257 Y133.823 E1.55935
G1 X136.926 Y134.276 E1.57334
G1 X136.835 Y134.395 E1.57708
G1 X136.437 Y134.893 E1.59298
G1 X136.322 Y135.029 E1.59743
G1 X135.92 Y135.482 E1.61253
G1 X135.808 Y135.602 E1.61663
G1 X135.391 Y136.029 E1.63152
G1 X135.275 Y136.143 E1.63557
G1 X134.892 Y136.5 E1.64863
G1 X134.765 Y136.613 E1.65287
G1 X134.317 Y136.991 E1.6675
G1 X133.735 Y137.438 E1.6858
G1 X133.443 Y137.645 E1.69473
G1 X132.341 Y138.383 E1.72782
G1 X130.052 Y139.963 E1.7972
G1 X127.853 Y141.575 E1.86521
G1 X125.69 Y143.256 E1.93355
G1 X123.596 Y144.98 E2.00121
G1 X121.531 Y146.782 E2.06957
G1 X118.913 Y149.22 E2.15881
G1 X118.314 Y149.667 E2.17746
G1 X118.024 Y149.838 E2.18585
G1 X117.553 Y150.069 E2.19894
G1 X116.875 Y150.289 E2.21672
G1 X116.168 Y150.442 E2.23477
G1 X115.36 Y150.531 E2.25504
G1 X114.883 Y150.535 E2.26694
G1 X114.323 Y150.494 E2.28095
G1 X113.72 Y150.385 E2.29623
G1 X113.427 Y150.311 E2.30377
G1 X112.738 Y150.056 E2.3221
G1 X112.236 Y149.793 E2.33624
G1 X111.651 Y149.393 E2.35391
G1 X111.299 Y149.095 E2.36542
G1 X110.804 Y148.579 E2.38326
G1 X109.938 Y147.465 E2.41845
G1 X108.228 Y145.33 E2.48669
G1 X106.475 Y143.263 E2.5543
G1 X104.649 Y141.229 E2.62248
G1 X102.755 Y139.236 E2.69107
G1 X100.444 Y136.951 E2.77213
G1 X99.68 Y136.22 E2.79851
G1 X99.568 Y136.108 E2.80246
G1 X99.138 Y135.657 E2.81801
G1 X99.018 Y135.525 E2.82246
G1 X98.639 Y135.084 E2.83696
G1 X98.536 Y134.957 E2.84104
G1 X98.13 Y134.434 E2.85756
G1 X97.678 Y133.809 E2.8768
G1 X97.347 Y133.316 E2.89161
G1 X97.012 Y132.771 E2.90757
G1 X96.696 Y132.209 E2.92365
G1 X96.619 Y132.061 E2.92781
G1 X96.084 Y130.976 E2.95799
G1 X95.914 Y130.592 E2.96847
G1 X95.583 Y129.749 E2.99106
G1 X95.536 Y129.622 E2.99443
G1 X95.306 Y128.961 E3.01189
G1 X95.261 Y128.825 E3.01547
G1 X95.055 Y128.143 E3.03324
G1 X95.016 Y128.003 E3.03686
G1 X94.839 Y127.314 E3.05461
G1 X94.811 Y127.195 E3.05766
G1 X94.676 Y126.579 E3.07339
G1 X94.647 Y126.434 E3.07708
G1 X94.502 Y125.604 E3.0981
G1 X94.483 Y125.478 E3.10127
G1 X94.405 Y124.908 E3.11563
G1 X94.389 Y124.773 E3.11902
G1 X94.319 Y124.051 E3.13711
G1 X94.309 Y123.918 E3.14044
G1 X94.261 Y123.09 E3.16113
G1 X94.256 Y122.951 E3.1646
G1 X94.245 Y122.326 E3.18019
G1 X94.245 Y122.195 E3.18346
G1 X94.262 Y121.363 E3.20422
G1 X94.267 Y121.227 E3.20761
G1 X94.309 Y120.526 E3.22513
G1 X94.32 Y120.391 E3.22851
G1 X94.385 Y119.737 E3.2449
G1 X94.401 Y119.599 E3.24837
G1 X94.513 Y118.8 E3.26849
G1 X94.536 Y118.659 E3.27206
G1 X94.67 Y117.926 E3.29065
G1 X94.697 Y117.796 E3.29396
G1 X94.838 Y117.163 E3.31014
G1 X94.872 Y117.022 E3.31375
G1 X95.037 Y116.405 E3.32969
G1 X95.075 Y116.275 E3.33306
G1 X95.308 Y115.523 E3.3527
G1 X95.35 Y115.396 E3.35604
G1 X95.676 Y114.477 E3.38036
G1 X95.8 Y114.175 E3.38851
G1 X96.29 Y113.089 E3.41823
G1 X96.539 Y112.587 E3.43221
G1 X96.843 Y112.032 E3.44799
G1 X96.919 Y111.9 E3.45179
G1 X97.252 Y111.351 E3.46781
G1 X97.331 Y111.228 E3.47145
G1 X97.668 Y110.722 E3.48662
G1 X97.76 Y110.589 E3.49065
G1 X98.114 Y110.108 E3.50555
G1 X98.207 Y109.988 E3.50934
G1 X98.685 Y109.396 E3.52832
G1 X99.106 Y108.898 E3.54459
G1 X100.048 Y107.802 E3.58064
G1 X101.746 Y105.715 E3.64775
G1 X103.441 Y103.505 E3.71723
G1 X105.017 Y101.325 E3.78433
G1 X106.566 Y99.05 E3.85299
G1 X108.044 Y96.741 E3.92137
G1 X109.441 Y94.417 E3.98901
G1 X110.781 Y92.039 E4.0571
G1 X112.044 Y89.639 E4.12476
G1 X113.805 Y85.994 E4.22574
G1 X114.131 Y85.28 E4.24532
G1 X114.384 Y84.821 E4.25839
G0 F2160 X114.647 Y84.967
G1 F900 X114.958 Y84.573 E4.27091
G1 X115.327 Y84.233 E4.28343
G1 X115.745 Y83.956 E4.29594
G1 X116.202 Y83.749 E4.30845
G1 X116.686 Y83.617 E4.32096
G1 X117.185 Y83.564 E4.33348
G1 X117.686 Y83.591 E4.346
G1 X118.176 Y83.696 E4.3585
G1 X118.643 Y83.879 E4.37101
G1 X119.076 Y84.133 E4.38353
G1 X119.463 Y84.452 E4.39604
G1 X119.794 Y84.829 E4.40856
G1 X120.105 Y85.341 E4.4235
G1 X120.716 Y86.604 E4.4585
G1 X121.936 Y89.045 E4.52657
G1 X123.241 Y91.477 E4.59542
G1 X124.59 Y93.832 E4.66312
G1 X126.038 Y96.202 E4.7324
G1 X127.516 Y98.472 E4.79997
G1 X129.07 Y100.718 E4.8681
G1 X130.711 Y102.954 E4.93729
G1 X132.381 Y105.097 E5.00506
G1 X134.148 Y107.238 E5.07431
G1 X135.125 Y108.353 E5.11129
G1 X136.103 Y109.49 E5.1487
G1 X136.203 Y109.612 E5.15264
G1 X136.674 Y110.221 E5.17184
G1 X137.106 Y110.82 E5.19027
G1 X137.396 Y111.254 E5.20329
G1 X137.736 Y111.809 E5.21952
G1 X138.035 Y112.341 E5.23474
G1 X138.107 Y112.479 E5.23863
G1 X138.523 Y113.323 E5.2621
G1 X138.581 Y113.446 E5.26549
G1 X138.847 Y114.05 E5.28196
G1 X138.895 Y114.165 E5.28506
G1 X139.157 Y114.83 E5.30289
G1 X139.202 Y114.952 E5.30614
G1 X139.402 Y115.528 E5.32135
G1 X139.441 Y115.65 E5.32454
G1 X139.66 Y116.375 E5.34343
G1 X139.694 Y116.496 E5.34657
G1 X139.853 Y117.11 E5.36239
G1 X139.882 Y117.229 E5.36545
G1 X140.038 Y117.944 E5.3837
G1 X140.063 Y118.072 E5.38695
G1 X140.201 Y118.861 E5.40694
G1 X140.219 Y118.976 E5.40984
G1 X140.289 Y119.486 E5.42268
G1 X140.303 Y119.607 E5.42572
G1 X140.383 Y120.425 E5.44622
G1 X140.393 Y120.549 E5.44932
G1 X140.44 Y121.356 E5.46949
G1 X140.455 Y122.043 E5.48663
G1 X140.455 Y122.164 E5.48965
G1 X140.438 Y123.053 E5.51183
G1 X140.434 Y123.177 E5.51492
G1 X140.393 Y123.878 E5.53244
G1 X140.383 Y124.004 E5.53559
G1 X140.323 Y124.611 E5.55081
G1 X140.308 Y124.732 E5.55385
G1 X140.189 Y125.593 E5.57553
G1 X140.168 Y125.725 E5.57887
G1 X140.042 Y126.419 E5.59646
G1 X140.019 Y126.536 E5.59944
G1 X139.885 Y127.142 E5.61492
G1 X139.854 Y127.269 E5.61818
G1 X139.665 Y127.982 E5.63658
G1 X139.632 Y128.097 E5.63956
G1 X139.362 Y128.979 E5.66257
G1 X139.224 Y129.371 E5.67294
G1 X138.897 Y130.19 E5.69494
G1 X138.845 Y130.315 E5.69831
G1 X138.409 Y131.284 E5.72482
G1 X138.29 Y131.52 E5.73141
G1 X137.69 Y132.601 E5.76225
G1 X137.449 Y132.998 E5.77384
G1 X137.096 Y133.53 E5.78977
G1 X137.014 Y133.646 E5.79331
G1 X136.683 Y134.099 E5.80731
G1 X136.601 Y134.208 E5.81071
G1 X136.203 Y134.706 E5.82661
G1 X136.098 Y134.83 E5.83066
G1 X135.696 Y135.283 E5.84577
G1 X135.594 Y135.393 E5.84951
G1 X135.177 Y135.82 E5.8644
G1 X135.071 Y135.923 E5.86809
G1 X134.688 Y136.28 E5.88115
G1 X134.571 Y136.384 E5.88505
G1 X134.123 Y136.762 E5.89968
G1 X133.554 Y137.198 E5.91756
G1 X133.276 Y137.396 E5.92607
G1 X132.134 Y138.161 E5.96036
G1 X129.877 Y139.719 E6.02877
G1 X127.683 Y141.328 E6.09664
G1 X125.511 Y143.015 E6.16525
G1 X123.401 Y144.753 E6.23344
G1 X121.325 Y146.564 E6.30216
G1 X118.709 Y149 E6.39133
G1 X118.162 Y149.408 E6.40835
G1 X117.872 Y149.579 E6.41675
G1 X117.189 Y149.88 E6.43537
G1 X116.444 Y150.086 E6.45465
G1 X115.806 Y150.195 E6.47079
G1 X114.88 Y150.235 E6.49391
G1 X114.369 Y150.197 E6.5067
G1 X113.794 Y150.094 E6.52127
G1 X113.501 Y150.02 E6.52881
G1 X112.871 Y149.787 E6.54556
G1 X112.379 Y149.529 E6.55942
G1 X111.845 Y149.164 E6.57555
G1 X111.493 Y148.866 E6.58706
G1 X111.041 Y148.395 E6.60334
G1 X110.203 Y147.317 E6.6374
G1 X108.463 Y145.144 E6.70685
G1 X106.682 Y143.043 E6.77555
G1 X104.86 Y141.015 E6.84356
G1 X102.988 Y139.044 E6.91137
G1 X100.631 Y136.714 E6.99404
G1 X99.888 Y136.003 E7.01969
G1 X99.785 Y135.901 E7.02331
G1 X99.355 Y135.45 E7.03885
G1 X99.246 Y135.329 E7.04292
G1 X98.867 Y134.888 E7.05742
G1 X98.772 Y134.773 E7.06114
G1 X98.442 Y134.35 E7.07453
G1 X97.922 Y133.633 E7.09662
G1 X97.602 Y133.159 E7.11089
G1 X97.267 Y132.614 E7.12684
G1 X96.958 Y132.063 E7.1426
G1 X96.888 Y131.928 E7.1464
G1 X96.3 Y130.732 E7.17964
G1 X96.193 Y130.482 E7.18643
G1 X95.862 Y129.639 E7.20902
G1 X95.819 Y129.523 E7.2121
G1 X95.589 Y128.862 E7.22956
G1 X95.549 Y128.738 E7.23281
G1 X95.343 Y128.056 E7.25058
G1 X95.307 Y127.929 E7.25388
G1 X95.13 Y127.24 E7.27162
G1 X95.104 Y127.13 E7.27444
G1 X94.969 Y126.514 E7.29017
G1 X94.943 Y126.382 E7.29353
G1 X94.798 Y125.552 E7.31455
G1 X94.78 Y125.437 E7.31745
G1 X94.702 Y124.867 E7.3318
G1 X94.688 Y124.744 E7.33489
G1 X94.618 Y124.022 E7.35298
G1 X94.608 Y123.9 E7.35604
G1 X94.56 Y123.072 E7.37673
G1 X94.555 Y122.945 E7.3799
G1 X94.544 Y122.32 E7.39549
G1 X94.562 Y121.369 E7.41922
G1 X94.567 Y121.245 E7.42231
G1 X94.618 Y120.42 E7.44293
G1 X94.683 Y119.766 E7.45933
G1 X94.698 Y119.641 E7.46247
G1 X94.81 Y118.842 E7.48259
G1 X94.831 Y118.713 E7.48585
G1 X94.965 Y117.98 E7.50444
G1 X94.989 Y117.861 E7.50747
G1 X95.13 Y117.228 E7.52365
G1 X95.162 Y117.099 E7.52696
G1 X95.327 Y116.482 E7.54289
G1 X95.361 Y116.364 E7.54596
G1 X95.594 Y115.612 E7.5656
G1 X95.633 Y115.495 E7.56867
G1 X95.914 Y114.699 E7.58973
G1 X96.074 Y114.298 E7.6005
G1 X96.609 Y113.116 E7.63286
G1 X96.802 Y112.731 E7.64361
G1 X97.106 Y112.176 E7.65939
G1 X97.176 Y112.055 E7.66288
G1 X97.509 Y111.506 E7.6789
G1 X97.58 Y111.394 E7.6822
G1 X97.917 Y110.888 E7.69737
G1 X98.002 Y110.767 E7.70106
G1 X98.356 Y110.286 E7.71596
G1 X98.44 Y110.176 E7.71941
G1 X98.914 Y109.59 E7.73821
G1 X99.334 Y109.093 E7.75444
G1 X100.278 Y107.994 E7.79058
G1 X101.986 Y105.896 E7.85807
G1 X103.665 Y103.706 E7.9269
G1 X105.276 Y101.478 E7.99549
G1 X106.823 Y99.206 E8.06405
G1 X108.284 Y96.924 E8.13165
G1 X109.699 Y94.569 E8.20018
G1 X111.054 Y92.164 E8.26904
G1 X112.324 Y89.752 E8.33704
G1 X114.046 Y86.187 E8.4358
G1 X114.403 Y85.405 E8.45724
G1 X114.647 Y84.967 E8.46975
G1 F1500 E2.96975
;MESH:Pumpkin.stl
G0 F2160 X116.131 Y92.9
G0 X117.106 Y92.974
G0 X119.13 Y113.635
G0 X120.987 Y111.553
G0 X124.396 Y112.564
G0 X127.422 Y113.6
G0 X132.479 Y120.939
G0 X126.32 Y120.965
G0 X119.211 Y126.016
;TYPE:WALL-INNER
G1 F1500 E8.46975
G1 F900 X123.594 Y128.959 E8.60144
G1 X124.219 Y128.058 E8.6288
G1 X124.398 Y127.903 E8.6347
G1 X124.611 Y127.798 E8.64063
G1 X124.85 Y127.748 E8.64672
G1 X125.097 Y127.76 E8.65289
G1 X125.323 Y127.829 E8.65878
G1 X125.531 Y127.956 E8.66486
G1 X125.695 Y128.125 E8.67074
G1 X125.816 Y128.337 E8.67682
G1 X125.879 Y128.568 E8.6828
G1 X125.882 Y128.804 E8.68869
G1 X125.828 Y129.025 E8.69436
G1 X125.703 Y129.255 E8.70089
G1 X125.217 Y129.86 E8.72025
G1 X125.116 Y129.986 E8.72428
G1 X125.25 Y130.076 E8.72682
G1 X129.171 Y132.724 E8.84485
G1 X129.308 Y132.816 E8.84896
G1 X129.385 Y132.67 E8.85155
G1 X129.984 Y131.538 E8.8835
G1 X130.241 Y130.966 E8.89914
G1 X130.449 Y130.402 E8.91414
G1 X130.607 Y129.845 E8.92858
G1 X130.717 Y129.265 E8.94331
G1 X130.763 Y128.485 E8.9628
G1 X130.683 Y127.702 E8.98243
G1 X130.467 Y126.948 E9.002
G1 X130.119 Y126.243 E9.02161
G1 X129.651 Y125.6 E9.04145
G1 X129.251 Y125.176 E9.05599
G1 X128.821 Y124.797 E9.07029
G1 X128.363 Y124.46 E9.08447
G1 X127.848 Y124.131 E9.09971
G1 X127.324 Y123.847 E9.11458
G1 X126.807 Y123.614 E9.12873
G1 X126.795 Y123.608 E9.12906
G1 X126.262 Y123.418 E9.14318
G1 X125.699 Y123.269 E9.15771
G1 X124.92 Y123.158 E9.17733
G1 X124.114 Y123.154 E9.19744
G1 X123.313 Y123.269 E9.21763
G1 X122.531 Y123.497 E9.23794
G1 X121.986 Y123.724 E9.25267
G1 X121.477 Y123.988 E9.26698
G1 X120.997 Y124.285 E9.28106
G1 X120.506 Y124.638 E9.29614
G1 X120.021 Y125.034 E9.31176
G1 X119.194 Y125.782 E9.33958
G1 X119.053 Y125.91 E9.34433
G1 X119.211 Y126.016 E9.3472
G0 F2160 X119.539 Y125.875
G1 F900 X119.697 Y125.981 E9.35195
G1 X123.516 Y128.545 E9.4667
G1 X123.993 Y127.857 E9.48758
G1 X124.232 Y127.651 E9.49545
G1 X124.513 Y127.512 E9.50327
G1 X124.826 Y127.446 E9.51125
G1 X125.147 Y127.462 E9.51927
G1 X125.446 Y127.553 E9.52706
G1 X125.72 Y127.72 E9.53507
G1 X125.936 Y127.943 E9.54281
G1 X125.954 Y127.976 E9.54375
G1 X126.097 Y128.224 E9.55089
G1 X126.178 Y128.525 E9.55867
G1 X126.183 Y128.837 E9.56645
G1 X126.109 Y129.136 E9.57413
G1 X125.954 Y129.422 E9.58225
G1 X125.655 Y129.794 E9.59415
G1 X125.554 Y129.92 E9.59818
G1 X125.688 Y130.01 E9.60073
G1 X129.062 Y132.288 E9.70228
G1 X129.199 Y132.38 E9.7064
G1 X129.276 Y132.234 E9.70898
G1 X129.714 Y131.406 E9.73235
G1 X129.963 Y130.852 E9.7475
G1 X130.164 Y130.309 E9.76195
G1 X130.315 Y129.776 E9.77576
G1 X130.419 Y129.228 E9.78968
G1 X130.462 Y128.492 E9.80807
G1 X130.387 Y127.759 E9.82645
G1 X130.186 Y127.057 E9.84467
G1 X129.861 Y126.399 E9.86297
G1 X129.42 Y125.792 E9.88169
G1 X129.042 Y125.392 E9.89542
G1 X128.632 Y125.031 E9.90904
G1 X128.193 Y124.707 E9.92265
G1 X127.696 Y124.39 E9.93736
G1 X127.19 Y124.116 E9.95171
G1 X126.683 Y123.886 E9.9656
G1 X126.173 Y123.705 E9.9791
G1 X125.639 Y123.564 E9.99288
G1 X124.898 Y123.458 E10.01155
G1 X124.135 Y123.454 E10.03058
G1 X123.377 Y123.563 E10.04969
G1 X122.631 Y123.78 E10.06907
G1 X122.113 Y123.996 E10.08307
G1 X121.625 Y124.249 E10.09678
G1 X121.164 Y124.535 E10.11031
G1 X120.688 Y124.876 E10.12492
G1 X120.217 Y125.261 E10.14009
G1 X119.68 Y125.747 E10.15816
G1 X119.539 Y125.875 E10.16104
G0 F2160 X119.944 Y125.846
;TYPE:WALL-OUTER
G1 F900 X120.102 Y125.952 E10.16579
G1 X123.451 Y128.2 E10.2664
G1 X123.804 Y127.69 E10.28188
G1 X124.094 Y127.44 E10.29143
G1 X124.432 Y127.273 E10.30083
G1 X124.806 Y127.195 E10.31036
G1 X125.189 Y127.213 E10.31993
G1 X125.548 Y127.323 E10.32929
G1 X125.877 Y127.524 E10.33891
G1 X126.138 Y127.793 E10.34826
G1 X126.329 Y128.127 E10.35786
G1 X126.428 Y128.492 E10.36729
G1 X126.433 Y128.867 E10.37665
