;FLAVOR:Marlin
;TIME:886
;Filament used: 0.299239m, 0m
;Layer height: 0.1
;MINX:95.86
;MINY:77.209
;MINZ:0.2
;MAXX:139.144
;MAXY:156.592
;MAXZ:1.2
;Generated with Cura_SteamEngine 4.8.0
T0
M140 S60
M105
M190 S60
M104 S200
M105
M109 S200
M82 ;absolute extrusion mode
M201 X500.00 Y500.00 Z100.00 E5000.00 	;Setup machine max acceleration
M203 X500.00 Y500.00 Z10.00 E50.00 	;Setup machine max feedrate
M204 P500.00 R1000.00 T500.00 		;Setup Print/Retract/Travel acceleration
M205 X8.00 Y8.00 Z0.40 E5.00 		;Setup Jerk
M220 S100 				;Reset Feedrate
M221 S100 				;Reset Flowrate
G28				;Home the Machine
#G29 				;Bed Level
G92 E0
M300 P150 S587
G92 E0
G1 F1500 E-5.5
;LAYER_COUNT:11
;LAYER:0
M107
G0 F2160 X115.303 Y78.574 Z0.2
;TYPE:SKIRT
G1 F1500 E0
G1 F900 X115.651 Y78.181 E0.01309
G1 X116.055 Y77.846 E0.02619
G1 X116.505 Y77.575 E0.03929
G1 X116.991 Y77.376 E0.05239
G1 X117.501 Y77.253 E0.06548
G1 X118.024 Y77.209 E0.07857
G1 X118.548 Y77.245 E0.09167
G1 X119.061 Y77.36 E0.10479
G1 X119.549 Y77.551 E0.11786
G1 X120.004 Y77.814 E0.13097
G1 X120.413 Y78.143 E0.14406
G1 X120.767 Y78.53 E0.15715
G1 X121.059 Y78.967 E0.17026
G1 X121.219 Y79.289 E0.17922
G1 X122.433 Y81.771 E0.24815
G1 X123.685 Y84.156 E0.31534
G1 X125.038 Y86.564 E0.38424
G1 X126.442 Y88.906 E0.45236
G1 X127.897 Y91.185 E0.5198
G1 X129.453 Y93.476 E0.58889
G1 X131.044 Y95.682 E0.65674
G1 X132.684 Y97.823 E0.72401
G1 X134.429 Y99.976 E0.79314
G1 X136.199 Y102.035 E0.86087
G1 X137.277 Y103.208 E0.90062
G1 X137.343 Y103.292 E0.90328
G1 X138.253 Y104.297 E0.9371
G1 X138.574 Y104.712 E0.95019
G1 X138.829 Y105.171 E0.96329
G1 X139.012 Y105.663 E0.97638
G1 X139.117 Y106.177 E0.98947
G1 X139.144 Y106.701 E1.00256
G1 X139.09 Y107.224 E1.01567
G1 X138.949 Y107.758 E1.02945
G1 X138.757 Y108.304 E1.04389
G1 X138.187 Y109.852 E1.08504
G1 X137.322 Y112.422 E1.15268
G1 X136.523 Y115.04 E1.22096
G1 X135.796 Y117.687 E1.28943
G1 X135.149 Y120.332 E1.35736
G1 X134.573 Y123.021 E1.42596
G1 X134.085 Y125.659 E1.49288
G1 X133.658 Y128.396 E1.56198
G1 X133.313 Y131.094 E1.62983
G1 X133.05 Y133.775 E1.69703
G1 X132.855 Y136.546 E1.76632
G1 X132.742 Y139.247 E1.83376
G1 X132.732 Y140.066 E1.85419
G1 X132.704 Y141.132 E1.88079
G1 X132.613 Y141.831 E1.89837
G1 X132.509 Y142.273 E1.9097
G1 X132.299 Y142.895 E1.92608
G1 X131.171 Y145.411 E1.99486
G1 X129.638 Y149.171 E2.09615
G1 X129.215 Y150.28 E2.12576
G1 X128.953 Y150.82 E2.14073
G1 X128.8 Y151.076 E2.14817
G1 X128.498 Y151.505 E2.16125
G1 X128.118 Y151.898 E2.17489
G1 X126.171 Y153.638 E2.24003
G1 X124.087 Y155.613 E2.31165
G1 X123.68 Y155.944 E2.32474
G1 X123.227 Y156.21 E2.33784
G1 X122.739 Y156.403 E2.35093
G1 X122.2 Y156.525 E2.36472
G1 X121.968 Y156.558 E2.37056
G1 X121.444 Y156.592 E2.38366
G1 X120.79 Y156.522 E2.40007
G1 X120.023 Y156.364 E2.4196
G1 X118.858 Y156.106 E2.44937
G1 X114.779 Y155.352 E2.55284
G1 X113.794 Y155.19 E2.57774
G1 X113.284 Y155.066 E2.59084
G1 X112.699 Y154.814 E2.60673
G1 X112.505 Y154.708 E2.61224
G1 X112.065 Y154.422 E2.62533
G1 X111.652 Y154.05 E2.6392
G1 X111.342 Y153.722 E2.65045
G1 X111.011 Y153.314 E2.66356
G1 X110.726 Y152.845 E2.67725
G1 X110.392 Y152.207 E2.69521
G1 X110.17 Y151.661 E2.70992
G1 X110.099 Y151.46 E2.71523
G1 X109.888 Y150.788 E2.7328
G1 X109.558 Y149.611 E2.7633
G1 X108.767 Y146.929 E2.83305
G1 X107.934 Y144.37 E2.90018
G1 X107.005 Y141.77 E2.96905
G1 X105.753 Y138.612 E3.05379
G1 X105.54 Y137.991 E3.07017
G1 X105.375 Y137.341 E3.0869
G1 X105.312 Y137.035 E3.09469
G1 X105.084 Y135.606 E3.13079
G1 X105.031 Y135.249 E3.13979
G1 X104.554 Y132.561 E3.20789
G1 X104.007 Y129.904 E3.27556
G1 X103.379 Y127.248 E3.34364
G1 X102.671 Y124.587 E3.41233
G1 X101.897 Y121.98 E3.48017
G1 X101.049 Y119.391 E3.54813
G1 X100.12 Y116.806 E3.61665
G1 X99.124 Y114.263 E3.68478
G1 X98.059 Y111.759 E3.75265
G1 X96.519 Y108.439 E3.84395
G1 X96.255 Y107.889 E3.85917
G1 X96.142 Y107.629 E3.86624
G1 X95.97 Y107.133 E3.87933
G1 X95.875 Y106.617 E3.89242
G1 X95.86 Y106.092 E3.90552
G1 X95.924 Y105.571 E3.91862
G1 X96.067 Y105.066 E3.93171
G1 X96.285 Y104.588 E3.94482
G1 X96.573 Y104.149 E3.95791
G1 X96.854 Y103.827 E3.96857
G1 X97.642 Y103.031 E3.99651
G1 X99.526 Y101.074 E4.06428
G1 X101.378 Y99.038 E4.13293
G1 X103.151 Y96.973 E4.20083
G1 X104.876 Y94.846 E4.26914
G1 X106.534 Y92.678 E4.33722
G1 X108.128 Y90.467 E4.40522
G1 X109.662 Y88.208 E4.47333
G1 X111.128 Y85.912 E4.54128
G1 X112.541 Y83.554 E4.60986
G1 X113.869 Y81.19 E4.6775
G1 X114.67 Y79.659 E4.7206
G1 X115.019 Y79.015 E4.73887
G1 X115.303 Y78.574 E4.75195
G0 F2160 X115.556 Y78.738
G1 F900 X115.893 Y78.366 E4.76448
G1 X116.284 Y78.052 E4.77698
G1 X116.72 Y77.804 E4.7895
G1 X117.19 Y77.629 E4.80201
G1 X117.682 Y77.531 E4.81452
G1 X118.183 Y77.512 E4.82703
G1 X118.681 Y77.572 E4.83954
G1 X119.163 Y77.711 E4.85205
G1 X119.617 Y77.925 E4.86457
G1 X120.031 Y78.208 E4.87708
G1 X120.395 Y78.553 E4.88959
G1 X120.699 Y78.952 E4.90211
G1 X120.953 Y79.428 E4.91557
G1 X122.159 Y81.894 E4.98404
G1 X123.441 Y84.336 E5.05284
G1 X124.764 Y86.69 E5.1202
G1 X126.192 Y89.072 E5.18948
G1 X127.651 Y91.356 E5.25709
G1 X129.206 Y93.646 E5.32614
G1 X130.794 Y95.848 E5.39386
G1 X132.457 Y98.02 E5.4621
G1 X134.196 Y100.165 E5.53098
G1 X135.979 Y102.239 E5.59921
G1 X137.056 Y103.411 E5.63891
G1 X137.119 Y103.492 E5.64147
G1 X138.03 Y104.498 E5.67533
G1 X138.336 Y104.896 E5.68785
G1 X138.575 Y105.337 E5.70036
G1 X138.741 Y105.81 E5.71287
G1 X138.83 Y106.304 E5.72539
G1 X138.839 Y106.805 E5.73789
G1 X138.769 Y107.302 E5.75041
G1 X138.666 Y107.658 E5.75965
G1 X138.475 Y108.2 E5.77399
G1 X137.913 Y109.726 E5.81455
G1 X137.036 Y112.334 E5.88319
G1 X136.228 Y114.979 E5.95218
G1 X135.513 Y117.584 E6.01957
G1 X134.851 Y120.288 E6.08901
G1 X134.283 Y122.942 E6.15671
G1 X133.785 Y125.63 E6.22491
G1 X133.366 Y128.314 E6.29267
G1 X133.016 Y131.063 E6.3618
G1 X132.747 Y133.794 E6.43025
G1 X132.556 Y136.511 E6.4982
G1 X132.443 Y139.231 E6.5661
G1 X132.432 Y140.058 E6.58674
G1 X132.404 Y141.124 E6.61334
G1 X132.321 Y141.762 E6.62939
G1 X132.217 Y142.204 E6.64071
G1 X132.025 Y142.772 E6.65567
G1 X130.898 Y145.286 E6.72439
G1 X129.365 Y149.047 E6.82571
G1 X128.935 Y150.173 E6.85577
G1 X128.696 Y150.666 E6.86944
G1 X128.543 Y150.922 E6.87688
G1 X128.252 Y151.331 E6.8894
G1 X127.862 Y151.725 E6.90323
G1 X125.977 Y153.409 E6.96628
G1 X123.881 Y155.395 E7.03831
G1 X123.49 Y155.71 E7.05084
G1 X123.055 Y155.959 E7.06334
G1 X122.585 Y156.136 E7.07587
G1 X121.926 Y156.261 E7.0926
G1 X121.425 Y156.291 E7.10512
G1 X120.85 Y156.228 E7.11955
G1 X120.088 Y156.072 E7.13895
G1 X118.897 Y155.808 E7.16938
G1 X114.833 Y155.057 E7.27247
G1 X113.842 Y154.894 E7.29753
G1 X113.355 Y154.774 E7.31004
G1 X112.843 Y154.55 E7.32398
G1 X112.649 Y154.444 E7.32949
G1 X112.229 Y154.169 E7.34202
G1 X111.56 Y153.516 E7.36534
G1 X111.124 Y152.932 E7.38352
G1 X110.773 Y152.303 E7.40149
G1 X110.542 Y151.793 E7.41545
G1 X110.386 Y151.37 E7.4267
G1 X110.146 Y150.603 E7.44675
G1 X109.834 Y149.484 E7.47572
G1 X109.059 Y146.857 E7.54405
G1 X108.21 Y144.25 E7.61244
G1 X107.297 Y141.695 E7.68012
G1 X106.033 Y138.504 E7.76574
G1 X105.831 Y137.917 E7.78123
G1 X105.666 Y137.267 E7.79795
G1 X105.608 Y136.988 E7.80506
G1 X105.381 Y135.562 E7.84108
G1 X105.33 Y135.219 E7.84973
G1 X104.846 Y132.492 E7.91882
G1 X104.307 Y129.873 E7.98552
G1 X103.656 Y127.12 E8.05609
G1 X102.969 Y124.539 E8.12271
G1 X102.175 Y121.864 E8.19232
G1 X101.328 Y119.28 E8.26015
G1 X100.41 Y116.725 E8.32788
G1 X99.403 Y114.154 E8.39675
G1 X98.334 Y111.637 E8.46497
G1 X96.789 Y108.308 E8.55652
G1 X96.53 Y107.77 E8.57141
G1 X96.417 Y107.51 E8.57848
G1 X96.254 Y107.035 E8.59101
G1 X96.169 Y106.541 E8.60352
G1 X96.163 Y106.039 E8.61604
G1 X96.237 Y105.543 E8.62855
G1 X96.389 Y105.065 E8.64106
G1 X96.615 Y104.617 E8.65358
G1 X97.067 Y104.038 E8.6719
G1 X97.855 Y103.242 E8.69984
G1 X99.752 Y101.271 E8.76808
G1 X101.6 Y99.24 E8.83658
G1 X103.381 Y97.165 E8.90479
G1 X105.121 Y95.021 E8.97367
G1 X106.767 Y92.868 E9.04127
G1 X108.364 Y90.653 E9.10939
G1 X109.919 Y88.363 E9.17844
G1 X111.387 Y86.063 E9.2465
G1 X112.797 Y83.711 E9.31491
G1 X114.136 Y81.327 E9.38312
G1 X114.934 Y79.802 E9.42605
G1 X115.283 Y79.158 E9.44432
G1 X115.556 Y78.738 E9.45682
G1 F1500 E3.95682
;MESH:Hand.stl
G0 F2160 X116.881 Y89.562
G0 X117.86 Y89.617
G0 X119.094 Y106.84
G0 X121.131 Y128.157
;TYPE:WALL-INNER
G1 F1500 E9.45682
G1 F900 X120.531 Y128.364 E9.47265
G1 X120.374 Y128.417 E9.47679
G1 X120.444 Y128.567 E9.47938
G1 X121.029 Y129.806 E9.51356
G1 X121.923 Y131.636 E9.56436
G1 X122.202 Y132.23 E9.58073
G1 X122.462 Y132.819 E9.59679
G1 X122.697 Y133.4 E9.61243
G1 X122.918 Y134.02 E9.62885
G1 X123.117 Y134.595 E9.64402
G1 X123.352 Y135.153 E9.65913
G1 X123.637 Y135.674 E9.67394
G1 X124.001 Y136.174 E9.68937
G1 X124.456 Y136.661 E9.70599
G1 X124.883 Y137.052 E9.72044
G1 X125.369 Y137.456 E9.7362
G1 X125.94 Y137.901 E9.75426
G1 X126.822 Y138.564 E9.78178
G1 X127.22 Y138.895 E9.7947
G1 X127.549 Y139.204 E9.80596
G1 X127.933 Y139.635 E9.82036
G1 X128.21 Y140.03 E9.83239
G1 X128.388 Y140.379 E9.84216
G1 X128.467 Y140.647 E9.84913
G1 X128.496 Y140.745 E9.85168
G1 X128.498 Y140.836 E9.85395
G1 X128.505 Y141.03 E9.8588
G1 X128.361 Y140.917 E9.86023
G1 X128.269 Y140.844 E9.86205
G1 X128.197 Y140.771 E9.86439
G1 X127.411 Y139.972 E9.89235
G1 X126.904 Y139.537 E9.90902
G1 X126.37 Y139.311 E9.92348
G1 X125.578 Y139.104 E9.9439
G1 X124.89 Y138.944 E9.96152
G1 X123.489 Y138.637 E9.9973
G1 X123.335 Y138.604 E10.00123
G1 X123.311 Y138.76 E10.00373
G1 X123.078 Y140.22 E10.04061
G1 X123.074 Y140.241 E10.04114
G1 X123.054 Y141.146 E10.06372
G1 X123.115 Y141.839 E10.08108
G1 X123.258 Y142.57 E10.09966
G1 X123.536 Y143.463 E10.12299
G1 X123.711 Y143.967 E10.1363
G1 X123.876 Y144.453 E10.1491
G1 X124.028 Y144.954 E10.16216
G1 X124.199 Y145.601 E10.17885
G1 X124.451 Y146.359 E10.19878
G1 X124.812 Y147.264 E10.22309
G1 X125.032 Y147.847 E10.23863
G1 X125.154 Y148.235 E10.24878
G1 X125.185 Y148.336 E10.25141
G1 X125.203 Y148.449 E10.25427
G1 X125.235 Y148.637 E10.25902
G1 X125.064 Y148.53 E10.26077
G1 X124.993 Y148.485 E10.26189
G1 X124.916 Y148.413 E10.26429
G1 X124.705 Y148.215 E10.2715
G1 X124.434 Y147.87 E10.28245
G1 X124.181 Y147.433 E10.29504
G1 X123.966 Y146.907 E10.30922
G1 X123.796 Y146.276 E10.32552
G1 X123.593 Y145.502 E10.34548
G1 X123.351 Y144.668 E10.36714
G1 X123.079 Y143.854 E10.38855
G1 X122.846 Y143.266 E10.40433
G1 X122.579 Y142.726 E10.41936
G1 X122.153 Y142.143 E10.43737
G1 X121.58 Y141.799 E10.45404
G1 X120.909 Y141.873 E10.47088
G1 X120.467 Y142.255 E10.48545
G1 X120.015 Y142.956 E10.50626
G1 X119.735 Y143.676 E10.52553
G1 X119.584 Y144.445 E10.54508
G1 X119.526 Y145.012 E10.5593
G1 X119.485 Y145.625 E10.57462
G1 X119.426 Y146.764 E10.60307
G1 X119.435 Y147.36 E10.61794
G1 X119.589 Y148.186 E10.6389
G1 X119.784 Y148.761 E10.65405
G1 X120.098 Y149.454 E10.67302
G1 X120.368 Y149.955 E10.68722
G1 X120.826 Y150.733 E10.70974
G1 X121.141 Y151.291 E10.72573
G1 X121.341 Y151.723 E10.7376
G1 X121.349 Y151.741 E10.73809
G1 X121.427 Y152.159 E10.7487
G1 X121.44 Y152.226 E10.7504
G1 X121.341 Y152.176 E10.75144
G1 X121.129 Y151.936 E10.75616
G1 X121.116 Y151.921 E10.75665
G1 X120.931 Y151.711 E10.76363
G1 X120.638 Y151.321 E10.77579
G1 X120.315 Y150.842 E10.79021
G1 X120.15 Y150.581 E10.79791
G1 X119.844 Y150.063 E10.81292
G1 X119.561 Y149.545 E10.82764
G1 X119.297 Y149.019 E10.84232
G1 X119.078 Y148.541 E10.85544
G1 X118.892 Y148.086 E10.8677
G1 X118.714 Y147.543 E10.88195
G1 X118.657 Y147.194 E10.89077
G1 X118.704 Y146.563 E10.90656
G1 X118.783 Y145.837 E10.92478
G1 X118.887 Y145.12 E10.94285
G1 X119.013 Y144.413 E10.96076
G1 X119.212 Y143.496 E10.98417
G1 X119 Y142.815 E11.00196
G1 X118.356 Y142.486 E11.02
G1 X117.714 Y142.556 E11.03611
G1 X116.968 Y142.861 E11.05622
G1 X116.505 Y143.187 E11.07034
G1 X116.032 Y143.743 E11.08855
G1 X115.709 Y144.276 E11.1041
G1 X115.38 Y144.994 E11.1238
G1 X115.105 Y145.804 E11.14514
G1 X114.9 Y146.639 E11.16658
G1 X114.782 Y147.465 E11.1874
G1 X114.753 Y148.094 E11.2031
G1 X114.821 Y148.891 E11.22306
G1 X114.859 Y149.438 E11.23674
G1 X114.853 Y149.951 E11.24953
G1 X114.805 Y150.382 E11.26035
G1 X114.714 Y150.734 E11.26942
G1 X114.709 Y150.757 E11.27001
G1 X114.549 Y151.028 E11.27786
G1 X114.473 Y150.905 E11.27877
G1 X114.461 Y150.885 E11.27933
G1 X114.223 Y150.506 E11.2905
G1 X114.049 Y150.07 E11.30221
G1 X113.833 Y149.339 E11.32122
G1 X113.679 Y148.59 E11.3403
G1 X113.591 Y147.847 E11.35896
G1 X113.576 Y147.38 E11.37062
G1 X113.645 Y146.76 E11.38618
G1 X113.849 Y145.988 E11.4061
G1 X114.042 Y145.421 E11.42104
G1 X114.26 Y144.839 E11.43654
G1 X114.729 Y143.63 E11.46889
G1 X114.954 Y143.012 E11.48529
G1 X115.155 Y142.38 E11.50184
G1 X115.257 Y141.763 E11.51744
G1 X115.249 Y141.078 E11.53453
G1 X115.118 Y140.17 E11.55741
G1 X114.898 Y139.228 E11.58154
G1 X114.755 Y138.718 E11.59475
G1 X114.495 Y137.884 E11.61655
G1 X114.077 Y136.63 E11.64952
G1 X113.921 Y136.079 E11.6638
G1 X113.68 Y135.603 E11.67711
G1 X113.156 Y135.289 E11.69235
G1 X112.632 Y135.202 E11.7056
G1 X112.126 Y135.257 E11.7183
G1 X111.618 Y135.443 E11.73179
G1 X111.087 Y135.88 E11.74895
G1 X110.814 Y136.45 E11.76471
G1 X110.788 Y136.962 E11.7775
G1 X110.966 Y137.788 E11.79858
G1 X111.017 Y137.981 E11.80356
G1 X111.045 Y138.088 E11.80632
G1 X111.062 Y138.152 E11.80797
G1 X110.869 Y138.135 E11.81084
G1 X110.765 Y138.098 E11.81312
G1 X110.534 Y138.014 E11.81925
G1 X110.17 Y137.768 E11.83021
G1 X109.93 Y137.519 E11.83884
G1 X109.722 Y137.207 E11.84819
G1 X109.561 Y136.835 E11.8583
G1 X109.457 Y136.39 E11.8697
G1 X109.426 Y135.854 E11.88309
G1 X109.495 Y135.255 E11.89814
G1 X109.598 Y134.833 E11.90897
G1 X109.804 Y134.252 E11.92435
G1 X110.09 Y133.619 E11.94168
G1 X110.452 Y132.974 E11.96013
G1 X110.898 Y132.313 E11.98002
G1 X111.367 Y131.721 E11.99886
G1 X111.964 Y131.067 E12.02095
G1 X112.589 Y130.467 E12.04256
G1 X112.953 Y130.148 E12.05463
G1 X113.679 Y129.566 E12.07784
G1 X114.035 Y129.293 E12.08903
G1 X113.695 Y125.355 E12.18763
G1 X113.38 Y121.818 E12.27621
G1 X113.055 Y118.278 E12.36489
G1 X112.666 Y114.149 E12.46834
G1 X111.534 Y113.974 E12.49692
G1 X111.228 Y113.873 E12.50496
G1 X111.006 Y113.737 E12.51145
G1 X110.816 Y113.533 E12.5184
G1 X110.599 Y113.133 E12.52976
G1 X110.33 Y112.621 E12.54418
G1 X109.952 Y112.162 E12.55902
G1 X109.354 Y111.742 E12.57725
G1 X108.731 Y111.515 E12.59379
G1 X108.056 Y111.357 E12.61108
G1 X107.465 Y111.19 E12.6264
G1 X106.823 Y111.153 E12.64244
G1 X106.039 Y111.206 E12.66204
G1 X105.575 Y111.178 E12.67364
G1 X105.32 Y111.102 E12.68027
G1 X105.063 Y110.949 E12.68774
G1 X104.791 Y110.69 E12.6971
G1 X104.523 Y110.356 E12.70779
G1 X104.191 Y109.847 E12.72295
G1 X103.82 Y109.307 E12.73929
G1 X103.445 Y108.925 E12.75264
G1 X102.952 Y108.618 E12.76713
G1 X102.272 Y108.426 E12.78476
G1 X101.822 Y108.343 E12.79617
G1 X101.611 Y108.251 E12.80191
G1 X101.23 Y107.965 E12.8138
G1 X100.956 Y107.672 E12.8238
G1 X100.662 Y107.234 E12.83696
G1 X100.506 Y107.002 E12.84394
G1 X100.785 Y107.002 E12.84782
G1 X100.786 Y107.002 E12.84785
G1 X111.128 Y107.002 E13.10583
G1 X117.303 Y107.203 E13.25995
G1 X117.87 Y97.194 E13.51002
G1 X118.024 Y94.454 E13.57848
G1 X118.167 Y97.195 E13.61276
G1 X118.694 Y107.249 E13.8639
G1 X122.024 Y107.359 E13.94701
G1 X132.073 Y107.359 E14.19768
G1 X132.329 Y107.359 E14.20407
G1 X132.753 Y107.359 E14.21465
G1 X132.329 Y107.555 E14.219
G1 X132.093 Y107.653 E14.2243
G1 X131.548 Y107.882 E14.23905
G1 X130.741 Y108.187 E14.26057
G1 X130.107 Y108.423 E14.27744
G1 X129.566 Y108.666 E14.29224
G1 X128.938 Y109.067 E14.31082
G1 X128.575 Y109.507 E14.32505
G1 X128.438 Y109.978 E14.33729
G1 X128.38 Y110.393 E14.34774
G1 X128.072 Y110.816 E14.36079
G1 X127.657 Y111.163 E14.37429
G1 X127.301 Y111.372 E14.38458
G1 X126.87 Y111.553 E14.39625
G1 X126.322 Y111.707 E14.41045
G1 X125.681 Y111.809 E14.42664
G1 X125.121 Y111.845 E14.44063
G1 X124.524 Y111.86 E14.45553
G1 X123.829 Y111.959 E14.47304
G1 X123.196 Y112.165 E14.48965
G1 X122.498 Y112.583 E14.50994
G1 X121.843 Y113.222 E14.53277
G1 X121.284 Y113.845 E14.55365
G1 X121.074 Y114.074 E14.5614
