;FLAVOR:Marlin
;TIME:1296
;Filament used: 0.432392m, 0m
;Layer height: 0.1
;MINX:78.399
;MINY:79.991
;MINZ:0.2
;MAXX:133.095
;MAXY:153.838
;MAXZ:1.2
;Generated with Cura_SteamEngine 4.8.0
T0
M140 S60
M105
M190 S60
M104 S200
M105
M109 S200
M82 ;absolute extrusion mode
M201 X500.00 Y500.00 Z100.00 E5000.00 	;Setup machine max acceleration
M203 X500.00 Y500.00 Z10.00 E50.00 	;Setup machine max feedrate
M204 P500.00 R1000.00 T500.00 		;Setup Print/Retract/Travel acceleration
M205 X8.00 Y8.00 Z0.40 E5.00 		;Setup Jerk
M220 S100 				;Reset Feedrate
M221 S100 				;Reset Flowrate
G28				;Home the Machine
#G29 				;Bed Level
G92 E0
M300 P150 S587
G92 E0
G1 F1500 E-5.5
;LAYER_COUNT:11
;LAYER:0
M107
G0 F2160 X101.343 Y81.155 Z0.2
;TYPE:SKIRT
G1 F1500 E0
G1 F900 X101.719 Y80.788 E0.01311
G1 X102.146 Y80.483 E0.0262
G1 X102.615 Y80.246 E0.0393
G1 X103.114 Y80.083 E0.0524
G1 X103.632 Y79.997 E0.0655
G1 X104.157 Y79.991 E0.07859
G1 X104.676 Y80.065 E0.09167
G1 X105.179 Y80.217 E0.10478
G1 X105.653 Y80.443 E0.11788
G1 X106.086 Y80.739 E0.13096
G1 X106.47 Y81.097 E0.14406
G1 X106.898 Y81.67 E0.1619
G1 X106.962 Y81.778 E0.16503
G1 X108.387 Y84.08 E0.23257
G1 X109.906 Y86.386 E0.30145
G1 X111.467 Y88.615 E0.36933
G1 X113.1 Y90.813 E0.43764
G1 X114.788 Y92.954 E0.50565
G1 X116.529 Y95.038 E0.57339
G1 X118.353 Y97.101 E0.64208
G1 X120.205 Y99.081 E0.70971
G1 X122.129 Y101.021 E0.77786
G1 X124.103 Y102.906 E0.84595
G1 X125.354 Y104.02 E0.88774
G1 X126.389 Y104.964 E0.92268
G1 X126.709 Y105.297 E0.9342
G1 X127.016 Y105.723 E0.9473
G1 X127.256 Y106.19 E0.9604
G1 X127.422 Y106.688 E0.97349
G1 X127.51 Y107.206 E0.9866
G1 X127.525 Y107.477 E0.99337
G1 X127.544 Y108.794 E1.02623
G1 X127.555 Y108.9 E1.02888
G1 X127.574 Y110.301 E1.06383
G1 X127.691 Y113.038 E1.13217
G1 X127.882 Y115.739 E1.19972
G1 X128.152 Y118.458 E1.26788
G1 X128.499 Y121.171 E1.3361
G1 X128.922 Y123.863 E1.40408
G1 X129.42 Y126.545 E1.47213
G1 X129.993 Y129.204 E1.53998
G1 X130.652 Y131.894 E1.60906
G1 X131.366 Y134.488 E1.67618
G1 X132.167 Y137.106 E1.74447
G1 X132.482 Y138.035 E1.76894
G1 X132.924 Y139.385 E1.80438
G1 X133.049 Y139.894 E1.81745
G1 X133.095 Y140.417 E1.83055
G1 X133.061 Y140.941 E1.84365
G1 X132.948 Y141.454 E1.85675
G1 X132.759 Y141.944 E1.86985
G1 X132.497 Y142.399 E1.88295
G1 X132.022 Y142.959 E1.90127
G1 X131.548 Y143.394 E1.91732
G1 X131.091 Y143.743 E1.93166
G1 X130.437 Y144.157 E1.95097
G1 X129.914 Y144.42 E1.96557
G1 X129.436 Y144.608 E1.97838
G1 X128.91 Y144.771 E1.99212
G1 X128.415 Y144.904 E2.00491
G1 X128.182 Y144.954 E2.01085
G1 X125.812 Y145.43 E2.07115
G1 X123.152 Y146.042 E2.13924
G1 X120.519 Y146.729 E2.20712
G1 X117.878 Y147.496 E2.27572
G1 X115.287 Y148.33 E2.34362
G1 X112.729 Y149.233 E2.41129
G1 X110.175 Y150.217 E2.47956
G1 X107.634 Y151.279 E2.54826
G1 X105.146 Y152.403 E2.61636
G1 X104.823 Y152.558 E2.6253
G1 X104.068 Y152.906 E2.64604
G1 X103.876 Y152.988 E2.65125
G1 X103.306 Y153.21 E2.66651
G1 X102.997 Y153.314 E2.67464
G1 X102.49 Y153.458 E2.68779
G1 X101.686 Y153.631 E2.7083
G1 X101.478 Y153.663 E2.71355
G1 X100.703 Y153.76 E2.73303
G1 X100.48 Y153.781 E2.73862
G1 X99.808 Y153.821 E2.75541
G1 X99.228 Y153.838 E2.76989
G1 X99.071 Y153.838 E2.7738
G1 X98.513 Y153.827 E2.78773
G1 X97.99 Y153.777 E2.80083
G1 X97.482 Y153.648 E2.81391
G1 X96.998 Y153.443 E2.82702
G1 X96.472 Y153.129 E2.8423
G1 X94.604 Y151.928 E2.8977
G1 X92.281 Y150.526 E2.96538
G1 X89.921 Y149.19 E3.03303
G1 X87.509 Y147.914 E3.1011
G1 X85.038 Y146.694 E3.16984
G1 X83.462 Y145.966 E3.21315
G1 X83.127 Y145.817 E3.22229
G1 X82.567 Y145.56 E3.23766
G1 X82.217 Y145.411 E3.24715
G1 X81.159 Y144.94 E3.27604
G1 X80.482 Y144.649 E3.29442
G1 X80.016 Y144.405 E3.30754
G1 X79.594 Y144.094 E3.32062
G1 X79.223 Y143.722 E3.33373
G1 X78.913 Y143.299 E3.34681
G1 X78.671 Y142.833 E3.35991
G1 X78.502 Y142.336 E3.373
G1 X78.411 Y141.819 E3.3861
G1 X78.399 Y141.294 E3.39919
G1 X78.467 Y140.773 E3.4123
G1 X78.692 Y140.075 E3.4306
G1 X79.006 Y139.37 E3.44985
G1 X80.084 Y136.856 E3.51808
G1 X81.094 Y134.308 E3.58645
G1 X81.838 Y132.282 E3.64029
G1 X82.06 Y131.795 E3.65364
G1 X82.455 Y131.113 E3.6733
G1 X82.599 Y130.884 E3.68005
G1 X84.059 Y128.516 E3.74945
G1 X85.475 Y126.064 E3.82008
G1 X85.566 Y125.912 E3.8245
G1 X85.863 Y125.444 E3.83832
G1 X87.321 Y123.077 E3.90767
G1 X88.685 Y120.715 E3.97571
G1 X89.991 Y118.3 E4.0442
G1 X91.206 Y115.892 E4.11148
G1 X92.377 Y113.399 E4.18019
G1 X93.468 Y110.891 E4.24841
G1 X94.481 Y108.373 E4.31611
G1 X95.43 Y105.807 E4.38436
G1 X96.32 Y103.171 E4.45376
G1 X97.097 Y100.636 E4.5199
G1 X97.835 Y97.963 E4.58908
G1 X98.49 Y95.304 E4.65739
G1 X99.059 Y92.658 E4.7249
G1 X99.562 Y89.957 E4.79344
G1 X99.986 Y87.263 E4.86147
G1 X100.356 Y84.369 E4.93424
G1 X100.505 Y83.047 E4.96743
G1 X100.603 Y82.531 E4.98053
G1 X100.779 Y82.036 E4.99364
G1 X101.027 Y81.574 E5.00672
G1 X101.343 Y81.155 E5.01981
G0 F2160 X101.628 Y81.287
G1 F900 X101.999 Y80.948 E5.03235
G1 X102.418 Y80.672 E5.04486
G1 X102.875 Y80.467 E5.05736
G1 X103.36 Y80.337 E5.06988
G1 X103.859 Y80.285 E5.0824
G1 X104.359 Y80.313 E5.09489
G1 X104.849 Y80.42 E5.1074
G1 X105.316 Y80.604 E5.11992
G1 X105.748 Y80.859 E5.13243
G1 X106.133 Y81.18 E5.14494
G1 X106.463 Y81.558 E5.15745
G1 X106.68 Y81.892 E5.16739
G1 X108.142 Y84.253 E5.23666
G1 X109.653 Y86.549 E5.30523
G1 X111.224 Y88.792 E5.37354
G1 X112.852 Y90.981 E5.44159
G1 X114.554 Y93.14 E5.51017
G1 X116.302 Y95.234 E5.57821
G1 X118.14 Y97.312 E5.64741
G1 X120.002 Y99.302 E5.7154
G1 X121.902 Y101.22 E5.78274
G1 X123.894 Y103.121 E5.85143
G1 X125.152 Y104.242 E5.89346
G1 X126.187 Y105.186 E5.9284
G1 X126.48 Y105.491 E5.93896
G1 X126.772 Y105.899 E5.95147
G1 X126.996 Y106.348 E5.96399
G1 X127.146 Y106.826 E5.97648
G1 X127.225 Y107.482 E5.99297
G1 X127.243 Y108.741 E6.02438
G1 X127.255 Y108.904 E6.02845
G1 X127.275 Y110.317 E6.0637
G1 X127.39 Y113.037 E6.13162
G1 X127.583 Y115.753 E6.19954
G1 X127.854 Y118.491 E6.26817
G1 X128.204 Y121.223 E6.33688
G1 X128.628 Y123.92 E6.40498
G1 X129.131 Y126.631 E6.47376
G1 X129.698 Y129.266 E6.541
G1 X130.353 Y131.939 E6.60965
G1 X131.083 Y134.591 E6.67826
G1 X131.881 Y137.196 E6.74622
G1 X132.197 Y138.128 E6.77077
G1 X132.639 Y139.478 E6.80621
G1 X132.756 Y139.965 E6.8187
G1 X132.795 Y140.466 E6.83124
G1 X132.754 Y140.965 E6.84373
G1 X132.634 Y141.453 E6.85626
G1 X132.438 Y141.914 E6.86876
G1 X132.172 Y142.339 E6.88127
G1 X131.815 Y142.741 E6.89468
G1 X131.349 Y143.169 E6.91046
G1 X130.924 Y143.494 E6.92381
G1 X130.299 Y143.891 E6.94228
G1 X129.784 Y144.15 E6.95666
G1 X129.347 Y144.322 E6.96837
G1 X128.821 Y144.485 E6.98211
G1 X128.178 Y144.649 E6.99866
G1 X125.758 Y145.135 E7.06023
G1 X123.073 Y145.753 E7.12896
G1 X120.432 Y146.442 E7.19705
G1 X117.808 Y147.204 E7.26521
G1 X115.169 Y148.053 E7.33436
G1 X112.626 Y148.951 E7.40163
G1 X110.056 Y149.941 E7.47034
G1 X107.543 Y150.992 E7.53828
G1 X104.995 Y152.142 E7.60802
G1 X104.698 Y152.286 E7.61625
G1 X103.943 Y152.634 E7.63699
G1 X103.767 Y152.708 E7.64175
G1 X103.197 Y152.93 E7.65701
G1 X102.915 Y153.025 E7.66443
G1 X102.408 Y153.169 E7.67758
G1 X101.631 Y153.336 E7.69741
G1 X101.441 Y153.366 E7.70221
G1 X100.666 Y153.463 E7.72169
G1 X100.462 Y153.481 E7.7268
G1 X99.684 Y153.526 E7.74624
G1 X99.077 Y153.538 E7.76138
G1 X98.519 Y153.527 E7.7753
G1 X98.02 Y153.478 E7.78781
G1 X97.535 Y153.349 E7.80033
G1 X96.917 Y153.052 E7.81743
G1 X96.592 Y152.85 E7.82698
G1 X94.762 Y151.674 E7.88124
G1 X92.45 Y150.278 E7.94861
G1 X90.045 Y148.916 E8.01756
G1 X87.648 Y147.648 E8.0852
G1 X85.178 Y146.428 E8.15392
G1 X83.597 Y145.698 E8.19736
G1 X83.252 Y145.544 E8.20679
G1 X82.692 Y145.287 E8.22216
G1 X82.339 Y145.137 E8.23172
G1 X81.277 Y144.664 E8.26073
G1 X80.6 Y144.373 E8.27911
G1 X80.156 Y144.139 E8.29163
G1 X79.756 Y143.837 E8.30413
G1 X79.408 Y143.476 E8.31664
G1 X79.122 Y143.064 E8.32915
G1 X78.905 Y142.612 E8.34166
G1 X78.762 Y142.131 E8.35417
G1 X78.698 Y141.633 E8.3667
G1 X78.713 Y141.132 E8.3792
G1 X78.808 Y140.639 E8.39173
G1 X78.967 Y140.197 E8.40344
G1 X79.263 Y139.532 E8.4216
G1 X80.358 Y136.979 E8.4909
G1 X81.386 Y134.384 E8.56052
G1 X82.12 Y132.385 E8.61364
G1 X82.474 Y131.667 E8.63361
G1 X82.756 Y131.196 E8.64731
G1 X82.853 Y131.043 E8.65183
G1 X84.337 Y128.635 E8.72238
G1 X85.736 Y126.212 E8.79218
G1 X85.819 Y126.073 E8.79622
G1 X86.141 Y125.566 E8.8112
G1 X87.576 Y123.235 E8.87948
G1 X88.949 Y120.859 E8.94793
G1 X90.24 Y118.471 E9.01565
G1 X91.504 Y115.965 E9.08566
G1 X92.65 Y113.524 E9.15293
G1 X93.747 Y111.004 E9.22149
G1 X94.765 Y108.472 E9.28957
G1 X95.716 Y105.899 E9.35799
G1 X96.584 Y103.329 E9.42566
G1 X97.401 Y100.665 E9.49517
G1 X98.116 Y98.075 E9.56219
G1 X98.789 Y95.341 E9.63243
G1 X99.349 Y92.738 E9.69885
G1 X99.856 Y90.021 E9.76779
G1 X100.282 Y87.315 E9.83613
G1 X100.653 Y84.407 E9.90925
G1 X100.803 Y83.08 E9.94257
G1 X100.899 Y82.588 E9.95507
G1 X101.071 Y82.117 E9.96758
G1 X101.317 Y81.68 E9.98009
G1 X101.628 Y81.287 E9.99259
G1 F1500 E4.49259
;MESH:Ghost.stl
G0 F2160 X102.562 Y90.496
G0 X103.536 Y90.59
G0 X104.016 Y106.323
;TYPE:WALL-INNER
G1 F1500 E9.99259
G1 F900 X105.842 Y106.902 E10.04038
G1 X106.73 Y107.148 E10.06336
G1 X107.273 Y107.266 E10.07722
G1 X108.005 Y107.362 E10.09564
G1 X108.564 Y107.386 E10.1096
G1 X109.13 Y107.375 E10.12372
G1 X109.682 Y107.327 E10.13754
G1 X110.359 Y107.227 E10.15461
G1 X111.213 Y107.051 E10.17636
G1 X112.019 Y106.877 E10.19693
G1 X112.72 Y106.773 E10.21461
G1 X113.312 Y106.747 E10.22939
G1 X113.901 Y106.793 E10.24413
G1 X114.818 Y106.997 E10.26756
G1 X115.361 Y107.182 E10.28187
G1 X115.89 Y107.4 E10.29614
G1 X116.426 Y107.65 E10.3109
G1 X116.947 Y107.913 E10.32546
G1 X117.918 Y108.423 E10.35281
G1 X118.403 Y108.666 E10.36635
G1 X118.908 Y108.892 E10.38015
G1 X119.653 Y109.151 E10.39982
G1 X119.981 Y109.225 E10.40821
G1 X120.245 Y109.284 E10.41496
G1 X120.814 Y109.322 E10.42918
G1 X121.01 Y109.336 E10.43409
G1 X120.809 Y109.399 E10.43498
G1 X120.28 Y109.488 E10.44114
G1 X120.208 Y109.501 E10.44296
G1 X119.938 Y109.519 E10.44883
G1 X119.56 Y109.545 E10.45828
G1 X118.882 Y109.54 E10.47519
G1 X118.477 Y109.519 E10.48531
G1 X117.759 Y109.459 E10.50328
G1 X116.244 Y109.31 E10.54126
G1 X115.475 Y109.252 E10.56049
G1 X114.737 Y109.232 E10.57891
G1 X113.966 Y109.261 E10.59816
G1 X113.197 Y109.368 E10.61752
G1 X112.472 Y109.567 E10.63628
G1 X111.83 Y109.862 E10.6539
G1 X111.268 Y110.235 E10.67073
G1 X110.782 Y110.68 E10.68717
G1 X110.287 Y111.32 E10.70735
G1 X109.909 Y112.03 E10.72741
G1 X109.649 Y112.767 E10.74691
G1 X109.495 Y113.505 E10.76571
G1 X109.435 Y114.223 E10.78369
G1 X109.457 Y114.906 E10.80073
G1 X109.557 Y115.536 E10.81665
G1 X109.749 Y116.142 E10.8325
G1 X110.128 Y116.75 E10.85037
G1 X110.666 Y117.111 E10.86654
G1 X111.124 Y117.143 E10.87799
G1 X111.24 Y117.151 E10.88089
G1 X111.322 Y117.117 E10.8831
G1 X111.317 Y117.16
G1 X111.303 Y117.276 E10.88523
G1 X111.257 Y117.626 E10.89404
G1 X111.042 Y118.305 E10.9118
G1 X110.883 Y118.896 E10.92707
G1 X110.825 Y119.573 E10.94402
G1 X110.922 Y120.18 E10.95935
G1 X111.207 Y120.823 E10.9769
G1 X111.709 Y121.463 E10.99719
G1 X112.164 Y121.852 E11.01212
G1 X112.703 Y122.129 E11.02724
G1 X113.366 Y122.168 E11.0438
G1 X113.628 Y122.618 E11.05679
G1 X114.125 Y123.142 E11.07481
G1 X114.66 Y123.432 E11.08999
G1 X115.303 Y123.478 E11.10607
G1 X115.624 Y123.319 E11.11501
G1 X115.69 Y123.472 E11.11916
G1 X116.027 Y123.982 E11.13441
G1 X116.041 Y124.004 E11.13506
G1 X116.536 Y124.533 E11.15313
G1 X117.094 Y124.992 E11.17116
G1 X117.656 Y125.404 E11.18854
G1 X118.202 Y125.819 E11.20565
G1 X118.749 Y126.305 E11.2239
G1 X119.068 Y126.644 E11.23551
G1 X119.603 Y127.292 E11.25647
G1 X120.072 Y127.956 E11.27675
G1 X120.314 Y128.337 E11.28801
G1 X120.745 Y129.07 E11.30922
G1 X121.595 Y130.601 E11.35291
G1 X122.053 Y131.38 E11.37545
G1 X122.344 Y131.842 E11.38907
G1 X122.796 Y132.506 E11.4091
G1 X123.007 Y132.79 E11.41793
G1 X123.381 Y133.259 E11.43289
G1 X123.746 Y133.694 E11.44706
G1 X124.095 Y134.105 E11.46051
G1 X124.428 Y134.508 E11.47355
G1 X124.736 Y134.912 E11.48622
G1 X125.01 Y135.317 E11.49842
G1 X125.283 Y135.788 E11.512
G1 X125.574 Y136.452 E11.53008
G1 X125.816 Y137.21 E11.54993
G1 X126.072 Y138.066 E11.57222
G1 X126.36 Y138.864 E11.59338
G1 X126.676 Y139.504 E11.61119
G1 X127.103 Y140.089 E11.62926
G1 X127.634 Y140.556 E11.64689
G1 X127.674 Y140.591 E11.64822
G1 X127.889 Y140.702 E11.65426
G1 X127.721 Y140.75 E11.6551
G1 X127.537 Y140.804 E11.65916
G1 X127.484 Y140.808 E11.66039
G1 X126.651 Y140.874 E11.68124
G1 X125.88 Y140.805 E11.70055
G1 X125.097 Y140.698 E11.72026
G1 X124.368 Y140.564 E11.73875
G1 X123.627 Y140.385 E11.75776
G1 X122.91 Y140.154 E11.77656
G1 X122.246 Y139.872 E11.79455
G1 X121.621 Y139.523 E11.81241
G1 X121.047 Y139.105 E11.83012
G1 X120.543 Y138.619 E11.84759
G1 X120.202 Y138.156 E11.86193
G1 X119.933 Y137.615 E11.877
G1 X119.694 Y136.972 E11.89411
G1 X119.477 Y136.289 E11.91199
G1 X119.244 Y135.576 E11.9307
G1 X118.971 Y134.886 E11.94921
G1 X118.593 Y134.197 E11.96882
G1 X118.203 Y133.702 E11.98454
G1 X117.655 Y133.2 E12.00307
G1 X117.071 Y132.738 E12.02165
G1 X116.501 Y132.367 E12.03861
G1 X115.942 Y132.081 E12.05428
G1 X115.364 Y131.874 E12.06959
G1 X114.666 Y131.751 E12.08727
G1 X113.983 Y131.778 E12.10432
G1 X113.334 Y131.955 E12.1211
G1 X112.752 Y132.263 E12.13753
G1 X112.244 Y132.673 E12.15381
G1 X111.804 Y133.161 E12.17021
G1 X111.426 Y133.709 E12.18681
G1 X111.098 Y134.304 E12.20376
G1 X110.815 Y134.939 E12.2211
G1 X110.575 Y135.6 E12.23864
G1 X110.371 Y136.276 E12.25626
G1 X110.272 Y136.66 E12.26615
G1 X110.059 Y137.643 E12.29124
G1 X109.912 Y138.233 E12.30641
G1 X109.749 Y138.77 E12.32041
G1 X109.56 Y139.292 E12.33426
G1 X109.456 Y139.55 E12.34119
G1 X109.236 Y140.035 E12.35448
G1 X109.01 Y140.479 E12.36691
G1 X108.762 Y140.918 E12.37948
G1 X108.489 Y141.363 E12.39251
G1 X108.216 Y141.782 E12.40498
G1 X107.917 Y142.217 E12.41815
G1 X106.954 Y143.59 E12.45998
G1 X106.611 Y144.088 E12.47507
G1 X106.262 Y144.616 E12.49086
G1 X105.522 Y145.793 E12.52554
G1 X105.166 Y146.337 E12.54175
G1 X104.798 Y146.864 E12.55779
G1 X104.447 Y147.329 E12.57232
G1 X104.087 Y147.758 E12.58629
G1 X103.381 Y148.442 E12.61081
G1 X102.615 Y148.956 E12.63382
G1 X102.221 Y149.145 E12.64472
G1 X101.742 Y149.32 E12.65745
G1 X101.247 Y149.451 E12.67022
G1 X100.996 Y149.494 E12.67657
G1 X100.804 Y149.528 E12.68144
G1 X100.968 Y149.334 E12.68393
G1 X100.995 Y149.291 E12.68435
G1 X101.308 Y148.802 E12.69884
G1 X101.624 Y148.046 E12.71928
G1 X101.79 Y147.24 E12.7398
G1 X101.816 Y146.426 E12.76012
G1 X101.728 Y145.626 E12.7802
G1 X101.611 Y145.062 E12.79456
G1 X101.467 Y144.532 E12.80826
G1 X101.297 Y144.008 E12.82201
G1 X101.108 Y143.488 E12.83581
G1 X100.903 Y142.968 E12.84975
G1 X100.565 Y142.167 E12.87144
G1 X100.204 Y141.377 E12.8931
G1 X99.474 Y139.857 E12.93517
G1 X99.128 Y139.122 E12.95543
G1 X98.801 Y138.379 E12.97568
G1 X98.501 Y137.629 E12.99583
G1 X98.213 Y136.81 E13.01749
G1 X98.013 Y136.11 E13.03565
G1 X97.842 Y135.408 E13.05367
G1 X97.649 Y134.709 E13.07176
G1 X97.383 Y134.033 E13.08988
G1 X97.059 Y133.516 E13.1051
G1 X96.629 Y133.087 E13.12025
G1 X96.077 Y132.767 E13.13617
G1 X95.439 Y132.577 E13.15278
G1 X94.695 Y132.503 E13.17143
G1 X93.918 Y132.533 E13.19082
G1 X93.238 Y132.639 E13.20799
G1 X92.627 Y132.823 E13.22391
G1 X91.952 Y133.185 E13.24302
G1 X91.419 Y133.677 E13.26111
G1 X91.049 Y134.251 E13.27814
G1 X90.815 Y134.881 E13.29491
G1 X90.686 Y135.528 E13.31137
G1 X90.632 Y136.184 E13.32779
G1 X90.622 Y136.842 E13.3442
G1 X90.637 Y137.523 E13.36119
G1 X90.655 Y138.152 E13.37689
G1 X90.658 Y138.754 E13.39191
G1 X90.629 Y139.343 E13.40662
G1 X90.563 Y139.848 E13.41932
G1 X90.438 Y140.321 E13.43153
G1 X90.253 Y140.732 E13.44277
G1 X90.022 Y141.096 E13.45352
G1 X89.654 Y141.588 E13.46885
G1 X89.284 Y141.988 E13.48244
G1 X88.932 Y142.287 E13.49396
G1 X88.606 Y142.495 E13.50361
G1 X88.169 Y142.678 E13.51543
G1 X87.727 Y142.768 E13.52668
G1 X87.27 Y142.778 E13.53808
G1 X86.789 Y142.711 E13.5502
G1 X86.287 Y142.58 E13.56314
G1 X85.733 Y142.378 E13.57785
G1 X85.468 Y142.266 E13.58502
G1 X84.967 Y142.035 E13.59879
