;FLAVOR:Marlin
;TIME:677
;Filament used: 0.217132m, 0m
;Layer height: 0.1
;MINX:80.385
;MINY:83.182
;MINZ:0.2
;MAXX:135.249
;MAXY:150.634
;MAXZ:1.2
;Generated with Cura_SteamEngine 4.8.0
T0
M140 S60
M105
M190 S60
M104 S200
M105
M109 S200
M82 ;absolute extrusion mode
M201 X500.00 Y500.00 Z100.00 E5000.00 	;Setup machine max acceleration
M203 X500.00 Y500.00 Z10.00 E50.00 	;Setup machine max feedrate
M204 P500.00 R1000.00 T500.00 		;Setup Print/Retract/Travel acceleration
M205 X8.00 Y8.00 Z0.40 E5.00 		;Setup Jerk
M220 S100 				;Reset Feedrate
M221 S100 				;Reset Flowrate
G28				;Home the Machine
#G29 				;Bed Level
G92 E0
M300 P150 S587
G92 E0
G1 F1500 E-5.5
;LAYER_COUNT:11
;LAYER:0
M107
G0 F2160 X106.975 Y84.655 Z0.2
;TYPE:SKIRT
G1 F1500 E0
G1 F900 X107.307 Y84.248 E0.0131
G1 X107.697 Y83.897 E0.02619
G1 X108.136 Y83.609 E0.03929
G1 X108.613 Y83.39 E0.05238
G1 X109.118 Y83.247 E0.06547
G1 X109.639 Y83.182 E0.07857
G1 X110.164 Y83.197 E0.09167
G1 X110.68 Y83.291 E0.10476
G1 X111.176 Y83.462 E0.11784
G1 X111.641 Y83.707 E0.13095
G1 X112.063 Y84.019 E0.14405
G1 X112.432 Y84.392 E0.15713
G1 X112.741 Y84.817 E0.17024
G1 X112.982 Y85.283 E0.18333
G1 X113.091 Y85.578 E0.19117
G1 X113.313 Y86.272 E0.20935
G1 X114.175 Y88.847 E0.27709
G1 X115.124 Y91.434 E0.34582
G1 X116.136 Y93.97 E0.41394
G1 X117.213 Y96.456 E0.48152
G1 X118.38 Y98.959 E0.55041
G1 X119.595 Y101.383 E0.61805
G1 X120.887 Y103.787 E0.68613
G1 X122.243 Y106.149 E0.75407
G1 X123.69 Y108.51 E0.82314
G1 X125.165 Y110.773 E0.89053
G1 X126.732 Y113.034 E0.95915
G1 X128.323 Y115.195 E1.02609
G1 X130.044 Y117.399 E1.09584
G1 X131.562 Y119.241 E1.15538
G1 X132.365 Y120.192 E1.18643
G1 X132.672 Y120.618 E1.19953
G1 X132.911 Y121.085 E1.21262
G1 X133.116 Y121.761 E1.23024
G1 X133.195 Y122.172 E1.24068
G1 X133.549 Y124.137 E1.29049
G1 X134.121 Y126.865 E1.36002
G1 X134.733 Y129.427 E1.42572
G1 X134.898 Y130.041 E1.44158
G1 X135.148 Y131.026 E1.46693
G1 X135.238 Y131.543 E1.48002
G1 X135.249 Y132.068 E1.49312
G1 X135.179 Y132.589 E1.50624
G1 X135.045 Y133.072 E1.51874
G1 X135.012 Y133.174 E1.52141
G1 X134.246 Y135.397 E1.58007
G1 X133.43 Y137.995 E1.648
G1 X132.682 Y140.639 E1.71654
G1 X132.298 Y142.138 E1.75514
G1 X132.245 Y142.331 E1.76013
G1 X132.068 Y142.825 E1.77322
G1 X131.818 Y143.286 E1.7863
G1 X131.5 Y143.705 E1.79942
G1 X131.123 Y144.07 E1.81251
G1 X130.695 Y144.374 E1.82561
G1 X130.226 Y144.609 E1.8387
G1 X129.482 Y144.846 E1.85817
G1 X127.564 Y145.378 E1.90782
G1 X124.93 Y146.188 E1.97657
G1 X122.373 Y147.054 E2.04391
G1 X119.795 Y148.01 E2.1125
G1 X117.276 Y149.024 E2.18023
G1 X115.555 Y149.79 E2.22723
G1 X115.45 Y149.827 E2.23
G1 X114.249 Y150.351 E2.26269
G1 X113.753 Y150.523 E2.27578
G1 X113.237 Y150.618 E2.28887
G1 X112.712 Y150.634 E2.30197
G1 X112.191 Y150.57 E2.31507
G1 X111.772 Y150.458 E2.32589
G1 X110.503 Y150.032 E2.35928
G1 X107.854 Y149.184 E2.42866
G1 X105.239 Y148.428 E2.49656
G1 X102.589 Y147.742 E2.56485
G1 X99.897 Y147.124 E2.63375
G1 X97.26 Y146.6 E2.70081
G1 X94.626 Y146.143 E2.7675
G1 X94.166 Y146.032 E2.7793
G1 X93.681 Y145.832 E2.79239
G1 X93.232 Y145.561 E2.80547
G1 X92.829 Y145.224 E2.81858
G1 X92.482 Y144.831 E2.83166
G1 X91.97 Y144.153 E2.85285
G1 X90.264 Y141.962 E2.92212
G1 X88.532 Y139.863 E2.99
G1 X86.722 Y137.792 E3.05861
G1 X84.871 Y135.791 E3.12661
G1 X82.015 Y132.913 E3.22775
G1 X81.433 Y132.35 E3.24795
G1 X81.085 Y131.958 E3.26103
G1 X80.8 Y131.517 E3.27412
G1 X80.585 Y131.038 E3.28722
G1 X80.446 Y130.532 E3.30031
G1 X80.385 Y130.01 E3.31342
G1 X80.404 Y129.485 E3.32653
G1 X80.596 Y128.59 E3.34936
G1 X81.215 Y125.955 E3.41688
G1 X81.774 Y123.247 E3.48586
G1 X82.257 Y120.481 E3.5559
G1 X82.397 Y119.614 E3.57781
G1 X82.52 Y119.103 E3.59092
G1 X82.718 Y118.617 E3.60401
G1 X82.988 Y118.167 E3.6171
G1 X83.285 Y117.804 E3.6288
G1 X84.271 Y116.751 E3.66478
G1 X85.872 Y115.003 E3.72391
G1 X87.635 Y112.969 E3.79106
G1 X88.981 Y111.317 E3.84421
G1 X89.528 Y110.66 E3.86554
G1 X89.624 Y110.549 E3.8692
G1 X91.458 Y108.527 E3.9373
G1 X93.233 Y106.454 E4.00537
G1 X94.958 Y104.321 E4.0738
G1 X96.59 Y102.18 E4.14096
G1 X98.215 Y99.921 E4.21037
G1 X99.725 Y97.692 E4.27753
G1 X101.2 Y95.374 E4.34607
G1 X102.599 Y93.031 E4.41414
G1 X103.935 Y90.647 E4.48231
G1 X105.19 Y88.248 E4.54985
G1 X106.269 Y86.001 E4.61203
G1 X106.708 Y85.107 E4.63687
G1 X106.975 Y84.655 E4.64997
G0 F2160 X107.234 Y84.808
G1 F900 X107.555 Y84.423 E4.66247
G1 X107.934 Y84.094 E4.67499
G1 X108.36 Y83.829 E4.68751
G1 X108.822 Y83.635 E4.70001
G1 X109.31 Y83.517 E4.71253
G1 X109.81 Y83.478 E4.72504
G1 X110.31 Y83.519 E4.73756
G1 X110.797 Y83.638 E4.75006
G1 X111.259 Y83.834 E4.76258
G1 X111.684 Y84.1 E4.77509
G1 X112.061 Y84.43 E4.78759
G1 X112.382 Y84.816 E4.80011
G1 X112.637 Y85.248 E4.81262
G1 X112.806 Y85.669 E4.82394
G1 X113.029 Y86.367 E4.84222
G1 X113.901 Y88.971 E4.91072
G1 X114.844 Y91.543 E4.97906
G1 X115.851 Y94.065 E5.0468
G1 X116.941 Y96.583 E5.11524
G1 X118.115 Y99.1 E5.18452
G1 X119.323 Y101.511 E5.25179
G1 X120.623 Y103.93 E5.3203
G1 X121.996 Y106.321 E5.38907
G1 X123.424 Y108.651 E5.45724
G1 X124.912 Y110.934 E5.52522
G1 X126.489 Y113.209 E5.59427
G1 X128.106 Y115.406 E5.66232
G1 X129.788 Y117.56 E5.73049
G1 X131.333 Y119.435 E5.7911
G1 X132.136 Y120.386 E5.82215
G1 X132.428 Y120.794 E5.83466
G1 X132.651 Y121.243 E5.84717
G1 X132.821 Y121.818 E5.86213
G1 X132.9 Y122.225 E5.87247
G1 X133.259 Y124.22 E5.92303
G1 X133.819 Y126.89 E5.99109
G1 X134.455 Y129.551 E6.05933
G1 X134.607 Y130.115 E6.0739
G1 X134.857 Y131.1 E6.09925
G1 X134.941 Y131.595 E6.11178
G1 X134.946 Y132.096 E6.12428
G1 X134.812 Y132.809 E6.14237
G1 X134.728 Y133.076 E6.14936
G1 X133.956 Y135.314 E6.20841
G1 X133.149 Y137.887 E6.27568
G1 X132.399 Y140.538 E6.3444
G1 X132.009 Y142.058 E6.38355
G1 X131.956 Y142.251 E6.38854
G1 X131.785 Y142.723 E6.40106
G1 X131.541 Y143.161 E6.41357
G1 X131.231 Y143.555 E6.42608
G1 X130.862 Y143.895 E6.43859
G1 X130.444 Y144.173 E6.45112
G1 X129.797 Y144.442 E6.46859
G1 X129.36 Y144.569 E6.47995
G1 X127.469 Y145.093 E6.5289
G1 X124.84 Y145.901 E6.5975
G1 X122.277 Y146.77 E6.66501
G1 X119.695 Y147.727 E6.7337
G1 X117.164 Y148.746 E6.80176
G1 X115.434 Y149.516 E6.849
G1 X115.328 Y149.553 E6.8518
G1 X114.129 Y150.076 E6.88443
G1 X113.654 Y150.239 E6.89696
G1 X113.16 Y150.325 E6.90947
G1 X112.659 Y150.331 E6.92197
G1 X112.163 Y150.258 E6.93447
G1 X111.867 Y150.174 E6.94215
G1 X110.566 Y149.737 E6.97638
G1 X107.946 Y148.899 E7.045
G1 X105.301 Y148.133 E7.11369
G1 X102.658 Y147.449 E7.18179
G1 X99.983 Y146.835 E7.25026
G1 X97.294 Y146.302 E7.31864
G1 X94.686 Y145.85 E7.38467
G1 X94.238 Y145.74 E7.39617
G1 X93.776 Y145.544 E7.40869
G1 X93.352 Y145.277 E7.42119
G1 X92.975 Y144.946 E7.43371
G1 X92.721 Y144.65 E7.44343
G1 X92.207 Y143.969 E7.46472
G1 X90.487 Y141.761 E7.53454
G1 X88.762 Y139.67 E7.60215
G1 X86.956 Y137.603 E7.67062
G1 X85.092 Y135.588 E7.7391
G1 X82.224 Y132.698 E7.84066
G1 X81.642 Y132.135 E7.86086
G1 X81.31 Y131.758 E7.87339
G1 X81.042 Y131.334 E7.88591
G1 X80.846 Y130.873 E7.8984
G1 X80.724 Y130.386 E7.91093
G1 X80.682 Y129.886 E7.92344
G1 X80.72 Y129.386 E7.93595
G1 X80.887 Y128.663 E7.95446
G1 X81.512 Y126.004 E8.0226
G1 X82.071 Y123.294 E8.09162
G1 X82.553 Y120.533 E8.16154
G1 X82.693 Y119.661 E8.18357
G1 X82.812 Y119.174 E8.19607
G1 X83.007 Y118.712 E8.20858
G1 X83.272 Y118.286 E8.2211
G1 X83.504 Y118.009 E8.23011
G1 X84.49 Y116.956 E8.2661
G1 X86.072 Y115.228 E8.32454
G1 X87.895 Y113.126 E8.39394
G1 X89.211 Y111.509 E8.44595
G1 X89.758 Y110.852 E8.46728
G1 X89.846 Y110.751 E8.47062
G1 X91.68 Y108.729 E8.53871
G1 X93.467 Y106.642 E8.60725
G1 X95.181 Y104.521 E8.67528
G1 X96.845 Y102.34 E8.74371
G1 X98.446 Y100.114 E8.81211
G1 X99.982 Y97.847 E8.88041
G1 X101.466 Y95.514 E8.94939
G1 X102.849 Y93.198 E9.01668
G1 X104.202 Y90.784 E9.08571
G1 X105.464 Y88.371 E9.15364
G1 X106.539 Y86.134 E9.21555
G1 X106.978 Y85.24 E9.24039
G1 X107.234 Y84.808 E9.25292
G1 F1500 E3.75292
;MESH:Spider.stl
G0 F2160 X108.089 Y109.458
G0 X108.877 Y110.064
G0 X108.55 Y110.964
;TYPE:WALL-INNER
G1 F1500 E9.25292
G1 F900 X108.597 Y111.345 E9.26249
G1 X108.606 Y111.41 E9.26413
G1 X108.84 Y112.176 E9.28411
G1 X109.08 Y112.704 E9.29858
G1 X109.39 Y113.32 E9.31578
G1 X110.419 Y113.13 E9.34188
G1 X110.856 Y113.101 E9.35281
G1 X111.344 Y113.126 E9.365
G1 X111.785 Y113.204 E9.37617
G1 X112.237 Y113.342 E9.38796
G1 X112.653 Y113.538 E9.39943
G1 X113.046 Y113.785 E9.41101
G1 X113.804 Y114.403 E9.4354
G1 X114.588 Y114.026 E9.4571
G1 X115.147 Y113.64 E9.47405
G1 X115.614 Y113.213 E9.48984
G1 X115.628 Y113.2 E9.49031
G1 X115.877 Y112.874 E9.50054
G1 X115.905 Y113.173 E9.50361
G1 X115.906 Y113.193 E9.5041
G1 X115.921 Y113.334 E9.50763
G1 X115.875 Y113.668 E9.51604
G1 X115.769 Y113.957 E9.52372
G1 X115.595 Y114.234 E9.53188
G1 X115.342 Y114.503 E9.5411
G1 X114.978 Y114.781 E9.55252
G1 X114.363 Y115.171 E9.57069
G1 X114.649 Y116.242 E9.59834
G1 X114.714 Y116.777 E9.61178
G1 X114.7 Y117.327 E9.62551
G1 X114.613 Y117.868 E9.63918
G1 X114.467 Y118.339 E9.65148
G1 X114.288 Y118.732 E9.66225
G1 X113.957 Y119.253 E9.67765
G1 X113.541 Y119.724 E9.69332
G1 X112.931 Y120.265 E9.71366
G1 X113.213 Y121.218 E9.73845
G1 X113.456 Y122.269 E9.76536
G1 X113.503 Y122.252 E9.76661
G1 X113.678 Y123.112 E9.7885
G1 X113.804 Y123.803 E9.80602
G1 X113.926 Y124.604 E9.82623
G1 X114.022 Y125.443 E9.8473
G1 X114.076 Y125.953 E9.86009
G1 X114.106 Y127.386 E9.89585
G1 X114.099 Y127.995 E9.91104
G1 X114.069 Y128.714 E9.92899
G1 X113.988 Y129.882 E9.9582
G1 X114.017 Y129.895 E9.95899
G1 X113.728 Y131.347 E9.99592
G1 X113.528 Y132.088 E10.01506
G1 X113.266 Y132.903 E10.03642
G1 X113.115 Y133.318 E10.04744
G1 X113.164 Y133.38 E10.04941
G1 X112.403 Y134.752 E10.08854
G1 X112.147 Y135.162 E10.1006
G1 X111.836 Y135.6 E10.114
G1 X111.517 Y135.992 E10.12661
G1 X111.149 Y136.386 E10.14006
G1 X110.794 Y136.714 E10.15211
G1 X110.392 Y137.024 E10.16478
G1 X109.992 Y137.285 E10.17669
G1 X109.536 Y137.523 E10.18952
G1 X109.087 Y137.704 E10.2016
G1 X108.601 Y137.847 E10.21424
G1 X108.071 Y137.945 E10.22768
G1 X107.536 Y137.991 E10.24108
G1 X106.948 Y137.982 E10.25575
G1 X106.345 Y137.916 E10.27088
G1 X105.684 Y137.781 E10.28771
G1 X105.065 Y137.601 E10.30379
G1 X104.494 Y137.38 E10.31906
G1 X103.988 Y137.129 E10.33315
G1 X103.531 Y136.845 E10.34657
G1 X103.133 Y136.54 E10.35908
G1 X102.76 Y136.19 E10.37184
G1 X102.178 Y135.458 E10.39517
G1 X101.915 Y135.01 E10.40813
G1 X101.556 Y134.168 E10.43096
G1 X101.406 Y133.666 E10.44403
G1 X101.228 Y132.711 E10.46826
G1 X101.175 Y132.157 E10.48214
G1 X101.121 Y130.787 E10.51635
G1 X101.113 Y130.576 E10.52161
G1 X100.917 Y130.655 E10.52473
G1 X100.613 Y130.778 E10.53291
G1 X100.002 Y131.025 E10.54935
G1 X99.506 Y131.226 E10.5627
G1 X99.349 Y131.29 E10.56693
G1 X98.977 Y131.42 E10.57676
G1 X98.547 Y131.571 E10.58813
G1 X98.458 Y131.598 E10.59045
G1 X98.544 Y131.566
G1 X98.971 Y131.405 E10.59087
G1 X99.338 Y131.263 E10.59162
G1 X99.495 Y131.202 E10.592
G1 X99.992 Y131.001 E10.59318
G1 X100.6 Y130.746 E10.59483
G1 X101.092 Y130.53 E10.60824
G1 X101.166 Y130.497 E10.61026
G1 X101.284 Y129.577 E10.63339
G1 X101.382 Y129.055 E10.64664
G1 X101.497 Y128.558 E10.65937
G1 X101.623 Y128.067 E10.67201
G1 X101.994 Y126.86 E10.70351
G1 X102.01 Y126.861 E10.70391
G1 X102.491 Y125.744 E10.73425
G1 X102.791 Y125.124 E10.75143
G1 X103.104 Y124.522 E10.76836
G1 X103.741 Y123.342 E10.80181
G1 X103.76 Y123.351 E10.80233
G1 X104.58 Y122.186 E10.83787
G1 X105.055 Y121.558 E10.85751
G1 X105.509 Y120.99 E10.87565
G1 X105.923 Y120.49 E10.89184
G1 X106.363 Y119.977 E10.9087
G1 X107.486 Y118.954 E10.9466
G1 X107.163 Y117.893 E10.97426
G1 X107.062 Y117.285 E10.98964
G1 X107.055 Y116.657 E11.0053
G1 X107.118 Y116.178 E11.01736
G1 X107.225 Y115.766 E11.02797
G1 X107.437 Y115.247 E11.04196
G1 X107.725 Y114.762 E11.05603
G1 X108.072 Y114.327 E11.06991
G1 X108.668 Y113.726 E11.09102
G1 X108.224 Y112.788 E11.11691
G1 X108.109 Y112.397 E11.12708
G1 X108.079 Y112.046 E11.13587
G1 X108.122 Y111.717 E11.14414
G1 X108.243 Y111.397 E11.15268
G1 X108.328 Y111.277 E11.15634
G1 X108.55 Y110.964 E11.16145
G0 F2160 X108.827 Y110.764
G1 F900 X108.9 Y111.347 E11.17611
G1 X109.121 Y112.069 E11.19494
G1 X109.351 Y112.574 E11.20878
G1 X109.557 Y112.984 E11.22023
G1 X110.38 Y112.832 E11.24111
G1 X110.86 Y112.8 E11.25311
G1 X111.371 Y112.827 E11.26587
G1 X111.86 Y112.913 E11.27826
G1 X112.348 Y113.062 E11.29098
G1 X112.795 Y113.272 E11.3033
G1 X113.22 Y113.54 E11.31584
G1 X113.846 Y114.05 E11.33598
G1 X114.437 Y113.766 E11.35234
G1 X114.96 Y113.405 E11.36819
G1 X115.406 Y112.997 E11.38327
G1 X115.765 Y112.527 E11.39802
G1 X115.827 Y112.394 E11.40168
G1 X115.853 Y112.338 E11.40322
G1 X115.96 Y112.111 E11.40948
G1 X116.086 Y112.446 E11.41439
G1 X116.099 Y112.506 E11.41582
G1 X116.196 Y112.922 E11.42647
G1 X116.222 Y113.348 E11.43712
G1 X116.168 Y113.74 E11.44699
G1 X116.039 Y114.09 E11.45629
G1 X115.833 Y114.419 E11.46598
G1 X115.541 Y114.729 E11.4766
G1 X115.153 Y115.025 E11.48877
G1 X114.71 Y115.306 E11.50186
G1 X114.945 Y116.186 E11.52458
G1 X115.015 Y116.762 E11.53906
G1 X115 Y117.353 E11.5538
G1 X114.905 Y117.941 E11.56866
G1 X114.749 Y118.445 E11.58182
G1 X114.551 Y118.878 E11.5937
G1 X114.196 Y119.437 E11.61022
G1 X113.758 Y119.932 E11.6267
G1 X113.273 Y120.363 E11.64289
G1 X113.501 Y121.133 E11.66292
G1 X113.672 Y121.873 E11.68187
G1 X113.728 Y121.853 E11.68335
G1 X113.732 Y121.877 E11.68396
G1 X113.973 Y123.058 E11.71403
G1 X114.101 Y123.758 E11.73178
G1 X114.223 Y124.559 E11.75199
G1 X114.32 Y125.412 E11.7734
G1 X114.363 Y125.821 E11.78366
G1 X115.411 Y125.908 E11.80989
G1 X116.129 Y125.951 E11.82784
G1 X116.721 Y125.976 E11.84262
G1 X117.355 Y125.992 E11.85844
G1 X118.05 Y125.999 E11.87578
G1 X118.77 Y125.994 E11.89374
G1 X119.573 Y125.975 E11.91377
G1 X120.059 Y125.954 E11.92591
G1 X120.318 Y125.943 E11.93237
G1 X120.426 Y125.938 E11.93507
G1 X120.874 Y125.91 E11.94627
G1 X121.322 Y125.882 E11.95747
G1 X121.415 Y125.875 E11.95979
G1 X121.828 Y125.842 E11.97013
G1 X121.936 Y125.832 E11.97283
G1 X122.309 Y125.797 E11.98218
G1 X121.942 Y125.889 E11.98315
G1 X121.844 Y125.911 E11.9836
G1 X121.426 Y126.006 E11.98733
G1 X121.351 Y126.021 E11.98808
G1 X120.887 Y126.115 E11.99505
G1 X120.471 Y126.189 E12.00308
G1 X120.33 Y126.214 E12.00628
G1 X120.074 Y126.252 E12.01243
G1 X119.771 Y126.299 E12.02008
G1 X119.184 Y126.371 E12.03483
G1 X118.597 Y126.426 E12.04954
G1 X117.981 Y126.465 E12.06493
G1 X117.375 Y126.484 E12.08006
G1 X116.775 Y126.482 E12.09503
G1 X116.139 Y126.456 E12.1109
G1 X115.53 Y126.408 E12.12614
G1 X114.552 Y126.286 E12.15073
G1 X114.382 Y126.265 E12.155
G1 X114.384 Y126.436 E12.15766
G1 X114.385 Y126.437 E12.1577
G1 X114.406 Y127.389 E12.18145
G1 X114.399 Y128.008 E12.19689
G1 X114.369 Y128.727 E12.21485
G1 X114.302 Y129.696 E12.23908
G1 X115.185 Y130.101 E12.26331
G1 X115.822 Y130.377 E12.28063
G1 X116.376 Y130.607 E12.29559
G1 X116.99 Y130.849 E12.31205
G1 X117.677 Y131.108 E12.33037
G1 X118.437 Y131.378 E12.35049
G1 X119.227 Y131.644 E12.37128
G1 X120.114 Y131.924 E12.39448
G1 X120.166 Y131.94 E12.39584
G1 X120.623 Y132.075 E12.40773
G1 X120.636 Y132.078 E12.40806
G1 X121.16 Y132.225 E12.42163
G1 X121.554 Y132.336 E12.43185
G1 X121.68 Y132.369 E12.43509
G1 X122.108 Y132.483 E12.44614
G1 X122.184 Y132.51 E12.44816
G1 X122.107 Y132.503 E12.4482
G1 X121.657 Y132.457 E12.45039
G1 X121.542 Y132.444 E12.45122
G1 X121.114 Y132.392 E12.45644
G1 X120.589 Y132.316 E12.46557
G1 X120.571 Y132.313 E12.46595
G1 X120.102 Y132.232 E12.47672
G1 X120.009 Y132.216 E12.47907
G1 X119.442 Y132.103 E12.49349
G1 X118.856 Y131.969 E12.50849
G1 X118.275 Y131.818 E12.52346
G1 X117.683 Y131.643 E12.53886
G1 X117.097 Y131.448 E12.55427
G1 X116.524 Y131.234 E12.56952
G1 X115.945 Y130.992 E12.58518
G1 X115.376 Y130.725 E12.60086
G1 X114.448 Y130.242 E12.62695
G1 X114.272 Y130.151 E12.6319
G1 X114.234 Y130.346 E12.63487
G1 X114.018 Y131.425 E12.66232
G1 X113.814 Y132.18 E12.68183
G1 X113.552 Y132.995 E12.70318
G1 X113.454 Y133.265 E12.71035
G1 X113.922 Y133.867 E12.72937
G1 X114.335 Y134.382 E12.74584
G1 X114.692 Y134.814 E12.75982
