;FLAVOR:Marlin
;TIME:1962
;Filament used: 1.73693m, 0m
;Layer height: 0.2
;MINX:8.9
;MINY:8.9
;MINZ:0.2
;MAXX:226.1
;MAXY:226.1
;MAXZ:1.6
;Generated with Cura_SteamEngine 4.8.0
T0
M140 S60
M105
M190 S60
M104 S200
M105
M109 S200
M82 ;absolute extrusion mode
M201 X500.00 Y500.00 Z100.00 E5000.00 	;Setup machine max acceleration
M203 X500.00 Y500.00 Z10.00 E50.00 	;Setup machine max feedrate
M204 P500.00 R1000.00 T500.00 		;Setup Print/Retract/Travel acceleration
M205 X8.00 Y8.00 Z0.40 E5.00 		;Setup Jerk
M220 S100 				;Reset Feedrate
M221 S100 				;Reset Flowrate
G28				;Home the Machine
#G29 				;Bed Level
G92 E0
M300 P150 S587
G92 E0
G1 F1500 E-5.5
;LAYER_COUNT:8
;LAYER:0
M107
G0 F2618.2 X9.897 Y10.031 Z0.2
;TYPE:SKIRT
G1 F1500 E0
G1 F1200 X10.294 Y9.671 E0.01782
G1 X10.741 Y9.373 E0.03569
G1 X11.226 Y9.145 E0.05352
G1 X11.74 Y8.992 E0.07135
G1 X12.408 Y8.91 E0.09374
G1 X12.83 Y8.9 E0.10778
G1 X221.845 Y8.9 E7.05965
G1 X222.543 Y8.91 E7.08286
G1 X223.077 Y8.958 E7.1007
G1 X223.598 Y9.084 E7.11852
G1 X224.095 Y9.287 E7.13638
G1 X224.556 Y9.561 E7.15422
G1 X224.971 Y9.9 E7.17204
G1 X225.331 Y10.298 E7.18989
G1 X225.628 Y10.744 E7.20771
G1 X225.856 Y11.23 E7.22557
G1 X226.008 Y11.744 E7.24339
G1 X226.09 Y12.409 E7.26568
G1 X226.1 Y12.83 E7.27969
G1 X226.1 Y221.809 E14.23036
G1 X226.091 Y222.536 E14.25454
G1 X226.044 Y223.07 E14.27237
G1 X225.919 Y223.591 E14.29019
G1 X225.717 Y224.088 E14.30803
G1 X225.444 Y224.55 E14.32588
G1 X225.106 Y224.966 E14.34371
G1 X224.709 Y225.327 E14.36155
G1 X224.263 Y225.625 E14.37939
G1 X223.778 Y225.853 E14.39722
G1 X223.264 Y226.007 E14.41507
G1 X222.592 Y226.09 E14.43759
G1 X222.17 Y226.1 E14.45163
G1 X13.161 Y226.1 E21.40329
G1 X12.463 Y226.091 E21.42651
G1 X11.928 Y226.044 E21.44437
G1 X11.407 Y225.918 E21.4622
G1 X10.91 Y225.716 E21.48005
G1 X10.449 Y225.443 E21.49787
G1 X10.033 Y225.104 E21.51571
G1 X9.672 Y224.708 E21.53354
G1 X9.374 Y224.262 E21.55138
G1 X9.146 Y223.776 E21.56923
G1 X8.993 Y223.262 E21.58707
G1 X8.91 Y222.588 E21.60966
G1 X8.9 Y222.158 E21.62396
G1 X8.9 Y13.125 E28.57643
G1 X8.909 Y12.46 E28.59855
G1 X8.957 Y11.926 E28.61638
G1 X9.083 Y11.405 E28.63421
G1 X9.285 Y10.908 E28.65205
G1 X9.558 Y10.447 E28.66987
G1 X9.897 Y10.031 E28.68772
G0 F2618.2 X10.289 Y10.204
G1 F1200 X10.68 Y9.883 E28.70455
G1 X11.117 Y9.628 E28.72137
G1 X11.588 Y9.444 E28.73819
G1 X12.082 Y9.338 E28.755
G1 X12.74 Y9.301 E28.77692
G1 X221.839 Y9.3 E35.73158
G1 X222.537 Y9.31 E35.7548
G1 X223.04 Y9.357 E35.7716
G1 X223.53 Y9.483 E35.78843
G1 X223.994 Y9.685 E35.80526
G1 X224.42 Y9.957 E35.82207
G1 X224.798 Y10.292 E35.83887
G1 X225.118 Y10.683 E35.85567
G1 X225.373 Y11.12 E35.8725
G1 X225.556 Y11.591 E35.88931
G1 X225.663 Y12.085 E35.90612
G1 X225.699 Y12.74 E35.92794
G1 X225.7 Y221.804 E42.88143
G1 X225.691 Y222.531 E42.90562
G1 X225.645 Y223.034 E42.92242
G1 X225.52 Y223.524 E42.93923
G1 X225.319 Y223.988 E42.95605
G1 X225.048 Y224.415 E42.97287
G1 X224.713 Y224.794 E42.9897
G1 X224.323 Y225.115 E43.0065
G1 X223.887 Y225.371 E43.02331
G1 X223.416 Y225.554 E43.04012
G1 X222.922 Y225.662 E43.05694
G1 X222.26 Y225.699 E43.07899
G1 X13.166 Y225.7 E50.03349
G1 X12.468 Y225.691 E50.0567
G1 X11.964 Y225.644 E50.07354
G1 X11.474 Y225.519 E50.09036
G1 X11.01 Y225.318 E50.10718
G1 X10.584 Y225.047 E50.12397
G1 X10.205 Y224.712 E50.14079
G1 X9.884 Y224.321 E50.15762
G1 X9.629 Y223.885 E50.17442
G1 X9.445 Y223.414 E50.19124
G1 X9.338 Y222.92 E50.20805
G1 X9.301 Y222.244 E50.23057
G1 X9.3 Y13.131 E57.18569
G1 X9.309 Y12.466 E57.20781
G1 X9.356 Y11.962 E57.22465
G1 X9.482 Y11.473 E57.24145
G1 X9.683 Y11.009 E57.25826
G1 X9.954 Y10.582 E57.27509
G1 X10.289 Y10.204 E57.29188
G1 F1500 E51.79188
;MESH:CHEP_bed_level_print_ender_3_max.stl
G0 F2618.2 X107.214 Y106.335
G0 X107.214 Y107.214
G0 X127.391 Y107.609
G0 X127.433 Y127.433
G0 X127.363 Y127.363
;TYPE:WALL-OUTER
G1 F1500 E57.29188
G1 F1200 X127.363 Y107.637 E57.94797
G1 X107.637 Y107.637 E58.60406
G1 X107.637 Y127.363 E59.26015
G1 X127.363 Y127.363 E59.91624
G0 F2618.2 X127.363 Y127.163
G0 X127.8 Y127.8
G1 F1200 X107.2 Y127.8 E60.6014
G1 X107.2 Y107.2 E61.28656
G1 X127.8 Y107.2 E61.97172
G1 X127.8 Y127.8 E62.65688
G0 F2618.2 X127.6 Y127.8
G0 X127.58 Y127.58
;TYPE:SKIN
G1 F1200 X127.58 Y127.297 E62.65798
G1 X127.58 Y107.498 E62.73523
G1 X127.217 Y107.418 E62.73668
G1 X107.417 Y107.417 E62.81393
G1 X107.418 Y113.923 E62.83932
G1 X107.418 Y127.499 E62.89229
G1 X107.781 Y127.58 E62.89374
G1 X127.297 Y127.58 E62.96988
G0 F2618.2 X127.321 Y127.763
G1 F1500 E57.46988
G0 F2618.2 X127.321 Y127.7
G0 X127.786 Y107.214
G0 X127.786 Y106.335
G0 X127.786 Y97.865
G0 X127.786 Y97
G0 X138.07 Y96.93
G0 X138 Y97
;TYPE:WALL-OUTER
G1 F1500 E62.96988
G1 F1200 X97 Y97 E64.33355
G1 X97 Y138 E65.69722
G1 X138 Y138 E67.06088
G1 X138 Y97 E68.42455
G0 F2618.2 X137.8 Y97
G0 X138.3 Y97
G1 F1200 X138.3 Y138 E69.4473
G1 X138.3 Y138.3 E69.45727
G1 X138 Y138.3 E69.46725
G1 X97 Y138.3 E70.49
G1 X96.7 Y138.3 E70.49998
G1 X96.7 Y138 E70.50996
G1 X96.7 Y97 E71.53271
G1 X96.7 Y96.7 E71.54268
G1 X97 Y96.7 E71.55266
G1 X138 Y96.7 E72.57541
G1 X138.3 Y96.7 E72.58539
G1 X138.3 Y97 E72.59537
G0 F2618.2 X138.3 Y97.2
G1 F1500 E67.09537
G0 F2618.2 X138.2 Y97.2
G0 X138.286 Y95.835
G0 X138.286 Y83.865
G0 X138.286 Y83
G0 X152.07 Y82.93
G0 X152 Y83
G1 F1500 E72.59537
G1 F1200 X83 Y83 E74.89032
G1 X83 Y152 E77.18527
G1 X152 Y152 E79.48022
G1 X152 Y83 E81.77516
G0 F2618.2 X151.8 Y83
G0 X152.3 Y83
G1 F1200 X152.3 Y152 E83.49638
G1 X152.3 Y152.3 E83.50635
G1 X152 Y152.3 E83.51633
G1 X83 Y152.3 E85.23754
G1 X82.7 Y152.3 E85.24752
G1 X82.7 Y152 E85.2575
G1 X82.7 Y83 E86.97871
G1 X82.7 Y82.7 E86.98869
G1 X83 Y82.7 E86.99867
G1 X152 Y82.7 E88.71988
G1 X152.3 Y82.7 E88.72986
G1 X152.3 Y83 E88.73984
G0 F2618.2 X152.3 Y83.2
G1 F1500 E83.23984
G0 F2618.2 X152.2 Y83.2
G0 X152.286 Y81.835
G0 X152.286 Y69.865
G0 X152.286 Y69
G0 X166.07 Y68.93
G0 X166 Y69
G1 F1500 E88.73984
G1 F1200 X69 Y69 E91.96607
G1 X69 Y166 E95.1923
G1 X166 Y166 E98.41854
G1 X166 Y69 E101.64477
G0 F2618.2 X165.8 Y69
G0 X166.3 Y69
G1 F1200 X166.3 Y166 E104.06444
G1 X166.3 Y166.3 E104.07442
G1 X166 Y166.3 E104.0844
G1 X69 Y166.3 E106.50407
G1 X68.7 Y166.3 E106.51405
G1 X68.7 Y166 E106.52403
G1 X68.7 Y69 E108.94371
G1 X68.7 Y68.7 E108.95368
G1 X69 Y68.7 E108.96366
G1 X166 Y68.7 E111.38334
G1 X166.3 Y68.7 E111.39331
G1 X166.3 Y69 E111.40329
G0 F2618.2 X166.3 Y69.2
G1 F1500 E105.90329
G0 F2618.2 X166.2 Y69.2
G0 X166.286 Y67.835
G0 X166.286 Y55.865
G0 X166.286 Y55
G0 X180.07 Y54.93
G0 X180 Y55
G1 F1500 E111.40329
G1 F1200 X55 Y55 E115.56081
G1 X55 Y180 E119.71833
G1 X180 Y180 E123.87584
G1 X180 Y55 E128.03336
G0 F2618.2 X179.8 Y55
G0 X180.3 Y55
G1 F1200 X180.3 Y180 E131.1515
G1 X180.3 Y180.3 E131.16148
G1 X180 Y180.3 E131.17145
G1 X55 Y180.3 E134.28959
G1 X54.7 Y180.3 E134.29957
G1 X54.7 Y180 E134.30955
G1 X54.7 Y55 E137.42769
G1 X54.7 Y54.7 E137.43766
G1 X55 Y54.7 E137.44764
G1 X180 Y54.7 E140.56578
G1 X180.3 Y54.7 E140.57576
G1 X180.3 Y55 E140.58574
G0 F2618.2 X180.3 Y55.2
G1 F1500 E135.08574
G0 F2618.2 X180.2 Y55.2
G0 X180.286 Y53.835
G0 X180.286 Y41.865
G0 X180.286 Y41
G0 X194.07 Y40.93
G0 X194 Y41
G1 F1500 E140.58574
G1 F1200 X41 Y41 E145.67454
G1 X41 Y194 E150.76334
G1 X194 Y194 E155.85214
G1 X194 Y41 E160.94094
G0 F2618.2 X193.8 Y41
G0 X194.3 Y41
G1 F1200 X194.3 Y194 E164.75754
G1 X194.3 Y194.3 E164.76752
G1 X194 Y194.3 E164.77749
G1 X41 Y194.3 E168.59409
G1 X40.7 Y194.3 E168.60407
G1 X40.7 Y194 E168.61405
G1 X40.7 Y41 E172.43065
G1 X40.7 Y40.7 E172.44063
G1 X41 Y40.7 E172.45061
G1 X194 Y40.7 E176.26721
G1 X194.3 Y40.7 E176.27719
G1 X194.3 Y41 E176.28716
G0 F2618.2 X194.3 Y41.2
G1 F1500 E170.78716
G0 F2618.2 X194.2 Y41.2
G0 X194.286 Y39.835
G0 X194.286 Y27.865
G0 X194.286 Y27
G0 X208.07 Y26.93
G0 X208 Y27
G1 F1500 E176.28716
G1 F1200 X27 Y27 E182.30725
G1 X27 Y208 E188.32733
G1 X208 Y208 E194.34742
G1 X208 Y27 E200.3675
G0 F2618.2 X207.8 Y27
G0 X208.3 Y27
G1 F1200 X208.3 Y208 E204.88257
G1 X208.3 Y208.3 E204.89254
G1 X208 Y208.3 E204.90252
G1 X27 Y208.3 E209.41758
G1 X26.7 Y208.3 E209.42756
G1 X26.7 Y208 E209.43754
G1 X26.7 Y27 E213.9526
G1 X26.7 Y26.7 E213.96258
G1 X27 Y26.7 E213.97256
G1 X208 Y26.7 E218.48762
G1 X208.3 Y26.7 E218.4976
G1 X208.3 Y27 E218.50758
G0 F2618.2 X208.3 Y27.2
G1 F1500 E213.00758
G0 F2618.2 X208.2 Y27.2
G0 X208.286 Y25.835
G0 X208.286 Y13.865
G0 X208.286 Y13
G0 X222.07 Y12.93
G0 X222 Y13
G1 F1500 E218.50758
G1 F1200 X13 Y13 E225.45895
G1 X13 Y222 E232.41032
G1 X222 Y222 E239.36168
G1 X222 Y13 E246.31305
G0 F2618.2 X221.8 Y13
G0 X222.3 Y13
G1 F1200 X222.3 Y222 E251.52658
G1 X222.3 Y222.3 E251.53656
G1 X222 Y222.3 E251.54653
G1 X13 Y222.3 E256.76006
G1 X12.7 Y222.3 E256.77004
G1 X12.7 Y222 E256.78002
G1 X12.7 Y13 E261.99354
G1 X12.7 Y12.7 E262.00352
G1 X13 Y12.7 E262.0135
G1 X222 Y12.7 E267.22703
G1 X222.3 Y12.7 E267.237
G1 X222.3 Y13 E267.24698
G0 F2618.2 X222.3 Y13.2
G1 F1500 E261.74698
;MESH:NONMESH
G0 F600 X222.3 Y13.2 Z0.4
G0 F2618.2 X222.2 Y13.2
G0 X222 Y127.433
G0 X221.135 Y127.433
G0 X128.665 Y127.433
G0 X127.78 Y127.433
G0 X127.363 Y127.363
;TIME_ELAPSED:469.403119
;LAYER:1
M106 S255
;TYPE:WALL-OUTER
;MESH:CHEP_bed_level_print_ender_3_max.stl
G1 F1500 E267.24698
G1 F1710 X127.363 Y107.637 E267.90307
G1 X107.637 Y107.637 E268.55916
G1 X107.637 Y127.363 E269.21525
G1 X127.363 Y127.363 E269.87134
G0 F4909.1 X127.363 Y127.163
G0 X127.8 Y127.8
G1 F1710 X107.2 Y127.8 E270.5565
G1 X107.2 Y107.2 E271.24166
G1 X127.8 Y107.2 E271.92682
G1 X127.8 Y127.8 E272.61197
G0 F4909.1 X127.6 Y127.8
G0 X127.561 Y127.561
;TYPE:SKIN
G1 F1440 X127.58 Y127.259 E272.61316
G1 X127.58 Y107.46 E272.69051
G1 X126.209 Y107.418 E272.69586
G1 X107.541 Y107.418 E272.7688
G1 X107.418 Y107.542 E272.76948
G1 X107.418 Y127.341 E272.84683
G1 X107.46 Y127.58 E272.84777
G1 X127.259 Y127.58 E272.92512
G0 F4909.1 X127.283 Y127.4
G1 F1500 E267.42512
G0 F4909.1 X127.283 Y127.463
G0 X127.786 Y107.214
G0 X127.786 Y106.335
G0 X127.786 Y97.865
G0 X127.786 Y97
G0 X138.07 Y96.93
G0 X138 Y97
;TYPE:WALL-OUTER
G1 F1500 E272.92512
G1 F1710 X97 Y97 E274.28879
G1 X97 Y138 E275.65245
G1 X138 Y138 E277.01612
G1 X138 Y97 E278.37979
G0 F4909.1 X137.8 Y97
G0 X138.3 Y97
G1 F1710 X138.3 Y138 E279.40254
G1 X138.3 Y138.3 E279.41251
G1 X138 Y138.3 E279.42249
G1 X97 Y138.3 E280.44524
G1 X96.7 Y138.3 E280.45522
G1 X96.7 Y138 E280.4652
G1 X96.7 Y97 E281.48795
G1 X96.7 Y96.7 E281.49792
G1 X97 Y96.7 E281.5079
G1 X138 Y96.7 E282.53065
G1 X138.3 Y96.7 E282.54063
G1 X138.3 Y97 E282.55061
G0 F4909.1 X138.3 Y97.2
G1 F1500 E277.05061
G0 F4909.1 X138.2 Y97.2
G0 X138.286 Y95.835
G0 X138.286 Y83.865
G0 X138.286 Y83
G0 X152.07 Y82.93
G0 X152 Y83
G1 F1500 E282.55061
G1 F1710 X83 Y83 E284.84556
G1 X83 Y152 E287.14051
G1 X152 Y152 E289.43545
G1 X152 Y83 E291.7304
G0 F4909.1 X151.8 Y83
G0 X152.3 Y83
G1 F1710 X152.3 Y152 E293.45162
G1 X152.3 Y152.3 E293.46159
G1 X152 Y152.3 E293.47157
G1 X83 Y152.3 E295.19278
G1 X82.7 Y152.3 E295.20276
G1 X82.7 Y152 E295.21274
G1 X82.7 Y83 E296.93395
G1 X82.7 Y82.7 E296.94393
G1 X83 Y82.7 E296.95391
G1 X152 Y82.7 E298.67512
G1 X152.3 Y82.7 E298.6851
G1 X152.3 Y83 E298.69508
G0 F4909.1 X152.3 Y83.2
G1 F1500 E293.19508
G0 F4909.1 X152.2 Y83.2
G0 X152.286 Y81.835
G0 X152.286 Y69.865
G0 X152.286 Y69
G0 X166.07 Y68.93
G0 X166 Y69
G1 F1500 E298.69508
G1 F1710 X69 Y69 E301.92131
G1 X69 Y166 E305.14754
G1 X166 Y166 E308.37378
G1 X166 Y69 E311.60001
G0 F4909.1 X165.8 Y69
G0 X166.3 Y69
G1 F1710 X166.3 Y166 E314.01968
G1 X166.3 Y166.3 E314.02966
G1 X166 Y166.3 E314.03964
G1 X69 Y166.3 E316.45931
G1 X68.7 Y166.3 E316.46929
G1 X68.7 Y166 E316.47927
G1 X68.7 Y69 E318.89895
G1 X68.7 Y68.7 E318.90892
G1 X69 Y68.7 E318.9189
G1 X166 Y68.7 E321.33858
G1 X166.3 Y68.7 E321.34855
G1 X166.3 Y69 E321.35853
G0 F4909.1 X166.3 Y69.2
G1 F1500 E315.85853
G0 F4909.1 X166.2 Y69.2
G0 X166.286 Y67.835
G0 X166.286 Y55.865
G0 X166.286 Y55
G0 X180.07 Y54.93
G0 X180 Y55
G1 F1500 E321.35853
G1 F1710 X55 Y55 E325.51605
G1 X55 Y180 E329.67357
G1 X180 Y180 E333.83108
G1 X180 Y55 E337.9886
G0 F4909.1 X179.8 Y55
G0 X180.3 Y55
G1 F1710 X180.3 Y180 E341.10674
G1 X180.3 Y180.3 E341.11672
G1 X180 Y180.3 E341.12669
G1 X55 Y180.3 E344.24483
G1 X54.7 Y180.3 E344.25481
G1 X54.7 Y180 E344.26479
G1 X54.7 Y55 E347.38293
G1 X54.7 Y54.7 E347.3929
G1 X55 Y54.7 E347.40288
G1 X180 Y54.7 E350.52102
G1 X180.3 Y54.7 E350.531
G1 X180.3 Y55 E350.54097
G0 F4909.1 X180.3 Y55.2
G1 F1500 E345.04097
G0 F4909.1 X180.2 Y55.2
G0 X180.286 Y53.835
G0 X180.286 Y41.865
G0 X180.286 Y41
G0 X194.07 Y40.93
G0 X194 Y41
G1 F1500 E350.54097
G1 F1710 X41 Y41 E355.62978
G1 X41 Y194 E360.71858
G1 X194 Y194 E365.80738
G1 X194 Y41 E370.89618
G0 F4909.1 X193.8 Y41
G0 X194.3 Y41
G1 F1710 X194.3 Y194 E374.71278
G1 X194.3 Y194.3 E374.72276
G1 X194 Y194.3 E374.73273
G1 X41 Y194.3 E378.54933
G1 X40.7 Y194.3 E378.55931
G1 X40.7 Y194 E378.56929
G1 X40.7 Y41 E382.38589
G1 X40.7 Y40.7 E382.39587
G1 X41 Y40.7 E382.40585
G1 X194 Y40.7 E386.22245
G1 X194.3 Y40.7 E386.23243
G1 X194.3 Y41 E386.2424
G0 F4909.1 X194.3 Y41.2
G1 F1500 E380.7424
G0 F4909.1 X194.2 Y41.2
G0 X194.286 Y39.835
G0 X194.286 Y27.865
G0 X194.286 Y27
G0 X208.07 Y26.93
G0 X208 Y27
G1 F1500 E386.2424
G1 F1710 X27 Y27 E392.26249
G1 X27 Y208 E398.28257
G1 X208 Y208 E404.30266
G1 X208 Y27 E410.32274
G0 F4909.1 X207.8 Y27
G0 X208.3 Y27
G1 F1710 X208.3 Y208 E414.83781
G1 X208.3 Y208.3 E414.84778
G1 X208 Y208.3 E414.85776
G1 X27 Y208.3 E419.37282
G1 X26.7 Y208.3 E419.3828
G1 X26.7 Y208 E419.39278
G1 X26.7 Y27 E423.90784
G1 X26.7 Y26.7 E423.91782
G1 X27 Y26.7 E423.9278
G1 X208 Y26.7 E428.44286
G1 X208.3 Y26.7 E428.45284
G1 X208.3 Y27 E428.46282
G0 F4909.1 X208.3 Y27.2
G1 F1500 E422.96282
G0 F4909.1 X208.2 Y27.2
G0 X208.286 Y25.835
G0 X208.286 Y13.865
G0 X208.286 Y13
G0 X222.07 Y12.93
G0 X222 Y13
G1 F1500 E428.46282
G1 F1710 X13 Y13 E435.41419
G1 X13 Y222 E442.36556
G1 X222 Y222 E449.31692
G1 X222 Y13 E456.26829
G0 F4909.1 X221.8 Y13
G0 X222.3 Y13
G1 F1710 X222.3 Y222 E461.48182
G1 X222.3 Y222.3 E461.4918
G1 X222 Y222.3 E461.50177
G1 X13 Y222.3 E466.7153
G1 X12.7 Y222.3 E466.72528
G1 X12.7 Y222 E466.73526
G1 X12.7 Y13 E471.94878
G1 X12.7 Y12.7 E471.95876
G1 X13 Y12.7 E471.96874
G1 X222 Y12.7 E477.18227
G1 X222.3 Y12.7 E477.19224
G1 X222.3 Y13 E477.20222
G0 F4909.1 X222.3 Y13.2
G1 F1500 E471.70222
;MESH:NONMESH
G0 F600 X222.3 Y13.2 Z0.6
G0 F4909.1 X222.2 Y13.2
G0 X222 Y127.433
G0 X221.135 Y127.433
G0 X128.665 Y127.433
G0 X127.78 Y127.433
G0 X127.363 Y127.363
;TIME_ELAPSED:734.126017
;LAYER:2
;TYPE:WALL-OUTER
;MESH:CHEP_bed_level_print_ender_3_max.stl
G1 F1500 E477.20222
G1 F2220 X127.363 Y107.637 E477.85831
G1 X107.637 Y107.637 E478.5144
G1 X107.637 Y127.363 E479.17049
G1 X127.363 Y127.363 E479.82658
G0 F7200 X127.363 Y127.163
G0 X127.8 Y127.8
G1 F2220 X107.2 Y127.8 E480.51174
G1 X107.2 Y107.2 E481.1969
G1 X127.8 Y107.2 E481.88206
G1 X127.8 Y127.8 E482.56721
G0 F7200 X127.6 Y127.8
G0 X127.58 Y127.58
;TYPE:SKIN
G1 F1680 X127.58 Y127.297 E482.56832
G1 X127.58 Y107.498 E482.64557
G1 X127.217 Y107.418 E482.64702
G1 X107.417 Y107.417 E482.72427
G1 X107.418 Y113.923 E482.74966
G1 X107.418 Y127.499 E482.80262
G1 X107.781 Y127.58 E482.80408
G1 X127.297 Y127.58 E482.88022
G0 F7200 X127.321 Y127.763
G1 F1500 E477.38022
G0 F7200 X127.321 Y127.7
G0 X127.786 Y107.214
G0 X127.786 Y106.335
G0 X127.786 Y97.865
G0 X127.786 Y97
G0 X138.07 Y96.93
G0 X138 Y97
;TYPE:WALL-OUTER
G1 F1500 E482.88022
G1 F2220 X97 Y97 E484.24389
G1 X97 Y138 E485.60755
G1 X138 Y138 E486.97122
G1 X138 Y97 E488.33488
G0 F7200 X137.8 Y97
G0 X138.3 Y97
G1 F2220 X138.3 Y138 E489.35763
G1 X138.3 Y138.3 E489.36761
G1 X138 Y138.3 E489.37759
G1 X97 Y138.3 E490.40034
G1 X96.7 Y138.3 E490.41032
G1 X96.7 Y138 E490.42029
G1 X96.7 Y97 E491.44304
G1 X96.7 Y96.7 E491.45302
G1 X97 Y96.7 E491.463
G1 X138 Y96.7 E492.48575
G1 X138.3 Y96.7 E492.49573
G1 X138.3 Y97 E492.5057
G0 F7200 X138.3 Y97.2
G1 F1500 E487.0057
G0 F7200 X138.2 Y97.2
G0 X138.286 Y95.835
G0 X138.286 Y83.865
G0 X138.286 Y83
G0 X152.07 Y82.93
G0 X152 Y83
G1 F1500 E492.5057
G1 F2220 X83 Y83 E494.80065
G1 X83 Y152 E497.0956
G1 X152 Y152 E499.39055
G1 X152 Y83 E501.6855
G0 F7200 X151.8 Y83
