;FLAVOR:Marlin
;TIME:1082
;Filament used: 0.858112m, 0m
;Layer height: 0.18
;MINX:87.389
;MINY:85.969
;MINZ:0.3
;MAXX:147.604
;MAXY:147.447
;MAXZ:1.56
;POSTPROCESSED
;Generated with Cura_SteamEngine 4.8.0
T0
M140 S60
M105
M190 S60
M104 S200
M105
M109 S200
M82 ;absolute extrusion mode
M201 X500.00 Y500.00 Z100.00 E5000.00 	;Setup machine max acceleration
M203 X500.00 Y500.00 Z10.00 E50.00 	;Setup machine max feedrate
M204 P500.00 R1000.00 T500.00 		;Setup Print/Retract/Travel acceleration
M205 X8.00 Y8.00 Z0.40 E5.00 		;Setup Jerk
M220 S100 				;Reset Feedrate
M221 S100 				;Reset Flowrate
G28				;Home the Machine
#G29 				;Bed Level
G92 E0
M300 P150 S587
G92 E0
G1 F1500 E-6.5
;LAYER_COUNT:8
;LAYER:0
M107
G0 F2160 X94.607 Y88.304 Z0.3
;TYPE:SKIRT
G1 F1500 E0
G1 F900 X95.024 Y87.871 E0.02999
G1 X95.518 Y87.443 E0.0626
G1 X96.01 Y87.09 E0.09281
G1 X96.571 Y86.76 E0.12528
G1 X97.056 Y86.532 E0.15202
G1 X97.19 Y86.473 E0.15932
G1 X97.7 Y86.293 E0.18631
G1 X98.364 Y86.121 E0.22053
G1 X98.906 Y86.029 E0.24795
G1 X99.557 Y85.975 E0.28054
G1 X99.996 Y85.969 E0.30245
G1 X100.719 Y86.021 E0.33861
G1 X101.247 Y86.107 E0.3653
G1 X102.091 Y86.33 E0.40885
G1 X102.797 Y86.603 E0.44662
G1 X103.16 Y86.779 E0.46674
G1 X103.598 Y87.031 E0.49195
G1 X103.903 Y87.24 E0.5104
G1 X104.959 Y88.023 E0.57599
G1 X105.661 Y88.56 E0.62008
G1 X107.868 Y90.153 E0.75588
G1 X110.127 Y91.688 E0.89214
G1 X112.42 Y93.153 E1.02789
G1 X114.778 Y94.567 E1.16506
G1 X117.138 Y95.894 E1.30014
G1 X119.559 Y97.165 E1.43655
G1 X121.999 Y98.36 E1.5721
G1 X124.481 Y99.489 E1.70814
G1 X126.992 Y100.548 E1.8441
G1 X129.575 Y101.551 E1.98234
G1 X132.106 Y102.452 E2.11637
G1 X134.689 Y103.29 E2.25185
G1 X137.325 Y104.064 E2.38891
G1 X138.19 Y104.291 E2.43353
G1 X138.293 Y104.326 E2.43896
G1 X138.944 Y104.503 E2.47262
G1 X139.544 Y104.681 E2.50384
G1 X140.12 Y104.909 E2.53475
G1 X140.31 Y104.993 E2.54511
G1 X142.622 Y105.979 E2.67051
G1 X143.22 Y106.258 E2.70343
G1 X143.758 Y106.557 E2.73414
G1 X144.221 Y106.864 E2.76185
G1 X144.741 Y107.269 E2.79474
G1 X145.136 Y107.626 E2.8213
G1 X145.563 Y108.081 E2.85243
G1 X145.995 Y108.614 E2.88666
G1 X146.337 Y109.108 E2.91663
G1 X146.602 Y109.536 E2.94175
G1 X146.843 Y110.015 E2.9685
G1 X147.068 Y110.723 E3.00556
G1 X147.306 Y111.703 E3.05588
G1 X147.356 Y111.943 E3.06811
G1 X147.501 Y112.793 E3.11113
G1 X147.585 Y113.497 E3.1465
G1 X147.604 Y113.919 E3.16757
G1 X147.603 Y114.656 E3.20434
G1 X147.572 Y115.216 E3.23232
G1 X147.495 Y115.923 E3.2678
G1 X147.428 Y116.49 E3.29629
G1 X147.333 Y117.197 E3.33188
G1 X147.215 Y117.789 E3.36199
G1 X146.652 Y120.52 E3.50111
G1 X146.179 Y123.196 E3.63669
G1 X145.783 Y125.878 E3.77194
G1 X145.452 Y128.659 E3.91167
G1 X145.37 Y129.283 E3.94306
G1 X145.119 Y130.726 E4.01614
G1 X145.095 Y130.851 E4.02249
G1 X144.921 Y131.673 E4.06441
G1 X144.772 Y132.327 E4.09787
G1 X144.614 Y132.839 E4.1246
G1 X144.382 Y133.323 E4.15138
G1 X144.081 Y133.766 E4.1781
G1 X143.717 Y134.16 E4.20486
G1 X143.298 Y134.496 E4.23166
G1 X142.895 Y134.735 E4.25503
G1 X141.814 Y135.285 E4.31554
G1 X139.375 Y136.568 E4.45303
G1 X139.078 Y136.734 E4.47001
G1 X137.969 Y137.336 E4.53296
G1 X137.374 Y137.611 E4.56566
G1 X136.77 Y137.858 E4.59822
G1 X136.54 Y137.942 E4.61044
G1 X136.06 Y138.107 E4.63576
G1 X135.489 Y138.279 E4.66551
G1 X134.632 Y138.49 E4.70954
G1 X134.083 Y138.593 E4.73741
G1 X132.631 Y138.814 E4.81069
G1 X129.898 Y139.266 E4.94889
G1 X127.207 Y139.791 E5.08567
G1 X124.552 Y140.386 E5.22142
G1 X121.894 Y141.062 E5.35825
G1 X119.295 Y141.802 E5.49307
G1 X116.693 Y142.623 E5.62919
G1 X114.116 Y143.517 E5.76527
G1 X111.561 Y144.484 E5.90157
G1 X109.062 Y145.512 E6.03638
G1 X106.052 Y146.85 E6.20072
G1 X105.576 Y147.039 E6.22627
G1 X105.064 Y147.196 E6.25299
G1 X104.51 Y147.321 E6.28132
G1 X103.977 Y147.402 E6.30822
G1 X103.675 Y147.42 E6.32331
G1 X102.303 Y147.447 E6.39177
G1 X98.039 Y147.447 E6.6045
G1 X97.413 Y147.438 E6.63574
G1 X96.752 Y147.395 E6.66879
G1 X96.504 Y147.372 E6.68121
G1 X95.978 Y147.278 E6.70787
G1 X95.489 Y147.151 E6.73308
G1 X94.868 Y146.934 E6.76589
G1 X94.365 Y146.702 E6.79353
G1 X93.885 Y146.427 E6.82113
G1 X93.479 Y146.151 E6.84562
G1 X92.993 Y145.754 E6.87693
G1 X92.623 Y145.394 E6.90268
G1 X92.144 Y144.821 E6.93994
G1 X91.813 Y144.328 E6.96957
G1 X91.559 Y143.883 E6.99513
G1 X91.325 Y143.345 E7.0244
G1 X91.203 Y142.996 E7.04285
G1 X91.047 Y142.385 E7.07431
G1 X90.954 Y141.7 E7.1088
G1 X90.933 Y141.082 E7.13965
G1 X90.986 Y140.063 E7.19055
G1 X91.086 Y138.593 E7.26406
G1 X91.193 Y135.906 E7.39822
G1 X91.226 Y133.141 E7.53618
G1 X91.18 Y130.446 E7.67065
G1 X91.057 Y127.717 E7.80694
G1 X90.857 Y124.993 E7.94321
G1 X90.583 Y122.3 E8.07826
G1 X90.182 Y119.264 E8.23104
G1 X87.528 Y101.319 E9.13606
G1 X87.441 Y100.664 E9.16902
G1 X87.398 Y100.102 E9.19714
G1 X87.389 Y99.719 E9.21625
G1 X87.413 Y99.209 E9.24173
G1 X87.512 Y98.531 E9.27591
G1 X87.665 Y97.919 E9.30738
G1 X87.901 Y97.264 E9.34212
G1 X88.159 Y96.726 E9.37189
G1 X88.46 Y96.224 E9.40109
G1 X88.64 Y95.96 E9.41703
G1 X89.35 Y95.012 E9.47612
G1 X94.035 Y88.993 E9.85665
G1 X94.392 Y88.548 E9.88512
G1 X94.607 Y88.304 E9.90134
G0 F2160 X94.895 Y88.581
G1 F900 X95.312 Y88.148 E9.93133
G1 X95.752 Y87.768 E9.96034
G1 X96.244 Y87.415 E9.99055
G1 X96.742 Y87.122 E10.01937
G1 X97.218 Y86.898 E10.04562
G1 X97.804 Y86.679 E10.07683
G1 X98.458 Y86.51 E10.11053
G1 X98.958 Y86.426 E10.13582
G1 X99.587 Y86.374 E10.16731
G1 X99.977 Y86.369 E10.18677
G1 X100.685 Y86.42 E10.22218
G1 X101.638 Y86.612 E10.27069
G1 X102.292 Y86.825 E10.305
G1 X102.985 Y87.139 E10.34296
G1 X103.546 Y87.478 E10.37566
G1 X103.664 Y87.561 E10.38286
G1 X104.716 Y88.34 E10.44816
G1 X105.429 Y88.886 E10.49297
G1 X107.654 Y90.492 E10.62987
G1 X109.908 Y92.024 E10.76584
G1 X112.204 Y93.49 E10.90174
G1 X114.582 Y94.916 E11.04008
G1 X116.935 Y96.239 E11.17475
G1 X119.362 Y97.513 E11.31151
G1 X121.837 Y98.725 E11.449
G1 X124.34 Y99.864 E11.58619
G1 X126.841 Y100.919 E11.72161
G1 X129.413 Y101.917 E11.85925
G1 X131.984 Y102.833 E11.99542
G1 X134.59 Y103.678 E12.1321
G1 X137.216 Y104.449 E12.26864
G1 X138.088 Y104.678 E12.31362
G1 X138.183 Y104.711 E12.31864
G1 X138.832 Y104.887 E12.35218
G1 X139.418 Y105.06 E12.38267
G1 X139.964 Y105.278 E12.412
G1 X140.141 Y105.356 E12.42165
G1 X142.462 Y106.346 E12.54754
G1 X143.025 Y106.608 E12.57852
G1 X143.563 Y106.907 E12.60922
G1 X143.975 Y107.179 E12.63386
G1 X144.495 Y107.584 E12.66674
G1 X145.165 Y108.237 E12.71341
G1 X145.549 Y108.686 E12.74289
G1 X146.007 Y109.334 E12.78248
G1 X146.259 Y109.742 E12.8064
G1 X146.484 Y110.195 E12.83164
G1 X146.682 Y110.831 E12.86487
G1 X146.711 Y110.94 E12.8705
G1 X146.918 Y111.797 E12.91448
G1 X146.961 Y112.01 E12.92532
G1 X147.106 Y112.86 E12.96834
G1 X147.186 Y113.522 E13.00161
G1 X147.204 Y113.918 E13.02139
G1 X147.203 Y114.655 E13.05816
G1 X147.174 Y115.173 E13.08404
G1 X147.098 Y115.877 E13.11937
G1 X147.031 Y116.437 E13.1475
G1 X146.936 Y117.144 E13.18309
G1 X146.814 Y117.752 E13.21403
G1 X146.261 Y120.435 E13.3507
G1 X145.788 Y123.11 E13.48623
G1 X145.385 Y125.838 E13.62381
G1 X145.055 Y128.609 E13.76303
G1 X144.976 Y129.214 E13.79347
G1 X144.725 Y130.657 E13.86654
G1 X144.542 Y131.533 E13.91119
G1 X144.382 Y132.238 E13.94725
G1 X144.231 Y132.72 E13.97245
G1 X144.006 Y133.173 E13.99769
G1 X143.713 Y133.585 E14.02291
G1 X143.358 Y133.945 E14.04814
G1 X142.951 Y134.245 E14.07336
G1 X142.713 Y134.379 E14.08699
G1 X141.628 Y134.931 E14.14772
G1 X139.157 Y136.231 E14.28702
G1 X138.888 Y136.382 E14.30241
G1 X137.779 Y136.984 E14.36536
G1 X137.214 Y137.244 E14.39639
G1 X136.717 Y137.449 E14.42322
G1 X136.41 Y137.564 E14.43957
G1 X135.93 Y137.729 E14.46489
G1 X135.377 Y137.895 E14.4937
G1 X134.541 Y138.101 E14.53665
G1 X134.014 Y138.199 E14.5634
G1 X132.542 Y138.423 E14.63768
G1 X129.822 Y138.873 E14.77523
G1 X127.114 Y139.401 E14.91287
G1 X124.47 Y139.994 E15.04806
G1 X121.823 Y140.667 E15.18432
G1 X119.169 Y141.423 E15.322
G1 X116.557 Y142.246 E15.45863
G1 X113.992 Y143.136 E15.59408
G1 X111.404 Y144.116 E15.73214
G1 X108.884 Y145.153 E15.86809
G1 X105.89 Y146.485 E16.03158
G1 X104.976 Y146.806 E16.07991
G1 X104.422 Y146.931 E16.10825
G1 X103.667 Y147.02 E16.14617
G1 X102.303 Y147.047 E16.21424
G1 X98.045 Y147.047 E16.42667
G1 X97.419 Y147.038 E16.4579
G1 X96.781 Y146.996 E16.4898
G1 X96.077 Y146.891 E16.52531
G1 X95.439 Y146.72 E16.55827
G1 X94.796 Y146.463 E16.59281
G1 X94.11 Y146.096 E16.63163
G1 X93.704 Y145.82 E16.65612
G1 X93.271 Y145.468 E16.68396
G1 X92.901 Y145.108 E16.70972
G1 X92.476 Y144.598 E16.74284
G1 X92.145 Y144.105 E16.77246
G1 X91.84 Y143.546 E16.80423
G1 X91.58 Y142.864 E16.84065
G1 X91.442 Y142.321 E16.8686
G1 X91.351 Y141.652 E16.90228
G1 X91.332 Y141.103 E16.92969
G1 X91.385 Y140.09 E16.9803
G1 X91.487 Y138.594 E17.0551
G1 X91.593 Y135.926 E17.18832
G1 X91.625 Y133.173 E17.32567
G1 X91.579 Y130.421 E17.46299
G1 X91.455 Y127.668 E17.60048
G1 X91.256 Y124.963 E17.73579
G1 X90.979 Y122.241 E17.8723
G1 X90.585 Y119.261 E18.02226
G1 X87.925 Y101.266 E18.92979
G1 X87.838 Y100.611 E18.96276
G1 X87.798 Y100.092 E18.98873
G1 X87.81 Y99.257 E19.03039
G1 X87.907 Y98.594 E19.06382
G1 X88.043 Y98.05 E19.0918
G1 X88.275 Y97.407 E19.1259
G1 X88.504 Y96.929 E19.15234
G1 X88.8 Y96.434 E19.18112
G1 X88.961 Y96.199 E19.19533
G1 X89.666 Y95.258 E19.25399
G1 X94.347 Y89.244 E19.6342
G1 X94.704 Y88.799 E19.66267
G1 X94.895 Y88.581 E19.67713
G1 F1500 E13.17713
;MESH:PortaChaves.stl
G0 F2160 X96.829 Y90.2
G0 X97.736 Y91.108
G0 X98.637 Y91.875
;TYPE:WALL-INNER
G1 F1500 E19.67713
G1 F900 X99.01 Y91.566 E19.70129
G1 X99.523 Y91.386 E19.72841
G1 X99.82 Y91.359 E19.74329
G1 X100.158 Y91.384 E19.7602
G1 X100.441 Y91.457 E19.77478
G1 X100.883 Y91.714 E19.80029
G1 X101.186 Y92.063 E19.82335
G1 X106.227 Y99.279 E20.2625
G1 X106.752 Y99.439 E20.28989
G1 X107.003 Y100.144 E20.32722
G1 X109.097 Y101.527 E20.45242
G1 X110.314 Y99.725 E20.5609
G1 X110.65 Y99.406 E20.58402
G1 X111.117 Y99.227 E20.60897
G1 X111.255 Y99.316 E20.61716
G1 X111.416 Y99.516 E20.62997
G1 X111.483 Y99.879 E20.64839
G1 X111.392 Y100.54 E20.68168
G1 X110.786 Y102.755 E20.79624
G1 X110.726 Y102.976 E20.80767
G1 X110.954 Y103.004 E20.8148
G1 X113.123 Y103.27 E20.92382
G1 X113.623 Y103.453 E20.95039
G1 X114.12 Y103.926 E20.98462
G1 X115.072 Y105.042 E21.0578
G1 X116.627 Y104.169 E21.14677
G1 X116.861 Y104.095 E21.15901
G1 X117.378 Y104.076 E21.18482
G1 X117.792 Y104.206 E21.20647
G1 X118.47 Y104.649 E21.24688
G1 X119.363 Y104.724 E21.29159
G1 X120.006 Y104.868 E21.32446
G1 X120.438 Y105.129 E21.34964
G1 X120.583 Y105.279 E21.36005
G1 X120.78 Y105.584 E21.37817
G1 X121.541 Y107.041 E21.46017
G1 X121.637 Y107.225 E21.47053
G1 X121.816 Y107.121 E21.47713
G1 X123.578 Y106.099 E21.57875
G1 X124.06 Y105.951 E21.6039
G1 X124.653 Y105.947 E21.63349
G1 X125.318 Y106.084 E21.66736
G1 X125.528 Y106.209 E21.67956
G1 X126.024 Y106.82 E21.71882
G1 X127.174 Y106.996 E21.77686
G1 X127.563 Y107.136 E21.79749
G1 X127.96 Y107.464 E21.82318
G1 X128.174 Y107.876 E21.84634
G1 X128.404 Y108.971 E21.90216
G1 X129.096 Y109.604 E21.94895
G1 X129.714 Y110.391 E21.99887
G1 X130.548 Y110.594 E22.0417
G1 X132.708 Y111.28 E22.15476
G1 X133.129 Y111.4 E22.1766
G1 X134.716 Y112.061 E22.26237
G1 X135.862 Y110.601 E22.35497
G1 X136.121 Y110.334 E22.37353
G1 X136.699 Y109.906 E22.40941
G1 X137.135 Y109.733 E22.43281
G1 X137.576 Y109.726 E22.45482
G1 X138.069 Y109.909 E22.48105
G1 X138.276 Y110.037 E22.4932
G1 X139.2 Y110.871 E22.5553
G1 X140.316 Y110.918 E22.61102
G1 X140.795 Y111.068 E22.63606
G1 X141.063 Y111.223 E22.65151
G1 X141.322 Y111.435 E22.66821
G1 X141.592 Y111.729 E22.68812
G1 X141.853 Y112.1 E22.71075
G1 X141.989 Y112.626 E22.73786
G1 X142.091 Y113.089 E22.76151
G1 X142.195 Y113.786 E22.79667
G1 X142.21 Y114.471 E22.83085
G1 X142.212 Y114.593 E22.83694
G1 X142.192 Y114.771 E22.84588
G1 X142.071 Y114.761 E22.85069
G1 X140.9 Y114.656 E22.90935
G1 X140.35 Y116.416 E23.00134
G1 X140.165 Y116.713 E23.0188
G1 X139.89 Y116.851 E23.03415
G1 X139.425 Y116.866 E23.05736
G1 X138.934 Y116.759 E23.08243
G1 X138.285 Y116.663 E23.11516
G1 X137.472 Y117.005 E23.15917
G1 X137.134 Y117.083 E23.17647
G1 X135.866 Y117.226 E23.24013
G1 X135.293 Y118.367 E23.30383
G1 X133.741 Y120.567 E23.43816
G1 X133.55 Y120.838 E23.4547
G1 X133.879 Y120.879 E23.46414
G1 X136.96 Y121.266 E23.61906
G1 X137.805 Y121.456 E23.66227
G1 X138.452 Y121.702 E23.6968
G1 X138.931 Y122.084 E23.72737
G1 X139.314 Y122.624 E23.7604
G1 X139.657 Y123.412 E23.80328
G1 X139.824 Y123.981 E23.83286
G1 X139.977 Y124.671 E23.86812
G1 X140.082 Y125.357 E23.90274
G1 X140.141 Y126.004 E23.93516
G1 X140.163 Y126.814 E23.97558
G1 X140.153 Y127.222 E23.99594
G1 X140.109 Y127.87 E24.02835
G1 X140.058 Y128.341 E24.05198
G1 X139.952 Y129.047 E24.0876
G1 X139.854 Y129.523 E24.11185
G1 X136.422 Y129.052 E24.28467
G1 X136.065 Y129.002 E24.30266
G1 X135.535 Y131.148 E24.41294
G1 X135.348 Y131.757 E24.44472
G1 X135.217 Y132.151 E24.46544
G1 X135.025 Y132.617 E24.49058
G1 X134.948 Y132.774 E24.49931
G1 X134.48 Y132.95 E24.52425
G1 X134.021 Y133.092 E24.54822
G1 X133.322 Y133.249 E24.58396
G1 X131.929 Y133.125 E24.65374
G1 X131.728 Y132.993 E24.66573
G1 X131.519 Y132.773 E24.68087
G1 X131.285 Y132.44 E24.70118
G1 X131.108 Y132.098 E24.72039
G1 X130.747 Y131.192 E24.76905
G1 X126.956 Y129.878 E24.96922
G1 X125.994 Y130.202 E25.01986
G1 X125.624 Y130.272 E25.03865
G1 X124.885 Y130.276 E25.07552
G1 X124.449 Y130.223 E25.09743
G1 X123.922 Y130.119 E25.12423
G1 X123.387 Y129.982 E25.15178
G1 X123.088 Y129.855 E25.16799
G1 X122.457 Y129.566 E25.20262
G1 X121.97 Y129.314 E25.22997
G1 X121.406 Y128.985 E25.26255
G1 X120.96 Y128.691 E25.2892
G1 X120.451 Y128.316 E25.32074
G1 X120.055 Y127.988 E25.34639
G1 X119.605 Y127.569 E25.37707
G1 X118.5 Y126.441 E25.45585
G1 X116.241 Y127.413 E25.57854
G1 X116.301 Y129.391 E25.67727
G1 X116.283 Y129.821 E25.69874
G1 X116.205 Y130.471 E25.7314
G1 X116.126 Y130.883 E25.75233
G1 X115.947 Y131.528 E25.78573
G1 X115.76 Y132.002 E25.81115
G1 X115.519 Y132.466 E25.83723
G1 X115.244 Y132.886 E25.86228
G1 X114.921 Y133.279 E25.88766
G1 X114.194 Y133.93 E25.93634
G1 X113.72 Y134.237 E25.96452
G1 X113.201 Y134.507 E25.99371
G1 X112.842 Y134.664 E26.01325
G1 X112.222 Y134.865 E26.04577
G1 X111.784 Y134.97 E26.06824
G1 X111.014 Y135.083 E26.10707
G1 X110.2 Y135.129 E26.14775
G1 X109.679 Y135.12 E26.17374
G1 X109.16 Y135.083 E26.1997
G1 X108.708 Y135.03 E26.22241
G1 X108.143 Y134.936 E26.25098
G1 X107.508 Y134.805 E26.28333
G1 X106.95 Y134.665 E26.31203
G1 X106.417 Y134.51 E26.33972
G1 X105.775 Y134.304 E26.37336
G1 X105.29 Y134.129 E26.39908
G1 X104.73 Y133.904 E26.42919
G1 X102.723 Y133.063 E26.53776
G1 X102.72 Y133.061 E26.53794
G1 X102.719 Y133.06 E26.53801
G1 X102.475 Y132.96 E26.55117
G1 X102.446 Y133.223 E26.5591
G1 X102.425 Y133.408 E26.56839
G1 X102.114 Y136.186 E26.70785
G1 X102.668 Y137.054 E26.75923
G1 X104.304 Y140.893 E26.96742
G1 X104.364 Y141.232 E26.9846
G1 X104.329 Y141.398 E26.99306
G1 X104.159 Y141.68 E27.00949
G1 X103.85 Y141.924 E27.02913
G1 X103.726 Y141.975 E27.03582
G1 X103.216 Y142.047 E27.06152
G1 X97.447 Y142.047 E27.34933
G1 X97.192 Y142.024 E27.36211
G1 X96.781 Y141.876 E27.3839
G1 X96.5 Y141.64 E27.40221
G1 X96.354 Y141.364 E27.41779
G1 X96.339 Y141.037 E27.43412
G1 X96.394 Y140.829 E27.44485
G1 X97.666 Y137.219 E27.63581
G1 X98.16 Y136.313 E27.68729
G1 X97.817 Y133.995 E27.8042
G1 X97.769 Y133.667 E27.82073
G1 X98.081 Y133.778 E27.83018
G1 X98.465 Y133.916 E27.85054
G1 X98.505 Y133.921 E27.85255
G1 X99.394 Y134.047 E27.89734
G1 X100.327 Y133.98 E27.94401
