;FLAVOR:Marlin
;TIME:1455
;Filament used: 1.93467m, 0m
;Layer height: 0.28
;MINX:81.784
;MINY:78.917
;MINZ:0.26
;MAXX:153.211
;MAXY:152.064
;MAXZ:3.9
;Generated with Cura_SteamEngine 4.8.0
T0
M140 S60
M105
M190 S60
M104 S200
M105
M109 S200
M82 ;absolute extrusion mode
M201 X500.00 Y500.00 Z100.00 E5000.00 	;Setup machine max acceleration
M203 X500.00 Y500.00 Z10.00 E50.00 	;Setup machine max feedrate
M204 P500.00 R1000.00 T500.00 		;Setup Print/Retract/Travel acceleration
M205 X8.00 Y8.00 Z0.40 E5.00 		;Setup Jerk
M220 S100 				;Reset Feedrate
M221 S100 				;Reset Flowrate
G28				;Home the Machine
#G29 				;Bed Level
G92 E0
M300 P150 S587
G92 E0
G1 F1500 E-6.5
;LAYER_COUNT:14
;LAYER:0
M107
G0 F2160 X82.794 Y80.05 Z0.26
;TYPE:SKIRT
G1 F1500 E0
G1 F900 X83.191 Y79.689 E0.0232
G1 X83.637 Y79.391 E0.04639
G1 X84.122 Y79.163 E0.06957
G1 X84.636 Y79.009 E0.09277
G1 X85.306 Y78.927 E0.12195
G1 X85.728 Y78.917 E0.1402
G1 X138.932 Y78.917 E2.44065
G1 X140.093 Y78.936 E2.49085
G1 X140.352 Y78.949 E2.50207
G1 X140.877 Y78.988 E2.52483
G1 X141.665 Y79.085 E2.55916
G1 X142.496 Y79.239 E2.5957
G1 X143.263 Y79.429 E2.62987
G1 X144.051 Y79.675 E2.66556
G1 X144.809 Y79.962 E2.70061
G1 X145.104 Y80.09 E2.71451
G1 X145.602 Y80.322 E2.73826
G1 X146.266 Y80.67 E2.77068
G1 X146.558 Y80.841 E2.78531
G1 X147.103 Y81.181 E2.81308
G1 X147.675 Y81.58 E2.84324
G1 X148.317 Y82.085 E2.87856
G1 X148.585 Y82.316 E2.89386
G1 X149.033 Y82.725 E2.92008
G1 X149.509 Y83.207 E2.94937
G1 X149.708 Y83.425 E2.96214
G1 X150.139 Y83.928 E2.99078
G1 X150.567 Y84.482 E3.02105
G1 X151.022 Y85.143 E3.05574
G1 X151.446 Y85.841 E3.09106
G1 X151.612 Y86.144 E3.106
G1 X151.885 Y86.688 E3.13231
G1 X152.151 Y87.285 E3.16057
G1 X152.29 Y87.632 E3.17673
G1 X152.503 Y88.221 E3.20382
G1 X152.707 Y88.892 E3.23414
G1 X152.9 Y89.683 E3.26935
G1 X153.046 Y90.485 E3.30459
G1 X153.09 Y90.807 E3.31864
G1 X153.147 Y91.334 E3.34156
G1 X153.191 Y92.101 E3.37478
G1 X153.195 Y92.209 E3.37945
G1 X153.21 Y93.249 E3.42443
G1 X153.211 Y123.564 E4.73519
G1 X153.205 Y125.884 E4.83551
G1 X153.202 Y126.02 E4.84139
G1 X153.168 Y126.864 E4.87791
G1 X153.16 Y127.003 E4.88393
G1 X153.078 Y128.039 E4.92886
G1 X153.064 Y128.177 E4.93486
G1 X152.955 Y129.1 E4.97505
G1 X152.937 Y129.23 E4.98072
G1 X152.793 Y130.158 E5.02133
G1 X152.77 Y130.294 E5.02729
G1 X152.602 Y131.157 E5.06531
G1 X152.573 Y131.289 E5.07115
G1 X152.31 Y132.414 E5.1211
G1 X152.274 Y132.555 E5.1274
G1 X152.042 Y133.393 E5.16499
G1 X152.004 Y133.523 E5.17085
G1 X151.697 Y134.488 E5.21464
G1 X151.654 Y134.615 E5.22043
G1 X151.344 Y135.477 E5.26004
G1 X151.294 Y135.608 E5.2661
G1 X150.916 Y136.543 E5.30971
G1 X150.863 Y136.667 E5.31554
G1 X150.462 Y137.561 E5.35791
G1 X150.402 Y137.689 E5.36402
G1 X149.994 Y138.511 E5.4037
G1 X149.932 Y138.63 E5.4095
G1 X149.454 Y139.509 E5.45276
G1 X149.387 Y139.627 E5.45863
G1 X148.896 Y140.454 E5.50021
G1 X148.823 Y140.57 E5.50614
G1 X148.311 Y141.362 E5.54692
G1 X148.235 Y141.476 E5.55284
G1 X147.682 Y142.264 E5.59447
G1 X147.598 Y142.379 E5.60062
G1 X146.972 Y143.2 E5.64526
G1 X146.889 Y143.305 E5.65105
G1 X146.317 Y144 E5.68997
G1 X146.23 Y144.101 E5.69574
G1 X145.577 Y144.837 E5.73828
G1 X145.482 Y144.94 E5.74434
G1 X144.689 Y145.767 E5.79388
G1 X144.191 Y146.242 E5.82363
G1 X143.961 Y146.432 E5.83653
G1 X143.079 Y147.115 E5.88477
G1 X142.959 Y147.204 E5.89123
G1 X142.214 Y147.733 E5.93073
G1 X142.094 Y147.815 E5.93702
G1 X141.355 Y148.296 E5.97514
G1 X141.228 Y148.375 E5.98161
G1 X140.547 Y148.779 E6.01585
G1 X140.423 Y148.849 E6.022
G1 X139.595 Y149.297 E6.06271
G1 X139.461 Y149.366 E6.06923
G1 X138.705 Y149.735 E6.1056
G1 X138.569 Y149.798 E6.11208
G1 X137.737 Y150.162 E6.15135
G1 X137.602 Y150.218 E6.15767
G1 X136.83 Y150.519 E6.19349
G1 X136.696 Y150.568 E6.19966
G1 X135.905 Y150.841 E6.23584
G1 X135.759 Y150.888 E6.24248
G1 X134.843 Y151.161 E6.2838
G1 X134.702 Y151.2 E6.29013
G1 X133.915 Y151.4 E6.32524
G1 X133.776 Y151.433 E6.33142
G1 X132.947 Y151.609 E6.36806
G1 X132.798 Y151.637 E6.37462
G1 X131.879 Y151.792 E6.41491
G1 X131.734 Y151.813 E6.42125
G1 X130.901 Y151.919 E6.45756
G1 X130.755 Y151.935 E6.46391
G1 X129.916 Y152.007 E6.50032
G1 X129.772 Y152.016 E6.50655
G1 X128.874 Y152.057 E6.54542
G1 X128.722 Y152.061 E6.552
G1 X127.856 Y152.064 E6.58944
G1 X127.707 Y152.061 E6.59589
G1 X126.843 Y152.028 E6.63327
G1 X126.701 Y152.02 E6.63942
G1 X125.027 Y151.89 E6.71202
G1 X122.256 Y151.714 E6.83207
G1 X119.524 Y151.618 E6.95027
G1 X116.794 Y151.599 E7.06832
G1 X114.089 Y151.657 E7.1853
G1 X109.993 Y151.889 E7.36269
G1 X108.304 Y152.02 E7.43594
G1 X108.161 Y152.028 E7.44213
G1 X107.291 Y152.061 E7.47978
G1 X107.143 Y152.064 E7.48618
G1 X106.265 Y152.061 E7.52414
G1 X106.111 Y152.057 E7.5308
G1 X105.242 Y152.017 E7.56841
G1 X105.103 Y152.008 E7.57444
G1 X104.257 Y151.936 E7.61115
G1 X104.107 Y151.92 E7.61767
G1 X103.251 Y151.811 E7.65498
G1 X103.105 Y151.79 E7.66136
G1 X102.183 Y151.634 E7.70179
G1 X102.039 Y151.606 E7.70813
G1 X101.245 Y151.438 E7.74323
G1 X101.103 Y151.405 E7.74953
G1 X100.293 Y151.199 E7.78567
G1 X100.15 Y151.16 E7.79208
G1 X99.239 Y150.888 E7.83318
G1 X99.096 Y150.841 E7.83969
G1 X98.304 Y150.568 E7.87591
G1 X98.169 Y150.519 E7.88212
G1 X97.397 Y150.218 E7.91795
G1 X97.26 Y150.161 E7.92437
G1 X96.427 Y149.796 E7.96369
G1 X96.295 Y149.735 E7.96998
G1 X95.54 Y149.367 E8.00629
G1 X95.408 Y149.299 E8.01271
G1 X94.585 Y148.855 E8.05315
G1 X94.45 Y148.779 E8.05985
G1 X93.734 Y148.352 E8.09589
G1 X93.617 Y148.279 E8.10186
G1 X92.958 Y147.851 E8.13583
G1 X92.836 Y147.768 E8.14221
G1 X92.044 Y147.206 E8.1842
G1 X91.923 Y147.116 E8.19072
G1 X91.058 Y146.446 E8.23803
G1 X90.615 Y146.065 E8.26329
G1 X90.406 Y145.864 E8.27583
G1 X89.558 Y144.982 E8.32874
G1 X89.469 Y144.886 E8.3344
G1 X88.812 Y144.151 E8.37702
G1 X88.724 Y144.049 E8.38285
G1 X88.167 Y143.377 E8.42059
G1 X88.086 Y143.275 E8.42622
G1 X87.506 Y142.521 E8.46735
G1 X87.423 Y142.409 E8.47338
G1 X86.878 Y141.641 E8.51409
G1 X86.805 Y141.534 E8.5197
G1 X86.273 Y140.724 E8.5616
G1 X86.202 Y140.612 E8.56733
G1 X85.742 Y139.852 E8.60574
G1 X85.675 Y139.737 E8.6115
G1 X85.211 Y138.902 E8.6528
G1 X85.149 Y138.785 E8.65853
G1 X84.707 Y137.916 E8.70068
G1 X84.649 Y137.795 E8.70648
G1 X84.278 Y136.993 E8.74469
G1 X84.223 Y136.87 E8.75052
G1 X83.846 Y135.968 E8.79279
G1 X83.799 Y135.849 E8.79832
G1 X83.486 Y135.018 E8.83671
G1 X83.441 Y134.892 E8.8425
G1 X83.137 Y133.984 E8.8839
G1 X83.096 Y133.854 E8.88979
G1 X82.824 Y132.926 E8.93161
G1 X82.571 Y131.935 E8.97583
G1 X82.54 Y131.803 E8.98169
G1 X82.329 Y130.817 E9.02529
G1 X82.303 Y130.685 E9.03111
G1 X82.15 Y129.811 E9.06947
G1 X82.13 Y129.686 E9.07495
G1 X82.001 Y128.758 E9.11546
G1 X81.986 Y128.628 E9.12112
G1 X81.885 Y127.64 E9.16406
G1 X81.873 Y127.502 E9.17005
G1 X81.8 Y126.354 E9.21979
G1 X81.785 Y125.795 E9.24396
G1 X81.784 Y125.683 E9.24881
G1 X81.794 Y124.577 E9.29663
G1 X81.798 Y123.714 E9.33395
G1 X81.798 Y83.168 E11.08708
G1 X81.807 Y82.479 E11.11687
G1 X81.854 Y81.945 E11.14005
G1 X81.98 Y81.423 E11.16327
G1 X82.182 Y80.927 E11.18643
G1 X82.455 Y80.465 E11.20963
G1 X82.794 Y80.05 E11.2328
G0 F2160 X83.186 Y80.222
G1 F900 X83.577 Y79.901 E11.25467
G1 X84.013 Y79.645 E11.27654
G1 X84.484 Y79.462 E11.29838
G1 X84.978 Y79.355 E11.32024
G1 X85.638 Y79.318 E11.34882
G1 X138.926 Y79.317 E13.6529
G1 X139.99 Y79.333 E13.69891
G1 X140.322 Y79.348 E13.71328
G1 X140.847 Y79.387 E13.73604
G1 X141.611 Y79.482 E13.76933
G1 X142.419 Y79.631 E13.80485
G1 X143.161 Y79.815 E13.83791
G1 X143.927 Y80.055 E13.87262
G1 X144.662 Y80.334 E13.90661
G1 X144.935 Y80.452 E13.91947
G1 X145.433 Y80.684 E13.94322
G1 X146.076 Y81.021 E13.97461
G1 X146.348 Y81.181 E13.98826
G1 X146.881 Y81.513 E14.01541
G1 X147.443 Y81.906 E14.04506
G1 X148.067 Y82.397 E14.07939
G1 X148.316 Y82.612 E14.09362
G1 X148.755 Y83.013 E14.11932
G1 X149.222 Y83.486 E14.14806
G1 X149.404 Y83.685 E14.15972
G1 X149.83 Y84.182 E14.18803
G1 X150.249 Y84.723 E14.21761
G1 X150.69 Y85.365 E14.25129
G1 X151.101 Y86.043 E14.28557
G1 X151.255 Y86.324 E14.29943
G1 X151.523 Y86.858 E14.32526
G1 X151.784 Y87.444 E14.353
G1 X151.914 Y87.768 E14.36809
G1 X152.124 Y88.349 E14.39481
G1 X152.323 Y89.005 E14.42445
G1 X152.51 Y89.773 E14.45862
G1 X152.651 Y90.551 E14.49281
G1 X152.692 Y90.85 E14.50586
G1 X152.761 Y91.504 E14.53429
G1 X152.792 Y92.119 E14.56092
G1 X152.81 Y93.2 E14.60767
G1 X152.811 Y123.563 E15.92051
G1 X152.805 Y125.883 E16.02082
G1 X152.802 Y126.004 E16.02605
G1 X152.768 Y126.848 E16.06258
G1 X152.761 Y126.971 E16.0679
G1 X152.679 Y128.007 E16.11284
G1 X152.667 Y128.13 E16.11818
G1 X152.558 Y129.053 E16.15837
G1 X152.542 Y129.169 E16.16343
G1 X152.398 Y130.097 E16.20404
G1 X152.377 Y130.217 E16.2093
G1 X152.209 Y131.08 E16.24732
G1 X152.184 Y131.197 E16.25249
G1 X151.921 Y132.322 E16.30245
G1 X151.889 Y132.448 E16.30807
G1 X151.657 Y133.286 E16.34566
G1 X151.622 Y133.402 E16.3509
G1 X151.315 Y134.367 E16.39469
G1 X151.277 Y134.48 E16.39984
G1 X150.967 Y135.342 E16.43945
G1 X150.923 Y135.458 E16.44482
G1 X150.545 Y136.393 E16.48842
G1 X150.498 Y136.504 E16.49363
G1 X150.097 Y137.398 E16.536
G1 X150.043 Y137.511 E16.54141
G1 X149.635 Y138.333 E16.58109
G1 X149.58 Y138.439 E16.58626
G1 X149.102 Y139.318 E16.62952
G1 X149.043 Y139.423 E16.63473
G1 X148.552 Y140.25 E16.67631
G1 X147.975 Y141.145 E16.72236
G1 X147.907 Y141.246 E16.72762
G1 X147.354 Y142.034 E16.76924
G1 X147.28 Y142.136 E16.77469
G1 X146.654 Y142.957 E16.81933
G1 X146.58 Y143.051 E16.82451
G1 X146.008 Y143.746 E16.86343
G1 X145.931 Y143.836 E16.86855
G1 X145.278 Y144.572 E16.91109
G1 X145.194 Y144.663 E16.91644
G1 X144.401 Y145.49 E16.96599
G1 X143.933 Y145.937 E16.99397
G1 X143.716 Y146.116 E17.00613
G1 X142.834 Y146.799 E17.05436
G1 X142.728 Y146.878 E17.06008
G1 X141.983 Y147.407 E17.09959
G1 X141.876 Y147.48 E17.10519
G1 X141.137 Y147.961 E17.14331
G1 X141.024 Y148.031 E17.14906
G1 X140.343 Y148.435 E17.1833
G1 X140.233 Y148.497 E17.18876
G1 X139.405 Y148.945 E17.22946
G1 X139.286 Y149.007 E17.23527
G1 X138.53 Y149.376 E17.27164
G1 X138.409 Y149.432 E17.2774
G1 X137.577 Y149.796 E17.31667
G1 X137.456 Y149.845 E17.32232
G1 X136.684 Y150.146 E17.35814
G1 X136.566 Y150.19 E17.36359
G1 X135.775 Y150.463 E17.39977
G1 X135.645 Y150.505 E17.40568
G1 X134.729 Y150.778 E17.447
G1 X134.603 Y150.812 E17.45265
G1 X133.816 Y151.012 E17.48776
G1 X133.693 Y151.041 E17.49322
G1 X132.864 Y151.217 E17.52986
G1 X132.731 Y151.242 E17.53572
G1 X131.812 Y151.397 E17.57601
G1 X131.684 Y151.416 E17.58161
G1 X130.851 Y151.522 E17.61792
G1 X130.721 Y151.536 E17.62357
G1 X129.882 Y151.608 E17.65998
G1 X129.754 Y151.617 E17.66553
G1 X128.856 Y151.658 E17.7044
G1 X128.721 Y151.661 E17.71023
G1 X127.855 Y151.664 E17.74768
G1 X127.722 Y151.662 E17.75343
G1 X126.858 Y151.629 E17.79081
G1 X126.732 Y151.621 E17.79627
G1 X125.052 Y151.491 E17.86913
G1 X122.259 Y151.314 E17.99014
G1 X119.54 Y151.218 E18.10778
G1 X116.789 Y151.199 E18.22673
G1 X114.087 Y151.257 E18.34358
G1 X109.938 Y151.491 E18.52326
G1 X108.273 Y151.621 E18.59547
G1 X108.146 Y151.629 E18.60098
G1 X107.276 Y151.662 E18.63862
G1 X107.144 Y151.664 E18.64433
G1 X106.266 Y151.661 E18.68229
G1 X106.13 Y151.658 E18.68817
G1 X105.261 Y151.618 E18.72579
G1 X104.291 Y151.537 E18.76787
G1 X104.158 Y151.523 E18.77366
G1 X103.302 Y151.414 E18.81097
G1 X103.172 Y151.395 E18.81665
G1 X102.25 Y151.239 E18.85708
G1 X102.122 Y151.215 E18.86271
G1 X101.328 Y151.047 E18.8978
G1 X101.201 Y151.017 E18.90344
G1 X100.391 Y150.811 E18.93958
G1 X100.265 Y150.776 E18.94524
G1 X99.354 Y150.504 E18.98635
G1 X99.226 Y150.463 E18.99216
G1 X98.434 Y150.19 E19.02838
G1 X98.315 Y150.146 E19.03386
G1 X97.543 Y149.845 E19.06969
G1 X97.421 Y149.795 E19.07539
G1 X96.588 Y149.43 E19.11472
G1 X96.47 Y149.375 E19.12035
G1 X95.715 Y149.007 E19.15666
G1 X95.598 Y148.947 E19.16235
G1 X94.775 Y148.503 E19.20278
G1 X94.655 Y148.435 E19.20874
G1 X93.939 Y148.008 E19.24479
G1 X93.835 Y147.944 E19.25007
G1 X93.176 Y147.516 E19.28405
G1 X93.067 Y147.442 E19.28974
G1 X92.275 Y146.88 E19.33173
G1 X92.167 Y146.8 E19.33754
G1 X91.302 Y146.13 E19.38485
G1 X90.88 Y145.765 E19.40898
G1 X90.694 Y145.587 E19.42011
G1 X89.846 Y144.705 E19.47301
G1 X89.767 Y144.62 E19.47803
G1 X89.11 Y143.885 E19.52065
G1 X89.032 Y143.794 E19.52584
G1 X88.475 Y143.122 E19.56358
G1 X87.823 Y142.277 E19.60972
G1 X87.749 Y142.178 E19.61507
G1 X87.204 Y141.41 E19.65579
G1 X87.139 Y141.315 E19.66076
G1 X86.607 Y140.505 E19.70267
G1 X86.544 Y140.405 E19.70778
G1 X86.084 Y139.645 E19.74619
G1 X85.561 Y138.707 E19.79262
G1 X85.506 Y138.604 E19.79767
G1 X85.064 Y137.735 E19.83983
G1 X85.012 Y137.628 E19.84497
G1 X84.641 Y136.826 E19.88318
G1 X84.593 Y136.716 E19.88837
G1 X84.173 Y135.708 E19.93558
G1 X83.86 Y134.877 E19.97398
G1 X83.517 Y133.857 E20.02051
G1 X83.48 Y133.741 E20.02577
G1 X83.208 Y132.813 E20.06759
G1 X83.177 Y132.7 E20.07265
G1 X82.958 Y131.837 E20.11115
G1 X82.931 Y131.72 E20.11634
G1 X82.72 Y130.734 E20.15994
G1 X82.697 Y130.616 E20.16514
G1 X82.526 Y129.631 E20.20837
G1 X82.397 Y128.703 E20.24888
G1 X82.283 Y127.599 E20.29686
G1 X82.272 Y127.477 E20.30216
G1 X82.199 Y126.329 E20.3519
G1 X82.185 Y125.786 E20.37538
G1 X82.184 Y125.687 E20.37967
G1 X82.194 Y124.581 E20.42749
G1 X82.198 Y123.715 E20.46493
G1 X82.198 Y83.173 E22.2179
G1 X82.207 Y82.484 E22.24769
G1 X82.254 Y81.981 E22.26953
G1 X82.379 Y81.491 E22.2914
G1 X82.58 Y81.027 E22.31326
G1 X82.851 Y80.6 E22.33513
G1 X83.186 Y80.222 E22.35697
G1 F1500 E15.85697
;MESH:Heart.stl
G0 F2160 X86.012 Y81.852
G0 X86.012 Y83.131
G0 X95.599 Y113.268
;TYPE:WALL-INNER
G1 F1500 E22.35697
G1 F900 X93.575 Y116.891 E22.53641
G1 X93.428 Y117.154 E22.54944
G1 X93.472 Y117.154 E22.55134
G1 X93.774 Y117.154 E22.55939
G1 X117.3 Y117.154 E23.57662
G1 X117.3 Y93.205 E24.61213
G1 X115.234 Y92.233 E24.71085
G1 X112.848 Y94.205 E24.84469
G1 X111.353 Y95.477 E24.92956
G1 X109.872 Y96.771 E25.0146
G1 X108.414 Y98.086 E25.09949
G1 X106.973 Y99.422 E25.18446
G1 X105.552 Y100.776 E25.26933
G1 X104.146 Y102.155 E25.35448
G1 X103.163 Y103.157 E25.41517
G1 X102.208 Y104.189 E25.47597
G1 X101.278 Y105.245 E25.53681
G1 X100.381 Y106.324 E25.59748
G1 X99.506 Y107.426 E25.65832
G1 X98.665 Y108.553 E25.71912
G1 X97.85 Y109.7 E25.77996
G1 X97.068 Y110.87 E25.84081
G1 X96.319 Y112.06 E25.90161
G1 X95.599 Y113.268 E25.96241
G0 F2160 X95.946 Y113.468
G1 F900 X94.275 Y116.459 E26.11055
G1 X94.11 Y116.754 E26.12517
G1 X94.448 Y116.754 E26.13348
G1 X94.449 Y116.754 E26.13352
G1 X116.9 Y116.754 E27.10426
G1 X116.9 Y93.459 E28.1115
G1 X115.293 Y92.703 E28.18828
G1 X113.105 Y94.511 E28.31101
G1 X111.614 Y95.78 E28.39567
G1 X110.138 Y97.07 E28.48042
G1 X108.684 Y98.381 E28.56507
G1 X107.247 Y99.713 E28.64979
G1 X105.83 Y101.064 E28.73445
G1 X104.429 Y102.438 E28.81929
G1 X103.453 Y103.433 E28.87956
G1 X102.505 Y104.457 E28.9399
G1 X101.582 Y105.505 E29.00028
G1 X100.691 Y106.576 E29.06052
G1 X99.823 Y107.67 E29.1209
G1 X98.988 Y108.789 E29.18127
G1 X98.179 Y109.927 E29.24164
G1 X97.404 Y111.088 E29.302
G1 X96.66 Y112.269 E29.36235
G1 X95.946 Y113.468 E29.42269
G0 F2160 X96.293 Y113.668
G1 F900 X94.957 Y116.058 E29.54108
G1 X94.792 Y116.354 E29.55573
G1 X95.13 Y116.354 E29.56404
G1 X95.132 Y116.354 E29.56413
G1 X116.5 Y116.354 E30.48804
G1 X116.5 Y93.713 E31.467
G1 X115.352 Y93.173 E31.52185
G1 X113.362 Y94.818 E31.63349
G1 X111.875 Y96.083 E31.7179
G1 X110.404 Y97.369 E31.80238
G1 X108.954 Y98.676 E31.88679
G1 X107.521 Y100.004 E31.97126
G1 X106.108 Y101.352 E32.0557
G1 X104.712 Y102.721 E32.14024
G1 X103.743 Y103.709 E32.20008
