;FLAVOR:Marlin
;TIME:9010
;Filament used: 8.78709m
;Layer height: 0.25
;MINX:57.7
;MINY:83.3
;MINZ:0.3
;MAXX:177.3
;MAXY:151.7
;MAXZ:12.8
;Generated with Cura_SteamEngine 4.12.1
M140 S60
M105
M190 S60
M104 S200
M105
M109 S200
M82 ;absolute extrusion mode
M201 X500.00 Y500.00 Z100.00 E5000.00 	;Setup machine max acceleration
M203 X500.00 Y500.00 Z10.00 E50.00 	;Setup machine max feedrate
M204 P500.00 R1000.00 T500.00 		;Setup Print/Retract/Travel acceleration
M205 X8.00 Y8.00 Z0.40 E5.00 		;Setup Jerk
M220 S100 				;Reset Feedrate
M221 S100 				;Reset Flowrate
G28					;Home the Machine
G92 E0
M300 P150 S587
G92 E0
G1 F1500 E-6.5
;LAYER_COUNT:51
;LAYER:0
M107
G0 F1980 X61.13 Y84.619 Z0.3
;TYPE:SKIRT
G1 F1500 E0
G1 F900 X61.75 Y84.239 E0.03628
G1 X62.236 Y84.004 E0.06321
G1 X62.962 Y83.715 E0.1022
G1 X63.56 Y83.547 E0.13319
G1 X64.286 Y83.398 E0.17016
G1 X64.844 Y83.342 E0.19814
G1 X65.332 Y83.312 E0.22253
G1 X66.166 Y83.3 E0.26414
G1 X168.946 Y83.301 E5.39186
G1 X169.617 Y83.31 E5.42534
G1 X170.287 Y83.353 E5.45883
G1 X171.153 Y83.475 E5.50247
G1 X171.689 Y83.612 E5.53007
G1 X172.417 Y83.852 E5.56831
G1 X173.007 Y84.119 E5.60062
G1 X173.635 Y84.46 E5.63627
G1 X174.061 Y84.751 E5.66201
G1 X174.686 Y85.243 E5.70169
G1 X175.171 Y85.716 E5.73549
G1 X175.619 Y86.226 E5.76936
G1 X175.919 Y86.641 E5.79491
G1 X176.359 Y87.346 E5.83637
G1 X176.592 Y87.828 E5.86308
G1 X176.885 Y88.562 E5.9025
G1 X177.053 Y89.16 E5.93349
G1 X177.202 Y89.886 E5.97047
G1 X177.258 Y90.443 E5.9984
G1 X177.288 Y90.93 E6.02274
G1 X177.3 Y91.766 E6.06445
G1 X177.299 Y143.346 E8.63779
G1 X177.29 Y144.014 E8.67112
G1 X177.245 Y144.695 E8.70517
G1 X177.125 Y145.555 E8.74849
G1 X176.987 Y146.092 E8.77615
G1 X176.749 Y146.814 E8.81408
G1 X176.481 Y147.407 E8.84655
G1 X176.14 Y148.035 E8.8822
G1 X175.849 Y148.461 E8.90794
G1 X175.357 Y149.086 E8.94762
G1 X174.884 Y149.571 E8.98142
G1 X174.373 Y150.02 E9.01536
G1 X173.876 Y150.377 E9.04588
G1 X173.25 Y150.761 E9.08252
G1 X172.76 Y150.997 E9.10966
G1 X172.038 Y151.284 E9.14842
G1 X171.44 Y151.453 E9.17942
G1 X170.714 Y151.602 E9.2164
G1 X170.156 Y151.658 E9.24438
G1 X169.668 Y151.688 E9.26877
G1 X168.882 Y151.7 E9.30799
G1 X66.064 Y151.7 E14.4376
G1 X65.398 Y151.691 E14.47083
G1 X65.204 Y151.682 E14.48052
G1 X64.616 Y151.637 E14.50994
G1 X63.849 Y151.525 E14.54861
G1 X63.318 Y151.391 E14.57593
G1 X62.583 Y151.148 E14.61455
G1 X61.993 Y150.881 E14.64686
G1 X61.365 Y150.54 E14.68251
G1 X60.939 Y150.249 E14.70825
G1 X60.314 Y149.757 E14.74794
G1 X59.829 Y149.284 E14.78173
G1 X59.381 Y148.774 E14.8156
G1 X59.02 Y148.272 E14.84645
G1 X58.641 Y147.653 E14.88266
G1 X58.401 Y147.158 E14.91011
G1 X58.115 Y146.438 E14.94876
G1 X57.947 Y145.84 E14.97975
G1 X57.798 Y145.114 E15.01672
G1 X57.742 Y144.557 E15.04465
G1 X57.712 Y144.069 E15.06904
G1 X57.7 Y143.217 E15.11155
G1 X57.701 Y91.654 E17.68404
G1 X57.71 Y90.986 E17.71737
G1 X57.755 Y90.305 E17.75142
G1 X57.875 Y89.447 E17.79464
G1 X58.013 Y88.908 E17.8224
G1 X58.251 Y88.186 E17.86033
G1 X58.519 Y87.593 E17.8928
G1 X58.86 Y86.965 E17.92845
G1 X59.151 Y86.539 E17.95419
G1 X59.643 Y85.914 E17.99387
G1 X60.116 Y85.429 E18.02767
G1 X60.629 Y84.979 E18.06171
G1 X61.13 Y84.619 E18.09249
G1 F1500 E11.59249
;MESH:TFT24_case.stl
G0 F1980 X62.578 Y86.695
G0 X63.198 Y87.582
G0 X64.652 Y93.5
G0 X64.94 Y94.269
G0 X65.858 Y95.373
G0 X67.384 Y96.25
;TYPE:WALL-INNER
G1 F1500 E18.09249
G1 F900 X68.218 Y96.297 E18.13417
G1 X68.99 Y96.162 E18.17327
G1 X69.073 Y96.136 E18.17761
G1 X69.765 Y95.838 E18.21519
G1 X69.84 Y95.793 E18.21956
G1 X70.435 Y95.351 E18.25654
G1 X70.5 Y95.291 E18.26095
G1 X70.98 Y94.718 E18.29824
G1 X71.029 Y94.645 E18.30263
G1 X71.389 Y93.925 E18.34279
G1 X71.569 Y93.163 E18.38185
G1 X71.58 Y93.076 E18.38623
G1 X71.581 Y92.327 E18.42359
G1 X71.57 Y92.239 E18.42802
G1 X71.398 Y91.513 E18.46524
G1 X71.368 Y91.43 E18.46965
G1 X71.006 Y90.712 E18.50976
G1 X70.509 Y90.12 E18.54832
G1 X70.446 Y90.057 E18.55277
G1 X69.839 Y89.606 E18.5905
G1 X69.762 Y89.561 E18.59495
G1 X69.024 Y89.245 E18.635
G1 X68.2 Y89.102 E18.67672
G1 X67.385 Y89.149 E18.71745
G1 X66.622 Y89.374 E18.75714
G1 X66.539 Y89.408 E18.76161
G1 X65.886 Y89.786 E18.79926
G1 X65.816 Y89.839 E18.80364
G1 X65.273 Y90.35 E18.84084
G1 X65.216 Y90.419 E18.8453
G1 X64.776 Y91.091 E18.88537
G1 X64.492 Y91.878 E18.92712
G1 X64.396 Y92.709 E18.96885
G1 X64.495 Y93.539 E19.01055
G1 X64.761 Y94.267 E19.04922
G1 X64.799 Y94.348 E19.05369
G1 X65.209 Y94.971 E19.09089
G1 X65.262 Y95.039 E19.0952
G1 X65.811 Y95.557 E19.13285
G1 X65.881 Y95.61 E19.13723
G1 X66.533 Y95.987 E19.17481
G1 X66.613 Y96.022 E19.17916
G1 X67.384 Y96.25 E19.21928
G0 F1980 X91.484 Y119.016
G0 X92.404 Y119.727
G1 F900 X93 Y119.805 E19.24926
G1 X93.596 Y119.727 E19.27925
G1 X94.153 Y119.496 E19.30934
G1 X94.63 Y119.13 E19.33933
G1 X94.996 Y118.653 E19.36933
G1 X95.227 Y118.096 E19.39941
G1 X95.305 Y117.5 E19.4294
G1 X95.227 Y116.904 E19.45939
G1 X94.996 Y116.347 E19.48947
G1 X94.63 Y115.87 E19.51947
G1 X94.153 Y115.504 E19.54946
G1 X93.596 Y115.273 E19.57955
G1 X93 Y115.195 E19.60954
G1 X92.404 Y115.273 E19.63952
G1 X91.847 Y115.504 E19.66961
G1 X91.37 Y115.87 E19.6996
G1 X91.004 Y116.347 E19.7296
G1 X90.773 Y116.904 E19.75968
G1 X90.695 Y117.5 E19.78967
G1 X90.773 Y118.096 E19.81966
G1 X91.004 Y118.653 E19.84974
G1 X91.37 Y119.13 E19.87974
G1 X91.847 Y119.496 E19.90973
G1 X92.404 Y119.727 E19.93982
G0 F1980 X72.54 Y133.1
G1 F900 X72.54 Y141.9 E20.37885
G1 X90.5 Y141.9 E21.27488
G1 X90.5 Y133.1 E21.71391
G1 X72.54 Y133.1 E22.60994
G0 F1980 X71.419 Y142.698
G0 X71.234 Y143.478
G0 X70.874 Y144.194
G0 X69.72 Y145.281
G0 X67.374 Y145.849
G1 F900 X68.209 Y145.898 E22.65167
G1 X69.034 Y145.753 E22.69346
G1 X69.802 Y145.421 E22.7352
G1 X70.473 Y144.921 E22.77695
G1 X71.01 Y144.281 E22.81863
G1 X71.386 Y143.533 E22.8604
G1 X71.58 Y142.718 E22.9022
G1 X71.58 Y141.882 E22.94391
G1 X71.386 Y141.067 E22.9857
G1 X71.01 Y140.319 E23.02747
G1 X70.473 Y139.679 E23.06915
G1 X69.802 Y139.179 E23.1109
G1 X69.034 Y138.847 E23.15264
G1 X68.209 Y138.702 E23.19443
G1 X67.374 Y138.751 E23.23616
G1 X66.572 Y138.99 E23.27791
G1 X65.848 Y139.41 E23.31967
G1 X65.24 Y139.984 E23.36139
G1 X64.779 Y140.683 E23.40316
G1 X64.493 Y141.469 E23.44489
G1 X64.396 Y142.3 E23.48663
G1 X64.493 Y143.131 E23.52837
G1 X64.779 Y143.917 E23.5701
G1 X65.24 Y144.616 E23.61187
G1 X65.848 Y145.19 E23.65359
G1 X66.572 Y145.61 E23.69535
G1 X67.374 Y145.849 E23.7371
G0 F1980 X90.328 Y141.728
G0 X116.34 Y133.1
G1 F900 X116.34 Y141.9 E24.17613
G1 X144.8 Y141.9 E25.59601
G1 X144.8 Y133.1 E26.03504
G1 X116.34 Y133.1 E27.45492
G0 F1980 X142.404 Y119.727
G1 F900 X143 Y119.805 E27.4849
G1 X143.596 Y119.727 E27.51489
G1 X144.153 Y119.496 E27.54498
G1 X144.63 Y119.13 E27.57497
G1 X144.996 Y118.653 E27.60497
G1 X145.227 Y118.096 E27.63505
G1 X145.305 Y117.5 E27.66504
G1 X145.227 Y116.904 E27.69503
G1 X144.996 Y116.347 E27.72511
G1 X144.63 Y115.87 E27.75511
G1 X144.153 Y115.504 E27.7851
G1 X143.596 Y115.273 E27.81519
G1 X143 Y115.195 E27.84518
G1 X142.404 Y115.273 E27.87516
G1 X141.847 Y115.504 E27.90525
G1 X141.37 Y115.87 E27.93524
G1 X141.004 Y116.347 E27.96524
G1 X140.773 Y116.904 E27.99532
G1 X140.695 Y117.5 E28.02531
G1 X140.773 Y118.096 E28.0553
G1 X141.004 Y118.653 E28.08538
G1 X141.37 Y119.13 E28.11538
G1 X141.847 Y119.496 E28.14537
G1 X142.404 Y119.727 E28.17546
G0 F1980 X122.722 Y105.378
G0 X122.55 Y94.45
G1 F900 X122.55 Y105.55 E28.72924
G1 X166.1 Y105.55 E30.90196
G1 X166.1 Y95.736 E31.39158
G1 X166.568 Y96.008 E31.41859
G1 X167.368 Y96.247 E31.46024
G1 X168.202 Y96.299 E31.50193
G1 X169.028 Y96.155 E31.54376
G1 X169.798 Y95.824 E31.58558
G1 X170.448 Y95.341 E31.62598
G1 X170.511 Y95.277 E31.63046
G1 X171.007 Y94.685 E31.66899
G1 X171.384 Y93.937 E31.71078
G1 X171.579 Y93.125 E31.75244
G1 X171.581 Y92.288 E31.7942
G1 X171.389 Y91.472 E31.83602
G1 X171.014 Y90.724 E31.87777
G1 X170.477 Y90.082 E31.91952
G1 X169.807 Y89.583 E31.9612
G1 X169.038 Y89.249 E32.00303
G1 X168.247 Y89.109 E32.04311
G1 X168.159 Y89.104 E32.0475
G1 X167.379 Y89.15 E32.08649
G1 X166.578 Y89.388 E32.12817
G1 X165.853 Y89.806 E32.16993
G1 X165.243 Y90.379 E32.21168
G1 X164.8 Y91.052 E32.25188
G1 X164.761 Y91.131 E32.25627
G1 X164.507 Y91.834 E32.29356
G1 X164.487 Y91.918 E32.29787
G1 X164.401 Y92.66 E32.33514
G1 X164.401 Y92.748 E32.33953
G1 X164.491 Y93.526 E32.3786
G1 X164.777 Y94.313 E32.42038
G1 X164.867 Y94.45 E32.42856
G1 X122.55 Y94.45 E34.53976
G0 F1980 X122.722 Y105.378
G0 X165.947 Y145.061
G0 X167.374 Y145.849
G1 F900 X168.209 Y145.898 E34.58149
G1 X169.034 Y145.753 E34.62328
G1 X169.802 Y145.421 E34.66502
G1 X170.473 Y144.921 E34.70677
G1 X171.01 Y144.281 E34.74845
G1 X171.386 Y143.533 E34.79022
G1 X171.58 Y142.718 E34.83202
G1 X171.58 Y141.882 E34.87372
G1 X171.386 Y141.067 E34.91552
G1 X171.01 Y140.319 E34.95729
G1 X170.473 Y139.679 E34.99897
G1 X169.802 Y139.179 E35.04072
G1 X169.034 Y138.847 E35.08246
G1 X168.209 Y138.702 E35.12425
G1 X167.374 Y138.751 E35.16598
G1 X166.572 Y138.99 E35.20773
G1 X165.848 Y139.41 E35.24949
G1 X165.24 Y139.984 E35.2912
G1 X164.779 Y140.683 E35.33298
G1 X164.493 Y141.469 E35.37471
G1 X164.396 Y142.3 E35.41645
G1 X164.493 Y143.131 E35.45819
G1 X164.779 Y143.917 E35.49992
G1 X165.24 Y144.616 E35.54169
G1 X165.848 Y145.19 E35.58341
G1 X166.572 Y145.61 E35.62517
G1 X167.374 Y145.849 E35.66692
G0 F1980 X169.583 Y147.9
G1 F900 X65.419 Y147.9 E40.86368
G1 X64.716 Y147.838 E40.89889
G1 X64.069 Y147.664 E40.93231
G1 X63.447 Y147.372 E40.9666
G1 X62.891 Y146.983 E41.00045
G1 X62.411 Y146.501 E41.03439
G1 X62.019 Y145.939 E41.06857
G1 X61.738 Y145.337 E41.10172
G1 X61.559 Y144.663 E41.13651
G1 X61.5 Y143.988 E41.17031
G1 X61.501 Y91.01 E43.8134
G1 X61.562 Y90.316 E43.84815
G1 X61.736 Y89.669 E43.88158
G1 X62.028 Y89.048 E43.91581
G1 X62.419 Y88.489 E43.94985
G1 X62.899 Y88.011 E43.98364
G1 X63.456 Y87.622 E44.01754
G1 X64.068 Y87.337 E44.05122
G1 X64.737 Y87.16 E44.08575
G1 X65.417 Y87.1 E44.1198
G1 X169.59 Y87.101 E49.31701
G1 X170.284 Y87.162 E49.35177
G1 X170.931 Y87.336 E49.3852
G1 X171.551 Y87.627 E49.41937
G1 X172.109 Y88.017 E49.45333
G1 X172.589 Y88.499 E49.48727
G1 X172.978 Y89.056 E49.52116
G1 X173.263 Y89.668 E49.55485
G1 X173.441 Y90.337 E49.58938
G1 X173.5 Y91.012 E49.62319
G1 X173.499 Y143.988 E52.26617
G1 X173.438 Y144.684 E52.30103
G1 X173.264 Y145.331 E52.33445
G1 X172.972 Y145.953 E52.36873
G1 X172.583 Y146.509 E52.40259
G1 X172.101 Y146.989 E52.43653
G1 X171.544 Y147.378 E52.47042
G1 X170.932 Y147.663 E52.5041
G1 X170.263 Y147.84 E52.53863
G1 X169.583 Y147.9 E52.57268
G0 F1980 X169.595 Y148.3
;TYPE:WALL-OUTER
G1 F900 X65.407 Y148.3 E57.77064
G1 X64.645 Y148.233 E57.80881
G1 X63.93 Y148.041 E57.84574
G1 X63.245 Y147.719 E57.8835
G1 X62.635 Y147.292 E57.92065
G1 X62.101 Y146.756 E57.9584
G1 X61.673 Y146.142 E57.99574
G1 X61.359 Y145.469 E58.03279
G1 X61.165 Y144.738 E58.07052
G1 X61.1 Y144 E58.10749
G1 X61.101 Y90.998 E60.75177
G1 X61.167 Y90.245 E60.78948
G1 X61.359 Y89.53 E60.82641
G1 X61.682 Y88.843 E60.86429
G1 X62.108 Y88.235 E60.90132
G1 X62.644 Y87.701 E60.93907
G1 X63.257 Y87.273 E60.97637
G1 X63.931 Y86.959 E61.01347
G1 X64.662 Y86.765 E61.0512
G1 X65.405 Y86.7 E61.08841
G1 X169.602 Y86.701 E66.28682
G1 X170.355 Y86.767 E66.32453
G1 X171.07 Y86.959 E66.36146
G1 X171.753 Y87.28 E66.39912
G1 X172.365 Y87.708 E66.43637
G1 X172.899 Y88.244 E66.47412
G1 X173.327 Y88.857 E66.51142
G1 X173.641 Y89.531 E66.54852
G1 X173.835 Y90.262 E66.58625
G1 X173.9 Y91 E66.62321
G1 X173.899 Y144 E69.26739
G1 X173.833 Y144.755 E69.3052
G1 X173.641 Y145.47 E69.34214
G1 X173.319 Y146.155 E69.3799
G1 X172.892 Y146.765 E69.41705
G1 X172.356 Y147.299 E69.4548
G1 X171.743 Y147.727 E69.49209
G1 X171.069 Y148.041 E69.52919
G1 X170.338 Y148.235 E69.56692
G1 X169.595 Y148.3 E69.60413
G0 F1980 X169.395 Y148.3
G0 X169.395 Y148
G0 X167.427 Y145.751
G0 X167.444 Y145.452
G1 F900 X168.186 Y145.496 E69.64122
G1 X168.918 Y145.367 E69.6783
G1 X169.601 Y145.072 E69.71542
G1 X170.197 Y144.628 E69.75249
G1 X170.674 Y144.06 E69.7895
G1 X171.008 Y143.395 E69.82663
G1 X171.18 Y142.671 E69.86375
G1 X171.18 Y141.929 E69.90077
G1 X171.008 Y141.205 E69.9379
G1 X170.674 Y140.54 E69.97502
G1 X170.197 Y139.972 E70.01203
G1 X169.601 Y139.528 E70.04911
G1 X168.918 Y139.233 E70.08622
G1 X168.186 Y139.104 E70.12331
G1 X167.444 Y139.148 E70.16039
G1 X166.732 Y139.36 E70.19745
G1 X166.089 Y139.733 E70.23454
G1 X165.548 Y140.243 E70.27163
G1 X165.139 Y140.864 E70.30873
G1 X164.885 Y141.562 E70.34579
G1 X164.799 Y142.3 E70.38286
G1 X164.885 Y143.038 E70.41992
G1 X165.139 Y143.736 E70.45698
G1 X165.548 Y144.357 E70.49408
G1 X166.089 Y144.867 E70.53117
G1 X166.732 Y145.24 E70.56826
G1 X167.444 Y145.452 E70.60532
G0 F1980 X167.643 Y145.463
G0 X167.626 Y145.763
G0 X166.639 Y145.462
G0 X165.617 Y144.749
G0 X142.468 Y119.633
G0 X142.508 Y119.337
G1 F900 X143 Y119.402 E70.63008
G1 X143.492 Y119.337 E70.65484
G1 X143.951 Y119.147 E70.67962
G1 X144.345 Y118.845 E70.70439
G1 X144.647 Y118.451 E70.72916
G1 X144.837 Y117.992 E70.75394
G1 X144.902 Y117.5 E70.7787
G1 X144.837 Y117.008 E70.80346
G1 X144.647 Y116.549 E70.82824
G1 X144.345 Y116.155 E70.85301
G1 X143.951 Y115.853 E70.87778
G1 X143.492 Y115.663 E70.90256
G1 X143 Y115.598 E70.92732
G1 X142.508 Y115.663 E70.95208
G1 X142.049 Y115.853 E70.97686
G1 X141.655 Y116.155 E71.00163
G1 X141.353 Y116.549 E71.0264
G1 X141.163 Y117.008 E71.05118
G1 X141.098 Y117.5 E71.07594
G1 X141.163 Y117.992 E71.1007
G1 X141.353 Y118.451 E71.12548
G1 X141.655 Y118.845 E71.15025
G1 X142.049 Y119.147 E71.17502
G1 X142.508 Y119.337 E71.1998
G0 F1980 X142.706 Y119.363
G0 X142.666 Y119.659
G0 X116.74 Y133.2
G0 X116.74 Y133.5
G1 F900 X116.74 Y141.5 E71.59892
G1 X144.4 Y141.5 E72.97889
G1 X144.4 Y133.5 E73.37801
G1 X116.74 Y133.5 E74.75797
G0 F1980 X116.74 Y133.7
G0 X116.44 Y133.7
G0 X92.468 Y119.633
G0 X92.508 Y119.337
G1 F900 X93 Y119.402 E74.78273
G1 X93.492 Y119.337 E74.80749
G1 X93.951 Y119.147 E74.83227
G1 X94.345 Y118.845 E74.85704
G1 X94.647 Y118.451 E74.88181
G1 X94.837 Y117.992 E74.90659
G1 X94.902 Y117.5 E74.93135
G1 X94.837 Y117.008 E74.95611
G1 X94.647 Y116.549 E74.98089
G1 X94.345 Y116.155 E75.00566
G1 X93.951 Y115.853 E75.03043
G1 X93.492 Y115.663 E75.05521
G1 X93 Y115.598 E75.07997
G1 X92.508 Y115.663 E75.10473
G1 X92.049 Y115.853 E75.12951
G1 X91.655 Y116.155 E75.15428
G1 X91.353 Y116.549 E75.17905
G1 X91.163 Y117.008 E75.20383
G1 X91.098 Y117.5 E75.22859
G1 X91.163 Y117.992 E75.25335
G1 X91.353 Y118.451 E75.27813
G1 X91.655 Y118.845 E75.3029
G1 X92.049 Y119.147 E75.32767
G1 X92.508 Y119.337 E75.35245
G0 F1980 X92.706 Y119.363
G0 X92.666 Y119.659
G0 X72.94 Y133.2
G0 X72.94 Y133.5
G1 F900 X72.94 Y141.5 E75.75157
G1 X90.1 Y141.5 E76.60769
G1 X90.1 Y133.5 E77.00681
G1 X72.94 Y133.5 E77.86293
G0 F1980 X72.94 Y133.7
G0 X72.64 Y133.7
G0 X71.419 Y142.698
G0 X71.234 Y143.478
G0 X70.874 Y144.194
G0 X69.72 Y145.281
G0 X68.541 Y145.675
G0 X67.427 Y145.751
G0 X67.444 Y145.452
G1 F900 X68.186 Y145.496 E77.90001
G1 X68.918 Y145.367 E77.93709
G1 X69.601 Y145.072 E77.97421
G1 X70.197 Y144.628 E78.01129
G1 X70.674 Y144.06 E78.04829
G1 X71.008 Y143.395 E78.08542
G1 X71.18 Y142.671 E78.12255
G1 X71.18 Y141.929 E78.15956
G1 X71.008 Y141.205 E78.19669
G1 X70.674 Y140.54 E78.23382
G1 X70.197 Y139.972 E78.27082
G1 X69.601 Y139.528 E78.3079
G1 X68.918 Y139.233 E78.34502
G1 X68.186 Y139.104 E78.3821
G1 X67.444 Y139.148 E78.41918
G1 X66.732 Y139.36 E78.45625
G1 X66.089 Y139.733 E78.49333
G1 X65.548 Y140.243 E78.53043
G1 X65.139 Y140.864 E78.56752
