;FLAVOR:Marlin
;TIME:6920
;Filament used: 6.81653m
;Layer height: 0.25
;MINX:57.7
;MINY:83.3
;MINZ:0.3
;MAXX:177.3
;MAXY:151.7
;MAXZ:11.55
;Generated with Cura_SteamEngine 4.12.1
M140 S60
M105
M190 S60
M104 S200
M105
M109 S200
M82 ;absolute extrusion mode
M201 X500.00 Y500.00 Z100.00 E5000.00 	;Setup machine max acceleration
M203 X500.00 Y500.00 Z10.00 E50.00 	;Setup machine max feedrate
M204 P500.00 R1000.00 T500.00 		;Setup Print/Retract/Travel acceleration
M205 X8.00 Y8.00 Z0.40 E5.00 		;Setup Jerk
M220 S100 				;Reset Feedrate
M221 S100 				;Reset Flowrate
G28					;Home the Machine
G92 E0
M300 P150 S587
G92 E0
G1 F1500 E-6.5
;LAYER_COUNT:46
;LAYER:0
M107
G0 F1980 X61.102 Y84.638 Z0.3
;TYPE:SKIRT
G1 F1500 E0
G1 F900 X61.732 Y84.249 E0.03694
G1 X62.197 Y84.022 E0.06276
G1 X62.957 Y83.715 E0.10365
G1 X63.527 Y83.554 E0.1332
G1 X64.269 Y83.401 E0.171
G1 X64.893 Y83.338 E0.20229
G1 X65.322 Y83.312 E0.22373
G1 X66.128 Y83.3 E0.26394
G1 X168.953 Y83.301 E5.3939
G1 X169.631 Y83.311 E5.42773
G1 X170.287 Y83.353 E5.46053
G1 X171.129 Y83.471 E5.50295
G1 X171.726 Y83.622 E5.53367
G1 X172.408 Y83.849 E5.56953
G1 X172.994 Y84.113 E5.60159
G1 X173.613 Y84.448 E5.63671
G1 X174.102 Y84.78 E5.6662
G1 X174.694 Y85.248 E5.70385
G1 X175.128 Y85.671 E5.73408
G1 X175.611 Y86.215 E5.77038
G1 X175.957 Y86.695 E5.7999
G1 X176.35 Y87.331 E5.8372
G1 X176.612 Y87.869 E5.86705
G1 X176.885 Y88.557 E5.90398
G1 X177.046 Y89.127 E5.93353
G1 X177.199 Y89.869 E5.97133
G1 X177.262 Y90.49 E6.00247
G1 X177.288 Y90.919 E6.02391
G1 X177.3 Y91.729 E6.06432
G1 X177.299 Y143.353 E8.63986
G1 X177.289 Y144.028 E8.67353
G1 X177.247 Y144.689 E8.70658
G1 X177.129 Y145.529 E8.7489
G1 X176.977 Y146.129 E8.77978
G1 X176.752 Y146.805 E8.81532
G1 X176.526 Y147.311 E8.84297
G1 X176.152 Y148.013 E8.88265
G1 X175.819 Y148.504 E8.91225
G1 X175.356 Y149.089 E8.94947
G1 X174.926 Y149.531 E8.98024
G1 X174.389 Y150.008 E9.01607
G1 X173.91 Y150.354 E9.04555
G1 X173.268 Y150.751 E9.08321
G1 X172.803 Y150.978 E9.10903
G1 X172.043 Y151.285 E9.14992
G1 X171.473 Y151.446 E9.17947
G1 X170.731 Y151.599 E9.21727
G1 X170.107 Y151.662 E9.24856
G1 X169.678 Y151.688 E9.27
G1 X168.872 Y151.7 E9.31022
G1 X66.047 Y151.699 E14.44018
G1 X65.369 Y151.689 E14.474
G1 X64.713 Y151.647 E14.5068
G1 X63.871 Y151.529 E14.54922
G1 X63.274 Y151.378 E14.57994
G1 X62.592 Y151.151 E14.6158
G1 X62.006 Y150.887 E14.64787
G1 X61.387 Y150.552 E14.68298
G1 X60.898 Y150.22 E14.71247
G1 X60.305 Y149.751 E14.75019
G1 X59.865 Y149.322 E14.78085
G1 X59.39 Y148.786 E14.81658
G1 X59.038 Y148.298 E14.8466
G1 X58.648 Y147.665 E14.88369
G1 X58.381 Y147.114 E14.91424
G1 X58.115 Y146.443 E14.95025
G1 X57.954 Y145.873 E14.9798
G1 X57.801 Y145.131 E15.01759
G1 X57.738 Y144.51 E15.04874
G1 X57.712 Y144.081 E15.07018
G1 X57.7 Y143.271 E15.11059
G1 X57.701 Y91.647 E17.68612
G1 X57.711 Y90.972 E17.7198
G1 X57.753 Y90.311 E17.75285
G1 X57.871 Y89.471 E17.79517
G1 X58.023 Y88.871 E17.82605
G1 X58.248 Y88.195 E17.86159
G1 X58.474 Y87.689 E17.88924
G1 X58.848 Y86.987 E17.92892
G1 X59.18 Y86.498 E17.95841
G1 X59.649 Y85.905 E17.99613
G1 X60.08 Y85.463 E18.02693
G1 X60.614 Y84.99 E18.06252
G1 X61.102 Y84.638 E18.09254
G1 F1500 E11.59254
;MESH:TFT24_cover.stl
G0 F1980 X61.524 Y87.596
G0 X62.432 Y88.503
G0 X85.795 Y138.109
G0 X86.598 Y139.116
G0 X87.743 Y139.733
G1 F1500 E18.09254
G0 F1980 X87.765 Y139.636
;TYPE:WALL-INNER
G1 F900 X88.367 Y139.704 E18.12276
G1 X139.854 Y139.705 E20.69146
G1 X140.455 Y139.636 E20.72164
G1 X141.057 Y139.424 E20.75348
G1 X141.598 Y139.085 E20.78534
G1 X142.05 Y138.633 E20.81723
G1 X142.389 Y138.092 E20.84908
G1 X142.601 Y137.49 E20.88092
G1 X142.669 Y136.888 E20.91115
G1 X142.669 Y96.712 E22.91553
G1 X142.601 Y96.11 E22.94576
G1 X142.389 Y95.508 E22.9776
G1 X142.05 Y94.967 E23.00945
G1 X141.598 Y94.515 E23.04134
G1 X141.057 Y94.176 E23.0732
G1 X140.455 Y93.964 E23.10504
G1 X139.853 Y93.896 E23.13526
G1 X88.366 Y93.895 E25.70396
G1 X87.765 Y93.964 E25.73414
G1 X87.163 Y94.176 E25.76598
G1 X86.622 Y94.515 E25.79783
G1 X86.17 Y94.967 E25.82972
G1 X85.831 Y95.508 E25.86158
G1 X85.619 Y96.11 E25.89342
G1 X85.551 Y96.712 E25.92364
G1 X85.551 Y136.888 E27.92803
G1 X85.619 Y137.49 E27.95826
G1 X85.831 Y138.092 E27.9901
G1 X86.17 Y138.633 E28.02195
G1 X86.622 Y139.085 E28.05384
G1 X87.163 Y139.424 E28.08569
G1 X87.765 Y139.636 E28.11753
G0 F1980 X87.743 Y139.733
G0 X155.903 Y139.768
G0 X155.928 Y139.672
G1 F900 X156.64 Y139.765 E28.15336
G1 X157.352 Y139.672 E28.18918
G1 X158.018 Y139.396 E28.22515
G1 X158.588 Y138.958 E28.26101
G1 X159.026 Y138.388 E28.29688
G1 X159.302 Y137.722 E28.33284
G1 X159.395 Y137.01 E28.36867
G1 X159.302 Y136.298 E28.40449
G1 X159.026 Y135.632 E28.44046
G1 X158.588 Y135.062 E28.47632
G1 X158.018 Y134.624 E28.51218
G1 X157.352 Y134.348 E28.54815
G1 X156.64 Y134.255 E28.58398
G1 X155.928 Y134.348 E28.6198
G1 X155.262 Y134.624 E28.65577
G1 X154.692 Y135.062 E28.69163
G1 X154.254 Y135.632 E28.72749
G1 X153.978 Y136.298 E28.76346
G1 X153.885 Y137.01 E28.79928
G1 X153.978 Y137.722 E28.83511
G1 X154.254 Y138.388 E28.87107
G1 X154.692 Y138.958 E28.90694
G1 X155.262 Y139.396 E28.9428
G1 X155.928 Y139.672 E28.97877
G0 F1980 X155.903 Y139.768
G0 X154.664 Y138.986
G0 X153.94 Y137.732
G0 X153.94 Y136.288
G0 X159.664 Y125.305
G0 X159.689 Y125.209
G1 F900 X160.56 Y125.343 E29.02273
G1 X161.439 Y125.298 E29.06664
G1 X162.292 Y125.078 E29.11059
G1 X163.083 Y124.689 E29.15457
G1 X163.78 Y124.15 E29.19853
G1 X164.353 Y123.482 E29.24244
G1 X164.781 Y122.711 E29.28643
G1 X165.044 Y121.871 E29.33034
G1 X165.133 Y120.995 E29.37427
G1 X165.044 Y120.119 E29.4182
G1 X164.781 Y119.279 E29.46212
G1 X164.353 Y118.508 E29.50611
G1 X163.78 Y117.84 E29.55002
G1 X163.083 Y117.301 E29.59398
G1 X162.292 Y116.912 E29.63795
G1 X161.439 Y116.692 E29.6819
G1 X160.56 Y116.647 E29.72581
G1 X159.689 Y116.781 E29.76978
G1 X158.863 Y117.087 E29.81373
G1 X158.116 Y117.553 E29.85765
G1 X157.478 Y118.159 E29.90155
G1 X156.974 Y118.882 E29.94552
G1 X156.626 Y119.692 E29.9895
G1 X156.449 Y120.555 E30.03345
G1 X156.449 Y121.435 E30.07736
G1 X156.626 Y122.298 E30.12131
G1 X156.974 Y123.108 E30.16529
G1 X157.478 Y123.831 E30.20926
G1 X158.116 Y124.437 E30.25316
G1 X158.863 Y124.903 E30.29709
G1 X159.689 Y125.209 E30.34103
G0 F1980 X159.664 Y125.305
G0 X169.568 Y147.801
G0 X169.572 Y147.9
G1 F900 X65.417 Y147.899 E35.53735
G1 X64.719 Y147.838 E35.5723
G1 X64.067 Y147.664 E35.60597
G1 X63.455 Y147.378 E35.63967
G1 X62.891 Y146.983 E35.67403
G1 X62.417 Y146.509 E35.70747
G1 X62.022 Y145.945 E35.74182
G1 X61.736 Y145.333 E35.77552
G1 X61.56 Y144.676 E35.80946
G1 X61.5 Y143.988 E35.84391
G1 X61.501 Y91 E38.48749
G1 X61.56 Y90.324 E38.52135
G1 X61.736 Y89.667 E38.55528
G1 X62.022 Y89.055 E38.58898
G1 X62.417 Y88.491 E38.62334
G1 X62.891 Y88.017 E38.65678
G1 X63.455 Y87.622 E38.69113
G1 X64.067 Y87.336 E38.72483
G1 X64.719 Y87.161 E38.75851
G1 X65.428 Y87.1 E38.79402
G1 X169.583 Y87.101 E43.99033
G1 X170.281 Y87.162 E44.02529
G1 X170.933 Y87.336 E44.05895
G1 X171.545 Y87.622 E44.09266
G1 X172.109 Y88.017 E44.12701
G1 X172.583 Y88.491 E44.16045
G1 X172.978 Y89.055 E44.1948
G1 X173.264 Y89.667 E44.22851
G1 X173.44 Y90.324 E44.26244
G1 X173.5 Y91.012 E44.2969
G1 X173.499 Y144 E46.94048
G1 X173.44 Y144.676 E46.97433
G1 X173.264 Y145.333 E47.00827
G1 X172.978 Y145.945 E47.04197
G1 X172.583 Y146.509 E47.07632
G1 X172.109 Y146.983 E47.10976
G1 X171.545 Y147.378 E47.14412
G1 X170.933 Y147.664 E47.17782
G1 X170.281 Y147.839 E47.2115
G1 X169.572 Y147.9 E47.247
G0 F1980 X169.594 Y148.3
;TYPE:WALL-OUTER
G1 F900 X65.394 Y148.299 E52.44556
G1 X64.655 Y148.235 E52.48257
G1 X63.93 Y148.041 E52.52001
G1 X63.252 Y147.724 E52.55735
G1 X62.632 Y147.29 E52.59511
G1 X62.11 Y146.768 E52.63194
G1 X61.676 Y146.148 E52.66969
G1 X61.359 Y145.47 E52.70703
G1 X61.165 Y144.745 E52.74448
G1 X61.1 Y144 E52.78179
G1 X61.101 Y90.988 E55.42657
G1 X61.165 Y90.255 E55.46327
G1 X61.359 Y89.53 E55.50072
G1 X61.676 Y88.852 E55.53806
G1 X62.11 Y88.232 E55.57582
G1 X62.632 Y87.71 E55.61265
G1 X63.252 Y87.276 E55.6504
G1 X63.93 Y86.959 E55.68774
G1 X64.655 Y86.765 E55.72519
G1 X65.406 Y86.7 E55.76279
G1 X169.606 Y86.701 E60.96135
G1 X170.345 Y86.765 E60.99836
G1 X171.07 Y86.959 E61.0358
G1 X171.748 Y87.276 E61.07314
G1 X172.368 Y87.71 E61.1109
G1 X172.89 Y88.232 E61.14773
G1 X173.324 Y88.852 E61.18549
G1 X173.641 Y89.53 E61.22283
G1 X173.835 Y90.255 E61.26027
G1 X173.9 Y91 E61.29758
G1 X173.899 Y144.012 E63.94236
G1 X173.835 Y144.745 E63.97907
G1 X173.641 Y145.47 E64.01651
G1 X173.324 Y146.148 E64.05385
G1 X172.89 Y146.768 E64.09161
G1 X172.368 Y147.29 E64.12844
G1 X171.748 Y147.724 E64.16619
G1 X171.07 Y148.041 E64.20353
G1 X170.345 Y148.235 E64.24098
G1 X169.594 Y148.3 E64.27859
G0 F1980 X169.394 Y148.3
G0 X169.395 Y147.8
G0 X155.968 Y139.777
G0 X156.032 Y139.282
G1 F900 X156.64 Y139.362 E64.30918
G1 X157.248 Y139.282 E64.33977
G1 X157.816 Y139.047 E64.37044
G1 X158.303 Y138.673 E64.40108
G1 X158.677 Y138.186 E64.43171
G1 X158.912 Y137.618 E64.46238
G1 X158.992 Y137.01 E64.49297
G1 X158.912 Y136.402 E64.52357
G1 X158.677 Y135.834 E64.55424
G1 X158.303 Y135.347 E64.58487
G1 X157.816 Y134.973 E64.6155
G1 X157.248 Y134.738 E64.64617
G1 X156.64 Y134.658 E64.67677
G1 X156.032 Y134.738 E64.70736
G1 X155.464 Y134.973 E64.73803
G1 X154.977 Y135.347 E64.76866
G1 X154.603 Y135.834 E64.7993
G1 X154.368 Y136.402 E64.82996
G1 X154.288 Y137.01 E64.86056
G1 X154.368 Y137.618 E64.89115
G1 X154.603 Y138.186 E64.92182
G1 X154.977 Y138.673 E64.95246
G1 X155.464 Y139.047 E64.98309
G1 X156.032 Y139.282 E65.01376
G0 F1980 X156.23 Y139.308
G0 X156.166 Y139.803
G0 X157.362 Y139.71
G0 X158.616 Y138.986
G0 X159.34 Y137.732
G0 X159.617 Y125.287
G0 X159.79 Y124.82
G1 F900 X160.58 Y124.941 E65.05363
G1 X161.378 Y124.901 E65.09349
G1 X162.152 Y124.701 E65.13338
G1 X162.87 Y124.348 E65.17329
G1 X163.503 Y123.859 E65.2132
G1 X164.023 Y123.252 E65.25307
G1 X164.411 Y122.553 E65.29296
G1 X164.65 Y121.79 E65.33285
G1 X164.731 Y120.995 E65.37272
G1 X164.65 Y120.2 E65.41259
G1 X164.411 Y119.437 E65.45248
G1 X164.023 Y118.738 E65.49236
G1 X163.503 Y118.131 E65.53224
G1 X162.87 Y117.642 E65.57214
G1 X162.152 Y117.289 E65.61206
G1 X161.378 Y117.089 E65.65194
G1 X160.58 Y117.049 E65.69181
G1 X159.79 Y117.17 E65.73168
G1 X159.04 Y117.448 E65.77158
G1 X158.362 Y117.871 E65.81145
G1 X157.783 Y118.421 E65.8513
G1 X157.325 Y119.077 E65.89121
G1 X157.01 Y119.812 E65.93111
G1 X156.849 Y120.596 E65.97104
G1 X156.849 Y121.394 E66.01085
G1 X157.01 Y122.178 E66.05078
G1 X157.325 Y122.913 E66.09067
G1 X157.783 Y123.569 E66.13059
G1 X158.362 Y124.119 E66.17043
G1 X159.04 Y124.542 E66.2103
G1 X159.79 Y124.82 E66.2502
G0 F1980 X159.987 Y124.85
G0 X159.911 Y125.343
G0 X141.622 Y139.116
G0 X140.463 Y139.674
G0 X87.689 Y139.714
G0 X87.855 Y139.244
G1 F900 X88.389 Y139.304 E66.27701
G1 X139.831 Y139.305 E68.84347
G1 X140.365 Y139.244 E68.87028
G1 X140.882 Y139.062 E68.89762
G1 X141.347 Y138.77 E68.92502
G1 X141.735 Y138.382 E68.95239
G1 X142.027 Y137.917 E68.97979
G1 X142.209 Y137.4 E69.00713
G1 X142.269 Y136.866 E69.03394
G1 X142.269 Y96.734 E71.03614
G1 X142.209 Y96.2 E71.06294
G1 X142.027 Y95.683 E71.09029
G1 X141.735 Y95.218 E71.11768
G1 X141.347 Y94.83 E71.14506
G1 X140.882 Y94.538 E71.17245
G1 X140.365 Y94.356 E71.1998
G1 X139.831 Y94.296 E71.22661
G1 X88.389 Y94.295 E73.79306
G1 X87.855 Y94.356 E73.81987
G1 X87.338 Y94.538 E73.84722
G1 X86.873 Y94.83 E73.87461
G1 X86.485 Y95.218 E73.90199
G1 X86.193 Y95.683 E73.92938
G1 X86.011 Y96.2 E73.95672
G1 X85.951 Y96.734 E73.98353
G1 X85.951 Y136.866 E75.98573
G1 X86.011 Y137.4 E76.01254
G1 X86.193 Y137.917 E76.03988
G1 X86.485 Y138.382 E76.06727
G1 X86.873 Y138.77 E76.09465
G1 X87.338 Y139.062 E76.12204
G1 X87.855 Y139.244 E76.14939
G0 F1980 X88.053 Y139.266
G0 X87.677 Y140.018
;TYPE:SKIN
G1 F900 X88.345 Y140.094 E76.18628
G1 X139.876 Y140.095 E79.01427
G1 X140.543 Y140.018 E79.05111
G1 X141.227 Y139.777 E79.09091
G1 X141.842 Y139.392 E79.13073
G1 X142.357 Y138.877 E79.1707
G1 X142.742 Y138.262 E79.21052
G1 X142.983 Y137.578 E79.25032
G1 X143.059 Y136.91 E79.28721
G1 X143.059 Y96.69 E81.49446
G1 X142.983 Y96.022 E81.53135
G1 X142.742 Y95.338 E81.57115
G1 X142.357 Y94.723 E81.61097
G1 X141.842 Y94.208 E81.65094
G1 X141.227 Y93.823 E81.69076
G1 X140.543 Y93.582 E81.73056
G1 X139.875 Y93.506 E81.76745
G1 X88.344 Y93.505 E84.59544
G1 X87.677 Y93.582 E84.63228
G1 X86.993 Y93.823 E84.67208
G1 X86.378 Y94.208 E84.7119
G1 X85.863 Y94.723 E84.75187
G1 X85.478 Y95.338 E84.79169
G1 X85.237 Y96.022 E84.83149
G1 X85.161 Y96.69 E84.86838
G1 X85.161 Y136.91 E87.07563
G1 X85.237 Y137.578 E87.11252
G1 X85.478 Y138.262 E87.15232
G1 X85.863 Y138.877 E87.19214
G1 X86.378 Y139.392 E87.23211
G1 X86.993 Y139.777 E87.27193
G1 X87.677 Y140.018 E87.31173
G0 F1980 X65.427 Y147.509
G1 F900 X64.792 Y147.454 E87.34671
G1 X64.2 Y147.296 E87.38033
G1 X63.654 Y147.04 E87.41343
G1 X63.135 Y146.677 E87.44818
G1 X62.723 Y146.265 E87.48016
G1 X62.36 Y145.746 E87.51492
G1 X62.104 Y145.2 E87.54801
G1 X61.944 Y144.603 E87.58193
G1 X61.89 Y143.988 E87.61581
G1 X61.891 Y91 E90.52375
G1 X61.944 Y90.397 E90.55697
G1 X62.104 Y89.8 E90.59089
G1 X62.36 Y89.254 E90.62398
G1 X62.723 Y88.735 E90.65874
G1 X63.135 Y88.323 E90.69072
G1 X63.654 Y87.96 E90.72548
G1 X64.2 Y87.704 E90.75857
G1 X64.792 Y87.545 E90.79221
G1 X65.437 Y87.49 E90.82773
G1 X169.573 Y87.491 E96.54264
G1 X170.208 Y87.546 E96.57762
G1 X170.8 Y87.704 E96.61124
G1 X171.346 Y87.96 E96.64434
G1 X171.865 Y88.323 E96.67909
G1 X172.277 Y88.735 E96.71107
G1 X172.64 Y89.254 E96.74583
G1 X172.896 Y89.8 E96.77892
G1 X173.056 Y90.397 E96.81284
G1 X173.11 Y91.012 E96.84672
G1 X173.109 Y144 E99.75466
G1 X173.056 Y144.603 E99.78788
G1 X172.896 Y145.2 E99.8218
G1 X172.64 Y145.746 E99.85489
G1 X172.277 Y146.265 E99.88965
G1 X171.865 Y146.677 E99.92163
G1 X171.346 Y147.04 E99.95639
G1 X170.8 Y147.296 E99.98948
G1 X170.208 Y147.455 E100.02312
G1 X169.563 Y147.51 E100.05864
G1 X65.427 Y147.509 E105.77355
G0 F1980 X140.463 Y139.674
G0 X153.491 Y137.01
G1 F900 X153.598 Y137.824 E105.8186
G1 X153.913 Y138.585 E105.8638
G1 X154.413 Y139.237 E105.90889
G1 X155.065 Y139.737 E105.95399
G1 X155.826 Y140.052 E105.99919
G1 X156.64 Y140.159 E106.04424
G1 X157.454 Y140.052 E106.0893
G1 X158.215 Y139.737 E106.1345
G1 X158.867 Y139.237 E106.17959
G1 X159.367 Y138.585 E106.22468
G1 X159.682 Y137.824 E106.26988
G1 X159.789 Y137.01 E106.31494
G1 X159.682 Y136.196 E106.35999
G1 X159.367 Y135.435 E106.40519
G1 X158.867 Y134.783 E106.45028
G1 X158.215 Y134.283 E106.49537
G1 X157.454 Y133.968 E106.54057
G1 X156.64 Y133.861 E106.58563
G1 X155.826 Y133.968 E106.63068
G1 X155.065 Y134.283 E106.67588
G1 X154.413 Y134.783 E106.72098
G1 X153.913 Y135.435 E106.76607
G1 X153.598 Y136.196 E106.81127
G1 X153.491 Y137.01 E106.85632
G0 F1980 X156.252 Y122.415
G1 F900 X156.631 Y123.299 E106.90911
G1 X157.181 Y124.087 E106.96184
G1 X157.876 Y124.747 E107.01444
G1 X158.69 Y125.254 E107.06707
G1 X159.591 Y125.589 E107.11982
G1 X160.54 Y125.735 E107.17252
G1 X161.498 Y125.686 E107.22516
G1 X162.428 Y125.446 E107.27787
G1 X163.29 Y125.022 E107.33059
G1 X164.051 Y124.434 E107.38337
G1 X164.675 Y123.706 E107.43599
G1 X165.142 Y122.865 E107.48878
G1 X165.428 Y121.949 E107.54144
G1 X165.525 Y120.995 E107.59406
G1 X165.428 Y120.041 E107.64669
G1 X165.142 Y119.125 E107.69935
G1 X164.675 Y118.284 E107.75214
G1 X164.051 Y117.556 E107.80476
G1 X163.29 Y116.968 E107.85754
G1 X162.428 Y116.544 E107.91026
G1 X161.498 Y116.304 E107.96297
G1 X160.54 Y116.255 E108.01561
