;FLAVOR:Marlin
;TIME:3094
;Filament used: 3.01232m
;Layer height: 0.25
;MINX:78.9
;MINY:88.683
;MINZ:0.3
;MAXX:156.1
;MAXY:127.467
;MAXZ:40.55
;Generated with Cura_SteamEngine 4.12.1
M140 S60
M105
M190 S60
M104 S200
M105
M109 S200
M82 ;absolute extrusion mode
M201 X500.00 Y500.00 Z100.00 E5000.00 	;Setup machine max acceleration
M203 X500.00 Y500.00 Z10.00 E50.00 	;Setup machine max feedrate
M204 P500.00 R1000.00 T500.00 		;Setup Print/Retract/Travel acceleration
M205 X8.00 Y8.00 Z0.40 E5.00 		;Setup Jerk
M220 S100 				;Reset Feedrate
M221 S100 				;Reset Flowrate
G28					;Home the Machine
G92 E0
M300 P150 S587
G92 E0
G1 F1500 E-6.5
;LAYER_COUNT:162
;LAYER:0
M107
G0 F1980 X81.351 Y103.65 Z0.3
;TYPE:SKIRT
G1 F1500 E0
G1 F900 X81.636 Y103.447 E0.01746
G1 X82.095 Y103.169 E0.04423
G1 X82.715 Y102.923 E0.07751
G1 X83.192 Y102.785 E0.10228
G1 X85.478 Y102.157 E0.22055
G1 X88.125 Y101.348 E0.35864
G1 X90.699 Y100.481 E0.49415
G1 X93.237 Y99.547 E0.62907
G1 X95.777 Y98.529 E0.76559
G1 X98.302 Y97.433 E0.90292
G1 X100.747 Y96.288 E1.03762
G1 X103.193 Y95.057 E1.17423
G1 X105.585 Y93.768 E1.30979
G1 X107.95 Y92.405 E1.44598
G1 X110.478 Y90.849 E1.59407
G1 X111.041 Y90.492 E1.62733
G1 X111.558 Y90.193 E1.65713
G1 X112.211 Y89.843 E1.69409
G1 X112.728 Y89.601 E1.72257
G1 X113.43 Y89.313 E1.76043
G1 X113.933 Y89.15 E1.78681
G1 X114.513 Y88.994 E1.81677
G1 X114.866 Y88.917 E1.8348
G1 X115.696 Y88.781 E1.87676
G1 X116.495 Y88.693 E1.91686
G1 X116.97 Y88.683 E1.94056
G1 X117.782 Y88.683 E1.98107
G1 X118.492 Y88.694 E2.0165
G1 X118.994 Y88.738 E2.04164
G1 X119.988 Y88.894 E2.09184
G1 X120.591 Y89.021 E2.12258
G1 X121.197 Y89.188 E2.15394
G1 X121.98 Y89.478 E2.1956
G1 X122.088 Y89.523 E2.20144
G1 X122.559 Y89.73 E2.22711
G1 X123.224 Y90.07 E2.26437
G1 X123.897 Y90.451 E2.30295
G1 X124.026 Y90.528 E2.31045
G1 X126.441 Y92.037 E2.45252
G1 X128.766 Y93.399 E2.58695
G1 X131.157 Y94.712 E2.72304
G1 X133.59 Y95.959 E2.85944
G1 X136.04 Y97.13 E2.99491
G1 X138.534 Y98.234 E3.13098
G1 X141.057 Y99.268 E3.26702
G1 X143.626 Y100.237 E3.404
G1 X146.202 Y101.126 E3.53996
G1 X148.79 Y101.937 E3.67526
G1 X150.345 Y102.388 E3.75604
G1 X151.085 Y102.596 E3.79439
G1 X152.217 Y102.907 E3.85296
G1 X152.722 Y103.087 E3.8797
G1 X153.207 Y103.348 E3.90718
G1 X153.67 Y103.668 E3.93526
G1 X154.211 Y104.14 E3.97108
G1 X154.707 Y104.698 E4.00833
G1 X155.043 Y105.16 E4.03683
G1 X155.462 Y105.889 E4.07878
G1 X155.774 Y106.642 E4.11944
G1 X155.95 Y107.262 E4.1516
G1 X156.039 Y107.794 E4.17851
G1 X156.094 Y108.483 E4.21299
G1 X156.1 Y108.913 E4.23444
G1 X156.1 Y121.088 E4.84186
G1 X156.088 Y121.905 E4.88262
G1 X156.04 Y122.572 E4.91599
G1 X155.952 Y123.165 E4.94589
G1 X155.81 Y123.788 E4.97777
G1 X155.616 Y124.404 E5.00999
G1 X155.44 Y124.853 E5.03405
G1 X155.12 Y125.479 E5.06913
G1 X155.001 Y125.665 E5.08014
G1 X154.68 Y126.094 E5.10688
G1 X154.298 Y126.47 E5.13362
G1 X153.733 Y126.87 E5.16815
G1 X153.261 Y127.123 E5.19487
G1 X152.756 Y127.304 E5.22164
G1 X152.23 Y127.408 E5.24839
G1 X151.535 Y127.443 E5.2831
G1 X149.228 Y127.441 E5.3982
G1 X134.656 Y127.467 E6.1252
G1 X100.359 Y127.467 E7.83629
G1 X84.703 Y127.437 E8.61737
G1 X83.811 Y127.439 E8.66187
G1 X83.198 Y127.431 E8.69246
G1 X82.664 Y127.384 E8.7192
G1 X82.142 Y127.258 E8.74599
G1 X81.646 Y127.056 E8.77271
G1 X81.342 Y126.911 E8.78951
G1 X80.888 Y126.625 E8.81628
G1 X80.483 Y126.274 E8.84302
G1 X80.134 Y125.867 E8.86977
G1 X79.85 Y125.429 E8.89581
G1 X79.524 Y124.779 E8.93209
G1 X79.259 Y124.032 E8.97164
G1 X79.037 Y123.083 E9.02026
G1 X78.952 Y122.498 E9.04975
G1 X78.903 Y121.565 E9.09636
G1 X78.901 Y121.452 E9.102
G1 X78.9 Y109.07 E9.71974
G1 X78.911 Y108.339 E9.75622
G1 X78.971 Y107.693 E9.78858
G1 X79.131 Y106.964 E9.82582
G1 X79.414 Y106.149 E9.86886
G1 X79.714 Y105.55 E9.90228
G1 X80.21 Y104.8 E9.94714
G1 X80.548 Y104.396 E9.97342
G1 X80.914 Y104.016 E9.99975
G1 X81.351 Y103.65 E10.02818
G0 F1980 X81.583 Y103.976
G1 F900 X81.868 Y103.773 E10.04564
G1 X82.302 Y103.513 E10.07088
G1 X82.828 Y103.307 E10.09906
G1 X83.298 Y103.17 E10.12349
G1 X85.628 Y102.53 E10.24404
G1 X88.222 Y101.737 E10.37937
G1 X90.828 Y100.86 E10.51654
G1 X93.419 Y99.906 E10.65429
G1 X95.906 Y98.909 E10.78797
G1 X98.466 Y97.798 E10.9272
G1 X100.918 Y96.65 E11.06227
G1 X103.384 Y95.409 E11.2
G1 X105.769 Y94.123 E11.33519
G1 X108.179 Y92.734 E11.47396
G1 X110.647 Y91.215 E11.61854
G1 X111.167 Y90.884 E11.6493
G1 X111.755 Y90.541 E11.68326
G1 X112.399 Y90.196 E11.71971
G1 X112.883 Y89.969 E11.74638
G1 X113.576 Y89.686 E11.78372
G1 X114.037 Y89.536 E11.80791
G1 X114.617 Y89.38 E11.83787
G1 X114.931 Y89.312 E11.8539
G1 X115.834 Y89.165 E11.89955
G1 X116.505 Y89.093 E11.93321
G1 X116.97 Y89.083 E11.95642
G1 X117.776 Y89.083 E11.99663
G1 X118.486 Y89.094 E12.03206
G1 X118.932 Y89.133 E12.05439
G1 X119.926 Y89.289 E12.10459
G1 X120.485 Y89.407 E12.13309
G1 X121.091 Y89.574 E12.16445
G1 X121.831 Y89.849 E12.20384
G1 X121.928 Y89.889 E12.20907
G1 X122.399 Y90.096 E12.23474
G1 X123.035 Y90.423 E12.27042
G1 X123.699 Y90.799 E12.30849
G1 X123.814 Y90.867 E12.31516
G1 X126.232 Y92.378 E12.45741
G1 X128.55 Y93.736 E12.59144
G1 X130.988 Y95.075 E12.73021
G1 X133.415 Y96.318 E12.86625
G1 X135.871 Y97.492 E13.00206
G1 X138.383 Y98.604 E13.13911
G1 X140.931 Y99.649 E13.27651
G1 X143.471 Y100.606 E13.41192
G1 X146.057 Y101.499 E13.54842
G1 X148.686 Y102.323 E13.68587
G1 X150.234 Y102.773 E13.7663
G1 X150.979 Y102.981 E13.80489
G1 X152.111 Y103.292 E13.86345
G1 X152.586 Y103.464 E13.88866
G1 X153.097 Y103.753 E13.91795
G1 X153.763 Y104.265 E13.95986
G1 X154.186 Y104.697 E13.99002
G1 X154.58 Y105.193 E14.02162
G1 X154.909 Y105.698 E14.05169
G1 X155.254 Y106.399 E14.09067
G1 X155.479 Y107.039 E14.12452
G1 X155.641 Y107.833 E14.16495
G1 X155.694 Y108.488 E14.19773
G1 X155.7 Y108.918 E14.21919
G1 X155.7 Y121.082 E14.82605
G1 X155.688 Y121.899 E14.86682
G1 X155.644 Y122.52 E14.89787
G1 X155.561 Y123.084 E14.92632
G1 X155.423 Y123.69 E14.95732
G1 X155.243 Y124.258 E14.98705
G1 X155.067 Y124.707 E15.01111
G1 X154.784 Y125.264 E15.04228
G1 X154.665 Y125.45 E15.0533
G1 X154.359 Y125.853 E15.07854
G1 X153.994 Y126.202 E15.10374
G1 X153.518 Y126.532 E15.13263
G1 X153.072 Y126.77 E15.15785
G1 X152.593 Y126.934 E15.18311
G1 X151.886 Y127.033 E15.21873
G1 X151.432 Y127.044 E15.24139
G1 X149.229 Y127.041 E15.35129
G1 X134.656 Y127.067 E16.07835
G1 X100.36 Y127.067 E17.78938
G1 X84.703 Y127.037 E18.57051
G1 X83.816 Y127.039 E18.61476
G1 X83.203 Y127.031 E18.64535
G1 X82.7 Y126.984 E18.67055
G1 X82.21 Y126.859 E18.69578
G1 X81.746 Y126.658 E18.72101
G1 X81.504 Y126.544 E18.73436
G1 X81.081 Y126.268 E18.75956
G1 X80.706 Y125.929 E18.78478
G1 X80.309 Y125.412 E18.8173
G1 X79.995 Y124.851 E18.84937
G1 X79.792 Y124.372 E18.87533
G1 X79.567 Y123.63 E18.91401
G1 X79.429 Y123 E18.94618
G1 X79.349 Y122.45 E18.97391
G1 X79.303 Y121.552 E19.01877
G1 X79.301 Y121.452 E19.02376
G1 X79.3 Y109.076 E19.6412
G1 X79.311 Y108.345 E19.67768
G1 X79.368 Y107.744 E19.7078
G1 X79.518 Y107.064 E19.74254
G1 X79.777 Y106.316 E19.78203
G1 X80.057 Y105.756 E19.81327
G1 X80.521 Y105.051 E19.85537
G1 X81.037 Y104.458 E19.89459
G1 X81.583 Y103.976 E19.93093
G0 F1980 X112.924 Y93.929
;TYPE:SUPPORT
G1 F900 X113.035 Y93.718 E19.94282
G1 X113.957 Y93.209 E19.99536
G1 X114.457 Y93.028 E20.02189
G1 X114.813 Y92.846 E20.04184
G1 X115.126 Y92.846 E20.05745
G1 X115.481 Y92.663 E20.07738
G1 X116.258 Y92.663 E20.11615
G1 X116.615 Y92.483 E20.13609
G1 X118.385 Y92.483 E20.2244
G1 X118.742 Y92.663 E20.24434
G1 X119.511 Y92.663 E20.28271
G1 X119.866 Y92.846 E20.30264
G1 X120.187 Y92.846 E20.31865
G1 X120.543 Y93.028 E20.3386
G1 X120.637 Y93.028 E20.34329
G1 X121.049 Y93.209 E20.36574
G1 X121.965 Y93.712 E20.41787
G1 X122.076 Y93.934 E20.43026
G1 X121.808 Y94.302 E20.45297
G1 X121.435 Y94.455 E20.47308
G1 X118.981 Y97.719 E20.67682
G1 X118.86 Y97.718 E20.68285
G1 X118.591 Y97.538 E20.699
G1 X116.765 Y97.536 E20.7901
G1 X115.98 Y97.801 E20.83143
G1 X115.947 Y97.762 E20.83398
G1 X115.946 Y97.51 E20.84656
G1 X113.526 Y94.543 E21.03757
G1 X113.212 Y94.338 E21.05628
G1 X112.924 Y93.929 E21.08124
G0 F1980 X114.049 Y93.345
G1 F900 X120.965 Y93.345 E21.42628
G0 F1980 X120.015 Y93.006
G1 F900 X120.015 Y96.078 E21.57954
G0 F1980 X120.063 Y96.012
G1 F900 X114.93 Y96.012 E21.83563
G0 F1980 X114.681 Y95.705
G1 F900 X114.681 Y93.093 E21.96594
G0 F1980 X117.348 Y92.643
G1 F900 X117.348 Y97.376 E22.20207
G1 F1500 E15.70207
;MESH:TFT24_mount.stl
G0 F1980 X117.348 Y105.603
G0 X117.348 Y106.888
G0 X134.65 Y123.167
G1 F1500 E22.20207
G0 F1980 X134.65 Y123.267
;TYPE:WALL-INNER
G1 F900 X100.365 Y123.267 E23.91256
G1 X84.917 Y123.237 E24.68326
G1 X83.445 Y123.24 E24.7567
G1 X83.34 Y123.036 E24.76815
G1 X83.179 Y122.441 E24.7989
G1 X83.1 Y121.719 E24.83514
G1 X83.1 Y108.458 E25.49673
G1 X83.194 Y107.981 E25.52099
G1 X83.332 Y107.665 E25.53819
G1 X83.835 Y107.026 E25.57876
G1 X83.994 Y106.914 E25.58846
G1 X84.114 Y106.881 E25.59467
G1 X92.565 Y106.885 E26.01629
G1 X100.743 Y106.868 E26.4243
G1 X134.241 Y106.868 E28.09552
G1 X142.423 Y106.886 E28.50372
G1 X150.876 Y106.881 E28.92544
G1 X151 Y106.918 E28.9319
G1 X151.297 Y107.154 E28.95083
G1 X151.584 Y107.543 E28.97494
G1 X151.787 Y107.937 E28.99706
G1 X151.9 Y108.437 E29.02263
G1 X151.9 Y121.713 E29.68497
G1 X151.861 Y122.202 E29.70945
G1 X151.75 Y122.751 E29.73739
G1 X151.578 Y123.225 E29.76255
G1 X151.561 Y123.244 E29.76382
G1 X149.35 Y123.241 E29.87413
G1 X134.65 Y123.267 E30.60751
G0 F1980 X134.65 Y123.167
G0 X141.759 Y117.706
G0 X141.789 Y117.611
G1 F900 X142.355 Y117.719 E30.63626
G1 X142.932 Y117.683 E30.6651
G1 X143.482 Y117.505 E30.69394
G1 X143.97 Y117.195 E30.72279
G1 X144.364 Y116.775 E30.75152
G1 X144.643 Y116.268 E30.78039
G1 X144.787 Y115.709 E30.80919
G1 X144.787 Y115.131 E30.83803
G1 X144.643 Y114.572 E30.86682
G1 X144.364 Y114.064 E30.89574
G1 X143.97 Y113.644 E30.92447
G1 X143.482 Y113.334 E30.95331
G1 X142.932 Y113.156 E30.98215
G1 X142.355 Y113.12 E31.011
G1 X141.789 Y113.228 E31.03974
G1 X141.265 Y113.474 E31.06862
G1 X140.82 Y113.842 E31.09743
G1 X140.48 Y114.31 E31.12629
G1 X140.268 Y114.847 E31.1551
G1 X140.195 Y115.42 E31.18391
G1 X140.268 Y115.992 E31.21268
G1 X140.48 Y116.53 E31.24153
G1 X140.82 Y116.997 E31.27035
G1 X141.265 Y117.365 E31.29916
G1 X141.789 Y117.611 E31.32804
G0 F1980 X141.759 Y117.706
G0 X92.05 Y117.781
G0 X92.068 Y117.683
G1 F900 X92.645 Y117.719 E31.35688
G1 X93.211 Y117.611 E31.38563
G1 X93.735 Y117.365 E31.41451
G1 X94.18 Y116.997 E31.44332
G1 X94.52 Y116.53 E31.47214
G1 X94.732 Y115.992 E31.50099
G1 X94.805 Y115.42 E31.52976
G1 X94.732 Y114.847 E31.55858
G1 X94.52 Y114.31 E31.58738
G1 X94.18 Y113.842 E31.61624
G1 X93.735 Y113.474 E31.64505
G1 X93.211 Y113.228 E31.67393
G1 X92.645 Y113.12 E31.70268
G1 X92.068 Y113.156 E31.73152
G1 X91.518 Y113.334 E31.76036
G1 X91.03 Y113.644 E31.7892
G1 X90.636 Y114.064 E31.81793
G1 X90.357 Y114.572 E31.84685
G1 X90.213 Y115.131 E31.87565
G1 X90.213 Y115.709 E31.90448
G1 X90.357 Y116.268 E31.93328
G1 X90.636 Y116.775 E31.96215
G1 X91.03 Y117.195 E31.99089
G1 X91.518 Y117.505 E32.01973
G1 X92.068 Y117.683 E32.04857
G0 F1980 X92.143 Y117.287
;TYPE:WALL-OUTER
G1 F900 X92.62 Y117.317 E32.07241
G1 X93.087 Y117.228 E32.09613
G1 X93.519 Y117.025 E32.11995
G1 X93.886 Y116.721 E32.14372
G1 X94.167 Y116.336 E32.1675
G1 X94.342 Y115.892 E32.19131
G1 X94.402 Y115.42 E32.21505
G1 X94.342 Y114.947 E32.23884
G1 X94.167 Y114.504 E32.2626
G1 X93.886 Y114.118 E32.28642
G1 X93.519 Y113.814 E32.31019
G1 X93.087 Y113.611 E32.33401
G1 X92.62 Y113.522 E32.35773
G1 X92.143 Y113.552 E32.38157
G1 X91.69 Y113.699 E32.40533
G1 X91.287 Y113.955 E32.42915
G1 X90.962 Y114.301 E32.45283
G1 X90.732 Y114.72 E32.47668
G1 X90.613 Y115.182 E32.50048
G1 X90.613 Y115.658 E32.52423
G1 X90.732 Y116.119 E32.54798
G1 X90.962 Y116.538 E32.57183
G1 X91.287 Y116.884 E32.59551
G1 X91.69 Y117.14 E32.61933
G1 X92.143 Y117.287 E32.64309
G0 F1980 X92.343 Y117.299
G0 X92.312 Y117.797
G0 X134.65 Y123.167
G0 X134.651 Y123.667
G1 F900 X100.364 Y123.667 E34.35368
G1 X84.917 Y123.637 E35.12433
G1 X83.263 Y123.64 E35.20685
G1 X83.143 Y123.528 E35.21504
G1 X82.966 Y123.184 E35.23434
G1 X82.784 Y122.511 E35.26912
G1 X82.7 Y121.745 E35.30757
G1 X82.7 Y108.417 E35.9725
G1 X82.808 Y107.866 E36.00052
G1 X82.983 Y107.466 E36.0223
G1 X83.274 Y107.05 E36.04763
G1 X83.567 Y106.725 E36.06946
G1 X83.822 Y106.546 E36.085
G1 X84.059 Y106.481 E36.09726
G1 X92.565 Y106.485 E36.52163
G1 X100.742 Y106.468 E36.92958
G1 X134.242 Y106.468 E38.6009
G1 X142.423 Y106.486 E39.00906
G1 X150.933 Y106.481 E39.43362
G1 X151.189 Y106.557 E39.44694
G1 X151.587 Y106.873 E39.4723
G1 X151.927 Y107.334 E39.50088
G1 X152.166 Y107.798 E39.52692
G1 X152.295 Y108.356 E39.55549
G1 X152.3 Y108.416 E39.55849
G1 X152.3 Y121.733 E40.22288
G1 X152.258 Y122.255 E40.24901
G1 X152.136 Y122.859 E40.27975
G1 X151.927 Y123.436 E40.31037
G1 X151.737 Y123.644 E40.32442
G1 X149.35 Y123.641 E40.44351
G1 X134.651 Y123.667 E41.17685
G0 F1980 X134.451 Y123.667
G0 X134.451 Y123.167
G0 X141.701 Y117.679
G0 X141.913 Y117.228
G1 F900 X142.38 Y117.317 E41.20056
G1 X142.857 Y117.287 E41.22441
G1 X143.31 Y117.14 E41.24817
G1 X143.713 Y116.884 E41.27199
G1 X144.038 Y116.538 E41.29567
G1 X144.268 Y116.119 E41.31952
G1 X144.387 Y115.658 E41.34327
G1 X144.387 Y115.182 E41.36702
G1 X144.268 Y114.72 E41.39082
G1 X144.038 Y114.301 E41.41467
G1 X143.713 Y113.955 E41.43835
G1 X143.31 Y113.699 E41.46217
G1 X142.857 Y113.552 E41.48593
G1 X142.38 Y113.522 E41.50977
G1 X141.913 Y113.611 E41.53349
G1 X141.481 Y113.814 E41.55731
G1 X141.114 Y114.118 E41.58108
G1 X140.833 Y114.504 E41.6049
G1 X140.658 Y114.947 E41.62867
G1 X140.598 Y115.42 E41.65245
G1 X140.658 Y115.892 E41.67619
G1 X140.833 Y116.336 E41.7
G1 X141.114 Y116.721 E41.72378
G1 X141.481 Y117.025 E41.74755
G1 X141.913 Y117.228 E41.77137
G0 F1980 X142.109 Y117.265
G0 X141.668 Y117.985
;TYPE:SKIN
G1 F900 X142.33 Y118.111 E41.80835
G1 X143.006 Y118.069 E41.84552
G1 X143.65 Y117.86 E41.88268
G1 X144.221 Y117.497 E41.91981
G1 X144.682 Y117.005 E41.95681
G1 X145.008 Y116.413 E41.9939
G1 X145.177 Y115.758 E42.03102
G1 X145.177 Y115.082 E42.06812
G1 X145.008 Y114.427 E42.10524
G1 X144.682 Y113.834 E42.14238
G1 X144.221 Y113.342 E42.17938
G1 X143.65 Y112.979 E42.21651
G1 X143.006 Y112.77 E42.25367
G1 X142.33 Y112.728 E42.29084
G1 X141.668 Y112.854 E42.32782
G1 X141.054 Y113.142 E42.36504
G1 X140.533 Y113.573 E42.40215
G1 X140.135 Y114.121 E42.43932
G1 X139.888 Y114.749 E42.47635
G1 X139.801 Y115.42 E42.51348
G1 X139.888 Y116.09 E42.55056
G1 X140.135 Y116.719 E42.58765
G1 X140.534 Y117.266 E42.6248
G1 X141.054 Y117.697 E42.66187
G1 X141.668 Y117.985 E42.69909
G0 F1980 X149.35 Y122.851
G1 F900 X134.65 Y122.877 E43.50581
G1 X100.365 Y122.877 E45.38735
G1 X84.917 Y122.847 E46.23512
G1 X83.693 Y122.85 E46.3023
G1 X83.565 Y122.374 E46.32935
G1 X83.49 Y121.694 E46.36689
G1 X83.49 Y108.494 E47.0913
G1 X83.568 Y108.098 E47.11345
G1 X83.668 Y107.869 E47.12716
G1 X84.105 Y107.313 E47.16597
G1 X84.168 Y107.271 E47.17012
G1 X92.565 Y107.275 E47.63094
G1 X100.743 Y107.258 E48.07975
G1 X134.241 Y107.258 E49.91809
G1 X142.423 Y107.276 E50.36711
G1 X150.817 Y107.271 E50.82777
G1 X151.013 Y107.427 E50.84152
G1 X151.251 Y107.749 E50.86349
G1 X151.419 Y108.075 E50.88362
G1 X151.51 Y108.477 E50.90624
G1 X151.51 Y121.713 E51.63262
G1 X151.475 Y122.144 E51.65635
G1 X151.375 Y122.641 E51.68417
G1 X151.298 Y122.854 E51.6966
G1 X149.35 Y122.851 E51.80351
G0 F1980 X95.199 Y115.42
G1 F900 X95.112 Y114.749 E51.84064
G1 X94.865 Y114.121 E51.87767
