;FLAVOR:Marlin
;TIME:13614
;Filament used: 9.33928m, 0m
;Layer height: 0.25
;MINX:64.05
;MINY:32.815
;MINZ:0.2
;MAXX:170.95
;MAXY:199.104
;MAXZ:2.45
;POSTPROCESSED
;Generated with Cura_SteamEngine 4.8.0
T0
M140 S60
M105
M190 S60
M104 S200
M105
M109 S200
M82 ;absolute extrusion mode
M201 X500.00 Y500.00 Z100.00 E5000.00 	;Setup machine max acceleration
M203 X500.00 Y500.00 Z10.00 E50.00 	;Setup machine max feedrate
M204 P500.00 R1000.00 T500.00 		;Setup Print/Retract/Travel acceleration
M205 X8.00 Y8.00 Z0.40 E5.00 		;Setup Jerk
M220 S100 				;Reset Feedrate
M221 S100 				;Reset Flowrate
G28				;Home the Machine
#G29 				;Bed Level
G92 E0
M300 P150 S587
G92 E0
G1 F1500 E-5.5
;LAYER_COUNT:10
;LAYER:0
M107
G0 F2160 X64.818 Y36.26 Z0.2
;TYPE:SKIRT
G1 F1500 E0
G1 F900 X65.107 Y35.757 E0.01447
G1 X65.49 Y35.229 E0.03074
G1 X65.876 Y34.795 E0.04523
G1 X66.272 Y34.424 E0.05877
G1 X66.738 Y34.048 E0.0737
G1 X67.246 Y33.715 E0.08886
G1 X67.784 Y33.434 E0.104
G1 X68.395 Y33.188 E0.12043
G1 X68.896 Y33.035 E0.13349
G1 X69.442 Y32.918 E0.14742
G1 X70.153 Y32.838 E0.16527
G1 X70.337 Y32.83 E0.16987
G1 X71.286 Y32.815 E0.19354
G1 X163.842 Y32.815 E2.50236
G1 X164.54 Y32.825 E2.51977
G1 X165.078 Y32.862 E2.53323
G1 X165.855 Y32.976 E2.55282
G1 X166.499 Y33.149 E2.56945
G1 X167.051 Y33.361 E2.5842
G1 X167.651 Y33.665 E2.60098
G1 X168.256 Y34.046 E2.61881
G1 X168.538 Y34.257 E2.6276
G1 X168.977 Y34.647 E2.64225
G1 X169.434 Y35.142 E2.65905
G1 X169.767 Y35.573 E2.67264
G1 X170.05 Y36.008 E2.68558
G1 X170.333 Y36.551 E2.70086
G1 X170.58 Y37.172 E2.71753
G1 X170.737 Y37.692 E2.73108
G1 X170.885 Y38.515 E2.75194
G1 X170.937 Y39.227 E2.76975
G1 X170.95 Y40.02 E2.78953
G1 X170.95 Y82.607 E3.85187
G1 X170.94 Y83.313 E3.86948
G1 X170.922 Y83.767 E3.88082
G1 X170.844 Y86.543 E3.95009
G1 X170.844 Y89.289 E4.01859
G1 X170.932 Y92.167 E4.09042
G1 X170.95 Y93.284 E4.11828
G1 X170.95 Y135.842 E5.1799
G1 X170.937 Y136.646 E5.19995
G1 X170.891 Y137.718 E5.22672
G1 X170.85 Y138.441 E5.24478
G1 X170.773 Y141.197 E5.31356
G1 X170.773 Y143.902 E5.38104
G1 X170.852 Y146.669 E5.45009
G1 X170.931 Y148.378 E5.49276
G1 X170.935 Y148.48 E5.49531
G1 X170.95 Y149.427 E5.51894
G1 X170.95 Y191.996 E6.58083
G1 X170.94 Y192.694 E6.59824
G1 X170.904 Y193.224 E6.61149
G1 X170.786 Y194.025 E6.63169
G1 X170.616 Y194.653 E6.64792
G1 X170.406 Y195.2 E6.66253
G1 X170.106 Y195.795 E6.67915
G1 X169.72 Y196.409 E6.69725
G1 X169.527 Y196.668 E6.7053
G1 X169.134 Y197.111 E6.72008
G1 X168.543 Y197.651 E6.74005
G1 X168.06 Y198.01 E6.75506
G1 X167.772 Y198.195 E6.7636
G1 X167.228 Y198.479 E6.7789
G1 X166.578 Y198.74 E6.79638
G1 X166.06 Y198.894 E6.80986
G1 X165.552 Y199.001 E6.82281
G1 X164.833 Y199.082 E6.84086
G1 X164.663 Y199.089 E6.8451
G1 X163.714 Y199.104 E6.86878
G1 X71.158 Y199.104 E9.1776
G1 X70.46 Y199.094 E9.19501
G1 X69.922 Y199.057 E9.20846
G1 X69.145 Y198.943 E9.22805
G1 X68.498 Y198.77 E9.24476
G1 X67.94 Y198.556 E9.25967
G1 X67.339 Y198.254 E9.27644
G1 X66.878 Y197.969 E9.28996
G1 X66.458 Y197.66 E9.30297
G1 X66.029 Y197.277 E9.31732
G1 X65.65 Y196.873 E9.33113
G1 X65.306 Y196.447 E9.34479
G1 X64.947 Y195.904 E9.36103
G1 X64.669 Y195.37 E9.37605
G1 X64.421 Y194.754 E9.39261
G1 X64.266 Y194.238 E9.40605
G1 X64.154 Y193.716 E9.41937
G1 X64.073 Y193.004 E9.43725
G1 X64.065 Y192.818 E9.44189
G1 X64.05 Y191.869 E9.46557
G1 X64.05 Y149.312 E10.52716
G1 X64.06 Y148.606 E10.54477
G1 X64.111 Y147.375 E10.5755
G1 X64.151 Y146.675 E10.59299
G1 X64.227 Y143.938 E10.66129
G1 X64.227 Y141.233 E10.72877
G1 X64.147 Y138.441 E10.79844
G1 X64.129 Y138.09 E10.80721
G1 X64.065 Y136.663 E10.84284
G1 X64.05 Y135.715 E10.8665
G1 X64.05 Y93.159 E11.92806
G1 X64.06 Y92.447 E11.94582
G1 X64.078 Y91.99 E11.95723
G1 X64.156 Y89.207 E12.02668
G1 X64.156 Y86.477 E12.09478
G1 X64.068 Y83.598 E12.16663
G1 X64.05 Y82.481 E12.1945
G1 X64.05 Y39.923 E13.25611
G1 X64.06 Y39.225 E13.27353
G1 X64.098 Y38.677 E13.28723
G1 X64.219 Y37.871 E13.30756
G1 X64.386 Y37.264 E13.32326
G1 X64.596 Y36.715 E13.33793
G1 X64.818 Y36.26 E13.35055
G0 F2160 X65.178 Y36.222
G1 F900 X65.523 Y35.685 E13.36648
G1 X65.73 Y35.409 E13.37508
G1 X66.083 Y35.013 E13.38832
G1 X66.469 Y34.651 E13.40152
G1 X66.908 Y34.295 E13.41562
G1 X67.408 Y33.967 E13.43053
G1 X67.899 Y33.711 E13.44435
G1 X68.503 Y33.468 E13.46059
G1 X69.145 Y33.285 E13.47724
G1 X69.915 Y33.156 E13.49671
G1 X70.342 Y33.13 E13.50738
G1 X71.291 Y33.115 E13.53106
G1 X163.838 Y33.115 E15.83966
G1 X164.536 Y33.125 E15.85707
G1 X165.042 Y33.16 E15.86972
G1 X165.787 Y33.268 E15.8885
G1 X166.416 Y33.437 E15.90475
G1 X166.92 Y33.631 E15.91822
G1 X167.499 Y33.924 E15.93441
G1 X168.076 Y34.286 E15.9514
G1 X168.358 Y34.497 E15.96018
G1 X168.759 Y34.854 E15.97357
G1 X169.211 Y35.342 E15.99017
G1 X169.522 Y35.747 E16.00291
G1 X169.797 Y36.17 E16.01549
G1 X170.055 Y36.665 E16.02942
G1 X170.3 Y37.279 E16.04591
G1 X170.446 Y37.767 E16.05861
G1 X170.586 Y38.539 E16.07818
G1 X170.637 Y39.232 E16.09552
G1 X170.65 Y40.025 E16.1153
G1 X170.65 Y82.603 E17.17741
G1 X170.64 Y83.309 E17.19503
G1 X170.622 Y83.759 E17.20626
G1 X170.544 Y86.534 E17.27551
G1 X170.544 Y89.265 E17.34364
G1 X170.632 Y92.172 E17.41619
G1 X170.65 Y93.289 E17.44405
G1 X170.65 Y135.838 E18.50544
G1 X170.64 Y136.543 E18.52303
G1 X170.591 Y137.702 E18.55197
G1 X170.55 Y138.432 E18.57021
G1 X170.473 Y141.189 E18.63901
G1 X170.473 Y143.91 E18.70688
G1 X170.553 Y146.692 E18.77631
G1 X170.632 Y148.392 E18.81876
G1 X170.65 Y149.432 E18.84471
G1 X170.65 Y191.992 E19.90637
G1 X170.64 Y192.69 E19.92378
G1 X170.606 Y193.189 E19.93626
G1 X170.494 Y193.955 E19.95557
G1 X170.328 Y194.57 E19.97146
G1 X170.136 Y195.07 E19.98482
G1 X169.847 Y195.642 E20.00081
G1 X169.48 Y196.23 E20.0181
G1 X169.287 Y196.489 E20.02616
G1 X168.928 Y196.893 E20.03964
G1 X168.358 Y197.414 E20.0589
G1 X167.897 Y197.757 E20.07324
G1 X167.609 Y197.942 E20.08177
G1 X167.113 Y198.202 E20.09574
G1 X166.471 Y198.46 E20.113
G1 X165.988 Y198.602 E20.12556
G1 X165.491 Y198.708 E20.13824
G1 X164.813 Y198.782 E20.15525
G1 X164.658 Y198.789 E20.15912
G1 X163.709 Y198.804 E20.1828
G1 X71.162 Y198.804 E22.49139
G1 X70.464 Y198.794 E22.50881
G1 X69.958 Y198.759 E22.52146
G1 X69.213 Y198.651 E22.54024
G1 X68.58 Y198.481 E22.55659
G1 X68.071 Y198.286 E22.57018
G1 X67.478 Y197.988 E22.58674
G1 X67.046 Y197.721 E22.59941
G1 X66.639 Y197.42 E22.61203
G1 X66.246 Y197.071 E22.62514
G1 X65.878 Y196.677 E22.63859
G1 X65.551 Y196.275 E22.65152
G1 X65.2 Y195.742 E22.66744
G1 X64.946 Y195.255 E22.68114
G1 X64.702 Y194.646 E22.69751
G1 X64.556 Y194.163 E22.71009
G1 X64.448 Y193.656 E22.72302
G1 X64.373 Y192.983 E22.73992
G1 X64.365 Y192.813 E22.74416
G1 X64.35 Y191.864 E22.76784
G1 X64.35 Y149.316 E23.8292
G1 X64.36 Y148.61 E23.84681
G1 X64.411 Y147.391 E23.87725
G1 X64.45 Y146.699 E23.89454
G1 X64.527 Y143.946 E23.96324
G1 X64.527 Y141.224 E24.03114
G1 X64.448 Y138.463 E24.10004
G1 X64.428 Y138.076 E24.10971
G1 X64.365 Y136.658 E24.14512
G1 X64.35 Y135.71 E24.16877
G1 X64.35 Y93.163 E25.23011
G1 X64.36 Y92.451 E25.24787
G1 X64.378 Y92.006 E25.25898
G1 X64.456 Y89.215 E25.32863
G1 X64.456 Y86.498 E25.3964
G1 X64.368 Y83.593 E25.4689
G1 X64.35 Y82.476 E25.49677
G1 X64.35 Y39.927 E26.55816
G1 X64.36 Y39.229 E26.57557
G1 X64.396 Y38.712 E26.5885
G1 X64.511 Y37.943 E26.6079
G1 X64.674 Y37.347 E26.62331
G1 X64.866 Y36.845 E26.63672
G1 X65.178 Y36.222 E26.6541
G1 F1500 E21.1541
;MESH:ToDo.stl
G0 F2160 X67.167 Y37.887
G0 X68.135 Y38.372
G0 X79.48 Y49.495
G0 X79.55 Y49.565
;TYPE:WALL-INNER
G1 F1500 E26.6541
G1 F900 X79.55 Y72.965 E27.23781
G1 X97.95 Y72.965 E27.6968
G1 X97.95 Y49.565 E28.28052
G1 X79.55 Y49.565 E28.73951
G0 F2160 X79.8 Y49.815
;TYPE:WALL-OUTER
G1 F900 X79.8 Y72.715 E29.31075
G1 X97.7 Y72.715 E29.75727
G1 X97.7 Y49.815 E30.32851
G1 X79.8 Y49.815 E30.77503
G0 F2160 X79.8 Y50.015
G0 X79.47 Y50.015
G0 X79.45 Y50.015
G0 X108.23 Y49.495
G0 X108.3 Y49.565
;TYPE:WALL-INNER
G1 F900 X108.3 Y72.965 E31.35874
G1 X126.7 Y72.965 E31.81773
G1 X126.7 Y49.565 E32.40145
G1 X108.3 Y49.565 E32.86044
G0 F2160 X108.55 Y49.815
;TYPE:WALL-OUTER
G1 F900 X108.55 Y72.715 E33.43168
G1 X126.45 Y72.715 E33.8782
G1 X126.45 Y49.815 E34.44944
G1 X108.55 Y49.815 E34.89596
G0 F2160 X108.55 Y50.015
G0 X108.22 Y50.015
G0 X108.2 Y50.015
G0 X136.98 Y49.495
G0 X137.05 Y49.565
;TYPE:WALL-INNER
G1 F900 X137.05 Y72.965 E35.47967
G1 X155.45 Y72.965 E35.93866
G1 X155.45 Y49.565 E36.52238
G1 X137.05 Y49.565 E36.98137
G0 F2160 X137.3 Y49.815
;TYPE:WALL-OUTER
G1 F900 X137.3 Y72.715 E37.55261
G1 X155.2 Y72.715 E37.99913
G1 X155.2 Y49.815 E38.57037
G1 X137.3 Y49.815 E39.01689
G0 F2160 X137.3 Y50.015
G0 X136.97 Y50.015
G0 X136.95 Y50.015
G0 X164.968 Y36.866
G0 X164.986 Y36.768
;TYPE:WALL-INNER
G1 F900 X165.4 Y36.881 E39.02759
G1 X165.836 Y37.101 E39.03978
G1 X166.191 Y37.36 E39.05074
G1 X166.515 Y37.714 E39.06271
G1 X166.754 Y38.079 E39.07359
G1 X166.936 Y38.535 E39.08584
G1 X167.03 Y38.958 E39.09665
G1 X167.05 Y39.292 E39.10499
G1 X167.05 Y83.237 E40.20121
G1 X166.997 Y83.751 E40.2141
G1 X166.884 Y84.165 E40.2248
G1 X166.662 Y84.603 E40.23705
G1 X166.41 Y84.952 E40.24779
G1 X166.047 Y85.283 E40.26004
G1 X165.685 Y85.521 E40.27085
G1 X165.232 Y85.701 E40.28301
G1 X164.808 Y85.795 E40.29384
G1 X164.473 Y85.815 E40.30222
G1 X70.527 Y85.815 E42.64571
G1 X70.014 Y85.762 E42.65857
G1 X69.602 Y85.648 E42.66924
G1 X69.161 Y85.428 E42.68153
G1 X68.815 Y85.176 E42.69221
G1 X68.48 Y84.809 E42.7046
G1 X68.246 Y84.451 E42.71527
G1 X68.064 Y83.995 E42.72752
G1 X67.97 Y83.573 E42.7383
G1 X67.95 Y83.238 E42.74668
G1 X67.95 Y39.292 E43.84291
G1 X68.003 Y38.78 E43.85575
G1 X68.117 Y38.365 E43.86649
G1 X68.336 Y37.93 E43.87864
G1 X68.59 Y37.579 E43.88945
G1 X68.956 Y37.245 E43.90181
G1 X69.314 Y37.011 E43.91247
G1 X69.77 Y36.829 E43.92472
G1 X70.192 Y36.735 E43.93551
G1 X70.527 Y36.715 E43.94388
G1 X164.473 Y36.715 E46.28737
G1 X164.986 Y36.768 E46.30024
G0 F2160 X165.029 Y36.521
;TYPE:WALL-OUTER
G1 F900 X165.491 Y36.647 E46.31218
G1 X165.966 Y36.887 E46.32546
G1 X166.358 Y37.173 E46.33756
G1 X166.713 Y37.56 E46.35066
G1 X166.977 Y37.963 E46.36268
G1 X167.176 Y38.461 E46.37606
G1 X167.279 Y38.927 E46.38796
G1 X167.3 Y39.277 E46.39671
G1 X167.3 Y83.253 E47.49369
G1 X167.244 Y83.794 E47.50726
G1 X167.118 Y84.256 E47.51921
G1 X166.876 Y84.734 E47.53257
G1 X166.598 Y85.119 E47.54442
G1 X166.201 Y85.481 E47.55782
G1 X165.802 Y85.743 E47.56973
G1 X165.304 Y85.941 E47.5831
G1 X164.839 Y86.044 E47.59498
G1 X164.488 Y86.065 E47.60375
G1 X70.511 Y86.065 E49.94801
G1 X69.971 Y86.009 E49.96156
G1 X69.509 Y85.882 E49.97351
G1 X69.034 Y85.644 E49.98676
G1 X68.645 Y85.361 E49.99876
G1 X68.284 Y84.966 E50.01211
G1 X68.023 Y84.567 E50.024
G1 X67.824 Y84.069 E50.03738
G1 X67.721 Y83.604 E50.04926
G1 X67.7 Y83.253 E50.05803
G1 X67.7 Y39.276 E51.15504
G1 X67.756 Y38.737 E51.16856
G1 X67.883 Y38.274 E51.18054
G1 X68.124 Y37.796 E51.19389
G1 X68.402 Y37.412 E51.20572
G1 X68.799 Y37.049 E51.21914
G1 X69.198 Y36.788 E51.23103
G1 X69.696 Y36.589 E51.24441
G1 X70.161 Y36.486 E51.25629
G1 X70.512 Y36.465 E51.26506
G1 X164.489 Y36.465 E53.60932
G1 X165.029 Y36.521 E53.62287
G0 F2160 X165.222 Y36.573
G0 X165.135 Y36.891
G0 X164.929 Y37.053
;TYPE:SKIN
G1 F900 X165.295 Y37.153 E53.63233
G1 X165.687 Y37.35 E53.64328
G1 X165.995 Y37.576 E53.6528
G1 X166.288 Y37.896 E53.66363
G1 X166.495 Y38.212 E53.67305
G1 X166.658 Y38.62 E53.68401
G1 X166.741 Y38.994 E53.69357
G1 X166.76 Y39.31 E53.70146
G1 X166.76 Y83.229 E54.79703
G1 X166.712 Y83.694 E54.80869
G1 X166.612 Y84.059 E54.81813
G1 X166.413 Y84.453 E54.82914
G1 X166.191 Y84.76 E54.83859
G1 X165.869 Y85.054 E54.84947
G1 X165.551 Y85.263 E54.85896
G1 X165.148 Y85.423 E54.86978
G1 X164.773 Y85.506 E54.87936
G1 X164.455 Y85.525 E54.8873
G1 X70.536 Y85.525 E57.23012
G1 X70.074 Y85.477 E57.24171
G1 X69.701 Y85.374 E57.25136
G1 X69.311 Y85.18 E57.26223
G1 X69.01 Y84.96 E57.27153
G1 X68.711 Y84.633 E57.28258
G1 X68.505 Y84.316 E57.29201
G1 X68.342 Y83.91 E57.30293
G1 X68.259 Y83.537 E57.31246
G1 X68.24 Y83.22 E57.32038
G1 X68.24 Y39.297 E58.41604
G1 X68.288 Y38.84 E58.42751
G1 X68.39 Y38.467 E58.43715
G1 X68.582 Y38.088 E58.44775
G1 X68.812 Y37.768 E58.45758
G1 X69.132 Y37.476 E58.46839
G1 X69.449 Y37.27 E58.47782
G1 X69.855 Y37.107 E58.48873
G1 X70.228 Y37.024 E58.49826
G1 X70.545 Y37.005 E58.50618
G1 X164.464 Y37.005 E60.849
G1 X164.929 Y37.053 E60.86066
G0 F2160 X155.74 Y49.275
G1 F900 X136.76 Y49.275 E61.33412
G1 X136.76 Y73.255 E61.93231
G1 X155.74 Y73.255 E62.40576
G1 X155.74 Y49.275 E63.00395
G0 F2160 X126.99 Y49.275
G1 F900 X108.01 Y49.275 E63.47741
G1 X108.01 Y73.255 E64.07559
G1 X126.99 Y73.255 E64.54905
G1 X126.99 Y49.275 E65.14723
G0 F2160 X98.24 Y49.275
G1 F900 X79.26 Y49.275 E65.62069
G1 X79.26 Y73.255 E66.21887
G1 X98.24 Y73.255 E66.69233
G1 X98.24 Y49.275 E67.29051
G0 F2160 X79.522 Y49.537
G0 X69.323 Y85.021
G1 F900 X68.756 Y84.454 E67.31052
G1 X68.703 Y84.401
G0 F2160 X68.434 Y83.708
G1 F900 X70.058 Y85.331 E67.36779
G0 F2160 X70.539 Y85.388
G1 F900 X68.375 Y83.225 E67.44411
G0 F2160 X68.374 Y82.799
G1 F900 X70.964 Y85.389 E67.53548
G0 F2160 X71.388 Y85.389
G1 F900 X68.374 Y82.375 E67.64181
G0 F2160 X68.374 Y81.95
G1 F900 X71.813 Y85.389 E67.76313
G0 F2160 X72.237 Y85.389
G1 F900 X68.374 Y81.526 E67.89941
G0 F2160 X68.374 Y81.102
G1 F900 X72.661 Y85.389 E68.05064
G0 F2160 X73.085 Y85.389
G1 F900 X68.374 Y80.678 E68.21684
G0 F2160 X68.374 Y80.253
G1 F900 X73.51 Y85.389 E68.39802
G0 F2160 X73.934 Y85.389
G1 F900 X68.374 Y79.829 E68.59417
G0 F2160 X68.374 Y79.405
G1 F900 X74.358 Y85.389 E68.80527
G0 F2160 X74.782 Y85.389
G1 F900 X68.374 Y78.98 E69.03135
G0 F2160 X68.374 Y78.556
G1 F900 X75.207 Y85.389 E69.2724
G0 F2160 X75.631 Y85.389
G1 F900 X68.374 Y78.132 E69.52841
G0 F2160 X68.374 Y77.708
G1 F900 X76.055 Y85.389 E69.79938
G0 F2160 X76.479 Y85.389
G1 F900 X68.374 Y77.283 E70.08532
G0 F2160 X68.374 Y76.859
G1 F900 X76.904 Y85.389 E70.38624
G0 F2160 X77.328 Y85.389
G1 F900 X68.374 Y76.435 E70.70211
G0 F2160 X68.374 Y76.011
G1 F900 X77.752 Y85.389 E71.03295
G0 F2160 X78.177 Y85.389
G1 F900 X68.374 Y75.586 E71.37878
G0 F2160 X68.374 Y75.162
G1 F900 X78.601 Y85.389 E71.73956
G0 F2160 X79.025 Y85.389
G1 F900 X68.374 Y74.738 E72.1153
G0 F2160 X68.374 Y74.314
G1 F900 X79.449 Y85.389 E72.506
G0 F2160 X79.874 Y85.389
G1 F900 X68.374 Y73.889 E72.9117
G0 F2160 X68.374 Y73.465
G1 F900 X80.298 Y85.389 E73.33235
G0 F2160 X80.722 Y85.389
G1 F900 X68.374 Y73.041 E73.76796
G0 F2160 X68.374 Y72.617
G1 F900 X81.146 Y85.389 E74.21853
G0 F2160 X81.571 Y85.389
G1 F900 X68.374 Y72.192 E74.68409
G0 F2160 X68.374 Y71.768
G1 F900 X81.995 Y85.389 E75.1646
G0 F2160 X82.419 Y85.389
G1 F900 X68.374 Y71.344 E75.66008
G0 F2160 X68.374 Y70.919
G1 F900 X82.843 Y85.389 E76.17053
G0 F2160 X83.268 Y85.389
G1 F900 X68.374 Y70.495 E76.69595
G0 F2160 X68.374 Y70.071
G1 F900 X83.692 Y85.389 E77.23634
G0 F2160 X84.116 Y85.389
G1 F900 X68.374 Y69.647 E77.79168
G0 F2160 X68.374 Y69.222
G1 F900 X84.54 Y85.389 E78.362
G0 F2160 X84.965 Y85.389
G1 F900 X68.374 Y68.798 E78.94729
G0 F2160 X68.374 Y68.374
G1 F900 X85.389 Y85.389 E79.54754
G0 F2160 X85.813 Y85.389
G1 F900 X68.374 Y67.95 E80.16275
G0 F2160 X68.374 Y67.525
G1 F900 X86.238 Y85.389 E80.79295
G0 F2160 X86.662 Y85.389
G1 F900 X68.374 Y67.101 E81.43811
G0 F2160 X68.374 Y66.677
G1 F900 X87.086 Y85.389 E82.09822
G0 F2160 X87.51 Y85.389
G1 F900 X68.374 Y66.253 E82.7733
G0 F2160 X68.374 Y65.828
G1 F900 X87.935 Y85.389 E83.46336
G0 F2160 X88.359 Y85.389
G1 F900 X68.374 Y65.404 E84.16839
G0 F2160 X68.374 Y64.98
G1 F900 X88.783 Y85.389 E84.88837
