;FLAVOR:Marlin
;TIME:5688
;Filament used: 4.32191m, 0m
;Layer height: 0.25
;MINX:69.253
;MINY:86.05
;MINZ:0.2
;MAXX:176.153
;MAXY:142.95
;MAXZ:5.95
;POSTPROCESSED
;Generated with Cura_SteamEngine 4.8.0
T0
M140 S60
M105
M190 S60
M104 S200
M105
M109 S200
M82 ;absolute extrusion mode
M201 X500.00 Y500.00 Z100.00 E5000.00 	;Setup machine max acceleration
M203 X500.00 Y500.00 Z10.00 E50.00 	;Setup machine max feedrate
M204 P500.00 R1000.00 T500.00 		;Setup Print/Retract/Travel acceleration
M205 X8.00 Y8.00 Z0.40 E5.00 		;Setup Jerk
M220 S100 				;Reset Feedrate
M221 S100 				;Reset Flowrate
G28				;Home the Machine
#G29 				;Bed Level
G92 E0
M300 P150 S587
G92 E0
G1 F1500 E-5.5
;LAYER_COUNT:24
;LAYER:0
M107
G0 F2160 X71.755 Y87.423 Z0.2
;TYPE:SKIRT
G1 F1500 E0
G1 F900 X72.305 Y87.037 E0.01676
G1 X72.639 Y86.852 E0.02629
G1 X73.091 Y86.624 E0.03891
G1 X73.723 Y86.379 E0.05582
G1 X74.5 Y86.186 E0.07579
G1 X75.004 Y86.108 E0.08852
G1 X75.634 Y86.064 E0.10427
G1 X76.473 Y86.05 E0.1252
G1 X169.045 Y86.05 E2.43442
G1 X169.681 Y86.059 E2.45029
G1 X169.986 Y86.077 E2.45791
G1 X170.651 Y86.147 E2.47459
G1 X170.876 Y86.177 E2.48025
G1 X171.541 Y86.334 E2.49729
G1 X171.889 Y86.458 E2.50651
G1 X172.361 Y86.645 E2.51917
G1 X172.945 Y86.943 E2.53553
G1 X173.688 Y87.452 E2.558
G1 X174.183 Y87.88 E2.57432
G1 X174.746 Y88.513 E2.59545
G1 X175.141 Y89.082 E2.61273
G1 X175.484 Y89.701 E2.63038
G1 X175.565 Y89.856 E2.63475
G1 X175.829 Y90.535 E2.65292
G1 X176.031 Y91.352 E2.67391
G1 X176.119 Y91.945 E2.68887
G1 X176.142 Y92.425 E2.70085
G1 X176.153 Y93.193 E2.72001
G1 X176.153 Y135.848 E3.78405
G1 X176.144 Y136.478 E3.79976
G1 X176.126 Y136.78 E3.80731
G1 X176.067 Y137.357 E3.82178
G1 X176.021 Y137.703 E3.83049
G1 X175.866 Y138.345 E3.84696
G1 X175.559 Y139.159 E3.86866
G1 X175.247 Y139.764 E3.88564
G1 X175.037 Y140.082 E3.89515
G1 X174.746 Y140.49 E3.90765
G1 X174.308 Y140.993 E3.92429
G1 X173.649 Y141.579 E3.94629
G1 X173.09 Y141.97 E3.9633
G1 X172.765 Y142.149 E3.97256
G1 X172.306 Y142.38 E3.98538
G1 X171.676 Y142.623 E4.00222
G1 X170.904 Y142.815 E4.02207
G1 X170.402 Y142.893 E4.03474
G1 X169.784 Y142.936 E4.05019
G1 X168.919 Y142.95 E4.07177
G1 X76.355 Y142.95 E6.38079
G1 X75.725 Y142.941 E6.39651
G1 X75.421 Y142.923 E6.4041
G1 X74.838 Y142.863 E6.41872
G1 X74.515 Y142.82 E6.42685
G1 X73.863 Y142.664 E6.44357
G1 X73.095 Y142.375 E6.46404
G1 X72.474 Y142.052 E6.48151
G1 X71.9 Y141.675 E6.49864
G1 X71.616 Y141.469 E6.50739
G1 X71.195 Y141.09 E6.52152
G1 X70.624 Y140.444 E6.54303
G1 X70.248 Y139.909 E6.55934
G1 X70.06 Y139.573 E6.56894
G1 X69.832 Y139.125 E6.58148
G1 X69.582 Y138.479 E6.59876
G1 X69.388 Y137.698 E6.61883
G1 X69.31 Y137.2 E6.63141
G1 X69.267 Y136.583 E6.64684
G1 X69.253 Y135.716 E6.66847
G1 X69.253 Y93.123 E7.73095
G1 X69.262 Y92.539 E7.74552
G1 X69.28 Y92.24 E7.753
G1 X69.346 Y91.597 E7.76912
G1 X69.376 Y91.366 E7.77493
G1 X69.542 Y90.687 E7.79237
G1 X69.777 Y90.025 E7.80989
G1 X69.927 Y89.663 E7.81966
G1 X70.177 Y89.209 E7.83259
G1 X70.649 Y88.525 E7.85332
G1 X71.078 Y88.029 E7.86968
G1 X71.755 Y87.423 E7.89235
G0 F2160 X71.951 Y87.65
G1 F900 X72.453 Y87.298 E7.90764
G1 X72.774 Y87.12 E7.9168
G1 X73.226 Y86.892 E7.92943
G1 X73.803 Y86.669 E7.94486
G1 X74.567 Y86.478 E7.9645
G1 X75.441 Y86.374 E7.98646
G1 X75.639 Y86.364 E7.9914
G1 X76.478 Y86.35 E8.01234
G1 X169.041 Y86.35 E10.32133
G1 X169.677 Y86.359 E10.3372
G1 X169.955 Y86.376 E10.34414
G1 X170.611 Y86.445 E10.3606
G1 X170.836 Y86.475 E10.36626
G1 X171.443 Y86.618 E10.38182
G1 X171.778 Y86.736 E10.39068
G1 X172.25 Y86.923 E10.40334
G1 X172.784 Y87.196 E10.4183
G1 X173.514 Y87.696 E10.44037
G1 X173.966 Y88.088 E10.4553
G1 X174.518 Y88.708 E10.476
G1 X174.878 Y89.227 E10.49176
G1 X175.266 Y89.929 E10.51177
G1 X175.299 Y89.993 E10.51357
G1 X175.54 Y90.614 E10.53018
G1 X175.739 Y91.421 E10.55092
G1 X175.82 Y91.971 E10.56478
G1 X175.842 Y92.429 E10.57622
G1 X175.853 Y93.197 E10.59538
G1 X175.853 Y135.844 E11.65922
G1 X175.844 Y136.474 E11.67493
G1 X175.828 Y136.749 E11.6818
G1 X175.769 Y137.326 E11.69627
G1 X175.724 Y137.66 E11.70468
G1 X175.582 Y138.247 E11.71974
G1 X175.28 Y139.048 E11.7411
G1 X174.995 Y139.601 E11.75662
G1 X174.793 Y139.908 E11.76578
G1 X174.502 Y140.316 E11.77829
G1 X174.102 Y140.775 E11.79347
G1 X173.454 Y141.351 E11.8151
G1 X172.943 Y141.709 E11.83066
G1 X172.63 Y141.881 E11.83957
G1 X172.171 Y142.112 E11.85239
G1 X171.596 Y142.334 E11.86777
G1 X170.836 Y142.522 E11.8873
G1 X169.982 Y142.626 E11.90876
G1 X169.779 Y142.636 E11.91383
G1 X168.914 Y142.65 E11.93541
G1 X76.359 Y142.65 E14.2442
G1 X75.729 Y142.641 E14.25992
G1 X75.452 Y142.624 E14.26684
G1 X74.759 Y142.551 E14.28422
G1 X74.557 Y142.523 E14.28931
G1 X73.961 Y142.38 E14.3046
G1 X73.206 Y142.096 E14.32472
G1 X72.639 Y141.801 E14.34066
G1 X72.065 Y141.424 E14.3578
G1 X71.798 Y141.23 E14.36603
G1 X71.413 Y140.884 E14.37894
G1 X70.852 Y140.249 E14.40008
G1 X70.508 Y139.761 E14.41497
G1 X70.328 Y139.437 E14.42422
G1 X70.1 Y138.989 E14.43676
G1 X69.871 Y138.399 E14.45254
G1 X69.68 Y137.63 E14.47231
G1 X69.577 Y136.782 E14.49362
G1 X69.567 Y136.578 E14.49871
G1 X69.553 Y135.711 E14.52034
G1 X69.553 Y93.127 E15.58261
G1 X69.562 Y92.543 E15.59717
G1 X69.578 Y92.27 E15.604
G1 X69.644 Y91.627 E15.62012
G1 X69.673 Y91.408 E15.62563
G1 X69.824 Y90.787 E15.64157
G1 X70.059 Y90.125 E15.6591
G1 X70.428 Y89.373 E15.67999
G1 X70.894 Y88.699 E15.70043
G1 X71.285 Y88.246 E15.71536
G1 X71.951 Y87.65 E15.73765
G1 F1500 E10.23765
;MESH:Doing.stl
G0 F2160 X75.662 Y88.887
G0 X75.73 Y89.969
G0 X170.289 Y90.124
G0 X170.312 Y90.027
;TYPE:WALL-INNER
G1 F1500 E15.73765
G1 F900 X170.888 Y90.246 E15.75303
G1 X171.395 Y90.595 E15.76838
G1 X171.799 Y91.052 E15.7836
G1 X172.084 Y91.595 E15.79889
G1 X172.234 Y92.202 E15.81449
G1 X172.253 Y92.526 E15.82259
G1 X172.253 Y136.473 E16.91885
G1 X172.176 Y137.108 E16.93481
G1 X171.958 Y137.681 E16.9501
G1 X171.609 Y138.189 E16.96547
G1 X171.147 Y138.598 E16.98086
G1 X170.608 Y138.881 E16.99605
G1 X170.001 Y139.03 E17.01164
G1 X169.676 Y139.05 E17.01976
G1 X75.727 Y139.05 E19.36333
G1 X75.095 Y138.973 E19.37921
G1 X74.519 Y138.754 E19.39459
G1 X74.016 Y138.407 E19.40983
G1 X73.605 Y137.943 E19.42529
G1 X73.322 Y137.405 E19.44045
G1 X73.173 Y136.798 E19.45605
G1 X73.153 Y136.473 E19.46417
G1 X73.153 Y92.512 E20.56078
G1 X73.23 Y91.894 E20.57632
G1 X73.449 Y91.319 E20.59166
G1 X73.798 Y90.811 E20.60704
G1 X74.26 Y90.402 E20.62243
G1 X74.799 Y90.119 E20.63762
G1 X75.406 Y89.97 E20.65321
G1 X75.73 Y89.95 E20.66131
G1 X169.674 Y89.95 E23.00475
G1 X170.312 Y90.027 E23.02078
G0 F2160 X170.374 Y89.783
;TYPE:WALL-OUTER
G1 F900 X171.005 Y90.022 E23.03761
G1 X171.56 Y90.405 E23.05443
G1 X172.006 Y90.91 E23.07124
G1 X172.32 Y91.508 E23.08809
G1 X172.483 Y92.165 E23.10497
G1 X172.503 Y92.512 E23.11364
G1 X172.503 Y136.488 E24.21063
G1 X172.42 Y137.171 E24.22779
G1 X172.182 Y137.798 E24.24452
G1 X171.798 Y138.355 E24.2614
G1 X171.292 Y138.804 E24.27827
G1 X170.695 Y139.117 E24.29509
G1 X170.038 Y139.279 E24.31197
G1 X169.691 Y139.3 E24.32064
G1 X75.713 Y139.3 E26.66493
G1 X75.032 Y139.217 E26.68204
G1 X74.402 Y138.978 E26.69885
G1 X73.849 Y138.596 E26.71562
G1 X73.399 Y138.088 E26.73255
G1 X73.086 Y137.492 E26.74934
G1 X72.924 Y136.835 E26.76622
G1 X72.903 Y136.488 E26.77489
G1 X72.903 Y92.5 E27.87217
G1 X72.986 Y91.832 E27.88897
G1 X73.225 Y91.202 E27.90577
G1 X73.609 Y90.645 E27.92265
G1 X74.115 Y90.196 E27.93953
G1 X74.712 Y89.883 E27.95634
G1 X75.369 Y89.721 E27.97322
G1 X75.715 Y89.7 E27.98187
G1 X169.687 Y89.7 E30.32601
G1 X170.374 Y89.783 E30.34327
G0 F2160 X170.561 Y89.853
G0 X170.443 Y90.161
G0 X170.242 Y90.311
;TYPE:SKIN
G1 F900 X170.752 Y90.505 E30.35688
G1 X171.201 Y90.814 E30.37048
G1 X171.557 Y91.216 E30.38387
G1 X171.81 Y91.697 E30.39743
G1 X171.946 Y92.246 E30.41154
G1 X171.963 Y92.535 E30.41876
G1 X171.963 Y136.454 E31.51432
G1 X171.892 Y137.038 E31.529
G1 X171.7 Y137.542 E31.54245
G1 X171.388 Y137.999 E31.55626
G1 X170.983 Y138.356 E31.56972
G1 X170.505 Y138.607 E31.58319
G1 X169.959 Y138.742 E31.59722
G1 X169.658 Y138.76 E31.60474
G1 X75.746 Y138.76 E33.94739
G1 X75.165 Y138.689 E33.96199
G1 X74.653 Y138.495 E33.97565
G1 X74.21 Y138.189 E33.98908
G1 X73.847 Y137.779 E34.00274
G1 X73.596 Y137.302 E34.01618
G1 X73.461 Y136.756 E34.03021
G1 X73.443 Y136.455 E34.03774
G1 X73.443 Y92.532 E35.1334
G1 X73.514 Y91.963 E35.1477
G1 X73.707 Y91.458 E35.16119
G1 X74.019 Y91.001 E35.17499
G1 X74.424 Y90.644 E35.18846
G1 X74.902 Y90.393 E35.20193
G1 X75.448 Y90.258 E35.21596
G1 X75.748 Y90.24 E35.22345
G1 X169.655 Y90.24 E37.56597
G1 X170.242 Y90.311 E37.58072
G0 F2160 X171.082 Y90.896
G1 F900 X171.187 Y91.001 E37.58443
G0 F2160 X171.739 Y91.977
G1 F900 X170.204 Y90.442 E37.63858
G0 F2160 X169.721 Y90.384
G1 F900 X171.824 Y92.486 E37.71275
G0 F2160 X171.827 Y92.914
G1 F900 X169.287 Y90.374 E37.80236
G0 F2160 X168.863 Y90.374
G1 F900 X171.827 Y93.338 E37.90692
G0 F2160 X171.827 Y93.763
G1 F900 X168.439 Y90.374 E38.02646
G0 F2160 X168.014 Y90.374
G1 F900 X171.827 Y94.187 E38.16097
G0 F2160 X171.827 Y94.611
G1 F900 X167.59 Y90.374 E38.31044
G0 F2160 X167.166 Y90.374
G1 F900 X171.827 Y95.035 E38.47487
G0 F2160 X171.827 Y95.46
G1 F900 X166.742 Y90.374 E38.65428
G0 F2160 X166.317 Y90.374
G1 F900 X171.827 Y95.884 E38.84866
G0 F2160 X171.827 Y96.308
G1 F900 X165.893 Y90.374 E39.058
G0 F2160 X165.469 Y90.374
G1 F900 X171.827 Y96.732 E39.28229
G0 F2160 X171.827 Y97.157
G1 F900 X165.045 Y90.374 E39.52156
G0 F2160 X164.62 Y90.374
G1 F900 X171.827 Y97.581 E39.77581
G0 F2160 X171.827 Y98.005
G1 F900 X164.196 Y90.374 E40.04501
G0 F2160 X163.772 Y90.374
G1 F900 X171.827 Y98.429 E40.32917
G0 F2160 X171.827 Y98.854
G1 F900 X163.348 Y90.374 E40.62831
G0 F2160 X162.923 Y90.374
G1 F900 X171.827 Y99.278 E40.94242
G0 F2160 X171.827 Y99.702
G1 F900 X162.499 Y90.374 E41.27149
G0 F2160 X162.075 Y90.374
G1 F900 X171.827 Y100.127 E41.61554
G0 F2160 X171.827 Y100.551
G1 F900 X161.65 Y90.374 E41.97456
G0 F2160 X161.226 Y90.374
G1 F900 X171.827 Y100.975 E42.34854
G0 F2160 X171.827 Y101.399
G1 F900 X160.802 Y90.374 E42.73748
G0 F2160 X160.378 Y90.374
G1 F900 X171.827 Y101.824 E43.14139
G0 F2160 X171.827 Y102.248
G1 F900 X159.953 Y90.374 E43.56028
G0 F2160 X159.529 Y90.374
G1 F900 X171.827 Y102.672 E43.99412
G0 F2160 X171.827 Y103.096
G1 F900 X159.105 Y90.374 E44.44292
G0 F2160 X158.681 Y90.374
G1 F900 X171.827 Y103.521 E44.9067
G0 F2160 X171.827 Y103.945
G1 F900 X158.256 Y90.374 E45.38546
G0 F2160 X157.832 Y90.374
G1 F900 X171.827 Y104.369 E45.87917
G0 F2160 X171.827 Y104.793
G1 F900 X157.408 Y90.374 E46.38784
G0 F2160 X156.984 Y90.374
G1 F900 X171.827 Y105.218 E46.91148
G0 F2160 X171.827 Y105.642
G1 F900 X156.559 Y90.374 E47.4501
G0 F2160 X156.135 Y90.374
G1 F900 X171.827 Y106.066 E48.00368
G0 F2160 X171.827 Y106.49
G1 F900 X155.711 Y90.374 E48.57221
G0 F2160 X155.287 Y90.374
G1 F900 X171.827 Y106.915 E49.15573
G0 F2160 X171.827 Y107.339
G1 F900 X154.862 Y90.374 E49.75421
G0 F2160 X154.438 Y90.374
G1 F900 X171.827 Y107.763 E50.36766
G0 F2160 X171.827 Y108.188
G1 F900 X154.014 Y90.374 E50.99607
G0 F2160 X153.589 Y90.374
G1 F900 X171.827 Y108.612 E51.63947
G0 F2160 X171.827 Y109.036
G1 F900 X153.165 Y90.374 E52.29782
G0 F2160 X152.741 Y90.374
G1 F900 X171.827 Y109.46 E52.97113
G0 F2160 X171.827 Y109.885
G1 F900 X152.317 Y90.374 E53.65942
G0 F2160 X151.892 Y90.374
G1 F900 X171.827 Y110.309 E54.36268
G0 F2160 X171.827 Y110.733
G1 F900 X151.468 Y90.374 E55.0809
G0 F2160 X151.044 Y90.374
G1 F900 X171.827 Y111.157 E55.81407
G0 F2160 X171.827 Y111.582
G1 F900 X150.62 Y90.374 E56.56223
G0 F2160 X150.195 Y90.374
G1 F900 X171.827 Y112.006 E57.32535
G0 F2160 X171.827 Y112.43
G1 F900 X149.771 Y90.374 E58.10344
G0 F2160 X149.347 Y90.374
G1 F900 X171.827 Y112.854 E58.89648
G0 F2160 X171.827 Y113.279
G1 F900 X148.923 Y90.374 E59.7045
G0 F2160 X148.498 Y90.374
G1 F900 X171.827 Y113.703 E60.52749
G0 F2160 X171.827 Y114.127
G1 F900 X148.074 Y90.374 E61.36544
G0 F2160 X147.65 Y90.374
G1 F900 X171.827 Y114.552 E62.21837
G0 F2160 X171.827 Y114.976
G1 F900 X147.225 Y90.374 E63.08627
G0 F2160 X146.801 Y90.374
G1 F900 X171.827 Y115.4 E63.96913
G0 F2160 X171.827 Y115.824
G1 F900 X146.377 Y90.374 E64.86695
G0 F2160 X145.953 Y90.374
G1 F900 X171.827 Y116.249 E65.77974
G0 F2160 X171.827 Y116.673
G1 F900 X145.528 Y90.374 E66.70751
G0 F2160 X145.104 Y90.374
G1 F900 X171.827 Y117.097 E67.65024
G0 F2160 X171.827 Y117.521
G1 F900 X144.68 Y90.374 E68.60792
G0 F2160 X144.256 Y90.374
G1 F900 X171.827 Y117.946 E69.58058
G0 F2160 X171.827 Y118.37
G1 F900 X143.831 Y90.374 E70.56821
G0 F2160 X143.407 Y90.374
G1 F900 X171.827 Y118.794 E71.57081
G0 F2160 X171.827 Y119.218
G1 F900 X142.983 Y90.374 E72.58836
G0 F2160 X142.559 Y90.374
G1 F900 X171.827 Y119.643 E73.62088
G0 F2160 X171.827 Y120.067
G1 F900 X142.134 Y90.374 E74.66838
G0 F2160 X141.71 Y90.374
G1 F900 X171.827 Y120.491 E75.73084
G0 F2160 X171.827 Y120.915
G1 F900 X141.286 Y90.374 E76.80826
G0 F2160 X140.862 Y90.374
G1 F900 X171.827 Y121.34 E77.90065
G0 F2160 X171.827 Y121.764
G1 F900 X140.437 Y90.374 E79.00802
G0 F2160 X140.013 Y90.374
G1 F900 X171.827 Y122.188 E80.13034
G0 F2160 X171.827 Y122.613
G1 F900 X139.589 Y90.374 E81.26764
G0 F2160 X139.164 Y90.374
G1 F900 X171.827 Y123.037 E82.41992
G0 F2160 X171.827 Y123.461
G1 F900 X138.74 Y90.374 E83.58715
G0 F2160 X138.316 Y90.374
G1 F900 X171.827 Y123.885 E84.76934
G0 F2160 X171.827 Y124.31
G1 F900 X137.892 Y90.374 E85.96651
G0 F2160 X137.467 Y90.374
G1 F900 X171.827 Y124.734 E87.17865
G0 F2160 X171.827 Y125.158
G1 F900 X137.043 Y90.374 E88.40575
G0 F2160 X136.619 Y90.374
G1 F900 X171.827 Y125.582 E89.64781
G0 F2160 X171.827 Y126.007
G1 F900 X136.195 Y90.374 E90.90484
G0 F2160 X135.77 Y90.374
G1 F900 X171.827 Y126.431 E92.17685
G0 F2160 X171.827 Y126.855
G1 F900 X135.346 Y90.374 E93.46381
G0 F2160 X134.922 Y90.374
G1 F900 X171.827 Y127.279 E94.76574
G0 F2160 X171.827 Y127.704
G1 F900 X134.498 Y90.374 E96.08263
G0 F2160 X134.073 Y90.374
G1 F900 X171.827 Y128.128 E97.41451
G0 F2160 X171.827 Y128.552
G1 F900 X133.649 Y90.374 E98.76134
G0 F2160 X133.225 Y90.374
G1 F900 X171.827 Y128.976 E100.12313
G0 F2160 X171.827 Y129.401
G1 F900 X132.801 Y90.374 E101.4999
G0 F2160 X132.376 Y90.374
G1 F900 X171.827 Y129.825 E102.89164
G0 F2160 X171.827 Y130.249
G1 F900 X131.952 Y90.374 E104.29833
G0 F2160 X131.528 Y90.374
G1 F900 X171.827 Y130.674 E105.72001
G0 F2160 X171.827 Y131.098
G1 F900 X131.103 Y90.374 E107.15666
G0 F2160 X130.679 Y90.374
G1 F900 X171.827 Y131.522 E108.60826
G0 F2160 X171.827 Y131.946
G1 F900 X130.255 Y90.374 E110.07483
G0 F2160 X129.831 Y90.374
G1 F900 X171.827 Y132.371 E111.55637
G0 F2160 X171.827 Y132.795
G1 F900 X129.406 Y90.374 E113.05288
G0 F2160 X128.982 Y90.374
G1 F900 X171.827 Y133.219 E114.56436
G0 F2160 X171.827 Y133.643
G1 F900 X128.558 Y90.374 E116.09079
G0 F2160 X128.134 Y90.374
G1 F900 X171.827 Y134.068 E117.63219
G0 F2160 X171.827 Y134.492
G1 F900 X127.709 Y90.374 E119.18858
G0 F2160 X127.285 Y90.374
G1 F900 X171.827 Y134.916 E120.75992
G0 F2160 X171.827 Y135.34
G1 F900 X126.861 Y90.374 E122.34621
G0 F2160 X126.437 Y90.374
G1 F900 X171.827 Y135.765 E123.94748
G0 F2160 X171.827 Y136.189
G1 F900 X126.012 Y90.374 E125.56373
G0 F2160 X125.588 Y90.374
G1 F900 X171.809 Y136.596 E127.19432
G0 F2160 X171.764 Y136.974
G1 F900 X125.164 Y90.374 E128.83826
G0 F2160 X124.74 Y90.374
G1 F900 X171.652 Y137.287 E130.49323
G0 F2160 X171.514 Y137.573
G1 F900 X124.315 Y90.374 E132.1583
G0 F2160 X123.891 Y90.374
G1 F900 X171.342 Y137.825 E133.83226
G0 F2160 X171.133 Y138.041
G1 F900 X123.467 Y90.374 E135.51383
