;FLAVOR:Marlin
;TIME:7175
;Filament used: 4.70272m, 0m
;Layer height: 0.2
;MINX:72.962
;MINY:85.95
;MINZ:0.2
;MAXX:179.862
;MAXY:142.85
;MAXZ:6.2
;POSTPROCESSED
;Generated with Cura_SteamEngine 4.8.0
T0
M140 S60
M105
M190 S60
M104 S200
M105
M109 S200
M82 ;absolute extrusion mode
M201 X500.00 Y500.00 Z100.00 E5000.00 	;Setup machine max acceleration
M203 X500.00 Y500.00 Z10.00 E50.00 	;Setup machine max feedrate
M204 P500.00 R1000.00 T500.00 		;Setup Print/Retract/Travel acceleration
M205 X8.00 Y8.00 Z0.40 E5.00 		;Setup Jerk
M220 S100 				;Reset Feedrate
M221 S100 				;Reset Flowrate
G28				;Home the Machine
#G29 				;Bed Level
G92 E0
M300 P150 S587
G92 E0
G1 F1500 E-5.5
;LAYER_COUNT:31
;LAYER:0
M107
G0 F2160 X75.463 Y87.323 Z0.2
;TYPE:SKIRT
G1 F1500 E0
G1 F900 X76.013 Y86.937 E0.01676
G1 X76.347 Y86.752 E0.02629
G1 X76.799 Y86.524 E0.03891
G1 X77.431 Y86.279 E0.05582
G1 X78.211 Y86.085 E0.07587
G1 X78.713 Y86.007 E0.08855
G1 X79.331 Y85.964 E0.104
G1 X80.196 Y85.95 E0.12558
G1 X172.754 Y85.95 E2.43445
G1 X173.39 Y85.959 E2.45031
G1 X173.695 Y85.977 E2.45794
G1 X174.36 Y86.047 E2.47462
G1 X174.585 Y86.077 E2.48028
G1 X175.245 Y86.232 E2.49719
G1 X176.024 Y86.527 E2.51797
G1 X176.641 Y86.848 E2.53532
G1 X177.215 Y87.225 E2.55245
G1 X177.499 Y87.431 E2.5612
G1 X177.914 Y87.804 E2.57512
G1 X178.487 Y88.451 E2.59668
G1 X178.86 Y88.978 E2.61278
G1 X179.052 Y89.322 E2.62261
G1 X179.28 Y89.768 E2.63511
G1 X179.537 Y90.433 E2.65289
G1 X179.726 Y91.198 E2.67255
G1 X179.805 Y91.7 E2.68522
G1 X179.848 Y92.317 E2.70065
G1 X179.862 Y93.184 E2.72228
G1 X179.862 Y135.75 E3.7841
G1 X179.853 Y136.359 E3.79929
G1 X179.835 Y136.66 E3.80681
G1 X179.769 Y137.303 E3.82294
G1 X179.739 Y137.534 E3.82875
G1 X179.57 Y138.222 E3.84642
G1 X179.318 Y138.926 E3.86507
G1 X179.236 Y139.133 E3.87063
G1 X178.955 Y139.664 E3.88561
G1 X178.463 Y140.379 E3.90726
G1 X178.034 Y140.874 E3.9236
G1 X177.361 Y141.476 E3.94613
G1 X176.798 Y141.87 E3.96327
G1 X176.473 Y142.049 E3.97252
G1 X176.014 Y142.28 E3.98534
G1 X175.384 Y142.523 E4.00219
G1 X174.615 Y142.714 E4.02195
G1 X174.111 Y142.792 E4.03467
G1 X173.481 Y142.836 E4.05043
G1 X172.642 Y142.85 E4.07136
G1 X80.064 Y142.85 E6.38073
G1 X79.434 Y142.841 E6.39644
G1 X79.13 Y142.823 E6.40404
G1 X78.547 Y142.763 E6.41866
G1 X78.224 Y142.72 E6.42679
G1 X77.572 Y142.564 E6.44351
G1 X76.727 Y142.242 E6.46607
G1 X76.14 Y141.939 E6.48255
G1 X75.427 Y141.448 E6.50414
G1 X74.921 Y141.008 E6.52087
G1 X74.37 Y140.388 E6.54156
G1 X73.974 Y139.818 E6.55887
G1 X73.631 Y139.199 E6.57653
G1 X73.55 Y139.044 E6.58089
G1 X73.286 Y138.365 E6.59906
G1 X73.083 Y137.545 E6.62013
G1 X72.996 Y136.955 E6.63501
G1 X72.973 Y136.458 E6.64742
G1 X72.962 Y135.71 E6.66608
G1 X72.962 Y93.016 E7.73109
G1 X72.971 Y92.419 E7.74598
G1 X72.989 Y92.118 E7.7535
G1 X73.049 Y91.535 E7.76812
G1 X73.093 Y91.202 E7.7765
G1 X73.252 Y90.546 E7.79334
G1 X73.554 Y89.745 E7.8147
G1 X73.869 Y89.133 E7.83187
G1 X74.36 Y88.421 E7.85344
G1 X74.789 Y87.927 E7.86976
G1 X75.463 Y87.323 E7.89234
G0 F2160 X75.659 Y87.55
G1 F900 X76.161 Y87.198 E7.90763
G1 X76.482 Y87.02 E7.91679
G1 X76.934 Y86.792 E7.92942
G1 X77.511 Y86.569 E7.94485
G1 X78.279 Y86.378 E7.96459
G1 X79.133 Y86.274 E7.98605
G1 X79.336 Y86.264 E7.99112
G1 X80.201 Y86.25 E8.0127
G1 X172.75 Y86.25 E10.32134
G1 X173.386 Y86.259 E10.33721
G1 X173.664 Y86.276 E10.34416
G1 X174.32 Y86.345 E10.36061
G1 X174.545 Y86.375 E10.36627
G1 X175.148 Y86.516 E10.38172
G1 X175.913 Y86.806 E10.40213
G1 X176.476 Y87.099 E10.41796
G1 X177.05 Y87.476 E10.43509
G1 X177.317 Y87.67 E10.44333
G1 X177.697 Y88.01 E10.45604
G1 X178.26 Y88.646 E10.47723
G1 X178.599 Y89.128 E10.49193
G1 X178.785 Y89.458 E10.50138
G1 X179.013 Y89.904 E10.51388
G1 X179.248 Y90.511 E10.53011
G1 X179.434 Y91.266 E10.54951
G1 X179.538 Y92.118 E10.57092
G1 X179.548 Y92.322 E10.57602
G1 X179.562 Y93.189 E10.59765
G1 X179.562 Y135.746 E11.65924
G1 X179.553 Y136.355 E11.67443
G1 X179.537 Y136.63 E11.6813
G1 X179.471 Y137.273 E11.69742
G1 X179.442 Y137.492 E11.70293
G1 X179.288 Y138.121 E11.71909
G1 X179.036 Y138.825 E11.73774
G1 X178.96 Y139.016 E11.74287
G1 X178.703 Y139.501 E11.75656
G1 X178.218 Y140.205 E11.77789
G1 X177.827 Y140.657 E11.79279
G1 X177.165 Y141.249 E11.81495
G1 X176.651 Y141.609 E11.8306
G1 X176.338 Y141.781 E11.83951
G1 X175.879 Y142.012 E11.85233
G1 X175.304 Y142.234 E11.8677
G1 X174.548 Y142.422 E11.88714
G1 X173.674 Y142.526 E11.90909
G1 X173.476 Y142.536 E11.91404
G1 X172.637 Y142.55 E11.93497
G1 X80.068 Y142.55 E14.24411
G1 X79.438 Y142.541 E14.25983
G1 X79.161 Y142.524 E14.26675
G1 X78.468 Y142.451 E14.28414
G1 X78.266 Y142.423 E14.28922
G1 X77.67 Y142.28 E14.30451
G1 X76.839 Y141.964 E14.32669
G1 X76.303 Y141.687 E14.34174
G1 X75.601 Y141.204 E14.363
G1 X75.139 Y140.802 E14.37827
G1 X74.598 Y140.193 E14.39859
G1 X74.237 Y139.673 E14.41438
G1 X73.849 Y138.971 E14.43439
G1 X73.816 Y138.907 E14.43619
G1 X73.576 Y138.286 E14.4528
G1 X73.375 Y137.477 E14.47359
G1 X73.295 Y136.929 E14.4874
G1 X73.273 Y136.453 E14.49929
G1 X73.262 Y135.705 E14.51795
G1 X73.262 Y93.021 E15.58271
G1 X73.271 Y92.424 E15.5976
G1 X73.288 Y92.149 E15.60448
G1 X73.361 Y91.451 E15.62198
G1 X73.39 Y91.244 E15.6272
G1 X73.536 Y90.644 E15.6426
G1 X73.833 Y89.855 E15.66363
G1 X74.121 Y89.297 E15.67929
G1 X74.605 Y88.595 E15.70056
G1 X74.996 Y88.144 E15.71545
G1 X75.659 Y87.55 E15.73766
G1 F1500 E10.23766
;MESH:ToDo.stl
G0 F2160 X79.371 Y88.787
G0 X79.439 Y89.869
G0 X173.95 Y90.221
;TYPE:WALL-INNER
G1 F1500 E15.73766
G1 F900 X174.455 Y90.413 E15.75114
G1 X174.897 Y90.718 E15.76453
G1 X175.26 Y91.128 E15.77819
G1 X175.511 Y91.605 E15.79164
G1 X175.645 Y92.149 E15.80561
G1 X175.662 Y92.427 E15.81256
G1 X175.662 Y136.361 E16.9085
G1 X175.591 Y136.935 E16.92293
G1 X175.399 Y137.44 E16.9364
G1 X175.092 Y137.887 E16.94993
G1 X174.682 Y138.25 E16.96359
G1 X174.208 Y138.499 E16.97695
G1 X173.662 Y138.633 E16.99097
G1 X173.383 Y138.65 E16.99794
G1 X79.456 Y138.65 E19.34096
G1 X78.874 Y138.579 E19.35559
G1 X78.368 Y138.387 E19.36909
G1 X77.922 Y138.08 E19.3826
G1 X77.564 Y137.675 E19.39608
G1 X77.313 Y137.196 E19.40957
G1 X77.178 Y136.652 E19.42355
G1 X77.162 Y136.374 E19.4305
G1 X77.162 Y92.444 E20.52634
G1 X77.233 Y91.863 E20.54094
G1 X77.424 Y91.36 E20.55436
G1 X77.731 Y90.913 E20.56788
G1 X78.141 Y90.55 E20.58154
G1 X78.615 Y90.301 E20.5949
G1 X79.161 Y90.167 E20.60893
G1 X79.441 Y90.15 E20.61592
G1 X173.364 Y90.15 E22.95884
G1 X173.95 Y90.221 E22.97357
G0 F2160 X174.021 Y89.927
G1 F900 X174.596 Y90.146 E22.98891
G1 X175.099 Y90.493 E23.00416
G1 X175.51 Y90.957 E23.01962
G1 X175.793 Y91.495 E23.03478
G1 X175.942 Y92.102 E23.05038
G1 X175.943 Y92.13 E23.05107
G1 X175.96 Y92.407 E23.058
G1 X175.962 Y92.427 E23.0585
G1 X175.962 Y136.382 E24.15496
G1 X175.885 Y137.006 E24.17064
G1 X175.666 Y137.581 E24.18599
G1 X175.317 Y138.089 E24.20137
G1 X174.855 Y138.498 E24.21676
G1 X174.316 Y138.781 E24.23195
G1 X174.28 Y138.789 E24.23287
G1 X173.734 Y138.923 E24.24689
G1 X173.709 Y138.93 E24.24754
G1 X173.681 Y138.931 E24.24824
G1 X173.403 Y138.948 E24.25518
G1 X173.385 Y138.95 E24.25564
G1 X79.436 Y138.95 E26.5992
G1 X78.803 Y138.873 E26.61511
G1 X78.227 Y138.654 E26.63048
G1 X77.72 Y138.305 E26.64584
G1 X77.316 Y137.848 E26.66105
G1 X77.031 Y137.305 E26.67635
G1 X76.888 Y136.724 E26.69127
G1 X76.881 Y136.698 E26.69195
G1 X76.88 Y136.67 E26.69264
G1 X76.864 Y136.393 E26.69957
G1 X76.862 Y136.374 E26.70004
G1 X76.862 Y92.424 E27.79638
G1 X76.939 Y91.792 E27.81226
G1 X77.157 Y91.219 E27.82755
G1 X77.506 Y90.711 E27.84293
G1 X77.968 Y90.302 E27.85832
G1 X78.507 Y90.019 E27.87351
G1 X78.543 Y90.011 E27.87443
G1 X79.089 Y89.877 E27.88845
G1 X79.114 Y89.87 E27.8891
G1 X79.142 Y89.869 E27.8898
G1 X79.421 Y89.852 E27.89677
G1 X79.439 Y89.85 E27.89722
G1 X173.383 Y89.85 E30.24066
G1 X174.021 Y89.927 E30.2567
G0 F2160 X174.083 Y89.683
;TYPE:WALL-OUTER
G1 F900 X174.713 Y89.922 E30.2735
G1 X175.266 Y90.304 E30.29027
G1 X175.716 Y90.812 E30.3072
G1 X176.029 Y91.408 E30.32399
G1 X176.191 Y92.065 E30.34087
G1 X176.212 Y92.412 E30.34954
G1 X176.212 Y136.397 E31.44675
G1 X176.129 Y137.068 E31.46362
G1 X175.89 Y137.698 E31.48043
G1 X175.506 Y138.255 E31.4973
G1 X175 Y138.704 E31.51418
G1 X174.403 Y139.017 E31.53099
G1 X173.746 Y139.179 E31.54787
G1 X173.4 Y139.2 E31.55652
G1 X79.422 Y139.2 E33.90081
G1 X78.741 Y139.117 E33.91792
G1 X78.11 Y138.878 E33.93476
G1 X77.555 Y138.495 E33.95158
G1 X77.109 Y137.99 E33.96838
G1 X76.795 Y137.392 E33.98523
G1 X76.632 Y136.735 E34.00212
G1 X76.612 Y136.388 E34.01079
G1 X76.612 Y92.41 E35.10782
G1 X76.695 Y91.729 E35.12494
G1 X76.933 Y91.102 E35.14167
G1 X77.317 Y90.545 E35.15854
G1 X77.823 Y90.096 E35.17542
G1 X78.42 Y89.783 E35.19223
G1 X79.077 Y89.621 E35.20911
G1 X79.424 Y89.6 E35.21778
G1 X173.396 Y89.6 E37.56193
G1 X174.083 Y89.683 E37.57919
G0 F2160 X174.27 Y89.754
G0 X174.153 Y90.061
G0 X173.88 Y90.505
;TYPE:SKIN
G1 F900 X174.321 Y90.672 E37.59095
G1 X174.703 Y90.936 E37.60253
G1 X175.018 Y91.292 E37.61439
G1 X175.237 Y91.707 E37.6261
G1 X175.357 Y92.193 E37.63858
G1 X175.372 Y92.436 E37.64466
G1 X175.372 Y136.342 E38.7399
G1 X175.307 Y136.865 E38.75304
G1 X175.141 Y137.302 E38.7647
G1 X174.871 Y137.697 E38.77664
G1 X174.518 Y138.008 E38.78838
G1 X174.105 Y138.225 E38.80001
G1 X173.619 Y138.345 E38.8125
G1 X173.366 Y138.36 E38.81882
G1 X79.475 Y138.36 E41.16094
G1 X78.944 Y138.295 E41.17429
G1 X78.504 Y138.128 E41.18603
G1 X78.116 Y137.861 E41.19778
G1 X77.806 Y137.511 E41.20944
G1 X77.587 Y137.094 E41.22119
G1 X77.466 Y136.608 E41.23368
G1 X77.452 Y136.365 E41.23975
G1 X77.452 Y92.463 E42.33489
G1 X77.517 Y91.933 E42.34821
G1 X77.682 Y91.498 E42.35982
G1 X77.952 Y91.103 E42.37175
G1 X78.305 Y90.792 E42.38349
G1 X78.718 Y90.575 E42.39513
G1 X79.204 Y90.455 E42.40762
G1 X79.458 Y90.44 E42.41396
G1 X173.345 Y90.44 E44.75598
G1 X173.88 Y90.505 E44.76943
G0 F2160 X173.785 Y90.629
G1 F900 X175.174 Y92.018 E44.81843
G0 F2160 X175.236 Y92.505
G1 F900 X173.306 Y90.574 E44.88653
G0 F2160 X172.881 Y90.574
G1 F900 X175.236 Y92.929 E44.96961
G0 F2160 X175.236 Y93.353
G1 F900 X172.457 Y90.574 E45.06765
G0 F2160 X172.033 Y90.574
G1 F900 X175.236 Y93.777 E45.18064
G0 F2160 X175.236 Y94.202
G1 F900 X171.609 Y90.574 E45.30861
G0 F2160 X171.184 Y90.574
G1 F900 X175.236 Y94.626 E45.45156
G0 F2160 X175.236 Y95.05
G1 F900 X170.76 Y90.574 E45.60946
G0 F2160 X170.336 Y90.574
G1 F900 X175.236 Y95.474 E45.78232
G0 F2160 X175.236 Y95.899
G1 F900 X169.912 Y90.574 E45.97016
G0 F2160 X169.487 Y90.574
G1 F900 X175.236 Y96.323 E46.17297
G0 F2160 X175.236 Y96.747
G1 F900 X169.063 Y90.574 E46.39074
G0 F2160 X168.639 Y90.574
G1 F900 X175.236 Y97.172 E46.62348
G0 F2160 X175.236 Y97.596
G1 F900 X168.215 Y90.574 E46.87118
G0 F2160 X167.79 Y90.574
G1 F900 X175.236 Y98.02 E47.13386
G0 F2160 X175.236 Y98.444
G1 F900 X167.366 Y90.574 E47.4115
G0 F2160 X166.942 Y90.574
G1 F900 X175.236 Y98.869 E47.70411
G0 F2160 X175.236 Y99.293
G1 F900 X166.517 Y90.574 E48.0117
G0 F2160 X166.093 Y90.574
G1 F900 X175.236 Y99.717 E48.33424
G0 F2160 X175.236 Y100.141
G1 F900 X165.669 Y90.574 E48.67174
G0 F2160 X165.245 Y90.574
G1 F900 X175.236 Y100.566 E49.02422
G0 F2160 X175.236 Y100.99
G1 F900 X164.82 Y90.574 E49.39167
G0 F2160 X164.396 Y90.574
G1 F900 X175.236 Y101.414 E49.77408
G0 F2160 X175.236 Y101.838
G1 F900 X163.972 Y90.574 E50.17145
G0 F2160 X163.548 Y90.574
G1 F900 X175.236 Y102.263 E50.58379
G0 F2160 X175.236 Y102.687
G1 F900 X163.123 Y90.574 E51.01111
G0 F2160 X162.699 Y90.574
G1 F900 X175.236 Y103.111 E51.45339
G0 F2160 X175.236 Y103.535
G1 F900 X162.275 Y90.574 E51.91062
G0 F2160 X161.851 Y90.574
G1 F900 X175.236 Y103.96 E52.38283
G0 F2160 X175.236 Y104.384
G1 F900 X161.426 Y90.574 E52.87002
G0 F2160 X161.002 Y90.574
G1 F900 X175.236 Y104.808 E53.37216
G0 F2160 X175.236 Y105.233
G1 F900 X160.578 Y90.574 E53.88928
G0 F2160 X160.154 Y90.574
G1 F900 X175.236 Y105.657 E54.42135
G0 F2160 X175.236 Y106.081
G1 F900 X159.729 Y90.574 E54.9684
G0 F2160 X159.305 Y90.574
G1 F900 X175.236 Y106.505 E55.53041
G0 F2160 X175.236 Y106.93
G1 F900 X158.881 Y90.574 E56.1074
G0 F2160 X158.456 Y90.574
G1 F900 X175.236 Y107.354 E56.69936
G0 F2160 X175.236 Y107.778
G1 F900 X158.032 Y90.574 E57.30628
G0 F2160 X157.608 Y90.574
G1 F900 X175.236 Y108.202 E57.92815
G0 F2160 X175.236 Y108.627
G1 F900 X157.184 Y90.574 E58.565
G0 F2160 X156.759 Y90.574
G1 F900 X175.236 Y109.051 E59.21683
G0 F2160 X175.236 Y109.475
G1 F900 X156.335 Y90.574 E59.88361
G0 F2160 X155.911 Y90.574
G1 F900 X175.236 Y109.899 E60.56535
G0 F2160 X175.236 Y110.324
G1 F900 X155.487 Y90.574 E61.26207
G0 F2160 X155.062 Y90.574
G1 F900 X175.236 Y110.748 E61.97376
G0 F2160 X175.236 Y111.172
G1 F900 X154.638 Y90.574 E62.70041
G0 F2160 X154.214 Y90.574
G1 F900 X175.236 Y111.597 E63.44204
G0 F2160 X175.236 Y112.021
G1 F900 X153.79 Y90.574 E64.19862
G0 F2160 X153.365 Y90.574
G1 F900 X175.236 Y112.445 E64.97018
G0 F2160 X175.236 Y112.869
G1 F900 X152.941 Y90.574 E65.7567
G0 F2160 X152.517 Y90.574
G1 F900 X175.236 Y113.294 E66.55819
G0 F2160 X175.236 Y113.718
G1 F900 X152.093 Y90.574 E67.37464
G0 F2160 X151.668 Y90.574
G1 F900 X175.236 Y114.142 E68.20606
G0 F2160 X175.236 Y114.566
G1 F900 X151.244 Y90.574 E69.05244
G0 F2160 X150.82 Y90.574
G1 F900 X175.236 Y114.991 E69.9138
G0 F2160 X175.236 Y115.415
G1 F900 X150.395 Y90.574 E70.79014
G0 F2160 X149.971 Y90.574
G1 F900 X175.236 Y115.839 E71.68143
G0 F2160 X175.236 Y116.263
G1 F900 X149.547 Y90.574 E72.58768
G0 F2160 X149.123 Y90.574
G1 F900 X175.236 Y116.688 E73.5089
G0 F2160 X175.236 Y117.112
G1 F900 X148.698 Y90.574 E74.4451
G0 F2160 X148.274 Y90.574
G1 F900 X175.236 Y117.536 E75.39626
G0 F2160 X175.236 Y117.96
G1 F900 X147.85 Y90.574 E76.36237
G0 F2160 X147.426 Y90.574
G1 F900 X175.236 Y118.385 E77.34346
G0 F2160 X175.236 Y118.809
G1 F900 X147.001 Y90.574 E78.33953
G0 F2160 X146.577 Y90.574
G1 F900 X175.236 Y119.233 E79.35055
G0 F2160 X175.236 Y119.658
G1 F900 X146.153 Y90.574 E80.37655
G0 F2160 X145.729 Y90.574
G1 F900 X175.236 Y120.082 E81.41751
G0 F2160 X175.236 Y120.506
G1 F900 X145.304 Y90.574 E82.47344
G0 F2160 X144.88 Y90.574
G1 F900 X175.236 Y120.93 E83.54433
G0 F2160 X175.236 Y121.355
G1 F900 X144.456 Y90.574 E84.6302
G0 F2160 X144.031 Y90.574
G1 F900 X175.236 Y121.779 E85.73104
G0 F2160 X175.236 Y122.203
G1 F900 X143.607 Y90.574 E86.84683
G0 F2160 X143.183 Y90.574
G1 F900 X175.236 Y122.627 E87.97759
G0 F2160 X175.236 Y123.052
G1 F900 X142.759 Y90.574 E89.12332
G0 F2160 X142.334 Y90.574
G1 F900 X175.236 Y123.476 E90.28403
G0 F2160 X175.236 Y123.9
G1 F900 X141.91 Y90.574 E91.45969
G0 F2160 X141.486 Y90.574
G1 F900 X175.236 Y124.324 E92.65032
G0 F2160 X175.236 Y124.749
G1 F900 X141.062 Y90.574 E93.85591
G0 F2160 X140.637 Y90.574
G1 F900 X175.236 Y125.173 E95.07649
G0 F2160 X175.236 Y125.597
G1 F900 X140.213 Y90.574 E96.31202
G0 F2160 X139.789 Y90.574
G1 F900 X175.236 Y126.021 E97.56251
G0 F2160 X175.236 Y126.446
G1 F900 X139.365 Y90.574 E98.82797
G0 F2160 X138.94 Y90.574
G1 F900 X175.236 Y126.87 E100.10841
G0 F2160 X175.236 Y127.294
G1 F900 X138.516 Y90.574 E101.40381
G0 F2160 X138.092 Y90.574
G1 F900 X175.236 Y127.719 E102.71418
G0 F2160 X175.236 Y128.143
G1 F900 X137.668 Y90.574 E104.03951
G0 F2160 X137.243 Y90.574
G1 F900 X175.236 Y128.567 E105.37982
G0 F2160 X175.236 Y128.991
G1 F900 X136.819 Y90.574 E106.73508
G0 F2160 X136.395 Y90.574
G1 F900 X175.236 Y129.416 E108.10532
G0 F2160 X175.236 Y129.84
G1 F900 X135.97 Y90.574 E109.49053
G0 F2160 X135.546 Y90.574
G1 F900 X175.236 Y130.264 E110.8907
G0 F2160 X175.236 Y130.688
G1 F900 X135.122 Y90.574 E112.30583
