;FLAVOR:Marlin
;TIME:5643
;Filament used: 4.29358m, 0m
;Layer height: 0.25
;MINX:66.56
;MINY:86.05
;MINZ:0.2
;MAXX:173.46
;MAXY:142.95
;MAXZ:5.95
;POSTPROCESSED
;Generated with Cura_SteamEngine 4.8.0
T0
M140 S60
M105
M190 S60
M104 S200
M105
M109 S200
M82 ;absolute extrusion mode
M201 X500.00 Y500.00 Z100.00 E5000.00 	;Setup machine max acceleration
M203 X500.00 Y500.00 Z10.00 E50.00 	;Setup machine max feedrate
M204 P500.00 R1000.00 T500.00 		;Setup Print/Retract/Travel acceleration
M205 X8.00 Y8.00 Z0.40 E5.00 		;Setup Jerk
M220 S100 				;Reset Feedrate
M221 S100 				;Reset Flowrate
G28				;Home the Machine
#G29 				;Bed Level
G92 E0
M300 P150 S587
G92 E0
G1 F1500 E-5.5
;LAYER_COUNT:24
;LAYER:0
M107
G0 F2160 X69.062 Y87.423 Z0.2
;TYPE:SKIRT
G1 F1500 E0
G1 F900 X69.608 Y87.039 E0.01665
G1 X69.931 Y86.859 E0.02588
G1 X70.383 Y86.629 E0.03853
G1 X71.047 Y86.374 E0.05627
G1 X71.802 Y86.186 E0.07568
G1 X72.314 Y86.107 E0.0886
G1 X72.934 Y86.064 E0.1041
G1 X73.781 Y86.05 E0.12524
G1 X166.352 Y86.05 E2.43443
G1 X166.988 Y86.059 E2.45029
G1 X167.293 Y86.077 E2.45792
G1 X167.958 Y86.147 E2.4746
G1 X168.183 Y86.177 E2.48026
G1 X168.843 Y86.332 E2.49717
G1 X169.626 Y86.628 E2.51805
G1 X170.247 Y86.951 E2.53551
G1 X170.796 Y87.312 E2.5519
G1 X171.233 Y87.654 E2.56575
G1 X171.749 Y88.16 E2.58377
G1 X172.047 Y88.507 E2.59518
G1 X172.447 Y89.081 E2.61264
G1 X172.79 Y89.699 E2.63027
G1 X172.872 Y89.856 E2.63468
G1 X173.136 Y90.535 E2.65286
G1 X173.324 Y91.298 E2.67246
G1 X173.403 Y91.8 E2.68514
G1 X173.446 Y92.417 E2.70057
G1 X173.46 Y93.284 E2.7222
G1 X173.46 Y135.848 E3.78396
G1 X173.451 Y136.478 E3.79968
G1 X173.433 Y136.78 E3.80722
G1 X173.374 Y137.357 E3.82169
G1 X173.328 Y137.703 E3.8304
G1 X173.173 Y138.345 E3.84687
G1 X172.866 Y139.159 E3.86857
G1 X172.554 Y139.764 E3.88555
G1 X172.344 Y140.082 E3.89506
G1 X172.053 Y140.49 E3.90756
G1 X171.608 Y141 E3.92445
G1 X170.961 Y141.574 E3.94602
G1 X170.409 Y141.962 E3.96285
G1 X170.086 Y142.14 E3.97205
G1 X169.637 Y142.369 E3.98463
G1 X168.989 Y142.621 E4.00197
G1 X168.208 Y142.815 E4.02204
G1 X167.709 Y142.893 E4.03464
G1 X167.091 Y142.936 E4.0501
G1 X166.226 Y142.95 E4.07168
G1 X73.662 Y142.95 E6.38069
G1 X73.032 Y142.941 E6.39641
G1 X72.728 Y142.923 E6.40401
G1 X72.145 Y142.863 E6.41863
G1 X71.822 Y142.82 E6.42676
G1 X71.17 Y142.664 E6.44348
G1 X70.402 Y142.375 E6.46395
G1 X69.781 Y142.052 E6.48141
G1 X69.207 Y141.675 E6.49854
G1 X68.923 Y141.469 E6.50729
G1 X68.502 Y141.09 E6.52142
G1 X67.931 Y140.444 E6.54293
G1 X67.555 Y139.909 E6.55924
G1 X67.367 Y139.573 E6.56885
G1 X67.139 Y139.125 E6.58139
G1 X66.889 Y138.479 E6.59866
G1 X66.695 Y137.698 E6.61874
G1 X66.617 Y137.2 E6.63131
G1 X66.574 Y136.583 E6.64674
G1 X66.56 Y135.716 E6.66837
G1 X66.56 Y93.116 E7.73103
G1 X66.569 Y92.519 E7.74593
G1 X66.587 Y92.218 E7.75345
G1 X66.647 Y91.635 E7.76807
G1 X66.693 Y91.291 E7.77673
G1 X66.854 Y90.635 E7.79358
G1 X67.165 Y89.821 E7.81531
G1 X67.47 Y89.231 E7.83188
G1 X67.96 Y88.521 E7.8534
G1 X68.388 Y88.027 E7.8697
G1 X69.062 Y87.423 E7.89228
G0 F2160 X69.258 Y87.65
G1 F900 X69.757 Y87.299 E7.9075
G1 X70.067 Y87.127 E7.91634
G1 X70.519 Y86.897 E7.92899
G1 X71.126 Y86.663 E7.94522
G1 X71.87 Y86.479 E7.96434
G1 X72.743 Y86.374 E7.98627
G1 X72.939 Y86.364 E7.99117
G1 X73.786 Y86.35 E8.0123
G1 X166.348 Y86.35 E10.32127
G1 X166.984 Y86.359 E10.33714
G1 X167.262 Y86.376 E10.34408
G1 X167.918 Y86.445 E10.36054
G1 X168.143 Y86.475 E10.3662
G1 X168.746 Y86.616 E10.38165
G1 X169.515 Y86.907 E10.40216
G1 X170.082 Y87.202 E10.4181
G1 X170.631 Y87.563 E10.43449
G1 X171.03 Y87.875 E10.44713
G1 X171.522 Y88.356 E10.46429
G1 X171.82 Y88.703 E10.4757
G1 X172.184 Y89.226 E10.4916
G1 X172.573 Y89.929 E10.51164
G1 X172.606 Y89.993 E10.51343
G1 X172.847 Y90.614 E10.53005
G1 X173.032 Y91.366 E10.54937
G1 X173.136 Y92.218 E10.57078
G1 X173.146 Y92.422 E10.57587
G1 X173.16 Y93.289 E10.5975
G1 X173.16 Y135.844 E11.65904
G1 X173.151 Y136.474 E11.67476
G1 X173.135 Y136.749 E11.68163
G1 X173.076 Y137.326 E11.6961
G1 X173.031 Y137.66 E11.70451
G1 X172.889 Y138.247 E11.71957
G1 X172.587 Y139.048 E11.74093
G1 X172.302 Y139.601 E11.75644
G1 X172.1 Y139.908 E11.76561
G1 X171.809 Y140.316 E11.77811
G1 X171.402 Y140.781 E11.79353
G1 X170.765 Y141.347 E11.81478
G1 X170.261 Y141.701 E11.83015
G1 X169.95 Y141.873 E11.83901
G1 X169.501 Y142.102 E11.85159
G1 X168.909 Y142.332 E11.86743
G1 X168.14 Y142.523 E11.8872
G1 X167.289 Y142.626 E11.90858
G1 X167.086 Y142.636 E11.91365
G1 X166.221 Y142.65 E11.93523
G1 X73.666 Y142.65 E14.24402
G1 X73.036 Y142.641 E14.25974
G1 X72.759 Y142.624 E14.26666
G1 X72.066 Y142.551 E14.28405
G1 X71.864 Y142.523 E14.28913
G1 X71.268 Y142.38 E14.30442
G1 X70.513 Y142.096 E14.32454
G1 X69.946 Y141.801 E14.34049
G1 X69.372 Y141.424 E14.35762
G1 X69.105 Y141.23 E14.36585
G1 X68.72 Y140.884 E14.37876
G1 X68.159 Y140.249 E14.3999
G1 X67.815 Y139.761 E14.41479
G1 X67.635 Y139.437 E14.42404
G1 X67.407 Y138.989 E14.43658
G1 X67.178 Y138.399 E14.45237
G1 X66.987 Y137.63 E14.47213
G1 X66.884 Y136.782 E14.49344
G1 X66.874 Y136.578 E14.49853
G1 X66.86 Y135.711 E14.52017
G1 X66.86 Y93.121 E15.58258
G1 X66.869 Y92.524 E15.59747
G1 X66.886 Y92.249 E15.60434
G1 X66.96 Y91.545 E15.622
G1 X66.99 Y91.334 E15.62732
G1 X67.137 Y90.734 E15.64273
G1 X67.443 Y89.933 E15.66412
G1 X67.722 Y89.394 E15.67926
G1 X68.204 Y88.695 E15.70044
G1 X68.595 Y88.244 E15.71533
G1 X69.258 Y87.65 E15.73753
G1 F1500 E10.23753
;MESH:Done.stl
G0 F2160 X72.969 Y88.887
G0 X73.037 Y89.969
G0 X167.596 Y90.124
G0 X167.619 Y90.027
;TYPE:WALL-INNER
G1 F1500 E15.73753
G1 F900 X168.195 Y90.246 E15.7529
G1 X168.703 Y90.596 E15.76829
G1 X169.106 Y91.052 E15.78347
G1 X169.391 Y91.595 E15.79877
G1 X169.54 Y92.202 E15.81436
G1 X169.56 Y92.527 E15.82248
G1 X169.56 Y136.473 E16.91872
G1 X169.483 Y137.108 E16.93468
G1 X169.265 Y137.681 E16.94997
G1 X168.916 Y138.188 E16.96533
G1 X168.453 Y138.598 E16.98075
G1 X167.915 Y138.881 E16.99592
G1 X167.308 Y139.03 E17.01151
G1 X166.983 Y139.05 E17.01963
G1 X73.034 Y139.05 E19.3632
G1 X72.402 Y138.973 E19.37908
G1 X71.826 Y138.754 E19.39445
G1 X71.323 Y138.407 E19.40969
G1 X70.912 Y137.943 E19.42516
G1 X70.629 Y137.405 E19.44032
G1 X70.48 Y136.798 E19.45591
G1 X70.46 Y136.473 E19.46403
G1 X70.46 Y92.524 E20.56035
G1 X70.537 Y91.892 E20.57623
G1 X70.755 Y91.319 E20.59152
G1 X71.105 Y90.811 E20.60691
G1 X71.567 Y90.402 E20.6223
G1 X72.105 Y90.119 E20.63747
G1 X72.713 Y89.97 E20.65308
G1 X73.037 Y89.95 E20.66118
G1 X166.981 Y89.95 E23.00462
G1 X167.619 Y90.027 E23.02065
G0 F2160 X167.681 Y89.783
;TYPE:WALL-OUTER
G1 F900 X168.311 Y90.022 E23.03746
G1 X168.867 Y90.405 E23.0543
G1 X169.313 Y90.91 E23.07111
G1 X169.627 Y91.508 E23.08796
G1 X169.789 Y92.165 E23.10484
G1 X169.81 Y92.512 E23.11351
G1 X169.81 Y136.488 E24.21049
G1 X169.727 Y137.171 E24.22766
G1 X169.489 Y137.798 E24.24439
G1 X169.105 Y138.355 E24.26126
G1 X168.598 Y138.804 E24.27816
G1 X168.002 Y139.117 E24.29495
G1 X167.345 Y139.279 E24.31183
G1 X166.998 Y139.3 E24.3205
G1 X73.02 Y139.3 E26.66479
G1 X72.339 Y139.217 E26.68191
G1 X71.709 Y138.978 E26.69871
G1 X71.156 Y138.596 E26.71548
G1 X70.706 Y138.088 E26.73241
G1 X70.393 Y137.492 E26.7492
G1 X70.231 Y136.835 E26.76608
G1 X70.21 Y136.488 E26.77475
G1 X70.21 Y92.51 E27.87179
G1 X70.293 Y91.829 E27.8889
G1 X70.532 Y91.202 E27.90564
G1 X70.916 Y90.645 E27.92252
G1 X71.422 Y90.196 E27.93939
G1 X72.018 Y89.883 E27.95618
G1 X72.676 Y89.721 E27.97309
G1 X73.022 Y89.7 E27.98174
G1 X166.994 Y89.7 E30.32588
G1 X167.681 Y89.783 E30.34314
G0 F2160 X167.868 Y89.854
G0 X167.751 Y90.161
G0 X167.549 Y90.311
;TYPE:SKIN
G1 F900 X168.059 Y90.505 E30.35675
G1 X168.509 Y90.815 E30.37038
G1 X168.864 Y91.216 E30.38374
G1 X169.117 Y91.698 E30.39732
G1 X169.252 Y92.244 E30.41135
G1 X169.27 Y92.545 E30.41887
G1 X169.27 Y136.454 E31.51419
G1 X169.199 Y137.038 E31.52886
G1 X169.006 Y137.545 E31.54239
G1 X168.697 Y137.995 E31.55601
G1 X168.289 Y138.356 E31.5696
G1 X167.812 Y138.607 E31.58305
G1 X167.266 Y138.742 E31.59708
G1 X166.965 Y138.76 E31.6046
G1 X73.053 Y138.76 E33.94724
G1 X72.472 Y138.689 E33.96184
G1 X71.96 Y138.495 E33.9755
G1 X71.517 Y138.189 E33.98893
G1 X71.154 Y137.779 E34.00259
G1 X70.903 Y137.302 E34.01604
G1 X70.768 Y136.756 E34.03007
G1 X70.75 Y136.455 E34.03759
G1 X70.75 Y92.543 E35.13298
G1 X70.821 Y91.962 E35.14758
G1 X71.014 Y91.455 E35.16111
G1 X71.324 Y91.004 E35.17476
G1 X71.731 Y90.644 E35.18832
G1 X72.208 Y90.393 E35.20176
G1 X72.755 Y90.258 E35.21582
G1 X73.055 Y90.24 E35.22332
G1 X166.962 Y90.24 E37.56584
G1 X167.549 Y90.311 E37.58058
G0 F2160 X167.746 Y90.53
G1 F900 X168.997 Y91.781 E37.62472
G0 F2160 X169.121 Y92.329
G1 F900 X167.196 Y90.404 E37.69263
G0 F2160 X166.742 Y90.374
G1 F900 X169.134 Y92.766 E37.77701
G0 F2160 X169.134 Y93.191
G1 F900 X166.317 Y90.374 E37.87639
G0 F2160 X165.893 Y90.374
G1 F900 X169.134 Y93.615 E37.99072
G0 F2160 X169.134 Y94.039
G1 F900 X165.469 Y90.374 E38.12002
G0 F2160 X165.045 Y90.374
G1 F900 X169.134 Y94.463 E38.26427
G0 F2160 X169.134 Y94.888
G1 F900 X164.62 Y90.374 E38.42351
G0 F2160 X164.196 Y90.374
G1 F900 X169.134 Y95.312 E38.59771
G0 F2160 X169.134 Y95.736
G1 F900 X163.772 Y90.374 E38.78687
G0 F2160 X163.348 Y90.374
G1 F900 X169.134 Y96.16 E38.99099
G0 F2160 X169.134 Y96.585
G1 F900 X162.923 Y90.374 E39.2101
G0 F2160 X162.499 Y90.374
G1 F900 X169.134 Y97.009 E39.44416
G0 F2160 X169.134 Y97.433
G1 F900 X162.075 Y90.374 E39.69319
G0 F2160 X161.65 Y90.374
G1 F900 X169.134 Y97.857 E39.95719
G0 F2160 X169.134 Y98.282
G1 F900 X161.226 Y90.374 E40.23617
G0 F2160 X160.802 Y90.374
G1 F900 X169.134 Y98.706 E40.5301
G0 F2160 X169.134 Y99.13
G1 F900 X160.378 Y90.374 E40.83899
G0 F2160 X159.953 Y90.374
G1 F900 X169.134 Y99.554 E41.16286
G0 F2160 X169.134 Y99.979
G1 F900 X159.529 Y90.374 E41.5017
G0 F2160 X159.105 Y90.374
G1 F900 X169.134 Y100.403 E41.8555
G0 F2160 X169.134 Y100.827
G1 F900 X158.681 Y90.374 E42.22426
G0 F2160 X158.256 Y90.374
G1 F900 X169.134 Y101.252 E42.60801
G0 F2160 X169.134 Y101.676
G1 F900 X157.832 Y90.374 E43.00672
G0 F2160 X157.408 Y90.374
G1 F900 X169.134 Y102.1 E43.42038
G0 F2160 X169.134 Y102.524
G1 F900 X156.984 Y90.374 E43.84901
G0 F2160 X156.559 Y90.374
G1 F900 X169.134 Y102.949 E44.29263
G0 F2160 X169.134 Y103.373
G1 F900 X156.135 Y90.374 E44.7512
G0 F2160 X155.711 Y90.374
G1 F900 X169.134 Y103.797 E45.22473
G0 F2160 X169.134 Y104.221
G1 F900 X155.287 Y90.374 E45.71322
G0 F2160 X154.862 Y90.374
G1 F900 X169.134 Y104.646 E46.21671
G0 F2160 X169.134 Y105.07
G1 F900 X154.438 Y90.374 E46.73515
G0 F2160 X154.014 Y90.374
G1 F900 X169.134 Y105.494 E47.26855
G0 F2160 X169.134 Y105.918
G1 F900 X153.589 Y90.374 E47.81692
G0 F2160 X153.165 Y90.374
G1 F900 X169.134 Y106.343 E48.38027
G0 F2160 X169.134 Y106.767
G1 F900 X152.741 Y90.374 E48.95858
G0 F2160 X152.317 Y90.374
G1 F900 X169.134 Y107.191 E49.55184
G0 F2160 X169.134 Y107.615
G1 F900 X151.892 Y90.374 E50.16008
G0 F2160 X151.468 Y90.374
G1 F900 X169.134 Y108.04 E50.7833
G0 F2160 X169.134 Y108.464
G1 F900 X151.044 Y90.374 E51.42147
G0 F2160 X150.62 Y90.374
G1 F900 X169.134 Y108.888 E52.0746
G0 F2160 X169.134 Y109.313
G1 F900 X150.195 Y90.374 E52.74273
G0 F2160 X149.771 Y90.374
G1 F900 X169.134 Y109.737 E53.42581
G0 F2160 X169.134 Y110.161
G1 F900 X149.347 Y90.374 E54.12385
G0 F2160 X148.923 Y90.374
G1 F900 X169.134 Y110.585 E54.83685
G0 F2160 X169.134 Y111.01
G1 F900 X148.498 Y90.374 E55.56484
G0 F2160 X148.074 Y90.374
G1 F900 X169.134 Y111.434 E56.30779
G0 F2160 X169.134 Y111.858
G1 F900 X147.65 Y90.374 E57.06569
G0 F2160 X147.225 Y90.374
G1 F900 X169.134 Y112.282 E57.83857
G0 F2160 X169.134 Y112.707
G1 F900 X146.801 Y90.374 E58.62643
G0 F2160 X146.377 Y90.374
G1 F900 X169.134 Y113.131 E59.42925
G0 F2160 X169.134 Y113.555
G1 F900 X145.953 Y90.374 E60.24702
G0 F2160 X145.528 Y90.374
G1 F900 X169.134 Y113.979 E61.07977
G0 F2160 X169.134 Y114.404
G1 F900 X145.104 Y90.374 E61.92749
G0 F2160 X144.68 Y90.374
G1 F900 X169.134 Y114.828 E62.79017
G0 F2160 X169.134 Y115.252
G1 F900 X144.256 Y90.374 E63.66781
G0 F2160 X143.831 Y90.374
G1 F900 X169.134 Y115.677 E64.56044
G0 F2160 X169.134 Y116.101
G1 F900 X143.407 Y90.374 E65.46803
G0 F2160 X142.983 Y90.374
G1 F900 X169.134 Y116.525 E66.39058
G0 F2160 X169.134 Y116.949
G1 F900 X142.559 Y90.374 E67.32808
G0 F2160 X142.134 Y90.374
G1 F900 X169.134 Y117.374 E68.28058
G0 F2160 X169.134 Y117.798
G1 F900 X141.71 Y90.374 E69.24804
G0 F2160 X141.286 Y90.374
G1 F900 X169.134 Y118.222 E70.23045
G0 F2160 X169.134 Y118.646
G1 F900 X140.862 Y90.374 E71.22782
G0 F2160 X140.437 Y90.374
G1 F900 X169.134 Y119.071 E72.24018
G0 F2160 X169.134 Y119.495
G1 F900 X140.013 Y90.374 E73.26751
G0 F2160 X139.589 Y90.374
G1 F900 X169.134 Y119.919 E74.30979
G0 F2160 X169.134 Y120.343
G1 F900 X139.164 Y90.374 E75.36704
G0 F2160 X138.74 Y90.374
G1 F900 X169.134 Y120.768 E76.43927
G0 F2160 X169.134 Y121.192
G1 F900 X138.316 Y90.374 E77.52646
G0 F2160 X137.892 Y90.374
G1 F900 X169.134 Y121.616 E78.62861
G0 F2160 X169.134 Y122.04
G1 F900 X137.467 Y90.374 E79.74573
G0 F2160 X137.043 Y90.374
G1 F900 X169.134 Y122.465 E80.87782
G0 F2160 X169.134 Y122.889
G1 F900 X136.619 Y90.374 E82.02488
G0 F2160 X136.195 Y90.374
G1 F900 X169.134 Y123.313 E83.18689
G0 F2160 X169.134 Y123.738
G1 F900 X135.77 Y90.374 E84.3639
G0 F2160 X135.346 Y90.374
G1 F900 X169.134 Y124.162 E85.55586
G0 F2160 X169.134 Y124.586
G1 F900 X134.922 Y90.374 E86.76278
G0 F2160 X134.498 Y90.374
G1 F900 X169.134 Y125.01 E87.98466
G0 F2160 X169.134 Y125.435
G1 F900 X134.073 Y90.374 E89.22153
G0 F2160 X133.649 Y90.374
G1 F900 X169.134 Y125.859 E90.47336
G0 F2160 X169.134 Y126.283
G1 F900 X133.225 Y90.374 E91.74015
G0 F2160 X132.801 Y90.374
G1 F900 X169.134 Y126.707 E93.02189
G0 F2160 X169.134 Y127.132
G1 F900 X132.376 Y90.374 E94.31863
G0 F2160 X131.952 Y90.374
G1 F900 X169.134 Y127.556 E95.63032
G0 F2160 X169.134 Y127.98
G1 F900 X131.528 Y90.374 E96.95698
G0 F2160 X131.103 Y90.374
G1 F900 X169.134 Y128.404 E98.2986
G0 F2160 X169.134 Y128.829
G1 F900 X130.679 Y90.374 E99.65521
G0 F2160 X130.255 Y90.374
G1 F900 X169.134 Y129.253 E101.02677
G0 F2160 X169.134 Y129.677
G1 F900 X129.831 Y90.374 E102.41329
G0 F2160 X129.406 Y90.374
G1 F900 X169.134 Y130.101 E103.81478
G0 F2160 X169.134 Y130.526
G1 F900 X128.982 Y90.374 E105.23126
G0 F2160 X128.558 Y90.374
G1 F900 X169.134 Y130.95 E106.66268
G0 F2160 X169.134 Y131.374
G1 F900 X128.134 Y90.374 E108.10907
G0 F2160 X127.709 Y90.374
G1 F900 X169.134 Y131.799 E109.57045
G0 F2160 X169.134 Y132.223
G1 F900 X127.285 Y90.374 E111.04678
G0 F2160 X126.861 Y90.374
G1 F900 X169.134 Y132.647 E112.53808
G0 F2160 X169.134 Y133.071
G1 F900 X126.437 Y90.374 E114.04433
G0 F2160 X126.012 Y90.374
G1 F900 X169.134 Y133.496 E115.56558
G0 F2160 X169.134 Y133.92
G1 F900 X125.588 Y90.374 E117.10178
G0 F2160 X125.164 Y90.374
G1 F900 X169.134 Y134.344 E118.65294
G0 F2160 X169.134 Y134.768
G1 F900 X124.74 Y90.374 E120.21906
G0 F2160 X124.315 Y90.374
G1 F900 X169.134 Y135.193 E121.80017
G0 F2160 X169.134 Y135.617
G1 F900 X123.891 Y90.374 E123.39624
G0 F2160 X123.467 Y90.374
G1 F900 X169.134 Y136.041 E125.00726
G0 F2160 X169.132 Y136.463
G1 F900 X123.042 Y90.374 E126.6332
G0 F2160 X122.618 Y90.374
G1 F900 X169.086 Y136.842 E128.27248
G0 F2160 X169 Y137.18
G1 F900 X122.194 Y90.374 E129.92369
G0 F2160 X121.77 Y90.374
G1 F900 X168.881 Y137.485 E131.58566
G0 F2160 X168.708 Y137.737
G1 F900 X121.345 Y90.374 E133.25651
G0 F2160 X120.921 Y90.374
G1 F900 X168.519 Y137.972 E134.93566
G0 F2160 X168.293 Y138.17
G1 F900 X120.497 Y90.374 E136.62179
G0 F2160 X120.073 Y90.374
