;FLAVOR:Marlin
;TIME:5632
;Filament used: 4.27857m, 0m
;Layer height: 0.25
;MINX:66.218
;MINY:86.05
;MINZ:0.2
;MAXX:173.118
;MAXY:142.95
;MAXZ:5.95
;POSTPROCESSED
;Generated with Cura_SteamEngine 4.8.0
T0
M140 S60
M105
M190 S60
M104 S200
M105
M109 S200
M82 ;absolute extrusion mode
M201 X500.00 Y500.00 Z100.00 E5000.00 	;Setup machine max acceleration
M203 X500.00 Y500.00 Z10.00 E50.00 	;Setup machine max feedrate
M204 P500.00 R1000.00 T500.00 		;Setup Print/Retract/Travel acceleration
M205 X8.00 Y8.00 Z0.40 E5.00 		;Setup Jerk
M220 S100 				;Reset Feedrate
M221 S100 				;Reset Flowrate
G28				;Home the Machine
#G29 				;Bed Level
G92 E0
M300 P150 S587
G92 E0
G1 F1500 E-5.5
;LAYER_COUNT:24
;LAYER:0
M107
G0 F2160 X68.72 Y87.423 Z0.2
;TYPE:SKIRT
G1 F1500 E0
G1 F900 X69.27 Y87.037 E0.01676
G1 X69.604 Y86.852 E0.02629
G1 X70.056 Y86.624 E0.03891
G1 X70.688 Y86.379 E0.05582
G1 X71.465 Y86.186 E0.07579
G1 X71.969 Y86.108 E0.08852
G1 X72.599 Y86.064 E0.10427
G1 X73.438 Y86.05 E0.1252
G1 X166.01 Y86.05 E2.43442
G1 X166.646 Y86.059 E2.45029
G1 X166.951 Y86.077 E2.45791
G1 X167.616 Y86.147 E2.47459
G1 X167.841 Y86.177 E2.48025
G1 X168.506 Y86.334 E2.49729
G1 X168.854 Y86.458 E2.50651
G1 X169.326 Y86.645 E2.51917
G1 X169.91 Y86.943 E2.53553
G1 X170.653 Y87.452 E2.558
G1 X171.148 Y87.88 E2.57432
G1 X171.714 Y88.515 E2.59554
G1 X172.112 Y89.088 E2.61294
G1 X172.436 Y89.673 E2.62962
G1 X172.539 Y89.87 E2.63517
G1 X172.793 Y90.527 E2.65274
G1 X172.979 Y91.278 E2.67204
G1 X173.057 Y91.784 E2.68481
G1 X173.097 Y92.286 E2.69737
G1 X173.108 Y92.509 E2.70294
G1 X173.118 Y93.191 E2.71996
G1 X173.118 Y135.848 E3.78404
G1 X173.109 Y136.478 E3.79976
G1 X173.091 Y136.785 E3.80743
G1 X173.031 Y137.364 E3.82195
G1 X172.987 Y137.691 E3.83018
G1 X172.831 Y138.345 E3.84695
G1 X172.524 Y139.159 E3.86865
G1 X172.212 Y139.764 E3.88563
G1 X171.72 Y140.479 E3.90728
G1 X171.291 Y140.974 E3.92362
G1 X170.618 Y141.576 E3.94615
G1 X170.055 Y141.97 E3.96329
G1 X169.73 Y142.149 E3.97254
G1 X169.271 Y142.38 E3.98536
G1 X168.641 Y142.623 E4.00221
G1 X167.869 Y142.815 E4.02205
G1 X167.367 Y142.893 E4.03472
G1 X166.749 Y142.936 E4.05018
G1 X165.884 Y142.95 E4.07176
G1 X73.319 Y142.95 E6.3808
G1 X72.697 Y142.941 E6.39632
G1 X72.394 Y142.923 E6.40389
G1 X71.781 Y142.86 E6.41926
G1 X71.467 Y142.818 E6.42716
G1 X70.818 Y142.661 E6.44382
G1 X70.449 Y142.529 E6.4536
G1 X69.983 Y142.342 E6.46612
G1 X69.398 Y142.039 E6.48256
G1 X68.685 Y141.549 E6.50414
G1 X68.183 Y141.113 E6.52072
G1 X67.624 Y140.486 E6.54168
G1 X67.225 Y139.912 E6.55912
G1 X66.901 Y139.327 E6.5758
G1 X66.767 Y139.061 E6.58323
G1 X66.547 Y138.48 E6.59872
G1 X66.354 Y137.702 E6.61872
G1 X66.275 Y137.2 E6.6314
G1 X66.232 Y136.583 E6.64682
G1 X66.218 Y135.716 E6.66845
G1 X66.218 Y93.123 E7.73094
G1 X66.227 Y92.539 E7.74551
G1 X66.245 Y92.24 E7.75298
G1 X66.311 Y91.597 E7.76911
G1 X66.341 Y91.366 E7.77492
G1 X66.507 Y90.687 E7.79235
G1 X66.742 Y90.025 E7.80988
G1 X66.892 Y89.663 E7.81965
G1 X67.142 Y89.209 E7.83258
G1 X67.614 Y88.525 E7.85331
G1 X68.043 Y88.029 E7.86967
G1 X68.72 Y87.423 E7.89234
G0 F2160 X68.916 Y87.65
G1 F900 X69.418 Y87.298 E7.90763
G1 X69.739 Y87.12 E7.91679
G1 X70.191 Y86.892 E7.92941
G1 X70.768 Y86.669 E7.94485
G1 X71.532 Y86.478 E7.96449
G1 X72.406 Y86.374 E7.98645
G1 X72.604 Y86.364 E7.99139
G1 X73.443 Y86.35 E8.01232
G1 X166.006 Y86.35 E10.32132
G1 X166.642 Y86.359 E10.33718
G1 X166.92 Y86.376 E10.34413
G1 X167.576 Y86.445 E10.36058
G1 X167.801 Y86.475 E10.36625
G1 X168.408 Y86.618 E10.3818
G1 X168.743 Y86.736 E10.39066
G1 X169.215 Y86.923 E10.40333
G1 X169.749 Y87.196 E10.41829
G1 X170.479 Y87.696 E10.44036
G1 X170.931 Y88.088 E10.45528
G1 X171.486 Y88.711 E10.4761
G1 X171.85 Y89.234 E10.49199
G1 X172.174 Y89.819 E10.50867
G1 X172.271 Y90.006 E10.51393
G1 X172.504 Y90.606 E10.52999
G1 X172.686 Y91.345 E10.54897
G1 X172.758 Y91.808 E10.56066
G1 X172.798 Y92.31 E10.57322
G1 X172.808 Y92.514 E10.57832
G1 X172.818 Y93.196 E10.59533
G1 X172.818 Y135.844 E11.65919
G1 X172.809 Y136.474 E11.67491
G1 X172.792 Y136.754 E11.6819
G1 X172.732 Y137.333 E11.69642
G1 X172.69 Y137.65 E11.7044
G1 X172.547 Y138.247 E11.71971
G1 X172.245 Y139.048 E11.74107
G1 X171.96 Y139.601 E11.75659
G1 X171.475 Y140.305 E11.77791
G1 X171.084 Y140.757 E11.79282
G1 X170.422 Y141.349 E11.81497
G1 X169.908 Y141.709 E11.83063
G1 X169.595 Y141.881 E11.83954
G1 X169.136 Y142.112 E11.85236
G1 X168.561 Y142.334 E11.86773
G1 X167.801 Y142.522 E11.88726
G1 X166.947 Y142.626 E11.90872
G1 X166.744 Y142.636 E11.91379
G1 X165.879 Y142.65 E11.93537
G1 X73.323 Y142.65 E14.24419
G1 X72.701 Y142.641 E14.25971
G1 X72.425 Y142.624 E14.26661
G1 X71.812 Y142.561 E14.28198
G1 X71.509 Y142.521 E14.2896
G1 X70.917 Y142.378 E14.30479
G1 X70.561 Y142.25 E14.31423
G1 X70.095 Y142.063 E14.32676
G1 X69.56 Y141.787 E14.34177
G1 X68.859 Y141.304 E14.36301
G1 X68.4 Y140.907 E14.37815
G1 X67.852 Y140.291 E14.39871
G1 X67.487 Y139.766 E14.41466
G1 X67.163 Y139.181 E14.43135
G1 X67.037 Y138.93 E14.43835
G1 X66.836 Y138.4 E14.45249
G1 X66.646 Y137.635 E14.47215
G1 X66.542 Y136.782 E14.49359
G1 X66.532 Y136.578 E14.49868
G1 X66.518 Y135.711 E14.52031
G1 X66.518 Y93.127 E15.58258
G1 X66.527 Y92.543 E15.59715
G1 X66.543 Y92.27 E15.60397
G1 X66.609 Y91.627 E15.62009
G1 X66.638 Y91.408 E15.6256
G1 X66.789 Y90.787 E15.64155
G1 X67.024 Y90.125 E15.65907
G1 X67.393 Y89.373 E15.67996
G1 X67.859 Y88.699 E15.7004
G1 X68.25 Y88.246 E15.71533
G1 X68.916 Y87.65 E15.73763
G1 F1500 E10.23763
;MESH:ToDo.stl
G0 F2160 X72.627 Y88.887
G0 X72.695 Y89.969
G0 X167.254 Y90.124
G0 X167.277 Y90.027
;TYPE:WALL-INNER
G1 F1500 E15.73763
G1 F900 X167.853 Y90.246 E15.753
G1 X168.36 Y90.595 E15.76835
G1 X168.762 Y91.051 E15.78352
G1 X169.05 Y91.597 E15.79891
G1 X169.199 Y92.202 E15.81446
G1 X169.218 Y92.526 E15.82255
G1 X169.218 Y136.473 E16.91882
G1 X169.141 Y137.108 E16.93477
G1 X168.923 Y137.681 E16.95006
G1 X168.574 Y138.189 E16.96544
G1 X168.112 Y138.598 E16.98083
G1 X167.573 Y138.881 E16.99602
G1 X166.966 Y139.03 E17.01161
G1 X166.641 Y139.05 E17.01973
G1 X72.692 Y139.05 E19.3633
G1 X72.061 Y138.973 E19.37916
G1 X71.484 Y138.754 E19.39455
G1 X70.977 Y138.405 E19.4099
G1 X70.575 Y137.949 E19.42507
G1 X70.287 Y137.403 E19.44047
G1 X70.138 Y136.798 E19.45601
G1 X70.118 Y136.473 E19.46413
G1 X70.118 Y92.512 E20.56074
G1 X70.195 Y91.894 E20.57628
G1 X70.414 Y91.319 E20.59163
G1 X70.763 Y90.811 E20.607
G1 X71.225 Y90.402 E20.62239
G1 X71.764 Y90.119 E20.63758
G1 X72.371 Y89.97 E20.65317
G1 X72.695 Y89.95 E20.66127
G1 X166.639 Y89.95 E23.00471
G1 X167.277 Y90.027 E23.02074
G0 F2160 X167.339 Y89.783
;TYPE:WALL-OUTER
G1 F900 X167.97 Y90.022 E23.03757
G1 X168.525 Y90.405 E23.05439
G1 X168.971 Y90.91 E23.0712
G1 X169.286 Y91.508 E23.08806
G1 X169.448 Y92.165 E23.10494
G1 X169.468 Y92.512 E23.11361
G1 X169.468 Y136.488 E24.2106
G1 X169.385 Y137.171 E24.22776
G1 X169.147 Y137.798 E24.24449
G1 X168.763 Y138.355 E24.26137
G1 X168.257 Y138.804 E24.27824
G1 X167.66 Y139.117 E24.29506
G1 X167.003 Y139.279 E24.31194
G1 X166.656 Y139.3 E24.32061
G1 X72.678 Y139.3 E26.6649
G1 X71.998 Y139.217 E26.68199
G1 X71.367 Y138.978 E26.69882
G1 X70.812 Y138.595 E26.71564
G1 X70.366 Y138.09 E26.73245
G1 X70.051 Y137.492 E26.74931
G1 X69.889 Y136.835 E26.76619
G1 X69.868 Y136.488 E26.77486
G1 X69.868 Y92.5 E27.87214
G1 X69.951 Y91.832 E27.88893
G1 X70.19 Y91.202 E27.90574
G1 X70.574 Y90.645 E27.92262
G1 X71.08 Y90.196 E27.93949
G1 X71.677 Y89.883 E27.95631
G1 X72.334 Y89.721 E27.97319
G1 X72.68 Y89.7 E27.98184
G1 X166.652 Y89.7 E30.32598
G1 X167.339 Y89.783 E30.34324
G0 F2160 X167.526 Y89.853
G0 X167.408 Y90.161
G0 X167.207 Y90.311
;TYPE:SKIN
G1 F900 X167.717 Y90.505 E30.35685
G1 X168.164 Y90.812 E30.37038
G1 X168.521 Y91.218 E30.38386
G1 X168.776 Y91.701 E30.39749
G1 X168.911 Y92.246 E30.41149
G1 X168.928 Y92.535 E30.41872
G1 X168.928 Y136.454 E31.51428
G1 X168.857 Y137.038 E31.52895
G1 X168.665 Y137.542 E31.54241
G1 X168.353 Y137.999 E31.55621
G1 X167.948 Y138.356 E31.56968
G1 X167.47 Y138.607 E31.58315
G1 X166.924 Y138.742 E31.59718
G1 X166.623 Y138.76 E31.6047
G1 X72.711 Y138.76 E33.94734
G1 X72.131 Y138.689 E33.96192
G1 X71.62 Y138.495 E33.97555
G1 X71.173 Y138.188 E33.98908
G1 X70.816 Y137.782 E34.00257
G1 X70.561 Y137.299 E34.01619
G1 X70.426 Y136.754 E34.0302
G1 X70.408 Y136.455 E34.03767
G1 X70.408 Y92.532 E35.13333
G1 X70.479 Y91.963 E35.14764
G1 X70.672 Y91.458 E35.16112
G1 X70.984 Y91.001 E35.17493
G1 X71.389 Y90.644 E35.18839
G1 X71.867 Y90.393 E35.20186
G1 X72.413 Y90.258 E35.21589
G1 X72.713 Y90.24 E35.22339
G1 X166.62 Y90.24 E37.56591
G1 X167.207 Y90.311 E37.58066
G0 F2160 X167.272 Y90.48
G1 F900 X168.683 Y91.891 E37.63043
G0 F2160 X168.784 Y92.417
G1 F900 X166.76 Y90.392 E37.70185
G0 F2160 X166.317 Y90.374
G1 F900 X168.792 Y92.849 E37.78917
G0 F2160 X168.792 Y93.273
G1 F900 X165.893 Y90.374 E37.89144
G0 F2160 X165.469 Y90.374
G1 F900 X168.792 Y93.698 E38.00868
G0 F2160 X168.792 Y94.122
G1 F900 X165.045 Y90.374 E38.14089
G0 F2160 X164.62 Y90.374
G1 F900 X168.792 Y94.546 E38.28806
G0 F2160 X168.792 Y94.97
G1 F900 X164.196 Y90.374 E38.4502
G0 F2160 X163.772 Y90.374
G1 F900 X168.792 Y95.395 E38.62731
G0 F2160 X168.792 Y95.819
G1 F900 X163.348 Y90.374 E38.81938
G0 F2160 X162.923 Y90.374
G1 F900 X168.792 Y96.243 E39.02643
G0 F2160 X168.792 Y96.667
G1 F900 X162.499 Y90.374 E39.24843
G0 F2160 X162.075 Y90.374
G1 F900 X168.792 Y97.092 E39.48541
G0 F2160 X168.792 Y97.516
G1 F900 X161.65 Y90.374 E39.73736
G0 F2160 X161.226 Y90.374
G1 F900 X168.792 Y97.94 E40.00427
G0 F2160 X168.792 Y98.364
G1 F900 X160.802 Y90.374 E40.28614
G0 F2160 X160.378 Y90.374
G1 F900 X168.792 Y98.789 E40.58298
G0 F2160 X168.792 Y99.213
G1 F900 X159.953 Y90.374 E40.8948
G0 F2160 X159.529 Y90.374
G1 F900 X168.792 Y99.637 E41.22158
G0 F2160 X168.792 Y100.061
G1 F900 X159.105 Y90.374 E41.56332
G0 F2160 X158.681 Y90.374
G1 F900 X168.792 Y100.486 E41.92003
G0 F2160 X168.792 Y100.91
G1 F900 X158.256 Y90.374 E42.29171
G0 F2160 X157.832 Y90.374
G1 F900 X168.792 Y101.334 E42.67836
G0 F2160 X168.792 Y101.759
G1 F900 X157.408 Y90.374 E43.07998
G0 F2160 X156.984 Y90.374
G1 F900 X168.792 Y102.183 E43.49655
G0 F2160 X168.792 Y102.607
G1 F900 X156.559 Y90.374 E43.9281
G0 F2160 X156.135 Y90.374
G1 F900 X168.792 Y103.031 E44.37461
G0 F2160 X168.792 Y103.456
G1 F900 X155.711 Y90.374 E44.8361
G0 F2160 X155.287 Y90.374
G1 F900 X168.792 Y103.88 E45.31254
G0 F2160 X168.792 Y104.304
G1 F900 X154.862 Y90.374 E45.80396
G0 F2160 X154.438 Y90.374
G1 F900 X168.792 Y104.728 E46.31034
G0 F2160 X168.792 Y105.153
G1 F900 X154.014 Y90.374 E46.83169
G0 F2160 X153.589 Y90.374
G1 F900 X168.792 Y105.577 E47.36802
G0 F2160 X168.792 Y106.001
G1 F900 X153.165 Y90.374 E47.9193
G0 F2160 X152.741 Y90.374
G1 F900 X168.792 Y106.425 E48.48554
G0 F2160 X168.792 Y106.85
G1 F900 X152.317 Y90.374 E49.06676
G0 F2160 X151.892 Y90.374
G1 F900 X168.792 Y107.274 E49.66295
G0 F2160 X168.792 Y107.698
G1 F900 X151.468 Y90.374 E50.2741
G0 F2160 X151.044 Y90.374
G1 F900 X168.792 Y108.122 E50.90021
G0 F2160 X168.792 Y108.547
G1 F900 X150.62 Y90.374 E51.5413
G0 F2160 X150.195 Y90.374
G1 F900 X168.792 Y108.971 E52.19736
G0 F2160 X168.792 Y109.395
G1 F900 X149.771 Y90.374 E52.86837
G0 F2160 X149.347 Y90.374
G1 F900 X168.792 Y109.82 E53.55437
G0 F2160 X168.792 Y110.244
G1 F900 X148.923 Y90.374 E54.25532
G0 F2160 X148.498 Y90.374
G1 F900 X168.792 Y110.668 E54.97124
G0 F2160 X168.792 Y111.092
G1 F900 X148.074 Y90.374 E55.70212
G0 F2160 X147.65 Y90.374
G1 F900 X168.792 Y111.517 E56.44798
G0 F2160 X168.792 Y111.941
G1 F900 X147.225 Y90.374 E57.20882
G0 F2160 X146.801 Y90.374
G1 F900 X168.792 Y112.365 E57.98461
G0 F2160 X168.792 Y112.789
G1 F900 X146.377 Y90.374 E58.77536
G0 F2160 X145.953 Y90.374
G1 F900 X168.792 Y113.214 E59.58108
G0 F2160 X168.792 Y113.638
G1 F900 X145.528 Y90.374 E60.40178
G0 F2160 X145.104 Y90.374
G1 F900 X168.792 Y114.062 E61.23744
G0 F2160 X168.792 Y114.486
G1 F900 X144.68 Y90.374 E62.08806
G0 F2160 X144.256 Y90.374
G1 F900 X168.792 Y114.911 E62.95365
G0 F2160 X168.792 Y115.335
G1 F900 X143.831 Y90.374 E63.83422
G0 F2160 X143.407 Y90.374
G1 F900 X168.792 Y115.759 E64.72974
G0 F2160 X168.792 Y116.184
G1 F900 X142.983 Y90.374 E65.64024
G0 F2160 X142.559 Y90.374
G1 F900 X168.792 Y116.608 E66.5657
G0 F2160 X168.792 Y117.032
G1 F900 X142.134 Y90.374 E67.50613
G0 F2160 X141.71 Y90.374
G1 F900 X168.792 Y117.456 E68.46152
G0 F2160 X168.792 Y117.881
G1 F900 X141.286 Y90.374 E69.43189
G0 F2160 X140.862 Y90.374
G1 F900 X168.792 Y118.305 E70.41721
G0 F2160 X168.792 Y118.729
G1 F900 X140.437 Y90.374 E71.41751
G0 F2160 X140.013 Y90.374
G1 F900 X168.792 Y119.153 E72.43277
G0 F2160 X168.792 Y119.578
G1 F900 X139.589 Y90.374 E73.463
G0 F2160 X139.164 Y90.374
G1 F900 X168.792 Y120.002 E74.50821
G0 F2160 X168.792 Y120.426
G1 F900 X138.74 Y90.374 E75.56837
G0 F2160 X138.316 Y90.374
G1 F900 X168.792 Y120.85 E76.6435
G0 F2160 X168.792 Y121.275
G1 F900 X137.892 Y90.374 E77.7336
G0 F2160 X137.467 Y90.374
G1 F900 X168.792 Y121.699 E78.83867
G0 F2160 X168.792 Y122.123
G1 F900 X137.043 Y90.374 E79.9587
G0 F2160 X136.619 Y90.374
G1 F900 X168.792 Y122.547 E81.09369
G0 F2160 X168.792 Y122.972
G1 F900 X136.195 Y90.374 E82.24366
G0 F2160 X135.77 Y90.374
G1 F900 X168.792 Y123.396 E83.4086
G0 F2160 X168.792 Y123.82
G1 F900 X135.346 Y90.374 E84.58849
G0 F2160 X134.922 Y90.374
G1 F900 X168.792 Y124.245 E85.78337
G0 F2160 X168.792 Y124.669
G1 F900 X134.498 Y90.374 E86.9932
G0 F2160 X134.073 Y90.374
G1 F900 X168.792 Y125.093 E88.218
G0 F2160 X168.792 Y125.517
G1 F900 X133.649 Y90.374 E89.45777
G0 F2160 X133.225 Y90.374
G1 F900 X168.792 Y125.942 E90.71251
G0 F2160 X168.792 Y126.366
G1 F900 X132.801 Y90.374 E91.98221
G0 F2160 X132.376 Y90.374
G1 F900 X168.792 Y126.79 E93.26688
G0 F2160 X168.792 Y127.214
G1 F900 X131.952 Y90.374 E94.56651
G0 F2160 X131.528 Y90.374
G1 F900 X168.792 Y127.639 E95.88112
G0 F2160 X168.792 Y128.063
G1 F900 X131.103 Y90.374 E97.2107
G0 F2160 X130.679 Y90.374
G1 F900 X168.792 Y128.487 E98.55524
G0 F2160 X168.792 Y128.911
G1 F900 X130.255 Y90.374 E99.91473
G0 F2160 X129.831 Y90.374
G1 F900 X168.792 Y129.336 E101.2892
G0 F2160 X168.792 Y129.76
G1 F900 X129.406 Y90.374 E102.67865
G0 F2160 X128.982 Y90.374
G1 F900 X168.792 Y130.184 E104.08306
G0 F2160 X168.792 Y130.608
G1 F900 X128.558 Y90.374 E105.50242
G0 F2160 X128.134 Y90.374
G1 F900 X168.792 Y131.033 E106.93676
G0 F2160 X168.792 Y131.457
G1 F900 X127.709 Y90.374 E108.38607
G0 F2160 X127.285 Y90.374
G1 F900 X168.792 Y131.881 E109.85034
G0 F2160 X168.792 Y132.306
G1 F900 X126.861 Y90.374 E111.32959
G0 F2160 X126.437 Y90.374
G1 F900 X168.792 Y132.73 E112.8238
G0 F2160 X168.792 Y133.154
G1 F900 X126.012 Y90.374 E114.33298
G0 F2160 X125.588 Y90.374
G1 F900 X168.792 Y133.578 E115.85711
G0 F2160 X168.792 Y134.003
G1 F900 X125.164 Y90.374 E117.39623
G0 F2160 X124.74 Y90.374
G1 F900 X168.792 Y134.427 E118.9503
G0 F2160 X168.792 Y134.851
G1 F900 X124.315 Y90.374 E120.51934
G0 F2160 X123.891 Y90.374
G1 F900 X168.792 Y135.275 E122.10335
G0 F2160 X168.792 Y135.7
G1 F900 X123.467 Y90.374 E123.70233
G0 F2160 X123.042 Y90.374
G1 F900 X168.792 Y136.124 E125.31628
G0 F2160 X168.782 Y136.538
G1 F900 X122.618 Y90.374 E126.94484
G0 F2160 X122.194 Y90.374
G1 F900 X168.736 Y136.916 E128.58674
G0 F2160 X168.635 Y137.24
G1 F900 X121.77 Y90.374 E130.24004
G0 F2160 X121.345 Y90.374
G1 F900 X168.505 Y137.534 E131.90374
G0 F2160 X168.333 Y137.786
G1 F900 X120.921 Y90.374 E133.57633
G0 F2160 X120.497 Y90.374
G1 F900 X168.133 Y138.01 E135.25681
G0 F2160 X167.908 Y138.209
G1 F900 X120.073 Y90.374 E136.94432
