;FLAVOR:Marlin
;TIME:742
;Filament used: 0.425508m, 0m
;Layer height: 0.2
;MINX:99.065
;MINY:85.912
;MINZ:0.3
;MAXX:135.934
;MAXY:146.612
;MAXZ:1.9
;POSTPROCESSED
;Generated with Cura_SteamEngine 4.7.1
T0
M140 S60
M105
M190 S60
M104 S200
M105
M109 S200
M82 ;absolute extrusion mode
M201 X500.00 Y500.00 Z100.00 E5000.00 	;Setup machine max acceleration
M203 X500.00 Y500.00 Z10.00 E50.00 	;Setup machine max feedrate
M204 P500.00 R1000.00 T500.00 		;Setup Print/Retract/Travel acceleration
M205 X8.00 Y8.00 Z0.40 E5.00 		;Setup Jerk
M220 S100 				;Reset Feedrate
M221 S100 				;Reset Flowrate
G28				;Home the Machine
G29 				;Bed Level
G92 E0
M300 P150 S587
G92 E0
G1 F1500 E-6.5
;LAYER_COUNT:9
;LAYER:0
M107
G0 F2400 X114.786 Y87.224 Z0.3
;TYPE:SKIRT
G1 F1500 E0
G1 X115.141 Y86.838 E0.01511
G1 X115.552 Y86.51 E0.03026
G1 X116.007 Y86.249 E0.04537
G1 X116.496 Y86.059 E0.06049
G1 X117.009 Y85.946 E0.07562
G1 X117.533 Y85.912 E0.09075
G1 X118.056 Y85.958 E0.10588
G1 X118.566 Y86.083 E0.12101
G1 X119.051 Y86.284 E0.13613
G1 X119.5 Y86.556 E0.15126
G1 X119.902 Y86.893 E0.16637
G1 X120.249 Y87.287 E0.1815
G1 X120.532 Y87.729 E0.19662
G1 X120.711 Y88.117 E0.20893
G1 X121.071 Y89.05 E0.23774
G1 X123.008 Y94.357 E0.40051
G1 X123.251 Y95.053 E0.42175
G1 X123.31 Y95.24 E0.4274
G1 X123.529 Y96.004 E0.4503
G1 X124.328 Y98.646 E0.52983
G1 X125.201 Y101.261 E0.60926
G1 X126.141 Y103.836 E0.68823
G1 X127.143 Y106.354 E0.76632
G1 X128.227 Y108.87 E0.84525
G1 X129.363 Y111.314 E0.9229
G1 X130.597 Y113.785 E1.00247
G1 X131.89 Y116.202 E1.08145
G1 X132.809 Y117.807 E1.13474
G1 X133.714 Y119.414 E1.18787
G1 X133.778 Y119.534 E1.19179
G1 X134.046 Y120.057 E1.20872
G1 X134.109 Y120.185 E1.21284
G1 X134.37 Y120.751 E1.23079
G1 X134.427 Y120.882 E1.23491
G1 X134.652 Y121.428 E1.25192
G1 X134.703 Y121.559 E1.25597
G1 X134.918 Y122.148 E1.27404
G1 X134.96 Y122.272 E1.27781
G1 X135.211 Y123.05 E1.30136
G1 X135.328 Y123.469 E1.3139
G1 X135.514 Y124.276 E1.33776
G1 X135.539 Y124.396 E1.34129
G1 X135.653 Y124.986 E1.3586
G1 X135.678 Y125.129 E1.36279
G1 X135.782 Y125.822 E1.38298
G1 X135.8 Y125.963 E1.38707
G1 X135.88 Y126.703 E1.40852
G1 X135.911 Y127.142 E1.4212
G1 X135.934 Y128.031 E1.44682
G1 X135.929 Y128.656 E1.46483
G1 X135.925 Y128.784 E1.46852
G1 X135.883 Y129.633 E1.49301
G1 X135.849 Y130.003 E1.50371
G1 X135.721 Y130.962 E1.53159
G1 X135.699 Y131.103 E1.5357
G1 X135.603 Y131.649 E1.55167
G1 X135.576 Y131.784 E1.55564
G1 X135.417 Y132.516 E1.57722
G1 X135.385 Y132.65 E1.58119
G1 X135.207 Y133.336 E1.60161
G1 X135.099 Y133.692 E1.61233
G1 X134.793 Y134.565 E1.63898
G1 X134.743 Y134.697 E1.64305
G1 X134.525 Y135.246 E1.66007
G1 X134.474 Y135.368 E1.66388
G1 X134.142 Y136.119 E1.68753
G1 X133.941 Y136.531 E1.70074
G1 X133.643 Y137.082 E1.71879
G1 X133.572 Y137.206 E1.72291
G1 X132.996 Y138.173 E1.75533
G1 X132.82 Y138.441 E1.76457
G1 X132.324 Y139.134 E1.78913
G1 X132.241 Y139.245 E1.79312
G1 X131.823 Y139.782 E1.81273
G1 X131.449 Y140.23 E1.82954
G1 X131.365 Y140.325 E1.83319
G1 X130.852 Y140.888 E1.85514
G1 X130.745 Y141 E1.8596
G1 X130.368 Y141.378 E1.87498
G1 X130.271 Y141.471 E1.87885
G1 X129.801 Y141.907 E1.89733
G1 X129.693 Y142.003 E1.90149
G1 X129.252 Y142.379 E1.91819
G1 X129.15 Y142.463 E1.92199
G1 X128.658 Y142.851 E1.94005
G1 X128.542 Y142.939 E1.94424
G1 X128.013 Y143.321 E1.96304
G1 X127.498 Y143.667 E1.98092
G1 X127.374 Y143.745 E1.98514
G1 X126.78 Y144.105 E2.00515
G1 X126.663 Y144.173 E2.00905
G1 X126.179 Y144.441 E2.02499
G1 X126.051 Y144.509 E2.02916
G1 X125.437 Y144.816 E2.04894
G1 X125.308 Y144.877 E2.05305
G1 X124.845 Y145.085 E2.06768
G1 X124.725 Y145.136 E2.07143
G1 X124.127 Y145.378 E2.09002
G1 X123.995 Y145.428 E2.09409
G1 X123.355 Y145.657 E2.11367
G1 X123.216 Y145.704 E2.1179
G1 X122.717 Y145.859 E2.13295
G1 X122.586 Y145.897 E2.13688
G1 X122.022 Y146.048 E2.15371
G1 X121.891 Y146.08 E2.15759
G1 X121.201 Y146.236 E2.17797
G1 X121.065 Y146.264 E2.18197
G1 X120.316 Y146.402 E2.20392
G1 X119.858 Y146.468 E2.21725
G1 X119.112 Y146.542 E2.23885
G1 X118.978 Y146.553 E2.24272
G1 X118.28 Y146.595 E2.26287
G1 X118.143 Y146.6 E2.26682
G1 X117.55 Y146.612 E2.28391
G1 X117.41 Y146.612 E2.28794
G1 X116.769 Y146.599 E2.30641
G1 X116.241 Y146.571 E2.32165
G1 X116.102 Y146.56 E2.32566
G1 X115.055 Y146.457 E2.35597
G1 X114.777 Y146.418 E2.36406
G1 X113.995 Y146.276 E2.38696
G1 X113.856 Y146.248 E2.39105
G1 X112.84 Y146.02 E2.42105
G1 X112.571 Y145.949 E2.42906
G1 X111.792 Y145.707 E2.45257
G1 X111.662 Y145.663 E2.45652
G1 X111.031 Y145.439 E2.47581
G1 X110.904 Y145.392 E2.47971
G1 X110.061 Y145.055 E2.50587
G1 X109.789 Y144.932 E2.51447
G1 X108.944 Y144.506 E2.54174
G1 X108.822 Y144.441 E2.54572
G1 X108.289 Y144.145 E2.56328
G1 X108.168 Y144.074 E2.56733
G1 X107.604 Y143.73 E2.58636
G1 X107.487 Y143.656 E2.59035
G1 X106.852 Y143.233 E2.61233
G1 X106.51 Y142.986 E2.62449
G1 X105.836 Y142.452 E2.64926
G1 X105.733 Y142.368 E2.65309
G1 X105.083 Y141.811 E2.67775
G1 X104.783 Y141.532 E2.68956
G1 X104.253 Y140.995 E2.7113
G1 X104.163 Y140.901 E2.71505
G1 X103.636 Y140.325 E2.73754
G1 X103.235 Y139.853 E2.75538
G1 X103.153 Y139.751 E2.75915
G1 X102.769 Y139.257 E2.77718
G1 X102.68 Y139.138 E2.78146
G1 X102.263 Y138.551 E2.80221
G1 X101.932 Y138.049 E2.81953
G1 X101.854 Y137.925 E2.82375
G1 X101.481 Y137.299 E2.84475
G1 X101.195 Y136.779 E2.86185
G1 X101.129 Y136.651 E2.866
G1 X100.834 Y136.051 E2.88526
G1 X100.772 Y135.919 E2.88946
G1 X100.482 Y135.26 E2.91021
G1 X100.431 Y135.137 E2.91404
G1 X100.178 Y134.496 E2.9339
G1 X100.028 Y134.067 E2.94699
G1 X99.784 Y133.266 E2.97112
G1 X99.744 Y133.127 E2.97528
G1 X99.597 Y132.56 E2.99216
G1 X99.566 Y132.428 E2.99607
G1 X99.426 Y131.785 E3.01503
G1 X99.399 Y131.646 E3.0191
G1 X99.287 Y131.006 E3.03782
G1 X99.199 Y130.379 E3.05607
G1 X99.183 Y130.235 E3.06024
G1 X99.122 Y129.578 E3.07925
G1 X99.112 Y129.437 E3.08332
G1 X99.076 Y128.739 E3.10346
G1 X99.065 Y128.184 E3.11945
G1 X99.066 Y128.044 E3.12349
G1 X99.081 Y127.475 E3.13989
G1 X99.087 Y127.344 E3.14367
G1 X99.13 Y126.677 E3.16292
G1 X99.143 Y126.531 E3.16715
G1 X99.214 Y125.869 E3.18633
G1 X99.303 Y125.245 E3.20449
G1 X99.325 Y125.116 E3.20826
G1 X99.507 Y124.144 E3.23675
G1 X99.573 Y123.859 E3.24518
G1 X99.81 Y123.002 E3.2708
G1 X99.849 Y122.871 E3.27474
G1 X100.023 Y122.327 E3.29119
G1 X100.066 Y122.201 E3.29503
G1 X100.286 Y121.595 E3.3136
G1 X100.34 Y121.456 E3.3179
G1 X100.628 Y120.758 E3.33965
G1 X100.835 Y120.301 E3.35411
G1 X100.893 Y120.181 E3.35795
G1 X101.323 Y119.335 E3.38529
G1 X101.569 Y118.885 E3.40007
G1 X101.815 Y118.449 E3.41449
G1 X102.255 Y117.712 E3.43922
G1 X103.585 Y115.334 E3.51772
G1 X104.851 Y112.914 E3.59641
G1 X106.051 Y110.451 E3.67535
G1 X107.167 Y107.985 E3.75334
G1 X108.219 Y105.481 E3.83159
G1 X109.21 Y102.914 E3.91087
G1 X110.118 Y100.348 E3.98929
G1 X110.977 Y97.685 E4.06991
G1 X111.628 Y95.448 E4.13703
G1 X111.677 Y95.291 E4.14177
G1 X112.086 Y94.103 E4.17797
G1 X114.031 Y88.759 E4.34182
G1 X114.269 Y88.134 E4.36109
G1 X114.492 Y87.659 E4.37621
G1 X114.786 Y87.224 E4.39134
G0 F2400 X115.049 Y87.375
G1 F1500 X115.395 Y87.012 E4.40579
G1 X115.795 Y86.709 E4.42024
G1 X116.238 Y86.473 E4.4347
G1 X116.712 Y86.31 E4.44915
G1 X117.206 Y86.225 E4.46359
G1 X117.708 Y86.219 E4.47805
G1 X118.204 Y86.293 E4.4925
G1 X118.682 Y86.445 E4.50695
G1 X119.13 Y86.671 E4.52141
G1 X119.537 Y86.965 E4.53588
G1 X119.891 Y87.32 E4.55032
G1 X120.185 Y87.726 E4.56476
G1 X120.431 Y88.225 E4.58079
G1 X120.789 Y89.153 E4.60945
G1 X122.725 Y94.456 E4.7721
G1 X122.968 Y95.152 E4.79334
G1 X123.022 Y95.322 E4.79848
G1 X123.242 Y96.091 E4.82152
G1 X124.048 Y98.754 E4.90169
G1 X124.915 Y101.354 E4.98065
G1 X125.85 Y103.915 E5.0592
G1 X126.873 Y106.486 E5.13893
G1 X127.955 Y108.996 E5.21768
G1 X129.104 Y111.469 E5.29624
G1 X130.332 Y113.927 E5.37541
G1 X131.611 Y116.318 E5.45353
G1 X132.548 Y117.954 E5.50785
G1 X133.453 Y119.561 E5.56099
G1 X133.511 Y119.67 E5.56455
G1 X133.779 Y120.193 E5.58148
G1 X133.837 Y120.311 E5.58527
G1 X134.098 Y120.877 E5.60322
G1 X134.149 Y120.996 E5.60695
G1 X134.374 Y121.542 E5.62397
G1 X134.421 Y121.662 E5.62768
G1 X134.636 Y122.251 E5.64575
G1 X134.675 Y122.364 E5.64919
G1 X134.926 Y123.142 E5.67274
G1 X135.036 Y123.537 E5.68456
G1 X135.222 Y124.344 E5.70842
G1 X135.245 Y124.453 E5.71163
G1 X135.359 Y125.043 E5.72894
G1 X135.381 Y125.174 E5.73277
G1 X135.485 Y125.867 E5.75296
G1 X135.502 Y125.995 E5.75668
G1 X135.582 Y126.735 E5.77812
G1 X135.611 Y127.15 E5.79011
G1 X135.634 Y128.039 E5.81573
G1 X135.629 Y128.652 E5.83339
G1 X135.625 Y128.77 E5.8368
G1 X135.583 Y129.619 E5.86129
G1 X135.551 Y129.964 E5.87127
G1 X135.423 Y130.923 E5.89914
G1 X135.403 Y131.051 E5.90288
G1 X135.307 Y131.597 E5.91885
G1 X135.283 Y131.721 E5.92249
G1 X135.124 Y132.453 E5.94407
G1 X135.095 Y132.575 E5.94768
G1 X134.917 Y133.261 E5.9681
G1 X134.816 Y133.593 E5.9781
G1 X134.51 Y134.466 E6.00475
G1 X134.465 Y134.587 E6.00847
G1 X134.247 Y135.136 E6.02549
G1 X134.2 Y135.247 E6.02897
G1 X133.868 Y135.998 E6.05262
G1 X133.677 Y136.389 E6.06516
G1 X133.379 Y136.94 E6.08321
G1 X133.314 Y137.053 E6.08696
G1 X132.741 Y138.015 E6.11923
G1 X132.577 Y138.266 E6.12786
G1 X132.081 Y138.959 E6.15242
G1 X132.005 Y139.061 E6.15608
G1 X131.587 Y139.598 E6.17569
G1 X131.22 Y140.036 E6.19215
G1 X131.143 Y140.123 E6.1955
G1 X130.63 Y140.686 E6.21745
G1 X130.532 Y140.788 E6.22152
G1 X130.155 Y141.166 E6.2369
G1 X130.067 Y141.251 E6.24043
G1 X129.597 Y141.687 E6.2589
G1 X129.499 Y141.775 E6.26269
G1 X129.058 Y142.151 E6.27939
G1 X128.965 Y142.227 E6.28285
G1 X128.473 Y142.615 E6.3009
G1 X128.366 Y142.696 E6.30477
G1 X127.837 Y143.078 E6.32357
G1 X127.332 Y143.417 E6.34109
G1 X127.219 Y143.489 E6.34495
G1 X126.625 Y143.849 E6.36497
G1 X126.518 Y143.911 E6.36853
G1 X126.034 Y144.179 E6.38447
G1 X125.917 Y144.24 E6.38827
G1 X125.303 Y144.547 E6.40805
G1 X125.185 Y144.603 E6.41181
G1 X124.722 Y144.811 E6.42644
G1 X124.613 Y144.858 E6.42986
G1 X124.015 Y145.1 E6.44844
G1 X123.894 Y145.146 E6.45217
G1 X123.254 Y145.375 E6.47176
G1 X123.127 Y145.417 E6.47561
G1 X122.628 Y145.572 E6.49067
G1 X122.509 Y145.607 E6.49424
G1 X121.945 Y145.758 E6.51106
G1 X121.825 Y145.787 E6.51462
G1 X121.135 Y145.943 E6.535
G1 X121.011 Y145.969 E6.53865
G1 X120.262 Y146.107 E6.56059
G1 X119.828 Y146.17 E6.57323
G1 X119.082 Y146.244 E6.59483
G1 X118.96 Y146.253 E6.59835
G1 X118.262 Y146.295 E6.6185
G1 X118.137 Y146.3 E6.6221
G1 X117.544 Y146.312 E6.63919
G1 X117.416 Y146.312 E6.64288
G1 X116.775 Y146.299 E6.66135
G1 X116.259 Y146.272 E6.67624
G1 X116.132 Y146.262 E6.67991
G1 X115.085 Y146.159 E6.71022
G1 X114.83 Y146.123 E6.71764
G1 X114.048 Y145.981 E6.74054
G1 X113.921 Y145.956 E6.74427
G1 X112.905 Y145.728 E6.77427
G1 X112.66 Y145.662 E6.78158
G1 X111.881 Y145.42 E6.80508
G1 X111.762 Y145.381 E6.80869
G1 X111.131 Y145.157 E6.82798
G1 X111.016 Y145.113 E6.83153
G1 X110.173 Y144.776 E6.85769
G1 X109.924 Y144.664 E6.86555
G1 X109.079 Y144.238 E6.89282
G1 X108.968 Y144.179 E6.89644
G1 X108.435 Y143.883 E6.91401
G1 X108.324 Y143.818 E6.91771
G1 X107.76 Y143.474 E6.93675
G1 X107.654 Y143.407 E6.94036
G1 X107.019 Y142.984 E6.96234
G1 X106.696 Y142.751 E6.97382
G1 X106.022 Y142.217 E6.99859
G1 X105.928 Y142.14 E7.00209
G1 X105.278 Y141.583 E7.02675
G1 X104.996 Y141.322 E7.03783
G1 X104.466 Y140.785 E7.05956
G1 X104.384 Y140.698 E7.06301
G1 X103.857 Y140.122 E7.0855
G1 X103.465 Y139.66 E7.10296
G1 X103.39 Y139.567 E7.1064
G1 X103.006 Y139.073 E7.12443
G1 X102.925 Y138.964 E7.12834
G1 X102.508 Y138.377 E7.14909
G1 X102.183 Y137.885 E7.16608
G1 X102.112 Y137.771 E7.16994
G1 X101.739 Y137.145 E7.19094
G1 X101.459 Y136.635 E7.2077
G1 X101.398 Y136.519 E7.21148
G1 X101.103 Y135.919 E7.23074
G1 X101.047 Y135.798 E7.23458
G1 X100.757 Y135.139 E7.25533
G1 X100.71 Y135.026 E7.25885
G1 X100.457 Y134.385 E7.27871
G1 X100.315 Y133.98 E7.29107
G1 X100.071 Y133.179 E7.3152
G1 X100.035 Y133.052 E7.319
G1 X99.888 Y132.485 E7.33588
G1 X99.859 Y132.364 E7.33946
G1 X99.719 Y131.721 E7.35842
G1 X99.694 Y131.594 E7.36215
G1 X99.582 Y130.954 E7.38087
G1 X99.496 Y130.339 E7.39876
G1 X99.481 Y130.207 E7.40259
G1 X99.42 Y129.55 E7.4216
G1 X99.411 Y129.421 E7.42533
G1 X99.375 Y128.723 E7.44546
G1 X99.365 Y128.179 E7.46114
G1 X99.366 Y128.052 E7.4648
G1 X99.381 Y127.483 E7.4812
G1 X99.387 Y127.363 E7.48466
G1 X99.43 Y126.696 E7.50392
G1 X99.441 Y126.563 E7.50776
G1 X99.512 Y125.901 E7.52695
G1 X99.6 Y125.289 E7.54476
G1 X99.62 Y125.171 E7.54821
G1 X99.802 Y124.199 E7.5767
G1 X99.862 Y123.939 E7.58439
G1 X100.099 Y123.082 E7.61001
G1 X100.135 Y122.962 E7.61362
G1 X100.309 Y122.418 E7.63007
G1 X100.348 Y122.303 E7.63357
G1 X100.568 Y121.697 E7.65214
G1 X100.617 Y121.571 E7.65604
G1 X100.905 Y120.873 E7.67779
G1 X101.161 Y120.317 E7.69543
G1 X101.591 Y119.471 E7.72277
G1 X101.832 Y119.029 E7.73728
G1 X102.073 Y118.602 E7.7514
G1 X102.523 Y117.849 E7.77668
G1 X103.844 Y115.486 E7.85468
G1 X105.11 Y113.064 E7.93342
G1 X106.319 Y110.585 E8.01288
G1 X107.455 Y108.075 E8.09226
G1 X108.502 Y105.579 E8.17024
G1 X109.496 Y103.006 E8.24972
G1 X110.403 Y100.446 E8.32797
G1 X111.253 Y97.808 E8.40782
G1 X111.916 Y95.531 E8.47615
G1 X111.961 Y95.388 E8.48047
G1 X112.368 Y94.206 E8.51649
G1 X114.311 Y88.866 E8.68021
G1 X114.549 Y88.241 E8.69948
G1 X114.764 Y87.788 E8.71392
G1 X115.049 Y87.375 E8.72838
G1 F1500 E2.22838
;MESH:Benadoce.stl
G0 F2400 X116.49 Y90.144
G0 X117.407 Y90.476
G0 X119.251 Y114.011
;TYPE:WALL-INNER
G1 F1500 E8.72838
G1 F1200 X120.465 Y114.242 E8.76399
G1 X121.004 Y114.367 E8.77993
G1 X121.565 Y114.522 E8.7967
G1 X122.111 Y114.697 E8.81321
G1 X122.671 Y114.902 E8.8304
G1 X123.187 Y115.114 E8.84647
G1 X123.72 Y115.359 E8.86337
G1 X124.24 Y115.625 E8.8802
G1 X124.723 Y115.895 E8.89614
G1 X125.227 Y116.206 E8.9132
G1 X125.694 Y116.522 E8.92945
G1 X126.16 Y116.864 E8.9461
G1 X126.603 Y117.217 E8.96242
G1 X127.056 Y117.61 E8.9797
G1 X127.47 Y117.998 E8.99605
G1 X127.871 Y118.407 E9.01255
G1 X128.261 Y118.837 E9.02928
G1 X128.621 Y119.272 E9.04555
G1 X128.992 Y119.753 E9.06305
G1 X129.313 Y120.207 E9.07907
G1 X129.62 Y120.684 E9.09541
G1 X129.919 Y121.19 E9.11235
G1 X130.185 Y121.686 E9.12856
G1 X130.438 Y122.205 E9.1452
G1 X130.669 Y122.733 E9.1618
G1 X130.883 Y123.283 E9.17881
G1 X131.07 Y123.828 E9.19541
G1 X131.232 Y124.366 E9.2116
G1 X131.376 Y124.937 E9.22856
G1 X131.497 Y125.502 E9.24521
G1 X131.593 Y126.068 E9.26175
G1 X131.666 Y126.633 E9.27816
G1 X131.717 Y127.205 E9.29471
G1 X131.745 Y127.794 E9.3117
G1 X131.749 Y128.361 E9.32803
G1 X131.732 Y128.902 E9.34363
G1 X131.695 Y129.454 E9.35957
G1 X131.63 Y130.028 E9.37621
G1 X131.532 Y130.667 E9.39484
G1 X131.424 Y131.219 E9.41104
G1 X131.299 Y131.737 E9.4264
G1 X131.147 Y132.288 E9.44287
G1 X130.947 Y132.9 E9.46142
G1 X130.751 Y133.424 E9.47753
G1 X130.551 Y133.903 E9.49249
G1 X130.28 Y134.486 E9.51101
G1 X130.044 Y134.94 E9.52576
G1 X129.755 Y135.451 E9.54267
G1 X129.422 Y135.987 E9.56085
G1 X129.097 Y136.462 E9.57743
G1 X128.753 Y136.923 E9.594
G1 X128.386 Y137.375 E9.61078
G1 X128.014 Y137.799 E9.62703
G1 X127.616 Y138.217 E9.64366
G1 X127.18 Y138.638 E9.66112
G1 X126.771 Y139.002 E9.6769
G1 X126.319 Y139.373 E9.69375
G1 X125.852 Y139.725 E9.71059
G1 X125.374 Y140.056 E9.72735
G1 X124.884 Y140.369 E9.7441
G1 X124.408 Y140.644 E9.75994
G1 X123.887 Y140.919 E9.77691
G1 X123.364 Y141.166 E9.79357
G1 X122.827 Y141.396 E9.81041
G1 X122.299 Y141.597 E9.82668
G1 X121.741 Y141.783 E9.84363
G1 X121.189 Y141.944 E9.8602
G1 X120.637 Y142.08 E9.87658
G1 X120.064 Y142.197 E9.89343
G1 X119.504 Y142.288 E9.90977
