;FLAVOR:Marlin
;TIME:2751
;Filament used: 1.5453m, 0m
;Layer height: 0.2
;MINX:92.991
;MINY:75.064
;MINZ:0.3
;MAXX:142.01
;MAXY:157.461
;MAXZ:3.5
;POSTPROCESSED
;Generated with Cura_SteamEngine 4.7.1
T0
M140 S60
M105
M190 S60
M104 S200
M105
M109 S200
M82 ;absolute extrusion mode
M201 X500.00 Y500.00 Z100.00 E5000.00 	;Setup machine max acceleration
M203 X500.00 Y500.00 Z10.00 E50.00 	;Setup machine max feedrate
M204 P500.00 R1000.00 T500.00 		;Setup Print/Retract/Travel acceleration
M205 X8.00 Y8.00 Z0.40 E5.00 		;Setup Jerk
M220 S100 				;Reset Feedrate
M221 S100 				;Reset Flowrate
G28				;Home the Machine
G29 				;Bed Level
G92 E0
M300 P150 S587
G92 E0
G1 F1500 E-6.5
;LAYER_COUNT:17
;LAYER:0
M107
G0 F2400 X114.42 Y76.858 Z0.3
;TYPE:SKIRT
G1 F1500 E0
G1 X114.715 Y76.417 E0.02316
G1 X115.072 Y76.025 E0.04631
G1 X115.485 Y75.691 E0.06949
G1 X115.943 Y75.422 E0.09268
G1 X116.436 Y75.226 E0.11584
G1 X116.952 Y75.105 E0.13898
G1 X117.481 Y75.064 E0.16214
G1 X118.011 Y75.103 E0.18534
G1 X118.528 Y75.22 E0.20848
G1 X119.022 Y75.414 E0.23165
G1 X119.481 Y75.68 E0.25481
G1 X119.896 Y76.011 E0.27798
G1 X120.255 Y76.402 E0.30115
G1 X120.552 Y76.841 E0.32429
G1 X120.778 Y77.317 E0.34729
G1 X121.141 Y78.256 E0.39124
G1 X124.088 Y86.328 E0.76636
G1 X124.319 Y86.991 E0.79701
G1 X124.523 Y87.787 E0.83288
G1 X125.173 Y90.484 E0.95399
G1 X125.896 Y93.145 E1.07436
G1 X126.673 Y95.717 E1.19165
G1 X127.536 Y98.306 E1.31079
G1 X128.479 Y100.89 E1.43086
G1 X129.484 Y103.417 E1.54958
G1 X130.568 Y105.936 E1.6693
G1 X131.715 Y108.405 E1.78814
G1 X132.938 Y110.855 E1.90768
G1 X134.216 Y113.242 E2.02587
G1 X135.571 Y115.61 E2.14497
G1 X136.993 Y117.941 E2.26417
G1 X137.737 Y119.085 E2.32374
G1 X138.559 Y120.414 E2.39196
G1 X138.635 Y120.543 E2.3985
G1 X139.093 Y121.359 E2.43934
G1 X139.157 Y121.478 E2.44524
G1 X139.501 Y122.15 E2.4782
G1 X139.564 Y122.28 E2.48451
G1 X139.943 Y123.102 E2.52402
G1 X140 Y123.231 E2.53018
G1 X140.289 Y123.93 E2.5632
G1 X140.341 Y124.064 E2.56947
G1 X140.677 Y124.981 E2.6121
G1 X140.725 Y125.12 E2.61852
G1 X140.961 Y125.858 E2.65235
G1 X141.001 Y125.993 E2.65849
G1 X141.232 Y126.829 E2.69636
G1 X141.267 Y126.967 E2.70257
G1 X141.463 Y127.807 E2.74022
G1 X141.492 Y127.946 E2.74642
G1 X141.642 Y128.73 E2.78127
G1 X141.667 Y128.873 E2.78761
G1 X141.813 Y129.85 E2.83073
G1 X141.841 Y130.06 E2.83998
G1 X141.899 Y130.609 E2.86408
G1 X141.911 Y130.741 E2.86986
G1 X141.979 Y131.745 E2.91379
G1 X141.986 Y131.884 E2.91987
G1 X142.009 Y132.699 E2.95546
G1 X142.01 Y132.847 E2.96192
G1 X141.998 Y133.707 E2.99947
G1 X141.993 Y133.844 E3.00545
G1 X141.949 Y134.678 E3.04191
G1 X141.939 Y134.822 E3.04821
G1 X141.863 Y135.63 E3.08364
G1 X141.847 Y135.768 E3.0897
G1 X141.731 Y136.634 E3.12784
G1 X141.709 Y136.776 E3.13412
G1 X141.561 Y137.619 E3.17148
G1 X141.534 Y137.754 E3.17749
G1 X141.365 Y138.536 E3.21242
G1 X141.332 Y138.676 E3.2187
G1 X141.115 Y139.513 E3.25644
G1 X141.076 Y139.652 E3.26274
G1 X140.833 Y140.452 E3.29924
G1 X140.788 Y140.589 E3.30554
G1 X140.494 Y141.432 E3.34451
G1 X140.444 Y141.568 E3.35084
G1 X140.105 Y142.425 E3.39107
G1 X140.05 Y142.556 E3.39727
G1 X139.751 Y143.231 E3.4295
G1 X139.689 Y143.363 E3.43587
G1 X139.312 Y144.127 E3.47306
G1 X139.248 Y144.25 E3.47911
G1 X138.798 Y145.078 E3.52025
G1 X138.725 Y145.207 E3.52672
G1 X138.299 Y145.918 E3.5629
G1 X138.225 Y146.035 E3.56894
G1 X137.817 Y146.659 E3.60149
G1 X137.737 Y146.777 E3.60771
G1 X137.2 Y147.53 E3.64809
G1 X137.117 Y147.642 E3.65417
G1 X136.581 Y148.334 E3.69238
G1 X136.484 Y148.453 E3.69909
G1 X135.943 Y149.092 E3.73564
G1 X135.854 Y149.193 E3.74151
G1 X135.266 Y149.836 E3.77955
G1 X135.162 Y149.945 E3.78613
G1 X134.618 Y150.491 E3.81977
G1 X134.52 Y150.585 E3.8257
G1 X133.8 Y151.254 E3.8686
G1 X133.691 Y151.352 E3.875
G1 X133.176 Y151.792 E3.90457
G1 X133.074 Y151.876 E3.91034
G1 X132.35 Y152.449 E3.95065
G1 X132.229 Y152.54 E3.95726
G1 X131.53 Y153.046 E3.99493
G1 X131.416 Y153.126 E4.00101
G1 X130.69 Y153.609 E4.03907
G1 X130.564 Y153.688 E4.04556
G1 X129.853 Y154.119 E4.08186
G1 X129.736 Y154.188 E4.08779
G1 X129.022 Y154.584 E4.12343
G1 X128.893 Y154.652 E4.1298
G1 X128.062 Y155.069 E4.17038
G1 X127.928 Y155.132 E4.17685
G1 X127.204 Y155.458 E4.21151
G1 X127.078 Y155.512 E4.21749
G1 X126.346 Y155.808 E4.25196
G1 X126.212 Y155.859 E4.25822
G1 X125.278 Y156.193 E4.30152
G1 X125.142 Y156.239 E4.30779
G1 X124.473 Y156.448 E4.33839
G1 X124.338 Y156.487 E4.34452
G1 X123.387 Y156.743 E4.38751
G1 X123.245 Y156.778 E4.3939
G1 X122.503 Y156.945 E4.4271
G1 X122.37 Y156.972 E4.43302
G1 X121.537 Y157.126 E4.47
G1 X121.392 Y157.15 E4.47642
G1 X120.54 Y157.271 E4.51399
G1 X120.394 Y157.289 E4.52041
G1 X119.482 Y157.38 E4.56042
G1 X119.344 Y157.391 E4.56646
G1 X118.549 Y157.439 E4.60123
G1 X118.407 Y157.444 E4.60743
G1 X117.547 Y157.461 E4.64498
G1 X117.408 Y157.461 E4.65105
G1 X116.588 Y157.445 E4.68685
G1 X116.445 Y157.44 E4.6931
G1 X115.68 Y157.394 E4.72655
G1 X115.541 Y157.382 E4.73264
G1 X114.592 Y157.287 E4.77428
G1 X114.45 Y157.27 E4.78052
G1 X113.713 Y157.166 E4.81301
G1 X113.575 Y157.144 E4.81911
G1 X112.674 Y156.98 E4.85909
G1 X112.528 Y156.95 E4.8656
G1 X111.678 Y156.758 E4.90364
G1 X111.54 Y156.724 E4.90984
G1 X110.71 Y156.501 E4.94736
G1 X110.578 Y156.463 E4.95336
G1 X109.826 Y156.229 E4.98774
G1 X109.688 Y156.183 E4.99409
G1 X108.873 Y155.892 E5.03187
G1 X108.739 Y155.841 E5.03813
G1 X107.73 Y155.434 E5.08562
G1 X107.233 Y155.216 E5.10931
G1 X107.082 Y155.144 E5.11662
G1 X106.196 Y154.699 E5.1599
G1 X106.077 Y154.637 E5.16575
G1 X105.309 Y154.214 E5.20403
G1 X105.181 Y154.139 E5.21051
G1 X104.428 Y153.682 E5.24896
G1 X104.311 Y153.608 E5.255
G1 X103.627 Y153.155 E5.29081
G1 X103.506 Y153.071 E5.29724
G1 X102.771 Y152.539 E5.33685
G1 X102.657 Y152.453 E5.34309
G1 X101.988 Y151.926 E5.38026
G1 X101.875 Y151.833 E5.38665
G1 X101.217 Y151.269 E5.42449
G1 X101.115 Y151.178 E5.43045
G1 X100.375 Y150.492 E5.4745
G1 X100.006 Y150.128 E5.49713
G1 X99.896 Y150.013 E5.50408
G1 X99.156 Y149.206 E5.55187
G1 X99.057 Y149.094 E5.5584
G1 X98.503 Y148.436 E5.59595
G1 X98.418 Y148.33 E5.60188
G1 X97.882 Y147.641 E5.63999
G1 X97.792 Y147.521 E5.64653
G1 X97.303 Y146.834 E5.68335
G1 X97.223 Y146.716 E5.68957
G1 X96.733 Y145.965 E5.72871
G1 X96.659 Y145.847 E5.7348
G1 X96.246 Y145.156 E5.76994
G1 X96.177 Y145.035 E5.77602
G1 X95.667 Y144.099 E5.82255
G1 X95.379 Y143.517 E5.8509
G1 X94.949 Y142.546 E5.89726
G1 X94.894 Y142.416 E5.90342
G1 X94.537 Y141.514 E5.94576
G1 X94.487 Y141.38 E5.95201
G1 X94.24 Y140.673 E5.9847
G1 X94.195 Y140.534 E5.99108
G1 X93.915 Y139.612 E6.03314
G1 X93.876 Y139.475 E6.03936
G1 X93.631 Y138.533 E6.08185
G1 X93.483 Y137.869 E6.11155
G1 X93.306 Y136.858 E6.15635
G1 X93.285 Y136.723 E6.16232
G1 X93.157 Y135.777 E6.20399
G1 X93.14 Y135.632 E6.21036
G1 X93.064 Y134.819 E6.24601
G1 X93.054 Y134.678 E6.25218
G1 X93.005 Y133.754 E6.29257
G1 X93 Y133.609 E6.29891
G1 X92.991 Y132.851 E6.332
G1 X92.992 Y132.714 E6.33798
G1 X93.014 Y131.899 E6.37357
G1 X93.021 Y131.76 E6.37965
G1 X93.08 Y130.874 E6.41841
G1 X93.092 Y130.73 E6.42472
G1 X93.179 Y129.924 E6.46011
G1 X93.197 Y129.785 E6.46623
G1 X93.329 Y128.895 E6.5055
G1 X93.352 Y128.759 E6.51152
G1 X93.488 Y128.037 E6.5436
G1 X93.52 Y127.884 E6.55042
G1 X93.749 Y126.909 E6.59414
G1 X93.783 Y126.778 E6.60005
G1 X93.97 Y126.1 E6.63075
G1 X94.01 Y125.965 E6.6369
G1 X94.303 Y125.047 E6.67896
G1 X94.351 Y124.907 E6.68542
G1 X94.651 Y124.088 E6.7235
G1 X94.704 Y123.951 E6.72991
G1 X94.998 Y123.241 E6.76346
G1 X95.052 Y123.118 E6.76932
G1 X95.512 Y122.117 E6.81741
G1 X95.813 Y121.519 E6.84664
G1 X96.345 Y120.578 E6.89383
G1 X96.418 Y120.455 E6.90007
G1 X97.291 Y119.047 E6.97239
G1 X97.735 Y118.368 E7.00781
G1 X99.159 Y116.063 E7.12608
G1 X100.533 Y113.691 E7.24575
G1 X101.833 Y111.295 E7.36475
G1 X103.055 Y108.881 E7.48286
G1 X104.223 Y106.4 E7.60257
G1 X105.322 Y103.887 E7.7223
G1 X106.332 Y101.385 E7.84009
G1 X107.283 Y98.826 E7.95926
G1 X108.166 Y96.221 E8.07934
G1 X108.966 Y93.623 E8.198
G1 X109.699 Y90.98 E8.31774
G1 X110.357 Y88.322 E8.43727
G1 X110.534 Y87.533 E8.47257
G1 X110.655 Y87.096 E8.49236
G1 X110.987 Y86.129 E8.537
G1 X113.967 Y77.94 E8.91741
G1 X114.195 Y77.339 E8.94547
G1 X114.42 Y76.858 E8.96865
G0 F2400 X114.738 Y77.008
G1 F1500 X115.023 Y76.592 E8.99067
G1 X115.369 Y76.227 E9.01262
G1 X115.769 Y75.921 E9.03461
G1 X116.213 Y75.683 E9.0566
G1 X116.688 Y75.517 E9.07856
G1 X117.184 Y75.429 E9.10056
G1 X117.688 Y75.42 E9.12256
G1 X118.186 Y75.491 E9.14452
G1 X118.667 Y75.64 E9.1665
G1 X119.119 Y75.863 E9.1885
G1 X119.529 Y76.155 E9.21048
G1 X119.889 Y76.508 E9.23249
G1 X120.188 Y76.913 E9.25446
G1 X120.452 Y77.443 E9.28031
G1 X120.812 Y78.376 E9.32397
G1 X123.757 Y86.443 E9.69886
G1 X123.988 Y87.106 E9.72951
G1 X124.183 Y87.869 E9.76388
G1 X124.839 Y90.59 E9.88607
G1 X125.555 Y93.228 E10.00539
G1 X126.338 Y95.818 E10.12351
G1 X127.211 Y98.437 E10.24403
G1 X128.156 Y101.028 E10.36442
G1 X129.156 Y103.542 E10.48253
G1 X130.236 Y106.049 E10.60169
G1 X131.405 Y108.566 E10.72284
G1 X132.622 Y111.006 E10.84187
G1 X133.91 Y113.411 E10.96097
G1 X135.275 Y115.797 E11.08097
G1 X136.698 Y118.129 E11.20023
G1 X137.399 Y119.205 E11.25629
G1 X138.261 Y120.598 E11.3278
G1 X138.33 Y120.714 E11.33369
G1 X138.788 Y121.53 E11.37454
G1 X138.845 Y121.637 E11.37983
G1 X139.189 Y122.309 E11.41279
G1 X139.246 Y122.427 E11.41851
G1 X139.625 Y123.249 E11.45802
G1 X139.676 Y123.365 E11.46355
G1 X139.965 Y124.064 E11.49657
G1 X140.012 Y124.185 E11.50224
G1 X140.348 Y125.102 E11.54487
G1 X140.391 Y125.227 E11.55064
G1 X140.627 Y125.965 E11.58447
G1 X140.663 Y126.086 E11.58998
G1 X140.894 Y126.922 E11.62784
G1 X140.926 Y127.047 E11.63347
G1 X141.122 Y127.887 E11.67113
G1 X141.148 Y128.011 E11.67666
G1 X141.298 Y128.795 E11.7115
G1 X141.32 Y128.924 E11.71721
G1 X141.455 Y129.83 E11.7572
G1 X141.493 Y130.096 E11.76893
G1 X141.551 Y130.645 E11.79303
G1 X141.562 Y130.764 E11.79825
G1 X141.63 Y131.768 E11.84218
G1 X141.636 Y131.893 E11.84764
G1 X141.659 Y132.708 E11.88323
G1 X141.66 Y132.842 E11.88908
G1 X141.648 Y133.702 E11.92663
G1 X141.644 Y133.825 E11.932
G1 X141.6 Y134.659 E11.96846
G1 X141.59 Y134.789 E11.97415
G1 X141.514 Y135.597 E12.00958
G1 X141.5 Y135.722 E12.01507
G1 X141.384 Y136.588 E12.05321
G1 X141.364 Y136.715 E12.05882
G1 X141.216 Y137.558 E12.09619
G1 X141.192 Y137.68 E12.10161
G1 X141.023 Y138.462 E12.13654
G1 X140.993 Y138.588 E12.14219
G1 X140.776 Y139.425 E12.17994
G1 X140.741 Y139.551 E12.18565
G1 X140.498 Y140.351 E12.22215
G1 X140.458 Y140.474 E12.22779
G1 X140.164 Y141.317 E12.26677
G1 X140.118 Y141.439 E12.27246
G1 X139.779 Y142.296 E12.31269
G1 X139.73 Y142.414 E12.31827
G1 X139.431 Y143.089 E12.3505
G1 X139.375 Y143.208 E12.35624
G1 X138.998 Y143.972 E12.39343
G1 X138.941 Y144.083 E12.39888
G1 X138.491 Y144.911 E12.44002
G1 X138.425 Y145.027 E12.44584
G1 X137.999 Y145.738 E12.48202
G1 X137.932 Y145.844 E12.4875
G1 X137.524 Y146.468 E12.52004
G1 X137.452 Y146.573 E12.5256
G1 X136.915 Y147.326 E12.56598
G1 X136.84 Y147.427 E12.57147
G1 X136.304 Y148.119 E12.60968
G1 X136.217 Y148.227 E12.61573
G1 X135.676 Y148.866 E12.65228
G1 X135.596 Y148.957 E12.65757
G1 X135.008 Y149.6 E12.69561
G1 X134.914 Y149.698 E12.70154
G1 X134.37 Y150.244 E12.73518
G1 X134.282 Y150.329 E12.74052
G1 X133.562 Y150.998 E12.78343
G1 X133.463 Y151.086 E12.78921
G1 X132.948 Y151.526 E12.81878
G1 X132.856 Y151.602 E12.82399
G1 X132.132 Y152.175 E12.86429
G1 X132.024 Y152.257 E12.87021
G1 X131.325 Y152.763 E12.90788
G1 X131.222 Y152.834 E12.91335
G1 X130.496 Y153.317 E12.95141
G1 X130.383 Y153.389 E12.95726
G1 X129.672 Y153.82 E12.99356
G1 X129.566 Y153.882 E12.99892
G1 X128.852 Y154.278 E13.03456
G1 X128.736 Y154.339 E13.04028
G1 X127.905 Y154.756 E13.08087
G1 X127.785 Y154.813 E13.08667
G1 X127.061 Y155.139 E13.12133
G1 X126.947 Y155.187 E13.12673
G1 X126.215 Y155.483 E13.1612
G1 X126.094 Y155.53 E13.16686
G1 X125.16 Y155.864 E13.21016
G1 X125.038 Y155.905 E13.21578
G1 X124.369 Y156.114 E13.24638
G1 X124.247 Y156.149 E13.25192
G1 X123.296 Y156.405 E13.29491
G1 X123.168 Y156.437 E13.30067
G1 X122.426 Y156.604 E13.33387
G1 X122.306 Y156.628 E13.33922
G1 X121.473 Y156.782 E13.3762
G1 X121.342 Y156.803 E13.38199
G1 X120.49 Y156.924 E13.41955
G1 X120.359 Y156.94 E13.42532
G1 X119.447 Y157.031 E13.46533
G1 X119.323 Y157.041 E13.47076
G1 X118.528 Y157.089 E13.50552
G1 X118.4 Y157.094 E13.51112
G1 X117.54 Y157.111 E13.54867
G1 X117.415 Y157.111 E13.55412
G1 X116.595 Y157.095 E13.58993
G1 X116.466 Y157.09 E13.59556
G1 X115.701 Y157.044 E13.62902
G1 X115.576 Y157.034 E13.63449
G1 X114.627 Y156.939 E13.67613
G1 X114.499 Y156.924 E13.68175
G1 X113.762 Y156.82 E13.71424
G1 X113.637 Y156.8 E13.71977
G1 X112.736 Y156.636 E13.75975
G1 X112.605 Y156.609 E13.76559
G1 X111.755 Y156.417 E13.80363
G1 X111.631 Y156.386 E13.80921
G1 X110.801 Y156.163 E13.84672
G1 X110.682 Y156.129 E13.85213
G1 X109.93 Y155.895 E13.88651
G1 X109.805 Y155.853 E13.89226
G1 X108.99 Y155.562 E13.93004
G1 X108.87 Y155.516 E13.93565
G1 X107.861 Y155.109 E13.98315
G1 X107.375 Y154.896 E14.00631
G1 X107.239 Y154.831 E14.01289
G1 X106.353 Y154.386 E14.05617
G1 X106.246 Y154.33 E14.06145
G1 X105.478 Y153.907 E14.09972
G1 X105.363 Y153.84 E14.10553
G1 X104.61 Y153.383 E14.14398
G1 X104.504 Y153.316 E14.14946
G1 X103.82 Y152.863 E14.18527
G1 X103.711 Y152.788 E14.19105
G1 X102.976 Y152.256 E14.23065
G1 X102.873 Y152.178 E14.23629
G1 X102.204 Y151.651 E14.27347
G1 X102.103 Y151.568 E14.27918
G1 X101.445 Y151.004 E14.31701
G1 X101.352 Y150.921 E14.32245
G1 X100.612 Y150.235 E14.3665
G1 X100.253 Y149.88 E14.38854
G1 X100.154 Y149.777 E14.39478
G1 X99.414 Y148.97 E14.44258
G1 X99.325 Y148.869 E14.44845
G1 X98.771 Y148.211 E14.486
G1 X98.694 Y148.116 E14.49134
G1 X98.158 Y147.427 E14.52945
G1 X98.077 Y147.318 E14.53538
G1 X97.588 Y146.631 E14.57219
G1 X97.516 Y146.525 E14.57778
G1 X97.026 Y145.774 E14.61693
G1 X96.96 Y145.668 E14.62238
G1 X96.547 Y144.977 E14.65752
G1 X96.484 Y144.867 E14.66305
G1 X95.974 Y143.931 E14.70958
G1 X95.699 Y143.376 E14.73662
G1 X95.269 Y142.405 E14.78298
G1 X95.22 Y142.287 E14.78856
G1 X94.863 Y141.385 E14.83091
G1 X94.818 Y141.264 E14.83654
G1 X94.571 Y140.557 E14.86924
G1 X94.53 Y140.433 E14.87494
G1 X94.25 Y139.511 E14.917
G1 X94.215 Y139.387 E14.92263
G1 X93.97 Y138.445 E14.96512
G1 X93.828 Y137.809 E14.99356
G1 X93.651 Y136.798 E15.03837
G1 X93.632 Y136.676 E15.04376
G1 X93.504 Y135.73 E15.08543
G1 X93.489 Y135.6 E15.09114
G1 X93.413 Y134.787 E15.12679
G1 X93.403 Y134.659 E15.13239
G1 X93.354 Y133.735 E15.17279
G1 X93.35 Y133.605 E15.17847
G1 X93.341 Y132.847 E15.21156
G1 X93.342 Y132.723 E15.21697
G1 X93.364 Y131.908 E15.25256
G1 X93.37 Y131.783 E15.25802
G1 X93.429 Y130.897 E15.29679
G1 X93.44 Y130.767 E15.30248
G1 X93.527 Y129.961 E15.33787
G1 X93.543 Y129.836 E15.34337
G1 X93.675 Y128.946 E15.38265
G1 X93.696 Y128.824 E15.38805
G1 X93.832 Y128.102 E15.42013
G1 X93.861 Y127.964 E15.42628
G1 X94.09 Y126.989 E15.47
G1 X94.12 Y126.871 E15.47532
G1 X94.307 Y126.193 E15.50602
G1 X94.343 Y126.072 E15.51153
G1 X94.636 Y125.154 E15.5536
G1 X94.68 Y125.027 E15.55947
G1 X94.98 Y124.208 E15.59754
G1 X95.028 Y124.085 E15.6033
G1 X95.322 Y123.375 E15.63685
G1 X95.37 Y123.264 E15.64213
G1 X95.873 Y122.172 E15.69461
G1 X96.118 Y121.691 E15.71818
G1 X96.65 Y120.75 E15.76537
G1 X96.716 Y120.64 E15.77097
G1 X97.632 Y119.164 E15.8468
G1 X98.029 Y118.558 E15.87843
G1 X99.453 Y116.252 E15.99674
G1 X100.831 Y113.875 E16.11668
G1 X102.147 Y111.45 E16.23712
G1 X103.378 Y109.017 E16.35616
