;FLAVOR:Marlin
;TIME:912
;Filament used: 0.527512m, 0m
;Layer height: 0.2
;MINX:97.039
;MINY:87.488
;MINZ:0.3
;MAXX:141.896
;MAXY:143.004
;MAXZ:1.9
;POSTPROCESSED
;Generated with Cura_SteamEngine 4.7.1
T0
M140 S60
M105
M190 S60
M104 S200
M105
M109 S200
M82 ;absolute extrusion mode
M201 X500.00 Y500.00 Z100.00 E5000.00 	;Setup machine max acceleration
M203 X500.00 Y500.00 Z10.00 E50.00 	;Setup machine max feedrate
M204 P500.00 R1000.00 T500.00 		;Setup Print/Retract/Travel acceleration
M205 X8.00 Y8.00 Z0.40 E5.00 		;Setup Jerk
M220 S100 				;Reset Feedrate
M221 S100 				;Reset Flowrate
G28				;Home the Machine
G29 				;Bed Level
G92 E0
M300 P150 S587
G92 E0
G1 F1500 E-6.5
;LAYER_COUNT:9
;LAYER:0
M107
G0 F2400 X109.358 Y94.055 Z0.3
;TYPE:SKIRT
G1 F1500 E0
G1 X109.738 Y93.618 E0.01669
G1 X109.829 Y93.517 E0.0206
G1 X110.281 Y93.037 E0.0396
G1 X110.383 Y92.934 E0.04377
G1 X110.767 Y92.559 E0.05924
G1 X110.865 Y92.466 E0.06313
G1 X111.369 Y92.011 E0.08269
G1 X111.479 Y91.916 E0.08688
G1 X111.912 Y91.557 E0.10309
G1 X112.018 Y91.473 E0.10698
G1 X112.558 Y91.06 E0.12657
G1 X113.075 Y90.694 E0.14482
G1 X113.191 Y90.616 E0.14885
G1 X113.787 Y90.233 E0.16926
G1 X113.905 Y90.16 E0.17326
G1 X114.414 Y89.861 E0.19027
G1 X114.54 Y89.79 E0.19443
G1 X115.006 Y89.542 E0.20964
G1 X115.123 Y89.483 E0.21342
G1 X115.757 Y89.176 E0.23371
G1 X115.892 Y89.114 E0.23799
G1 X116.371 Y88.907 E0.25303
G1 X116.495 Y88.857 E0.25688
G1 X117.203 Y88.583 E0.27875
G1 X117.339 Y88.533 E0.28293
G1 X117.981 Y88.315 E0.30246
G1 X118.436 Y88.179 E0.31614
G1 X119.243 Y87.976 E0.34012
G1 X119.37 Y87.947 E0.34387
G1 X119.932 Y87.828 E0.36042
G1 X120.077 Y87.8 E0.36468
G1 X120.722 Y87.692 E0.38352
G1 X120.867 Y87.671 E0.38774
G1 X121.559 Y87.585 E0.40783
G1 X121.69 Y87.572 E0.41163
G1 X122.391 Y87.512 E0.4319
G1 X122.833 Y87.491 E0.44465
G1 X123.665 Y87.488 E0.46862
G1 X123.807 Y87.49 E0.47271
G1 X124.499 Y87.516 E0.49266
G1 X124.632 Y87.524 E0.4965
G1 X125.169 Y87.565 E0.51202
G1 X125.31 Y87.579 E0.5161
G1 X125.937 Y87.653 E0.53429
G1 X126.08 Y87.673 E0.53845
G1 X126.659 Y87.766 E0.55535
G1 X126.797 Y87.791 E0.55939
G1 X127.458 Y87.925 E0.57882
G1 X127.592 Y87.955 E0.58277
G1 X128.087 Y88.076 E0.59746
G1 X128.217 Y88.11 E0.60133
G1 X128.839 Y88.288 E0.61997
G1 X128.982 Y88.333 E0.62429
G1 X129.638 Y88.552 E0.64421
G1 X130.213 Y88.766 E0.66189
G1 X130.343 Y88.818 E0.66592
G1 X130.938 Y89.071 E0.68455
G1 X131.061 Y89.126 E0.68843
G1 X131.673 Y89.415 E0.70793
G1 X131.805 Y89.481 E0.71219
G1 X132.258 Y89.719 E0.72693
G1 X132.377 Y89.784 E0.73084
G1 X132.989 Y90.137 E0.75119
G1 X133.106 Y90.208 E0.75513
G1 X133.534 Y90.478 E0.76971
G1 X133.66 Y90.562 E0.77408
G1 X134.222 Y90.952 E0.79379
G1 X134.325 Y91.026 E0.79744
G1 X134.765 Y91.356 E0.81329
G1 X134.885 Y91.45 E0.81768
G1 X135.4 Y91.873 E0.83688
G1 X135.497 Y91.956 E0.84056
G1 X135.889 Y92.303 E0.85564
G1 X135.997 Y92.402 E0.85986
G1 X136.5 Y92.887 E0.87999
G1 X136.599 Y92.987 E0.88405
G1 X136.97 Y93.375 E0.89952
G1 X137.062 Y93.475 E0.90343
G1 X137.47 Y93.937 E0.92119
G1 X137.561 Y94.044 E0.92524
G1 X138.014 Y94.601 E0.94592
G1 X138.372 Y95.078 E0.9631
G1 X138.45 Y95.187 E0.96697
G1 X138.86 Y95.785 E0.98786
G1 X138.938 Y95.903 E0.99193
G1 X139.239 Y96.383 E1.00826
G1 X139.31 Y96.502 E1.01225
G1 X139.586 Y96.984 E1.02825
G1 X139.653 Y97.107 E1.03229
G1 X139.97 Y97.717 E1.05209
G1 X140.03 Y97.838 E1.05598
G1 X140.288 Y98.386 E1.07344
G1 X140.347 Y98.517 E1.07757
G1 X140.547 Y98.992 E1.09242
G1 X140.598 Y99.122 E1.09645
G1 X140.848 Y99.79 E1.117
G1 X140.896 Y99.927 E1.12118
G1 X141.08 Y100.49 E1.13824
G1 X141.12 Y100.621 E1.14219
G1 X141.257 Y101.104 E1.15666
G1 X141.292 Y101.236 E1.16059
G1 X141.459 Y101.928 E1.1811
G1 X141.489 Y102.067 E1.1852
G1 X141.604 Y102.648 E1.20226
G1 X141.628 Y102.782 E1.20618
G1 X141.718 Y103.354 E1.22287
G1 X141.738 Y103.499 E1.22708
G1 X141.809 Y104.122 E1.24515
G1 X141.822 Y104.262 E1.2492
G1 X141.867 Y104.879 E1.26703
G1 X141.874 Y105.013 E1.27089
G1 X141.894 Y105.604 E1.28793
G1 X141.896 Y105.746 E1.29202
G1 X141.89 Y106.587 E1.31625
G1 X141.872 Y106.987 E1.32779
G1 X141.796 Y107.851 E1.35278
G1 X141.78 Y107.994 E1.35692
G1 X141.708 Y108.547 E1.37299
G1 X141.688 Y108.682 E1.37692
G1 X141.574 Y109.351 E1.39647
G1 X141.547 Y109.49 E1.40055
G1 X141.422 Y110.077 E1.41785
G1 X141.39 Y110.213 E1.42187
G1 X141.186 Y111.01 E1.44557
G1 X141.07 Y111.401 E1.45733
G1 X140.822 Y112.122 E1.47929
G1 X140.773 Y112.256 E1.4834
G1 X140.501 Y112.952 E1.50493
G1 X140.449 Y113.078 E1.50886
G1 X140.233 Y113.572 E1.52439
G1 X140.173 Y113.702 E1.52852
G1 X139.895 Y114.272 E1.54679
G1 X139.831 Y114.397 E1.55084
G1 X139.542 Y114.933 E1.56838
G1 X139.473 Y115.054 E1.5724
G1 X139.165 Y115.574 E1.58981
G1 X139.094 Y115.689 E1.5937
G1 X138.813 Y116.124 E1.60862
G1 X137.329 Y118.49 E1.68909
G1 X135.952 Y120.83 E1.76732
G1 X134.626 Y123.235 E1.84644
G1 X133.609 Y125.193 E1.91001
G1 X132.93 Y126.424 E1.95052
G1 X129.784 Y131.873 E2.1318
G1 X129.41 Y132.499 E2.15281
G1 X129.107 Y132.928 E2.16794
G1 X128.743 Y133.306 E2.18306
G1 X128.325 Y133.625 E2.19821
G1 X127.864 Y133.876 E2.21333
G1 X127.37 Y134.055 E2.22847
G1 X126.065 Y134.415 E2.26747
G1 X126.023 Y134.431 E2.26877
G1 X123.828 Y135.056 E2.33452
G1 X121.251 Y135.871 E2.4124
G1 X118.652 Y136.774 E2.49167
G1 X116.062 Y137.756 E2.57147
G1 X113.555 Y138.792 E2.64963
G1 X111.061 Y139.904 E2.7283
G1 X108.608 Y141.081 E2.80669
G1 X106.479 Y142.173 E2.87563
G1 X105.655 Y142.607 E2.90246
G1 X105.173 Y142.816 E2.9176
G1 X104.665 Y142.949 E2.93273
G1 X104.143 Y143.004 E2.94785
G1 X103.619 Y142.978 E2.96297
G1 X103.104 Y142.874 E2.97811
G1 X102.612 Y142.692 E2.99322
G1 X102.152 Y142.438 E3.00836
G1 X101.737 Y142.117 E3.02348
G1 X101.375 Y141.737 E3.0386
G1 X101.075 Y141.307 E3.0537
G1 X100.843 Y140.835 E3.06886
G1 X100.686 Y140.334 E3.08398
G1 X100.601 Y139.718 E3.1019
G1 X100.561 Y138.872 E3.1263
G1 X100.516 Y137.595 E3.16312
G1 X100.346 Y134.893 E3.24112
G1 X100.093 Y132.133 E3.32097
G1 X99.769 Y129.439 E3.39915
G1 X99.376 Y126.794 E3.47619
G1 X98.884 Y124.034 E3.55697
G1 X98.342 Y121.419 E3.63391
G1 X97.703 Y118.723 E3.71374
G1 X97.149 Y116.621 E3.77637
G1 X97.054 Y116.104 E3.79151
G1 X97.039 Y115.579 E3.80665
G1 X97.103 Y115.058 E3.82177
G1 X97.246 Y114.553 E3.83689
G1 X97.64 Y113.751 E3.86264
G1 X97.685 Y113.669 E3.86533
G1 X101.165 Y107.643 E4.06582
G1 X101.525 Y107.041 E4.08603
G1 X101.573 Y106.963 E4.08867
G1 X102.135 Y106.079 E4.11885
G1 X102.432 Y105.627 E4.13443
G1 X103.872 Y103.295 E4.2134
G1 X105.228 Y100.951 E4.29142
G1 X107.015 Y97.612 E4.40053
G1 X107.281 Y97.099 E4.41718
G1 X107.557 Y96.61 E4.43336
G1 X107.625 Y96.495 E4.43721
G1 X107.947 Y95.973 E4.45488
G1 X108.022 Y95.856 E4.45888
G1 X108.505 Y95.139 E4.48379
G1 X108.72 Y94.846 E4.49426
G1 X109.269 Y94.161 E4.51956
G1 X109.358 Y94.055 E4.52354
G0 F2400 X109.584 Y94.252
G1 F1500 X109.964 Y93.815 E4.54023
G1 X110.048 Y93.723 E4.54382
G1 X110.5 Y93.243 E4.56281
G1 X110.592 Y93.148 E4.56662
G1 X110.976 Y92.773 E4.58209
G1 X111.066 Y92.689 E4.58564
G1 X111.57 Y92.234 E4.6052
G1 X111.67 Y92.147 E4.60902
G1 X112.103 Y91.788 E4.62522
G1 X112.2 Y91.711 E4.62879
G1 X112.74 Y91.298 E4.64838
G1 X113.247 Y90.939 E4.66628
G1 X113.353 Y90.868 E4.66995
G1 X113.949 Y90.485 E4.69036
G1 X114.057 Y90.419 E4.69401
G1 X114.566 Y90.12 E4.71102
G1 X114.681 Y90.055 E4.71483
G1 X115.147 Y89.807 E4.73003
G1 X115.254 Y89.753 E4.73349
G1 X115.888 Y89.446 E4.75378
G1 X116.011 Y89.389 E4.75769
G1 X116.49 Y89.182 E4.77272
G1 X116.603 Y89.136 E4.77624
G1 X117.311 Y88.862 E4.79811
G1 X117.435 Y88.817 E4.80191
G1 X118.077 Y88.599 E4.82145
G1 X118.51 Y88.47 E4.83446
G1 X119.317 Y88.267 E4.85844
G1 X119.432 Y88.24 E4.86184
G1 X119.994 Y88.121 E4.87839
G1 X120.127 Y88.096 E4.88229
G1 X120.772 Y87.988 E4.90113
G1 X120.904 Y87.969 E4.90498
G1 X121.596 Y87.883 E4.92507
G1 X121.715 Y87.87 E4.92852
G1 X122.416 Y87.81 E4.94879
G1 X122.834 Y87.791 E4.96084
G1 X123.666 Y87.788 E4.98481
G1 X123.795 Y87.79 E4.98853
G1 X124.487 Y87.816 E5.00848
G1 X124.609 Y87.823 E5.012
G1 X125.146 Y87.864 E5.02752
G1 X125.275 Y87.877 E5.03126
G1 X125.902 Y87.951 E5.04945
G1 X126.033 Y87.969 E5.05326
G1 X126.612 Y88.062 E5.07015
G1 X126.738 Y88.085 E5.07384
G1 X127.399 Y88.219 E5.09327
G1 X127.521 Y88.246 E5.09687
G1 X128.016 Y88.367 E5.11156
G1 X128.135 Y88.399 E5.11511
G1 X128.757 Y88.577 E5.13375
G1 X128.887 Y88.617 E5.13767
G1 X129.543 Y88.836 E5.15759
G1 X130.107 Y89.047 E5.17494
G1 X130.226 Y89.094 E5.17863
G1 X130.821 Y89.347 E5.19726
G1 X130.933 Y89.398 E5.2008
G1 X131.545 Y89.687 E5.2203
G1 X131.665 Y89.746 E5.22415
G1 X132.118 Y89.984 E5.2389
G1 X132.227 Y90.044 E5.24248
G1 X132.839 Y90.397 E5.26284
G1 X132.946 Y90.462 E5.26644
G1 X133.374 Y90.732 E5.28102
G1 X133.489 Y90.808 E5.285
G1 X134.051 Y91.198 E5.30471
G1 X134.145 Y91.266 E5.30805
G1 X134.585 Y91.596 E5.32389
G1 X134.694 Y91.682 E5.32789
G1 X135.209 Y92.105 E5.3471
G1 X135.298 Y92.18 E5.35045
G1 X135.69 Y92.527 E5.36553
G1 X135.788 Y92.618 E5.36939
G1 X136.291 Y93.103 E5.38952
G1 X136.382 Y93.194 E5.39323
G1 X136.753 Y93.582 E5.40869
G1 X136.837 Y93.674 E5.41228
G1 X137.245 Y94.136 E5.43004
G1 X137.328 Y94.233 E5.43372
G1 X137.781 Y94.79 E5.4544
G1 X138.132 Y95.257 E5.47124
G1 X138.203 Y95.357 E5.47477
G1 X138.613 Y95.955 E5.49566
G1 X138.684 Y96.063 E5.49938
G1 X138.985 Y96.543 E5.51571
G1 X139.05 Y96.651 E5.51934
G1 X139.326 Y97.133 E5.53534
G1 X139.387 Y97.245 E5.53902
G1 X139.704 Y97.855 E5.55882
G1 X139.759 Y97.966 E5.56239
G1 X140.017 Y98.514 E5.57984
G1 X140.07 Y98.634 E5.58362
G1 X140.27 Y99.109 E5.59847
G1 X140.317 Y99.227 E5.60213
G1 X140.567 Y99.895 E5.62268
G1 X140.611 Y100.02 E5.6265
G1 X140.795 Y100.583 E5.64356
G1 X140.831 Y100.702 E5.64715
G1 X140.968 Y101.185 E5.66161
G1 X141 Y101.306 E5.66522
G1 X141.167 Y101.998 E5.68573
G1 X141.195 Y102.125 E5.68947
G1 X141.31 Y102.706 E5.70654
G1 X141.332 Y102.828 E5.71011
G1 X141.422 Y103.4 E5.72679
G1 X141.44 Y103.533 E5.73066
G1 X141.511 Y104.156 E5.74873
G1 X141.523 Y104.284 E5.75243
G1 X141.568 Y104.901 E5.77025
G1 X141.574 Y105.023 E5.77377
G1 X141.594 Y105.614 E5.79081
G1 X141.596 Y105.743 E5.79453
G1 X141.59 Y106.584 E5.81876
G1 X141.573 Y106.961 E5.82963
G1 X141.497 Y107.825 E5.85462
G1 X141.483 Y107.956 E5.85842
G1 X141.411 Y108.509 E5.87448
G1 X141.392 Y108.631 E5.87804
G1 X141.278 Y109.3 E5.89759
G1 X141.254 Y109.427 E5.90132
G1 X141.129 Y110.014 E5.91861
G1 X141.1 Y110.139 E5.92231
G1 X140.896 Y110.936 E5.94601
G1 X140.787 Y111.304 E5.95707
G1 X140.539 Y112.025 E5.97904
G1 X140.494 Y112.147 E5.98278
G1 X140.222 Y112.843 E6.00431
G1 X140.174 Y112.958 E6.0079
G1 X139.958 Y113.452 E6.02344
G1 X139.903 Y113.571 E6.02721
G1 X139.625 Y114.141 E6.04548
G1 X139.567 Y114.255 E6.04917
G1 X139.278 Y114.791 E6.06671
G1 X139.215 Y114.901 E6.07037
G1 X138.907 Y115.421 E6.08778
G1 X138.843 Y115.526 E6.09132
G1 X138.536 Y116.001 E6.10762
G1 X137.092 Y118.302 E6.18589
G1 X135.691 Y120.681 E6.26543
G1 X134.357 Y123.101 E6.34505
G1 X133.383 Y124.979 E6.406
G1 X132.701 Y126.219 E6.44677
G1 X129.526 Y131.72 E6.62977
G1 X129.152 Y132.346 E6.65078
G1 X128.861 Y132.754 E6.66522
G1 X128.509 Y133.112 E6.67968
G1 X128.105 Y133.409 E6.69413
G1 X127.659 Y133.638 E6.70858
G1 X127.289 Y133.766 E6.71986
G1 X125.998 Y134.122 E6.75844
G1 X125.941 Y134.142 E6.76018
G1 X123.761 Y134.763 E6.82549
G1 X121.153 Y135.587 E6.90429
G1 X118.553 Y136.491 E6.9836
G1 X115.958 Y137.475 E7.06356
G1 X113.437 Y138.516 E7.14214
G1 X110.957 Y139.621 E7.22037
G1 X108.445 Y140.828 E7.30066
G1 X106.373 Y141.89 E7.36775
G1 X105.515 Y142.342 E7.39569
G1 X105.054 Y142.54 E7.41014
G1 X104.568 Y142.662 E7.42458
G1 X104.068 Y142.705 E7.43904
G1 X103.568 Y142.668 E7.45348
G1 X103.08 Y142.553 E7.46793
G1 X102.616 Y142.361 E7.4824
G1 X102.189 Y142.098 E7.49685
G1 X101.809 Y141.771 E7.51129
G1 X101.485 Y141.388 E7.52574
G1 X101.227 Y140.958 E7.54019
G1 X101.04 Y140.492 E7.55466
G1 X100.929 Y140.003 E7.5691
G1 X100.901 Y139.704 E7.57776
G1 X100.861 Y138.862 E7.60204
G1 X100.817 Y137.6 E7.63843
G1 X100.644 Y134.85 E7.71781
G1 X100.392 Y132.107 E7.79718
G1 X100.07 Y129.431 E7.87483
G1 X99.662 Y126.687 E7.95476
G1 X99.181 Y123.986 E8.03381
G1 X98.637 Y121.361 E8.11104
G1 X97.994 Y118.65 E8.19132
G1 X97.439 Y116.544 E8.25407
G1 X97.35 Y116.05 E8.26853
G1 X97.341 Y115.549 E8.28297
G1 X97.411 Y115.052 E8.29743
G1 X97.56 Y114.573 E8.31188
G1 X97.903 Y113.893 E8.33382
G1 X101.423 Y107.797 E8.53664
G1 X101.783 Y107.195 E8.55685
G1 X102.386 Y106.244 E8.58929
G1 X102.684 Y105.791 E8.60491
G1 X104.127 Y103.453 E8.68407
G1 X105.49 Y101.097 E8.76249
G1 X107.299 Y97.718 E8.87292
G1 X107.542 Y97.247 E8.88819
G1 X107.818 Y96.758 E8.90437
G1 X107.88 Y96.652 E8.90791
G1 X108.202 Y96.13 E8.92558
G1 X108.27 Y96.024 E8.92921
G1 X108.753 Y95.307 E8.95411
G1 X108.954 Y95.034 E8.96388
G1 X109.503 Y94.349 E8.98917
G1 X109.584 Y94.252 E8.99281
G1 F1500 E2.49281
;MESH:Benadoce.stl
G0 F2400 X110.492 Y97.138
G0 X111.297 Y97.705
G0 X115.355 Y123.464
;TYPE:WALL-INNER
G1 F1500 E8.99281
G1 F1200 X115.281 Y123.593 E8.9971
G1 X109.047 Y134.391 E9.35633
G1 X105.445 Y137.411 E9.49176
G1 X105.131 Y137.675 E9.50358
G1 X105.202 Y137.271 E9.50984
G1 X106.014 Y132.646 E9.64513
G1 X112.325 Y121.714 E10.00882
G1 X101.627 Y115.538 E10.36472
G1 X101.498 Y115.464 E10.36901
G1 X101.572 Y115.336 E10.37175
G1 X101.573 Y115.335 E10.37179
G1 X105.103 Y109.221 E10.57519
G1 X105.288 Y108.971 E10.58415
G1 X105.486 Y108.796 E10.59177
G1 X105.71 Y108.669 E10.59919
G1 X105.958 Y108.591 E10.60668
G1 X106.221 Y108.566 E10.61429
G1 X106.474 Y108.596 E10.62163
G1 X106.749 Y108.689 E10.62999
G1 X106.846 Y108.738 E10.63312
G1 X107.58 Y109.159 E10.6575
G1 X108.117 Y109.297 E10.67348
G1 X108.742 Y109.127 E10.69214
G1 X109.205 Y108.674 E10.7108
G1 X109.366 Y108.107 E10.72778
G1 X109.344 Y107.822 E10.73602
G1 X109.277 Y107.263 E10.75224
G1 X109.237 Y106.717 E10.76801
G1 X109.216 Y106.141 E10.78462
G1 X109.22 Y105.562 E10.8013
G1 X109.247 Y104.967 E10.81846
G1 X109.295 Y104.409 E10.8346
G1 X109.369 Y103.827 E10.8515
G1 X109.465 Y103.266 E10.8679
G1 X109.586 Y102.691 E10.88483
G1 X109.729 Y102.128 E10.90157
G1 X109.893 Y101.578 E10.9181
G1 X110.083 Y101.022 E10.93503
G1 X110.284 Y100.501 E10.95112
G1 X110.516 Y99.97 E10.96781
G1 X110.777 Y99.431 E10.98507
G1 X111.039 Y98.942 E11.00105
G1 X111.333 Y98.444 E11.01771
G1 X111.659 Y97.939 E11.03503
G1 X111.983 Y97.478 E11.05127
G1 X112.338 Y97.017 E11.06803
G1 X112.706 Y96.576 E11.08458
G1 X113.103 Y96.137 E11.10163
G1 X113.492 Y95.741 E11.11763
G1 X113.928 Y95.331 E11.13487
G1 X114.349 Y94.966 E11.15092
G1 X114.825 Y94.587 E11.16845
G1 X115.268 Y94.263 E11.18427
G1 X115.764 Y93.929 E11.2015
G1 X116.257 Y93.627 E11.21815
G1 X116.76 Y93.346 E11.23475
G1 X117.266 Y93.088 E11.25112
G1 X117.782 Y92.851 E11.26748
G1 X118.335 Y92.624 E11.2847
G1 X118.869 Y92.431 E11.30106
G1 X119.433 Y92.251 E11.31812
G1 X119.976 Y92.103 E11.33433
G1 X120.537 Y91.974 E11.35092
G1 X121.126 Y91.862 E11.36819
G1 X121.684 Y91.781 E11.38444
G1 X122.262 Y91.719 E11.40119
G1 X122.828 Y91.683 E11.41753
G1 X123.417 Y91.669 E11.4345
G1 X123.976 Y91.679 E11.45061
G1 X124.579 Y91.714 E11.46801
G1 X125.142 Y91.768 E11.48431
G1 X125.721 Y91.849 E11.50115
G1 X126.276 Y91.949 E11.5174
G1 X126.849 Y92.077 E11.53432
G1 X127.402 Y92.224 E11.5508
G1 X127.967 Y92.399 E11.56784
G1 X128.5 Y92.589 E11.58415
G1 X129.047 Y92.808 E11.60112
G1 X129.564 Y93.04 E11.61745
G1 X130.086 Y93.301 E11.63426
G1 X130.586 Y93.576 E11.6507
G1 X131.088 Y93.88 E11.66761
G1 X131.58 Y94.205 E11.6846
G1 X132.03 Y94.53 E11.7006
