;FLAVOR:Marlin
;TIME:1172
;Filament used: 0.600605m, 0m
;Layer height: 0.2
;MINX:98.991
;MINY:85.837
;MINZ:0.3
;MAXX:136.009
;MAXY:146.687
;MAXZ:2.5
;POSTPROCESSED
;Generated with Cura_SteamEngine 4.7.1
T0
M140 S60
M105
M190 S60
M104 S200
M105
M109 S200
M82 ;absolute extrusion mode
M201 X500.00 Y500.00 Z100.00 E5000.00 	;Setup machine max acceleration
M203 X500.00 Y500.00 Z10.00 E50.00 	;Setup machine max feedrate
M204 P500.00 R1000.00 T500.00 		;Setup Print/Retract/Travel acceleration
M205 X8.00 Y8.00 Z0.40 E5.00 		;Setup Jerk
M220 S100 				;Reset Feedrate
M221 S100 				;Reset Flowrate
G28				;Home the Machine
G29 				;Bed Level
G92 E0
M300 P150 S587
G92 E0
G1 F1500 E-6.5
;LAYER_COUNT:12
;LAYER:0
M107
G0 F2400 X114.72 Y87.186 Z0.3
;TYPE:SKIRT
G1 F1500 E0
G1 X115.078 Y86.795 E0.02314
G1 X115.49 Y86.461 E0.0463
G1 X115.949 Y86.193 E0.0695
G1 X116.442 Y85.997 E0.09266
G1 X116.959 Y85.878 E0.11582
G1 X117.488 Y85.837 E0.13898
G1 X118.017 Y85.876 E0.16214
G1 X118.534 Y85.994 E0.18528
G1 X119.028 Y86.189 E0.20847
G1 X119.487 Y86.455 E0.23163
G1 X119.901 Y86.787 E0.25479
G1 X120.26 Y87.178 E0.27797
G1 X120.556 Y87.618 E0.30112
G1 X120.781 Y88.09 E0.32394
G1 X121.118 Y88.961 E0.36471
G1 X123.094 Y94.375 E0.6163
G1 X123.321 Y95.026 E0.6464
G1 X123.382 Y95.216 E0.65511
G1 X123.608 Y96.005 E0.69094
G1 X124.396 Y98.61 E0.80975
G1 X125.266 Y101.221 E0.92989
G1 X126.183 Y103.734 E1.04667
G1 X127.202 Y106.298 E1.16711
G1 X128.288 Y108.821 E1.28702
G1 X129.42 Y111.257 E1.40428
G1 X130.66 Y113.739 E1.5254
G1 X131.929 Y116.112 E1.64287
G1 X132.918 Y117.84 E1.72979
G1 X132.936 Y117.878 E1.73162
G1 X133.657 Y119.135 E1.79488
G1 X133.74 Y119.287 E1.80244
G1 X134.108 Y120.008 E1.83778
G1 X134.171 Y120.14 E1.84416
G1 X134.436 Y120.717 E1.87188
G1 X134.491 Y120.842 E1.87784
G1 X134.815 Y121.626 E1.91487
G1 X134.956 Y122.007 E1.93261
G1 X135.189 Y122.735 E1.96598
G1 X135.229 Y122.867 E1.972
G1 X135.49 Y123.807 E2.01459
G1 X135.59 Y124.235 E2.03377
G1 X135.769 Y125.178 E2.07567
G1 X135.859 Y125.772 E2.1019
G1 X135.947 Y126.599 E2.13821
G1 X135.986 Y127.138 E2.1618
G1 X136.008 Y127.989 E2.19896
G1 X136.009 Y128.125 E2.2049
G1 X136.001 Y128.745 E2.23196
G1 X135.971 Y129.365 E2.25906
G1 X135.961 Y129.509 E2.26536
G1 X135.895 Y130.217 E2.2964
G1 X135.878 Y130.362 E2.30278
G1 X135.793 Y130.991 E2.33048
G1 X135.689 Y131.601 E2.3575
G1 X135.663 Y131.734 E2.36341
G1 X135.521 Y132.394 E2.39288
G1 X135.488 Y132.536 E2.39925
G1 X135.335 Y133.127 E2.4259
G1 X135.297 Y133.262 E2.43202
G1 X135.062 Y134.041 E2.46754
G1 X134.929 Y134.427 E2.48536
G1 X134.539 Y135.408 E2.53145
G1 X134.485 Y135.535 E2.53747
G1 X134.245 Y136.076 E2.56331
G1 X134.045 Y136.488 E2.5833
G1 X133.564 Y137.37 E2.62716
G1 X133.248 Y137.902 E2.65417
G1 X133.175 Y138.019 E2.66019
G1 X132.804 Y138.587 E2.6898
G1 X132.719 Y138.711 E2.69637
G1 X132.396 Y139.162 E2.72058
G1 X132.313 Y139.273 E2.72663
G1 X131.884 Y139.825 E2.75715
G1 X131.79 Y139.941 E2.76367
G1 X131.446 Y140.347 E2.7869
G1 X131.358 Y140.447 E2.79272
G1 X130.95 Y140.893 E2.8191
G1 X130.852 Y140.996 E2.82531
G1 X130.24 Y141.613 E2.86325
G1 X129.92 Y141.913 E2.88239
G1 X129.376 Y142.378 E2.91364
G1 X129.271 Y142.464 E2.91956
G1 X128.538 Y143.043 E2.96034
G1 X128.21 Y143.282 E2.97805
G1 X127.471 Y143.772 E3.01676
G1 X127.351 Y143.848 E3.02296
G1 X126.868 Y144.141 E3.04762
G1 X126.75 Y144.209 E3.05357
G1 X125.957 Y144.649 E3.09316
G1 X125.602 Y144.829 E3.11053
G1 X124.892 Y145.149 E3.14453
G1 X124.764 Y145.204 E3.15061
G1 X124.177 Y145.441 E3.17825
G1 X124.04 Y145.493 E3.18464
G1 X123.355 Y145.737 E3.21639
G1 X123.227 Y145.779 E3.22227
G1 X122.567 Y145.986 E3.25246
G1 X122.089 Y146.116 E3.27409
G1 X121.306 Y146.292 E3.30912
G1 X121.174 Y146.319 E3.315
G1 X120.314 Y146.478 E3.35318
G1 X119.813 Y146.545 E3.37525
G1 X119.548 Y146.575 E3.38689
G1 X119.048 Y146.623 E3.40882
G1 X118.919 Y146.633 E3.41446
G1 X118.293 Y146.67 E3.44184
G1 X118.155 Y146.675 E3.44787
G1 X117.548 Y146.687 E3.47437
G1 X117.409 Y146.687 E3.48044
G1 X116.846 Y146.676 E3.50502
G1 X116.708 Y146.671 E3.51105
G1 X116.097 Y146.635 E3.53777
G1 X115.957 Y146.624 E3.5439
G1 X115.401 Y146.569 E3.56829
G1 X115.257 Y146.552 E3.57462
G1 X114.667 Y146.469 E3.60063
G1 X114.53 Y146.447 E3.60668
G1 X113.884 Y146.33 E3.63534
G1 X113.739 Y146.3 E3.64181
G1 X113.107 Y146.158 E3.67008
G1 X112.961 Y146.122 E3.67665
G1 X112.402 Y145.971 E3.70193
G1 X112.276 Y145.935 E3.70765
G1 X111.712 Y145.76 E3.73343
G1 X111.575 Y145.714 E3.73973
G1 X110.797 Y145.437 E3.77579
G1 X110.286 Y145.234 E3.79979
G1 X109.782 Y145.009 E3.82388
G1 X109.643 Y144.943 E3.8306
G1 X109.047 Y144.645 E3.85969
G1 X108.922 Y144.579 E3.86586
G1 X108.265 Y144.217 E3.89861
G1 X108.137 Y144.143 E3.90506
G1 X107.646 Y143.845 E3.93013
G1 X107.532 Y143.773 E3.93602
G1 X106.845 Y143.319 E3.97197
G1 X106.525 Y143.089 E3.98917
G1 X105.79 Y142.51 E4.03001
G1 X105.677 Y142.417 E4.0364
G1 X105.215 Y142.021 E4.06297
G1 X105.112 Y141.93 E4.06897
G1 X104.521 Y141.382 E4.10415
G1 X104.216 Y141.075 E4.12304
G1 X103.655 Y140.462 E4.15932
G1 X103.563 Y140.357 E4.16541
G1 X103.203 Y139.931 E4.18976
G1 X103.111 Y139.818 E4.19612
G1 X102.517 Y139.053 E4.2384
G1 X102.313 Y138.767 E4.25373
G1 X101.84 Y138.041 E4.29156
G1 X101.765 Y137.921 E4.29774
G1 X101.445 Y137.384 E4.32503
G1 X101.379 Y137.268 E4.33085
G1 X101.122 Y136.797 E4.35428
G1 X101.054 Y136.667 E4.36068
G1 X100.749 Y136.048 E4.3908
G1 X100.686 Y135.912 E4.39735
G1 X100.44 Y135.354 E4.42397
G1 X100.211 Y134.781 E4.4509
G1 X100.162 Y134.649 E4.45705
G1 X99.913 Y133.935 E4.49006
G1 X99.869 Y133.801 E4.49622
G1 X99.71 Y133.279 E4.52004
G1 X99.671 Y133.142 E4.52626
G1 X99.522 Y132.571 E4.55202
G1 X99.489 Y132.432 E4.55826
G1 X99.353 Y131.808 E4.58613
G1 X99.325 Y131.667 E4.59241
G1 X99.227 Y131.109 E4.61714
G1 X99.205 Y130.966 E4.62346
G1 X99.111 Y130.263 E4.65442
G1 X99.095 Y130.123 E4.66057
G1 X99.026 Y129.382 E4.69306
G1 X99 Y128.916 E4.71343
G1 X98.991 Y128.199 E4.74473
G1 X98.992 Y128.068 E4.75045
G1 X99.014 Y127.177 E4.78936
G1 X99.042 Y126.737 E4.80861
G1 X99.13 Y125.923 E4.84435
G1 X99.148 Y125.784 E4.85047
G1 X99.245 Y125.131 E4.87929
G1 X99.352 Y124.543 E4.90538
G1 X99.385 Y124.382 E4.91255
G1 X99.552 Y123.667 E4.9446
G1 X99.587 Y123.533 E4.95065
G1 X99.837 Y122.628 E4.99164
G1 X99.933 Y122.334 E5.00514
G1 X100.21 Y121.578 E5.04029
G1 X100.26 Y121.451 E5.04624
G1 X100.496 Y120.877 E5.07334
G1 X100.552 Y120.747 E5.07952
G1 X100.924 Y119.936 E5.11847
G1 X101.094 Y119.602 E5.13483
G1 X102.398 Y117.297 E5.25043
G1 X102.424 Y117.245 E5.25297
G1 X103.041 Y116.169 E5.30712
G1 X104.333 Y113.761 E5.42641
G1 X105.55 Y111.325 E5.54528
G1 X106.707 Y108.837 E5.66507
G1 X107.781 Y106.35 E5.78332
G1 X108.79 Y103.816 E5.90239
G1 X109.727 Y101.251 E6.0216
G1 X110.593 Y98.657 E6.14098
G1 X111.465 Y95.722 E6.27464
G1 X111.607 Y95.265 E6.29553
G1 X112.015 Y94.079 E6.35028
G1 X113.942 Y88.782 E6.59634
G1 X114.199 Y88.108 E6.62783
G1 X114.424 Y87.627 E6.65101
G1 X114.72 Y87.186 E6.6742
G0 F2400 X115.027 Y87.362
G1 F1500 X115.374 Y86.997 E6.69618
G1 X115.775 Y86.692 E6.71818
G1 X116.218 Y86.454 E6.74013
G1 X116.694 Y86.289 E6.76212
G1 X117.19 Y86.201 E6.78411
G1 X117.694 Y86.193 E6.80612
G1 X118.192 Y86.265 E6.82808
G1 X118.673 Y86.414 E6.85007
G1 X119.124 Y86.638 E6.87205
G1 X119.534 Y86.93 E6.89402
G1 X119.893 Y87.284 E6.91603
G1 X120.192 Y87.689 E6.93801
G1 X120.454 Y88.216 E6.9637
G1 X120.812 Y89.144 E7.00712
G1 X122.764 Y94.491 E7.25561
G1 X122.991 Y95.142 E7.2857
G1 X123.045 Y95.313 E7.29353
G1 X123.258 Y96.057 E7.32731
G1 X124.064 Y98.721 E7.44881
G1 X124.927 Y101.31 E7.56795
G1 X125.876 Y103.912 E7.68885
G1 X126.881 Y106.44 E7.80761
G1 X127.961 Y108.949 E7.92686
G1 X129.116 Y111.434 E8.04648
G1 X130.34 Y113.884 E8.16604
G1 X131.622 Y116.281 E8.2847
G1 X132.614 Y118.014 E8.37187
G1 X132.631 Y118.051 E8.37365
G1 X133.354 Y119.31 E8.43703
G1 X133.428 Y119.447 E8.44382
G1 X133.796 Y120.168 E8.47916
G1 X133.853 Y120.286 E8.48488
G1 X134.118 Y120.863 E8.5126
G1 X134.167 Y120.975 E8.51794
G1 X134.523 Y121.839 E8.55873
G1 X134.623 Y122.114 E8.5715
G1 X134.856 Y122.842 E8.60487
G1 X134.891 Y122.961 E8.61029
G1 X135.152 Y123.901 E8.65287
G1 X135.246 Y124.3 E8.67077
G1 X135.444 Y125.349 E8.71737
G1 X135.511 Y125.809 E8.73766
G1 X135.599 Y126.636 E8.77397
G1 X135.636 Y127.147 E8.79633
G1 X135.658 Y127.998 E8.8335
G1 X135.659 Y128.121 E8.83886
G1 X135.651 Y128.741 E8.86593
G1 X135.622 Y129.346 E8.89237
G1 X135.612 Y129.477 E8.89811
G1 X135.546 Y130.185 E8.92915
G1 X135.531 Y130.315 E8.93486
G1 X135.446 Y130.944 E8.96257
G1 X135.344 Y131.541 E8.98901
G1 X135.321 Y131.661 E8.99434
G1 X135.179 Y132.321 E9.02381
G1 X135.149 Y132.449 E9.02955
G1 X134.996 Y133.04 E9.0562
G1 X134.962 Y133.161 E9.06169
G1 X134.727 Y133.94 E9.09721
G1 X134.603 Y134.298 E9.11375
G1 X134.213 Y135.279 E9.15983
G1 X134.165 Y135.393 E9.16523
G1 X133.889 Y136.014 E9.1949
G1 X133.737 Y136.32 E9.20981
G1 X133.256 Y137.202 E9.25367
G1 X132.948 Y137.723 E9.28009
G1 X132.882 Y137.827 E9.28547
G1 X132.511 Y138.395 E9.31508
G1 X132.434 Y138.508 E9.32105
G1 X132.111 Y138.959 E9.34527
G1 X132.037 Y139.058 E9.35067
G1 X131.608 Y139.61 E9.38118
G1 X131.523 Y139.714 E9.38705
G1 X131.179 Y140.12 E9.41028
G1 X131.1 Y140.211 E9.41554
G1 X130.692 Y140.657 E9.44193
G1 X130.603 Y140.75 E9.44755
G1 X129.928 Y141.429 E9.48934
G1 X129.693 Y141.646 E9.5033
G1 X129.149 Y142.111 E9.53455
G1 X129.054 Y142.189 E9.53991
G1 X128.321 Y142.768 E9.58069
G1 X128.017 Y142.99 E9.59712
G1 X127.278 Y143.48 E9.63583
G1 X127.17 Y143.549 E9.64142
G1 X126.687 Y143.842 E9.66608
G1 X126.58 Y143.903 E9.67146
G1 X125.787 Y144.343 E9.71105
G1 X125.459 Y144.51 E9.72712
G1 X124.749 Y144.83 E9.76111
G1 X124.633 Y144.879 E9.76661
G1 X124.046 Y145.116 E9.79425
G1 X123.922 Y145.163 E9.80003
G1 X123.237 Y145.407 E9.83178
G1 X123.122 Y145.445 E9.83707
G1 X122.462 Y145.652 E9.86726
G1 X122.012 Y145.775 E9.88763
G1 X121.229 Y145.951 E9.92266
G1 X121.11 Y145.975 E9.92796
G1 X120.25 Y146.134 E9.96614
G1 X119.572 Y146.22 E9.99597
G1 X119.014 Y146.274 E10.02044
G1 X118.898 Y146.283 E10.02552
G1 X118.272 Y146.32 E10.0529
G1 X118.148 Y146.325 E10.05832
G1 X117.541 Y146.337 E10.08482
G1 X117.416 Y146.337 E10.09028
G1 X116.853 Y146.326 E10.11486
G1 X116.728 Y146.322 E10.12032
G1 X116.117 Y146.286 E10.14704
G1 X115.991 Y146.276 E10.15255
G1 X115.435 Y146.221 E10.17694
G1 X115.306 Y146.205 E10.18262
G1 X114.716 Y146.122 E10.20863
G1 X114.592 Y146.102 E10.21411
G1 X113.946 Y145.985 E10.24277
G1 X113.816 Y145.959 E10.24856
G1 X113.184 Y145.817 E10.27683
G1 X113.052 Y145.784 E10.28277
G1 X112.493 Y145.633 E10.30805
G1 X112.38 Y145.6 E10.31319
G1 X111.816 Y145.425 E10.33897
G1 X111.692 Y145.384 E10.34467
G1 X110.914 Y145.107 E10.38072
G1 X110.429 Y144.914 E10.40351
G1 X109.925 Y144.689 E10.4276
G1 X109.799 Y144.63 E10.43368
G1 X109.203 Y144.332 E10.46277
G1 X109.091 Y144.273 E10.46829
G1 X108.434 Y143.911 E10.50104
G1 X108.319 Y143.844 E10.50685
G1 X107.828 Y143.546 E10.53192
G1 X107.725 Y143.481 E10.53724
G1 X107.038 Y143.027 E10.57318
G1 X106.741 Y142.814 E10.58914
G1 X106.006 Y142.235 E10.62999
G1 X105.905 Y142.152 E10.63569
G1 X105.443 Y141.756 E10.66225
G1 X105.35 Y141.673 E10.6677
G1 X104.759 Y141.125 E10.70288
G1 X104.474 Y140.839 E10.72051
G1 X103.913 Y140.226 E10.75678
G1 X103.83 Y140.131 E10.76229
G1 X103.47 Y139.705 E10.78663
G1 X103.387 Y139.603 E10.79238
G1 X102.793 Y138.838 E10.83466
G1 X102.606 Y138.576 E10.84871
G1 X102.133 Y137.85 E10.88653
G1 X102.066 Y137.742 E10.89208
G1 X101.746 Y137.205 E10.91937
G1 X101.686 Y137.101 E10.92461
G1 X101.429 Y136.63 E10.94803
G1 X101.368 Y136.512 E10.95383
G1 X101.063 Y135.893 E10.98396
G1 X101.006 Y135.771 E10.98984
G1 X100.76 Y135.213 E11.01646
G1 X100.536 Y134.652 E11.04283
G1 X100.492 Y134.533 E11.04836
G1 X100.243 Y133.819 E11.08137
G1 X100.204 Y133.699 E11.08688
G1 X100.045 Y133.177 E11.1107
G1 X100.01 Y133.054 E11.11629
G1 X99.861 Y132.483 E11.14205
G1 X99.831 Y132.357 E11.1477
G1 X99.695 Y131.733 E11.17558
G1 X99.67 Y131.606 E11.18123
G1 X99.572 Y131.048 E11.20596
G1 X99.552 Y130.92 E11.21162
G1 X99.458 Y130.217 E11.24258
G1 X99.444 Y130.09 E11.24816
G1 X99.375 Y129.349 E11.28065
G1 X99.35 Y128.912 E11.29975
G1 X99.341 Y128.195 E11.33106
G1 X99.342 Y128.077 E11.33621
G1 X99.364 Y127.186 E11.37511
G1 X99.39 Y126.775 E11.39309
G1 X99.478 Y125.961 E11.42883
G1 X99.494 Y125.835 E11.43438
G1 X99.591 Y125.182 E11.4632
G1 X99.696 Y124.607 E11.48871
G1 X99.726 Y124.462 E11.49518
G1 X99.893 Y123.747 E11.52723
G1 X99.924 Y123.626 E11.53268
G1 X100.145 Y122.824 E11.569
G1 X100.262 Y122.455 E11.5859
G1 X100.539 Y121.699 E11.62104
G1 X100.584 Y121.584 E11.62644
G1 X100.82 Y121.01 E11.65353
G1 X100.87 Y120.893 E11.65908
G1 X101.242 Y120.082 E11.69803
G1 X101.399 Y119.775 E11.71309
G1 X102.707 Y117.463 E11.82905
G1 X102.727 Y117.419 E11.83116
G1 X103.362 Y116.312 E11.88687
G1 X104.642 Y113.926 E12.00507
G1 X105.866 Y111.476 E12.12462
G1 X107.02 Y108.995 E12.24407
G1 X108.12 Y106.447 E12.36522
G1 X109.112 Y103.958 E12.48219
G1 X109.114 Y103.949 E12.48259
G1 X110.056 Y101.371 E12.60241
G1 X110.926 Y98.765 E12.72234
G1 X111.8 Y95.824 E12.85628
G1 X111.938 Y95.379 E12.87662
G1 X112.344 Y94.199 E12.93109
G1 X114.288 Y88.857 E13.17925
G1 X114.526 Y88.232 E13.20845
G1 X114.742 Y87.777 E13.23044
G1 X115.027 Y87.362 E13.25241
G1 F1500 E6.75241
;MESH:Benadoce.stl
G0 F2400 X116.462 Y90.221
G0 X117.427 Y90.571
G0 X119.476 Y113.826
;TYPE:WALL-INNER
G1 F1500 E13.25241
G1 F1200 X120.447 Y114.008 E13.29554
G1 X121.071 Y114.152 E13.3235
G1 X121.582 Y114.292 E13.34662
G1 X122.189 Y114.486 E13.37444
G1 X122.691 Y114.668 E13.39775
G1 X123.27 Y114.905 E13.42506
G1 X123.78 Y115.138 E13.44954
G1 X124.294 Y115.399 E13.47471
G1 X124.841 Y115.704 E13.50205
G1 X125.344 Y116.014 E13.52784
G1 X125.826 Y116.339 E13.55322
G1 X126.291 Y116.68 E13.57839
G1 X126.75 Y117.046 E13.60402
G1 X127.209 Y117.443 E13.63051
G1 X127.62 Y117.831 E13.65518
G1 X128.045 Y118.264 E13.68167
G1 X128.423 Y118.682 E13.70627
G1 X128.798 Y119.132 E13.73184
G1 X129.161 Y119.603 E13.7578
G1 X129.501 Y120.085 E13.78355
G1 X129.812 Y120.568 E13.80863
G1 X130.121 Y121.09 E13.83511
G1 X130.392 Y121.598 E13.86024
G1 X130.643 Y122.114 E13.88529
G1 X130.878 Y122.651 E13.91088
G1 X131.091 Y123.196 E13.93642
G1 X131.285 Y123.762 E13.96254
G1 X131.449 Y124.31 E13.98751
G1 X131.594 Y124.878 E14.0131
G1 X131.721 Y125.478 E14.03988
G1 X131.817 Y126.037 E14.06464
G1 X131.891 Y126.623 E14.09042
G1 X131.942 Y127.192 E14.11536
G1 X131.97 Y127.791 E14.14154
G1 X131.974 Y128.364 E14.16655
G1 X131.954 Y128.97 E14.19302
G1 X131.917 Y129.487 E14.21565
G1 X131.844 Y130.128 E14.24381
G1 X131.763 Y130.657 E14.26717
G1 X131.652 Y131.226 E14.29248
G1 X131.517 Y131.795 E14.31801
G1 X131.353 Y132.38 E14.34453
G1 X131.18 Y132.916 E14.36912
G1 X130.96 Y133.507 E14.39665
G1 X130.732 Y134.05 E14.42235
G1 X130.505 Y134.537 E14.44581
G1 X130.208 Y135.11 E14.47398
G1 X129.923 Y135.608 E14.49903
G1 X129.601 Y136.123 E14.52555
G1 X129.283 Y136.588 E14.55014
G1 X128.92 Y137.075 E14.57665
G1 X128.565 Y137.512 E14.60123
G1 X128.169 Y137.962 E14.6274
G1 X127.774 Y138.377 E14.65241
G1 X127.345 Y138.792 E14.67847
G1 X126.909 Y139.18 E14.70394
G1 X126.489 Y139.526 E14.7277
G1 X125.997 Y139.9 E14.75468
G1 X125.504 Y140.241 E14.78085
G1 X125.014 Y140.552 E14.80618
G1 X124.508 Y140.846 E14.83173
G1 X123.998 Y141.115 E14.8569
G1 X123.46 Y141.37 E14.88289
G1 X122.92 Y141.601 E14.90853
G1 X122.37 Y141.811 E14.93423
G1 X121.818 Y141.995 E14.95963
G1 X121.258 Y142.159 E14.9851
G1 X120.683 Y142.3 E15.01095
