;FLAVOR:Marlin
;TIME:4835
;Filament used: 4.74047m, 0m
;Layer height: 0.2
;MINX:64.35
;MINY:41.656
;MINZ:0.3
;MAXX:170.654
;MAXY:190.947
;MAXZ:1.9
;POSTPROCESSED
;Generated with Cura_SteamEngine 4.8.0
T0
M140 S60
M105
M190 S60
M104 S200
M105
M109 S200
M82 ;absolute extrusion mode
M201 X500.00 Y500.00 Z100.00 E5000.00 	;Setup machine max acceleration
M203 X500.00 Y500.00 Z10.00 E50.00 	;Setup machine max feedrate
M204 P500.00 R1000.00 T500.00 		;Setup Print/Retract/Travel acceleration
M205 X8.00 Y8.00 Z0.40 E5.00 		;Setup Jerk
M220 S100 				;Reset Feedrate
M221 S100 				;Reset Flowrate
G28				;Home the Machine
#G29 				;Bed Level
G92 E0
M300 P150 S587
G92 E0
G1 F1500 E-5.5
;LAYER_COUNT:9
;LAYER:0
M107
G0 F2618.2 X72.21 Y89.772 Z0.3
;TYPE:SKIRT
G1 F1500 E0
G1 F1200 X72.802 Y89.297 E0.03787
G1 X73.307 Y88.945 E0.06858
G1 X73.841 Y88.602 E0.10024
G1 X76.1 Y87.114 E0.2352
G1 X78.354 Y85.536 E0.37247
G1 X80.554 Y83.901 E0.50922
G1 X82.667 Y82.237 E0.6434
G1 X84.79 Y80.464 E0.7814
G1 X86.796 Y78.691 E0.91496
G1 X88.822 Y76.795 E1.0534
G1 X90.74 Y74.895 E1.18809
G1 X92.637 Y72.908 E1.32515
G1 X94.447 Y70.901 E1.45998
G1 X96.222 Y68.816 E1.59659
G1 X97.947 Y66.671 E1.73392
G1 X99.576 Y64.521 E1.86849
G1 X101.169 Y62.294 E2.0051
G1 X102.673 Y60.06 E2.13946
G1 X104.148 Y57.728 E2.27712
G1 X105.535 Y55.39 E2.41274
G1 X106.851 Y53.024 E2.54781
G1 X108.126 Y50.569 E2.68583
G1 X109.307 Y48.132 E2.82093
G1 X110.852 Y44.644 E3.01126
G1 X111.182 Y43.859 E3.05374
G1 X111.426 Y43.382 E3.08047
G1 X111.738 Y42.946 E3.10722
G1 X112.112 Y42.561 E3.134
G1 X112.538 Y42.236 E3.16073
G1 X113.009 Y41.978 E3.18752
G1 X113.512 Y41.793 E3.21426
G1 X114.037 Y41.685 E3.241
G1 X114.573 Y41.656 E3.26778
G1 X115.107 Y41.706 E3.29454
G1 X115.627 Y41.836 E3.32128
G1 X116.122 Y42.041 E3.34801
G1 X116.582 Y42.318 E3.3748
G1 X116.995 Y42.66 E3.40155
G1 X117.353 Y43.059 E3.4283
G1 X117.647 Y43.507 E3.45503
G1 X117.927 Y44.151 E3.49007
G1 X118.334 Y45.414 E3.55627
G1 X119.218 Y48.032 E3.69413
G1 X120.147 Y50.543 E3.8277
G1 X121.181 Y53.114 E3.96595
G1 X122.261 Y55.593 E4.10086
G1 X123.411 Y58.043 E4.23588
G1 X124.662 Y60.522 E4.37442
G1 X125.95 Y62.904 E4.50952
G1 X127.306 Y65.251 E4.64475
G1 X128.74 Y67.58 E4.7812
G1 X130.237 Y69.863 E4.9174
G1 X131.791 Y72.09 E5.05288
G1 X133.421 Y74.294 E5.18965
G1 X135.103 Y76.437 E5.32556
G1 X136.83 Y78.514 E5.46032
G1 X138.646 Y80.576 E5.5974
G1 X140.504 Y82.572 E5.73345
G1 X142.417 Y84.51 E5.86931
G1 X144.377 Y86.388 E6.00474
G1 X146.895 Y88.648 E6.17354
G1 X147.173 Y88.911 E6.19263
G1 X147.87 Y89.628 E6.24252
G1 X148.282 Y90.065 E6.27248
G1 X150.222 Y92.008 E6.40947
G1 X152.183 Y93.863 E6.54414
G1 X154.233 Y95.696 E6.68133
G1 X156.334 Y97.471 E6.81855
G1 X158.443 Y99.152 E6.95311
G1 X160.633 Y100.797 E7.08975
G1 X162.849 Y102.367 E7.22525
G1 X165.129 Y103.888 E7.36198
G1 X167.484 Y105.363 E7.50062
G1 X168.163 Y105.776 E7.54027
G1 X168.599 Y106.088 E7.56702
G1 X168.984 Y106.462 E7.59379
G1 X169.309 Y106.888 E7.62053
G1 X169.567 Y107.358 E7.64728
G1 X169.715 Y107.738 E7.66762
G1 X170.02 Y108.677 E7.71688
G1 X170.307 Y109.621 E7.7661
G1 X170.512 Y110.329 E7.80288
G1 X170.622 Y110.854 E7.82964
G1 X170.654 Y111.389 E7.85638
G1 X170.617 Y111.843 E7.8791
G1 X170.536 Y112.402 E7.90728
G1 X170.267 Y114.097 E7.9929
G1 X169.917 Y116.795 E8.12863
G1 X169.641 Y119.52 E8.26528
G1 X169.439 Y122.294 E8.40404
G1 X169.323 Y124.933 E8.53583
G1 X169.279 Y127.686 E8.67319
G1 X169.313 Y130.431 E8.81015
G1 X169.423 Y133.134 E8.94512
G1 X169.491 Y134.143 E8.99557
G1 X169.49 Y134.223 E8.99956
G1 X169.598 Y135.891 E9.08295
G1 X169.626 Y136.659 E9.1213
G1 X169.628 Y137.05 E9.1408
G1 X169.614 Y137.588 E9.16765
G1 X169.609 Y137.709 E9.1737
G1 X169.566 Y138.429 E9.20968
G1 X169.556 Y138.554 E9.21594
G1 X169.498 Y139.166 E9.24661
G1 X169.484 Y139.291 E9.25288
G1 X169.38 Y140.089 E9.29303
G1 X169.361 Y140.219 E9.29958
G1 X169.267 Y140.78 E9.32796
G1 X169.24 Y140.92 E9.33508
G1 X169.036 Y141.898 E9.38492
G1 X168.939 Y142.291 E9.40511
G1 X168.709 Y143.091 E9.44664
G1 X168.543 Y143.628 E9.47469
G1 X168.345 Y144.169 E9.50343
G1 X168.155 Y144.613 E9.52752
G1 X167.827 Y145.324 E9.56659
G1 X167.612 Y145.735 E9.58973
G1 X166.33 Y148.151 E9.72618
G1 X165.129 Y150.576 E9.86119
G1 X163.989 Y153.059 E9.9975
G1 X162.915 Y155.579 E10.13416
G1 X161.915 Y158.12 E10.2704
G1 X160.999 Y160.661 E10.40515
G1 X160.137 Y163.281 E10.54276
G1 X159.367 Y165.863 E10.67718
G1 X158.65 Y168.542 E10.81554
G1 X158.02 Y171.192 E10.95144
G1 X157.783 Y172.348 E11.01031
G1 X157.494 Y173.682 E11.07841
G1 X157.293 Y174.526 E11.12169
G1 X157.131 Y175.097 E11.1513
G1 X157.098 Y175.205 E11.15694
G1 X156.939 Y175.693 E11.18254
G1 X156.716 Y176.298 E11.21471
G1 X156.467 Y176.865 E11.24561
G1 X156.204 Y177.387 E11.27477
G1 X155.994 Y177.753 E11.29582
G1 X155.62 Y178.344 E11.33071
G1 X155.552 Y178.448 E11.33691
G1 X154.711 Y179.681 E11.41137
G1 X154.672 Y179.752 E11.41542
G1 X153.232 Y181.797 E11.5402
G1 X152.956 Y182.171 E11.56339
G1 X152.239 Y183.162 E11.62441
G1 X151.907 Y183.558 E11.65019
G1 X151.427 Y184.052 E11.68456
G1 X151.034 Y184.435 E11.71193
G1 X150.309 Y185.149 E11.7627
G1 X149.918 Y185.514 E11.78939
G1 X149.488 Y185.89 E11.81788
G1 X149.107 Y186.194 E11.8422
G1 X148.468 Y186.676 E11.88213
G1 X148.029 Y186.986 E11.90895
G1 X147.618 Y187.258 E11.93353
G1 X147.067 Y187.602 E11.96594
G1 X146.913 Y187.693 E11.97487
G1 X145.889 Y188.263 E12.03333
G1 X145.675 Y188.387 E12.04567
G1 X144.459 Y189.065 E12.11513
G1 X144.013 Y189.276 E12.13975
G1 X142.131 Y190.009 E12.24051
G1 X141.58 Y190.195 E12.26953
G1 X140.902 Y190.39 E12.30472
G1 X140.292 Y190.529 E12.33594
G1 X139.573 Y190.653 E12.37234
G1 X139.457 Y190.668 E12.37817
G1 X138.708 Y190.752 E12.41577
G1 X138.592 Y190.763 E12.42159
G1 X136.907 Y190.898 E12.50592
G1 X136.544 Y190.921 E12.52407
G1 X135.757 Y190.947 E12.56335
G1 X135.221 Y190.925 E12.59012
G1 X134.336 Y190.742 E12.6352
G1 X133.784 Y190.595 E12.6637
G1 X131.758 Y190.019 E12.76879
G1 X129.156 Y189.358 E12.90272
G1 X126.455 Y188.753 E13.04082
G1 X123.776 Y188.229 E13.177
G1 X121.127 Y187.793 E13.31094
G1 X118.397 Y187.42 E13.44841
G1 X115.717 Y187.132 E13.58288
G1 X112.957 Y186.912 E13.72102
G1 X110.265 Y186.775 E13.85549
G1 X107.537 Y186.714 E13.99163
G1 X104.805 Y186.73 E14.12793
G1 X102.076 Y186.822 E14.26416
G1 X99.353 Y186.992 E14.40027
G1 X96.661 Y187.237 E14.53513
G1 X93.928 Y187.563 E14.67245
G1 X91.242 Y187.961 E14.80792
G1 X87.715 Y188.602 E14.98676
G1 X86.502 Y188.844 E15.04847
G1 X85.921 Y188.928 E15.07776
G1 X84.838 Y189.041 E15.13209
G1 X84.173 Y189.082 E15.16533
G1 X83.525 Y189.076 E15.19766
G1 X82.885 Y189.012 E15.22974
G1 X82.275 Y188.895 E15.26073
G1 X81.857 Y188.8 E15.28212
G1 X80.744 Y188.524 E15.33933
G1 X80.253 Y188.386 E15.36477
G1 X80.091 Y188.336 E15.37323
G1 X79.458 Y188.121 E15.40658
G1 X78.865 Y187.894 E15.43826
G1 X78.756 Y187.849 E15.44415
G1 X78.088 Y187.556 E15.48054
G1 X77.576 Y187.305 E15.50899
G1 X77.437 Y187.23 E15.51687
G1 X76.981 Y186.973 E15.54298
G1 X76.667 Y186.784 E15.56126
G1 X75.899 Y186.296 E15.60666
G1 X74.741 Y185.547 E15.67546
G1 X74.079 Y185.056 E15.71658
G1 X73.853 Y184.864 E15.73138
G1 X73.016 Y184.09 E15.78826
G1 X72.314 Y183.446 E15.83578
G1 X71.581 Y182.782 E15.88513
G1 X71.492 Y182.699 E15.8912
G1 X71.087 Y182.306 E15.91935
G1 X70.686 Y181.89 E15.94818
G1 X70.586 Y181.78 E15.9556
G1 X69.897 Y180.987 E16.00801
G1 X69.394 Y180.345 E16.0487
G1 X69.047 Y179.845 E16.07906
G1 X68.873 Y179.57 E16.09529
G1 X68.023 Y178.155 E16.17765
G1 X67.338 Y176.985 E16.24529
G1 X67.011 Y176.447 E16.2767
G1 X66.861 Y176.176 E16.29215
G1 X66.332 Y175.108 E16.35161
G1 X65.548 Y173.484 E16.44158
G1 X65.323 Y172.992 E16.46857
G1 X65.102 Y172.439 E16.49828
G1 X64.964 Y172.042 E16.51925
G1 X64.717 Y171.192 E16.56341
G1 X64.56 Y170.465 E16.60052
G1 X64.463 Y169.872 E16.6305
G1 X64.406 Y169.335 E16.65744
G1 X64.399 Y169.23 E16.66269
G1 X64.353 Y168.303 E16.70899
G1 X64.35 Y168.064 E16.72092
G1 X64.364 Y167.275 E16.76029
G1 X64.417 Y165.948 E16.82654
G1 X64.437 Y165.324 E16.85769
G1 X64.489 Y164.818 E16.88307
G1 X64.63 Y164.014 E16.92379
G1 X65.062 Y161.331 E17.05937
G1 X65.418 Y158.625 E17.19554
G1 X65.698 Y155.906 E17.33191
G1 X65.9 Y153.185 E17.46803
G1 X66.026 Y150.456 E17.60433
G1 X66.074 Y147.751 E17.7393
G1 X66.06 Y146.313 E17.81105
G1 X66.066 Y146.22 E17.8157
G1 X66.052 Y144.779 E17.88759
G1 X66.052 Y143.685 E17.94217
G1 X66.062 Y142.737 E17.98947
G1 X66.09 Y141.543 E18.04906
G1 X66.116 Y140.992 E18.07658
G1 X66.138 Y140.674 E18.09248
G1 X66.294 Y137.85 E18.23358
G1 X66.312 Y137.31 E18.26054
G1 X66.392 Y135.863 E18.33284
G1 X66.433 Y135.405 E18.35578
G1 X66.523 Y134.619 E18.39525
G1 X66.722 Y133.002 E18.47653
G1 X66.932 Y130.855 E18.58416
G1 X67.032 Y129.703 E18.64185
G1 X67.148 Y128.923 E18.68119
G1 X67.27 Y128.25 E18.71531
G1 X67.369 Y127.743 E18.74109
G1 X67.858 Y125.014 E18.8794
G1 X68.256 Y122.361 E19.01324
G1 X68.589 Y119.627 E19.15065
G1 X68.84 Y116.922 E19.28618
G1 X69.016 Y114.191 E19.42272
G1 X69.114 Y111.468 E19.55866
G1 X69.128 Y108.022 E19.73058
G1 X69.082 Y104.69 E19.89683
G1 X69.067 Y102.859 E19.98818
G1 X68.965 Y100.106 E20.12562
G1 X68.951 Y99.879 E20.13697
G1 X68.86 Y98.075 E20.22709
G1 X68.857 Y97.427 E20.25942
G1 X68.884 Y96.94 E20.28375
G1 X68.957 Y96.185 E20.32159
G1 X68.973 Y96.045 E20.32862
G1 X69.048 Y95.495 E20.35632
G1 X69.146 Y94.934 E20.38473
G1 X69.3 Y94.302 E20.41718
G1 X69.449 Y93.839 E20.44145
G1 X69.65 Y93.286 E20.4708
G1 X69.849 Y92.826 E20.49581
G1 X70.088 Y92.358 E20.52202
G1 X70.293 Y92.013 E20.54205
G1 X70.576 Y91.593 E20.56731
G1 X71.023 Y90.995 E20.60456
G1 X71.41 Y90.547 E20.6341
G1 X71.832 Y90.117 E20.66415
G1 X72.21 Y89.772 E20.68969
G0 F2618.2 X72.597 Y89.966
G1 F1200 X73.045 Y89.614 E20.71811
G1 X73.533 Y89.276 E20.74773
G1 X73.613 Y89.222 E20.75254
G1 X74.056 Y88.939 E20.77877
G1 X76.345 Y87.432 E20.91549
G1 X78.577 Y85.869 E21.05144
G1 X80.777 Y84.234 E21.18819
G1 X82.943 Y82.528 E21.32574
G1 X85.028 Y80.787 E21.46126
G1 X87.088 Y78.966 E21.59843
G1 X89.095 Y77.088 E21.73556
G1 X91.01 Y75.191 E21.87004
G1 X92.924 Y73.186 E22.00833
G1 X94.765 Y71.144 E22.1455
G1 X96.537 Y69.063 E22.28186
G1 X98.249 Y66.934 E22.41816
G1 X99.888 Y64.772 E22.55351
G1 X101.493 Y62.527 E22.6912
G1 X103.032 Y60.242 E22.82864
G1 X104.481 Y57.95 E22.96392
G1 X105.879 Y55.594 E23.1006
G1 X107.212 Y53.197 E23.23744
G1 X108.482 Y50.753 E23.37485
G1 X109.663 Y48.314 E23.51004
G1 X111.218 Y44.804 E23.70157
G1 X111.55 Y44.014 E23.74433
G1 X111.782 Y43.565 E23.76954
G1 X112.083 Y43.158 E23.79479
G1 X112.443 Y42.804 E23.81998
G1 X112.855 Y42.51 E23.84524
G1 X113.307 Y42.286 E23.8704
G1 X113.79 Y42.135 E23.89565
G1 X114.29 Y42.062 E23.92086
G1 X114.796 Y42.069 E23.94611
G1 X115.294 Y42.155 E23.97132
G1 X115.772 Y42.319 E23.99653
G1 X116.219 Y42.556 E24.02177
G1 X116.623 Y42.86 E24.047
G1 X116.973 Y43.224 E24.07219
G1 X117.262 Y43.639 E24.09742
G1 X117.546 Y44.274 E24.13213
G1 X117.943 Y45.507 E24.19675
G1 X118.839 Y48.162 E24.33655
G1 X119.773 Y50.685 E24.47077
G1 X120.8 Y53.238 E24.60806
G1 X121.904 Y55.773 E24.746
G1 X123.056 Y58.229 E24.88134
G1 X124.303 Y60.699 E25.01939
G1 X125.595 Y63.088 E25.15489
G1 X126.963 Y65.455 E25.29128
G1 X128.414 Y67.813 E25.42941
G1 X129.901 Y70.081 E25.56471
G1 X131.457 Y72.311 E25.70037
G1 X133.118 Y74.556 E25.8397
G1 X134.76 Y76.649 E25.97242
G1 X136.555 Y78.808 E26.1125
G1 X138.334 Y80.828 E26.24679
G1 X140.227 Y82.861 E26.38538
G1 X142.138 Y84.797 E26.52109
G1 X144.115 Y86.691 E26.65768
G1 X146.624 Y88.943 E26.82589
G1 X146.886 Y89.19 E26.84385
G1 X147.579 Y89.902 E26.89342
G1 X148.008 Y90.357 E26.92462
G1 X149.929 Y92.281 E27.06026
G1 X151.944 Y94.187 E27.19864
G1 X153.954 Y95.985 E27.33318
G1 X156.073 Y97.774 E27.47154
G1 X158.216 Y99.482 E27.60826
G1 X160.383 Y101.11 E27.74348
G1 X162.625 Y102.699 E27.88058
G1 X164.916 Y104.227 E28.01797
G1 X167.276 Y105.705 E28.15689
G1 X167.955 Y106.118 E28.19654
G1 X168.365 Y106.414 E28.22177
G1 X168.723 Y106.771 E28.24699
G1 X169.02 Y107.18 E28.27221
G1 X169.335 Y107.862 E28.30969
G1 X169.637 Y108.793 E28.35852
G1 X169.923 Y109.732 E28.40749
G1 X170.128 Y110.44 E28.44427
G1 X170.23 Y110.935 E28.46948
G1 X170.252 Y111.44 E28.4947
G1 X170.221 Y111.786 E28.51203
G1 X170.141 Y112.339 E28.53991
G1 X169.869 Y114.05 E28.62634
G1 X169.52 Y116.744 E28.76187
G1 X169.242 Y119.484 E28.89927
G1 X169.042 Y122.231 E29.03668
G1 X168.922 Y124.944 E29.17216
G1 X168.879 Y127.697 E29.30953
G1 X168.913 Y130.452 E29.44699
G1 X169.021 Y133.124 E29.5804
G1 X169.092 Y134.17 E29.63271
G1 X169.091 Y134.258 E29.6371
G1 X169.203 Y136.012 E29.72478
G1 X169.228 Y136.765 E29.76237
G1 X169.228 Y137.039 E29.77604
G1 X169.214 Y137.577 E29.80289
G1 X169.166 Y138.405 E29.84427
G1 X169.158 Y138.516 E29.84982
G1 X169.1 Y139.128 E29.88049
G1 X168.983 Y140.038 E29.92627
G1 X168.966 Y140.153 E29.93207
G1 X168.872 Y140.714 E29.96044
G1 X168.849 Y140.838 E29.96674
G1 X168.645 Y141.816 E30.01658
G1 X168.555 Y142.181 E30.03533
G1 X168.327 Y142.973 E30.07645
G1 X168.161 Y143.51 E30.10449
G1 X167.977 Y144.013 E30.13121
G1 X167.792 Y144.445 E30.15466
G1 X167.464 Y145.156 E30.19372
G1 X167.281 Y145.506 E30.21343
G1 X165.976 Y147.966 E30.35236
G1 X164.766 Y150.41 E30.48842
G1 X163.616 Y152.914 E30.62589
G1 X162.552 Y155.412 E30.76135
G1 X161.539 Y157.986 E30.89935
G1 X160.618 Y160.537 E31.03466
G1 X159.759 Y163.147 E31.17175
G1 X158.971 Y165.792 E31.30944
G1 X158.269 Y168.417 E31.445
G1 X157.636 Y171.08 E31.58156
G1 X157.392 Y172.263 E31.64182
G1 X157.105 Y173.589 E31.70951
G1 X156.904 Y174.433 E31.75279
G1 X156.747 Y174.985 E31.78143
G1 X156.718 Y175.081 E31.78643
G1 X156.559 Y175.569 E31.81203
G1 X156.343 Y176.152 E31.84305
G1 X156.102 Y176.702 E31.87301
G1 X155.854 Y177.193 E31.90045
G1 X155.656 Y177.539 E31.92034
G1 X155.222 Y178.222 E31.96072
G1 X154.416 Y179.404 E32.03209
G1 X154.345 Y179.521 E32.03892
G1 X152.918 Y181.548 E32.16259
G1 X152.639 Y181.927 E32.18607
G1 X151.915 Y182.928 E32.24771
G1 X151.62 Y183.28 E32.27062
G1 X151.147 Y183.766 E32.30445
G1 X150.754 Y184.149 E32.33183
G1 X150.036 Y184.856 E32.3821
G1 X149.579 Y185.281 E32.41324
G1 X148.945 Y185.813 E32.45453
G1 X148.866 Y185.875 E32.45954
G1 X148.227 Y186.357 E32.49947
G1 X147.807 Y186.653 E32.52511
G1 X147.406 Y186.918 E32.54909
G1 X146.855 Y187.262 E32.58149
G1 X146.718 Y187.343 E32.58943
G1 X145.691 Y187.915 E32.64808
G1 X145.48 Y188.038 E32.66027
G1 X144.264 Y188.716 E32.72973
G1 X143.867 Y188.903 E32.75162
G1 X141.985 Y189.636 E32.85238
G1 X141.464 Y189.813 E32.87983
G1 X140.799 Y190.004 E32.91435
G1 X140.205 Y190.139 E32.94474
G1 X139.516 Y190.257 E32.97962
G1 X138.664 Y190.354 E33.0224
G1 X138.56 Y190.364 E33.02761
G1 X137.088 Y190.481 E33.10128
G1 X136.531 Y190.521 E33.12914
G1 X135.744 Y190.547 E33.16843
G1 X135.239 Y190.524 E33.19365
G1 X134.426 Y190.352 E33.23511
G1 X133.889 Y190.209 E33.26283
G1 X131.903 Y189.644 E33.36585
G1 X129.195 Y188.956 E33.50524
G1 X126.59 Y188.372 E33.63843
G1 X123.845 Y187.836 E33.77796
G1 X121.174 Y187.396 E33.91302
G1 X118.457 Y187.025 E34.04983
G1 X115.72 Y186.73 E34.18717
G1 X113.011 Y186.515 E34.32274
G1 X110.259 Y186.375 E34.46022
G1 X107.544 Y186.314 E34.59571
G1 X104.79 Y186.33 E34.73311
G1 X102.072 Y186.422 E34.86879
G1 X99.328 Y186.593 E35.00595
G1 X96.579 Y186.843 E35.14366
G1 X93.889 Y187.164 E35.27882
G1 X91.178 Y187.566 E35.41555
G1 X87.646 Y188.208 E35.59465
G1 X86.433 Y188.45 E35.65636
G1 X85.87 Y188.531 E35.68474
G1 X84.736 Y188.649 E35.74162
G1 X84.176 Y188.682 E35.76961
G1 X83.528 Y188.676 E35.80194
G1 X82.96 Y188.62 E35.83041
G1 X82.461 Y188.525 E35.85575
G1 X81.953 Y188.412 E35.88172
G1 X80.84 Y188.136 E35.93893
G1 X80.219 Y187.957 E35.97117
G1 X79.596 Y187.745 E36.004
G1 X79.013 Y187.523 E36.03513
G1 X78.354 Y187.237 E36.07097
G1 X77.757 Y186.948 E36.10406
G1 X77.634 Y186.882 E36.11102
G1 X77.097 Y186.578 E36.14181
G1 X76.881 Y186.446 E36.15444
G1 X76.116 Y185.96 E36.19965
G1 X74.958 Y185.211 E36.26846
G1 X74.325 Y184.741 E36.30779
G1 X74.124 Y184.57 E36.32096
G1 X73.287 Y183.796 E36.37783
G1 X72.584 Y183.151 E36.42543
G1 X71.85 Y182.486 E36.47484
