;FLAVOR:Marlin
;TIME:1011
;Filament used: 0.975686m, 0m
;Layer height: 0.2
;MINX:84.481
;MINY:77.732
;MINZ:0.3
;MAXX:150.515
;MAXY:155.281
;MAXZ:1.9
;Generated with Cura_SteamEngine 4.7.1
T0
M140 S60
M105
M190 S60
M104 S200
M105
M109 S200
M82 ;absolute extrusion mode
M201 X500.00 Y500.00 Z100.00 E5000.00 	;Setup machine max acceleration
M203 X500.00 Y500.00 Z10.00 E50.00 	;Setup machine max feedrate
M204 P500.00 R1000.00 T500.00 		;Setup Print/Retract/Travel acceleration
M205 X8.00 Y8.00 Z0.40 E5.00 		;Setup Jerk
M220 S100 				;Reset Feedrate
M221 S100 				;Reset Flowrate
G28				;Home the Machine
#G29 				;Bed Level
G92 E0
M300 P150 S587
G92 E0
;LAYER_COUNT:9
;LAYER:0
M107
G0 F2160 X114.203 Y79.495 Z0.3
;TYPE:SKIRT
G1 F900 X114.511 Y79.055 E0.0268
G1 X114.88 Y78.666 E0.05355
G1 X115.303 Y78.336 E0.08031
G1 X115.77 Y78.073 E0.10705
G1 X116.271 Y77.882 E0.1338
G1 X116.795 Y77.767 E0.16057
G1 X117.33 Y77.732 E0.18731
G1 X117.864 Y77.777 E0.21405
G1 X118.386 Y77.9 E0.24081
G1 X118.884 Y78.1 E0.26758
G1 X119.347 Y78.371 E0.29434
G1 X119.764 Y78.708 E0.32109
G1 X120.126 Y79.103 E0.34782
G1 X120.387 Y79.481 E0.37074
G1 X120.782 Y80.141 E0.40911
G1 X121.692 Y81.719 E0.49999
G1 X121.979 Y82.233 E0.52936
G1 X122.028 Y82.324 E0.53452
G1 X122.404 Y83.045 E0.57509
G1 X123.028 Y84.28 E0.64412
G1 X124.306 Y86.646 E0.77828
G1 X125.688 Y89.04 E0.91619
G1 X127.11 Y91.348 E1.05144
G1 X128.601 Y93.625 E1.18723
G1 X130.165 Y95.867 E1.32361
G1 X131.786 Y98.059 E1.45962
G1 X133.465 Y100.201 E1.5954
G1 X135.195 Y102.282 E1.73041
G1 X137.014 Y104.349 E1.86778
G1 X138.871 Y106.344 E2.00376
G1 X140.783 Y108.282 E2.13958
G1 X142.742 Y110.16 E2.27497
G1 X144.536 Y111.791 E2.39594
G1 X144.738 Y111.969 E2.40937
G1 X145.176 Y112.43 E2.44109
G1 X145.525 Y112.874 E2.46927
G1 X145.59 Y112.963 E2.47477
G1 X145.981 Y113.643 E2.5139
G1 X146.203 Y114.157 E2.54183
G1 X146.369 Y114.599 E2.56539
G1 X147.138 Y116.797 E2.68156
G1 X148.113 Y119.349 E2.81786
G1 X148.727 Y120.855 E2.899
G1 X149.227 Y122.05 E2.96363
G1 X149.36 Y122.394 E2.98203
G1 X149.575 Y122.992 E3.01373
G1 X149.765 Y123.612 E3.04608
G1 X149.88 Y124.121 E3.07212
G1 X150.042 Y124.968 E3.11514
G1 X150.079 Y125.202 E3.12696
G1 X150.158 Y125.84 E3.15903
G1 X150.209 Y126.385 E3.18634
G1 X150.235 Y126.969 E3.21551
G1 X150.233 Y127.39 E3.23651
G1 X150.163 Y129.788 E3.3562
G1 X150.161 Y132.522 E3.4926
G1 X150.236 Y135.259 E3.6292
G1 X150.426 Y138.318 E3.78211
G1 X150.425 Y138.425 E3.78744
G1 X150.515 Y139.765 E3.85445
G1 X150.514 Y140.39 E3.88563
G1 X150.493 Y140.919 E3.91204
G1 X150.429 Y141.577 E3.94503
G1 X150.355 Y142.106 E3.97167
G1 X150.248 Y142.606 E3.99718
G1 X150.051 Y143.221 E4.0294
G1 X149.969 Y143.437 E4.04093
G1 X149.721 Y144.031 E4.07304
G1 X149.575 Y144.34 E4.09009
G1 X149.331 Y144.797 E4.11594
G1 X149.075 Y145.232 E4.14112
G1 X148.591 Y145.933 E4.18362
G1 X148.322 Y146.265 E4.20494
G1 X147.788 Y146.848 E4.24438
G1 X147.603 Y147.04 E4.25768
G1 X147.203 Y147.394 E4.28433
G1 X146.753 Y147.733 E4.31244
G1 X146.061 Y148.188 E4.35376
G1 X145.872 Y148.299 E4.36469
G1 X145.298 Y148.612 E4.39731
G1 X144.675 Y148.908 E4.43172
G1 X144.491 Y148.987 E4.44171
G1 X143.954 Y149.199 E4.47052
G1 X143.326 Y149.416 E4.50366
G1 X142.7 Y149.606 E4.5363
G1 X142.109 Y149.771 E4.56692
G1 X141.523 Y149.918 E4.59706
G1 X140.988 Y150.026 E4.62429
G1 X140.448 Y150.115 E4.65159
G1 X139.605 Y150.195 E4.69384
G1 X139.242 Y150.213 E4.71197
G1 X138.67 Y150.193 E4.74052
G1 X136.458 Y149.939 E4.85161
G1 X133.708 Y149.702 E4.98931
G1 X130.976 Y149.543 E5.12584
G1 X128.284 Y149.463 E5.26021
G1 X125.554 Y149.459 E5.39641
G1 X122.824 Y149.532 E5.53266
G1 X120.061 Y149.685 E5.67071
G1 X117.377 Y149.91 E5.80509
G1 X114.698 Y150.211 E5.93959
G1 X111.958 Y150.597 E6.07764
G1 X109.284 Y151.052 E6.21296
G1 X106.6 Y151.586 E6.34949
G1 X103.921 Y152.199 E6.4866
G1 X101.319 Y152.874 E6.62071
G1 X98.684 Y153.635 E6.75754
G1 X96.063 Y154.474 E6.89484
G1 X95.472 Y154.677 E6.92602
G1 X94.771 Y154.887 E6.96253
G1 X94.158 Y155.028 E6.99391
G1 X93.412 Y155.156 E7.03167
G1 X92.749 Y155.236 E7.06499
G1 X92.423 Y155.252 E7.08127
G1 X90.977 Y155.281 E7.15343
G1 X90.516 Y155.277 E7.17643
G1 X89.982 Y155.229 E7.20318
G1 X89.461 Y155.102 E7.22993
G1 X88.965 Y154.899 E7.25667
G1 X88.504 Y154.625 E7.28342
G1 X88.085 Y154.284 E7.31037
G1 X87.772 Y153.971 E7.33246
G1 X87.429 Y153.558 E7.35924
G1 X87.152 Y153.1 E7.38595
G1 X86.894 Y152.478 E7.41954
G1 X86.642 Y151.73 E7.45892
G1 X86.44 Y151.034 E7.49508
G1 X86.388 Y150.819 E7.50611
G1 X86.234 Y150.076 E7.54397
G1 X86.194 Y149.848 E7.55552
G1 X86.121 Y149.331 E7.58157
G1 X86.044 Y148.58 E7.61923
G1 X86.026 Y148.357 E7.63039
G1 X85.963 Y147.264 E7.68501
G1 X85.875 Y145.872 E7.7546
G1 X85.635 Y142.426 E7.92694
G1 X85.472 Y139.973 E8.04959
G1 X85.398 Y138.73 E8.11171
G1 X85.354 Y137.918 E8.15228
G1 X85.324 Y137.306 E8.18285
G1 X85.3 Y136.727 E8.21176
G1 X85.297 Y136.604 E8.2179
G1 X85.265 Y135.828 E8.25665
G1 X85.251 Y135.386 E8.27871
G1 X85.228 Y134.354 E8.33021
G1 X85.228 Y134.109 E8.34243
G1 X85.214 Y133.002 E8.39767
G1 X85.214 Y132.667 E8.41438
G1 X85.174 Y129.859 E8.55448
G1 X85.059 Y127.156 E8.68946
G1 X84.867 Y124.454 E8.8246
G1 X84.587 Y121.799 E8.9578
G1 X84.493 Y120.827 E9.00652
G1 X84.481 Y120.29 E9.03331
G1 X84.549 Y119.758 E9.06007
G1 X84.695 Y119.242 E9.08682
G1 X84.908 Y118.769 E9.11271
G1 X85.097 Y118.419 E9.13255
G1 X86.37 Y115.99 E9.26937
G1 X87.255 Y114.169 E9.37038
G1 X87.579 Y113.521 E9.40652
G1 X87.904 Y112.991 E9.43754
G1 X88.207 Y112.582 E9.46293
G1 X88.279 Y112.489 E9.4688
G1 X88.797 Y111.948 E9.50617
G1 X89.408 Y111.43 E9.54613
G1 X91.476 Y109.62 E9.68324
G1 X93.489 Y107.753 E9.82022
G1 X95.437 Y105.843 E9.95633
G1 X97.309 Y103.9 E10.09093
G1 X99.163 Y101.865 E10.22828
G1 X100.913 Y99.831 E10.36214
G1 X102.667 Y97.671 E10.50096
G1 X104.317 Y95.516 E10.63637
G1 X105.907 Y93.315 E10.77183
G1 X107.443 Y91.056 E10.90812
G1 X108.899 Y88.779 E11.04296
G1 X110.316 Y86.418 E11.18034
G1 X111.65 Y84.047 E11.31606
G1 X111.896 Y83.578 E11.34248
G1 X112.734 Y82.025 E11.43052
G1 X112.785 Y81.934 E11.43573
G1 X113.873 Y80.051 E11.54423
G1 X114.203 Y79.495 E11.57648
G0 F2160 X114.547 Y79.699
G1 F900 X114.839 Y79.286 E11.60172
G1 X115.192 Y78.924 E11.62694
G1 X115.597 Y78.622 E11.65215
G1 X116.045 Y78.388 E11.67736
G1 X116.525 Y78.227 E11.70262
G1 X117.023 Y78.144 E11.72781
G1 X117.529 Y78.14 E11.75306
G1 X118.029 Y78.216 E11.77829
G1 X118.51 Y78.37 E11.80348
G1 X118.962 Y78.598 E11.82874
G1 X119.372 Y78.894 E11.85397
G1 X119.73 Y79.251 E11.87919
G1 X120.044 Y79.687 E11.906
G1 X120.435 Y80.341 E11.94401
G1 X121.343 Y81.914 E12.03463
G1 X121.674 Y82.509 E12.0686
G1 X122.047 Y83.225 E12.10887
G1 X122.676 Y84.472 E12.17855
G1 X123.965 Y86.857 E12.31381
G1 X125.328 Y89.218 E12.44982
G1 X126.768 Y91.555 E12.58677
G1 X128.272 Y93.851 E12.7237
G1 X129.843 Y96.104 E12.86073
G1 X131.483 Y98.321 E12.99831
G1 X133.137 Y100.431 E13.13207
G1 X134.921 Y102.577 E13.2713
G1 X136.719 Y104.621 E13.40711
G1 X138.576 Y106.615 E13.54305
G1 X140.504 Y108.569 E13.68001
G1 X142.45 Y110.435 E13.81451
G1 X144.253 Y112.074 E13.93608
G1 X144.474 Y112.269 E13.95078
G1 X144.863 Y112.678 E13.97894
G1 X145.202 Y113.11 E14.00634
G1 X145.267 Y113.199 E14.01184
G1 X145.615 Y113.804 E14.04666
G1 X145.831 Y114.303 E14.07378
G1 X145.992 Y114.731 E14.0966
G1 X146.77 Y116.954 E14.2141
G1 X147.749 Y119.517 E14.35098
G1 X148.358 Y121.01 E14.43142
G1 X148.858 Y122.205 E14.49605
G1 X148.983 Y122.529 E14.51338
G1 X149.198 Y123.127 E14.54508
G1 X149.375 Y123.703 E14.57514
G1 X149.487 Y124.196 E14.60037
G1 X149.649 Y125.043 E14.64339
G1 X149.682 Y125.251 E14.6539
G1 X149.761 Y125.889 E14.68597
G1 X149.809 Y126.411 E14.71212
G1 X149.835 Y126.986 E14.74084
G1 X149.834 Y127.378 E14.76039
G1 X149.763 Y129.814 E14.88198
G1 X149.761 Y132.533 E15.01763
G1 X149.835 Y135.267 E15.15408
G1 X150.027 Y138.343 E15.30784
G1 X150.025 Y138.446 E15.31298
G1 X150.111 Y139.707 E15.37604
G1 X150.114 Y140.383 E15.40976
G1 X150.093 Y140.902 E15.43568
G1 X150.032 Y141.529 E15.46711
G1 X149.959 Y142.05 E15.49335
G1 X149.807 Y142.691 E15.52622
G1 X149.6 Y143.283 E15.55751
G1 X149.352 Y143.877 E15.58962
G1 X149.222 Y144.151 E15.60475
G1 X148.978 Y144.608 E15.6306
G1 X148.598 Y145.232 E15.66705
G1 X148.266 Y145.7 E15.69568
G1 X148.027 Y145.994 E15.71458
G1 X147.493 Y146.577 E15.75402
G1 X146.961 Y147.076 E15.79041
G1 X146.523 Y147.407 E15.8178
G1 X145.849 Y147.849 E15.85801
G1 X145.681 Y147.947 E15.86772
G1 X145.107 Y148.26 E15.90034
G1 X144.508 Y148.545 E15.93343
G1 X144.344 Y148.614 E15.94231
G1 X143.807 Y148.826 E15.97111
G1 X143.202 Y149.036 E16.00306
G1 X142.514 Y149.244 E16.03892
G1 X142.002 Y149.386 E16.06543
G1 X141.426 Y149.53 E16.09505
G1 X140.922 Y149.632 E16.1207
G1 X140.393 Y149.718 E16.14744
G1 X139.574 Y149.796 E16.18849
G1 X139.224 Y149.814 E16.20597
G1 X138.716 Y149.796 E16.23133
G1 X136.47 Y149.538 E16.34412
G1 X133.765 Y149.305 E16.47957
G1 X131.011 Y149.145 E16.6172
G1 X128.261 Y149.063 E16.75446
G1 X125.543 Y149.059 E16.89006
G1 X122.791 Y149.133 E17.02741
G1 X120.077 Y149.283 E17.16302
G1 X117.336 Y149.512 E17.30025
G1 X114.629 Y149.817 E17.43615
G1 X111.907 Y150.201 E17.5733
G1 X109.21 Y150.659 E17.70978
G1 X106.497 Y151.199 E17.84779
G1 X103.836 Y151.808 E17.98398
G1 X101.18 Y152.497 E18.12087
G1 X98.588 Y153.246 E18.25548
G1 X95.951 Y154.09 E18.39361
G1 X95.348 Y154.297 E18.42542
G1 X94.665 Y154.502 E18.46099
G1 X94.09 Y154.634 E18.49043
G1 X93.344 Y154.762 E18.52819
G1 X92.726 Y154.837 E18.55925
G1 X92.415 Y154.852 E18.57478
G1 X90.969 Y154.881 E18.64694
G1 X90.522 Y154.877 E18.66924
G1 X90.019 Y154.829 E18.69445
G1 X89.529 Y154.703 E18.71969
G1 X89.066 Y154.501 E18.74489
G1 X88.64 Y154.229 E18.77011
G1 X88.204 Y153.842 E18.79919
G1 X88.06 Y153.693 E18.80953
G1 X87.738 Y153.303 E18.83476
G1 X87.383 Y152.639 E18.87233
G1 X87.273 Y152.351 E18.88771
G1 X87.021 Y151.603 E18.92709
G1 X86.825 Y150.929 E18.96211
G1 X86.78 Y150.737 E18.97194
G1 X86.626 Y149.994 E19.0098
G1 X86.59 Y149.792 E19.02004
G1 X86.517 Y149.275 E19.04609
G1 X86.442 Y148.545 E19.0827
G1 X86.425 Y148.334 E19.09326
G1 X86.362 Y147.217 E19.14907
G1 X86.274 Y145.846 E19.21761
G1 X86.034 Y142.4 E19.38995
G1 X85.872 Y139.949 E19.5125
G1 X85.798 Y138.709 E19.57447
G1 X85.754 Y137.898 E19.61499
G1 X85.724 Y137.288 E19.64546
G1 X85.7 Y136.717 E19.67398
G1 X85.697 Y136.594 E19.68012
G1 X85.665 Y135.815 E19.71901
G1 X85.651 Y135.376 E19.74093
G1 X85.628 Y134.354 E19.79193
G1 X85.628 Y134.103 E19.80445
G1 X85.614 Y132.996 E19.85968
G1 X85.614 Y132.661 E19.87639
G1 X85.574 Y129.847 E20.0168
G1 X85.459 Y127.147 E20.15163
G1 X85.265 Y124.413 E20.28837
G1 X84.985 Y121.76 E20.42146
G1 X84.891 Y120.788 E20.47018
G1 X84.882 Y120.283 E20.49538
G1 X84.953 Y119.782 E20.52063
G1 X85.102 Y119.299 E20.54584
G1 X85.449 Y118.61 E20.58433
G1 X86.72 Y116.184 E20.72097
G1 X87.597 Y114.38 E20.82104
G1 X87.937 Y113.7 E20.85897
G1 X88.226 Y113.229 E20.88654
G1 X88.524 Y112.827 E20.91151
G1 X88.596 Y112.734 E20.91737
G1 X89.056 Y112.253 E20.95058
G1 X89.657 Y111.743 E20.9899
G1 X91.745 Y109.915 E21.12836
G1 X93.777 Y108.031 E21.2666
G1 X95.722 Y106.124 E21.4025
G1 X97.594 Y104.182 E21.53707
G1 X99.488 Y102.102 E21.67742
G1 X101.222 Y100.086 E21.81008
G1 X102.951 Y97.957 E21.94691
G1 X104.643 Y95.748 E22.08573
G1 X106.246 Y93.529 E22.22231
G1 X107.768 Y91.29 E22.35737
G1 X109.246 Y88.979 E22.49423
G1 X110.665 Y86.614 E22.63183
G1 X112.01 Y84.224 E22.76866
G1 X112.248 Y83.768 E22.79432
G1 X113.086 Y82.215 E22.88236
G1 X113.131 Y82.134 E22.88698
G1 X114.217 Y80.255 E22.99525
G1 X114.547 Y79.699 E23.02751
;MESH:Love.stl
G0 F2160 X115.216 Y83.596
G0 X116.153 Y84.137
G0 X118.684 Y112.74
G0 X135.286 Y132.498
G0 X136.405 Y132.092
G0 X139.871 Y132.349
;TYPE:WALL-INNER
G1 F900 X139.995 Y132.334 E23.03374
G1 X140.105 Y132.319 E23.03928
G1 X140.321 Y132.298 E23.05011
G1 X140.395 Y132.29 E23.05382
G1 X140.672 Y132.312 E23.06769
G1 X140.998 Y132.392 E23.08443
G1 X141.297 Y132.525 E23.10076
G1 X141.623 Y132.705 E23.11934
G1 X141.983 Y132.969 E23.14161
G1 X142.298 Y133.241 E23.16237
G1 X142.818 Y133.79 E23.2001
G1 X143.239 Y134.29 E23.23271
G1 X143.5 Y134.657 E23.25518
G1 X143.692 Y134.963 E23.2732
G1 X144.028 Y135.541 E23.30655
G1 X144.341 Y136.289 E23.34701
G1 X144.601 Y137.03 E23.38619
G1 X144.71 Y137.424 E23.40658
G1 X144.819 Y137.915 E23.43167
G1 X144.966 Y138.67 E23.47005
G1 X145.078 Y139.422 E23.50798
G1 X145.126 Y140.001 E23.53696
G1 X145.108 Y140.643 E23.56901
G1 X145.035 Y141.213 E23.59768
G1 X144.915 Y141.577 E23.6168
G1 X144.78 Y141.882 E23.63344
G1 X144.531 Y142.331 E23.65905
G1 X144.228 Y142.768 E23.68558
G1 X144.141 Y142.859 E23.69186
G1 X144.125 Y142.875 E23.69299
G1 X143.813 Y143.201 E23.71551
G1 X143.724 Y143.267 E23.72103
G1 X143.739 Y143.188
G1 X143.848 Y142.61 E23.73978
G1 X143.85 Y142.588 E23.74086
G1 X143.945 Y141.78 E23.78145
G1 X143.959 Y140.914 E23.82466
G1 X143.889 Y140.064 E23.86721
G1 X143.761 Y139.246 E23.90852
G1 X143.728 Y139.102 E23.91589
G1 X143.606 Y138.507 E23.94619
G1 X143.42 Y137.72 E23.98653
G1 X143.156 Y136.902 E24.02942
G1 X142.835 Y136.11 E24.07205
G1 X142.363 Y135.286 E24.11943
G1 X141.883 Y134.58 E24.16202
G1 X141.466 Y134.05 E24.19567
G1 X141.041 Y133.565 E24.22784
G1 X140.538 Y133.019 E24.26488
G1 X140.167 Y132.642 E24.29126
G1 X140.015 Y132.488 E24.29951
G1 X139.978 Y132.452 E24.29955
G1 X139.871 Y132.349 E24.3017
G0 F2160 X139.734 Y132.772
G1 F900 X139.295 Y132.35 E24.33208
G1 X139.042 Y132.151 E24.34814
G1 X138.971 Y132.094 E24.35268
G1 X139.113 Y132.06 E24.35508
G1 X139.241 Y132.038 E24.35671
G1 X139.521 Y131.99 E24.37088
G1 X140.054 Y131.922 E24.39769
G1 X140.392 Y131.888 E24.41464
G1 X140.731 Y131.915 E24.4316
G1 X141.13 Y132.013 E24.4521
G1 X141.48 Y132.169 E24.47122
G1 X141.838 Y132.367 E24.49163
G1 X142.231 Y132.655 E24.51594
G1 X142.578 Y132.954 E24.53879
G1 X143.109 Y133.515 E24.57733
G1 X143.559 Y134.05 E24.61221
G1 X143.835 Y134.438 E24.63596
G1 X144.031 Y134.75 E24.65434
G1 X144.387 Y135.363 E24.68971
G1 X144.71 Y136.134 E24.73141
G1 X144.977 Y136.897 E24.77174
G1 X144.983 Y136.913 E24.7726
G1 X144.985 Y136.923 E24.7731
G1 X145.098 Y137.327 E24.79403
G1 X145.212 Y137.839 E24.8202
G1 X145.362 Y138.611 E24.85944
G1 X145.476 Y139.376 E24.89803
G1 X145.527 Y139.989 E24.92871
G1 X145.507 Y140.675 E24.96295
G1 X145.427 Y141.303 E24.99454
G1 X145.288 Y141.724 E25.01666
G1 X145.139 Y142.06 E25.03499
G1 X144.875 Y142.537 E25.06219
G1 X144.556 Y142.995 E25.09004
G1 X144.535 Y143.026 E25.09191
G1 X144.08 Y143.501 E25.12472
G1 X143.68 Y143.796 E25.14952
G1 X143.552 Y143.874 E25.157
G1 X143.307 Y144.022 E25.17128
G1 X143.13 Y144.114 E25.18123
G1 X143.157 Y143.99 E25.18153
G1 X143.218 Y143.71 E25.19177
G1 X143.317 Y143.266 E25.21447
G1 X143.452 Y142.55 E25.25082
G1 X143.545 Y141.753 E25.29085
G1 X143.559 Y140.927 E25.33207
G1 X143.492 Y140.111 E25.37292
G1 X143.368 Y139.322 E25.41276
G1 X143.338 Y139.191 E25.41947
G1 X143.215 Y138.593 E25.44993
G1 X143.034 Y137.828 E25.48915
G1 X142.78 Y137.039 E25.5305
G1 X142.474 Y136.285 E25.5711
G1 X142.024 Y135.498 E25.61632
G1 X141.56 Y134.817 E25.65744
G1 X141.158 Y134.306 E25.68987
G1 X140.743 Y133.832 E25.7213
G1 X140.248 Y133.295 E25.75774
G1 X139.734 Y132.772 E25.79433
G0 F2160 X139.453 Y133.056
G1 F900 X139.032 Y132.652 E25.82344
G1 X138.588 Y132.301 E25.85167
G1 X138.395 Y132.153 E25.86381
G1 X138.138 Y131.955 E25.87999
G1 X138.11 Y131.933 E25.88177
G1 X138.172 Y131.909 E25.88299
G1 X138.481 Y131.809 E25.89304
G1 X138.58 Y131.777 E25.89823
G1 X139.027 Y131.669 E25.92117
