;FLAVOR:Marlin
;TIME:6859
;Filament used: 1.92444m, 0m
;Layer height: 0.1
;MINX:71.29
;MINY:45.04
;MINZ:0.1
;MAXX:163.703
;MAXY:188.483
;MAXZ:1.6
;POSTPROCESSED
;Generated with Cura_SteamEngine 4.8.0
T0
M140 S60
M105
M190 S60
M104 S200
M105
M109 S200
M82 ;absolute extrusion mode
M201 X500.00 Y500.00 Z100.00 E5000.00 	;Setup machine max acceleration
M203 X500.00 Y500.00 Z10.00 E50.00 	;Setup machine max feedrate
M204 P500.00 R1000.00 T500.00 		;Setup Print/Retract/Travel acceleration
M205 X8.00 Y8.00 Z0.40 E5.00 		;Setup Jerk
M220 S100 				;Reset Feedrate
M221 S100 				;Reset Flowrate
G28				;Home the Machine
#G29 				;Bed Level
G92 E0
M300 P150 S587
G92 E0
G1 F1500 E-5.5
;LAYER_COUNT:16
;LAYER:0
M107
G0 F2160 X116.647 Y47.074 Z0.1
;TYPE:SKIRT
G1 F1500 E0
G1 F900 X116.897 Y46.613 E0.00654
G1 X117.214 Y46.195 E0.01308
G1 X117.591 Y45.829 E0.01964
G1 X118.019 Y45.525 E0.02619
G1 X118.489 Y45.29 E0.03274
G1 X118.988 Y45.128 E0.03928
G1 X119.506 Y45.044 E0.04583
G1 X120.031 Y45.04 E0.05238
G1 X120.551 Y45.115 E0.05893
G1 X121.053 Y45.269 E0.06548
G1 X121.526 Y45.496 E0.07202
G1 X121.959 Y45.793 E0.07857
G1 X122.342 Y46.152 E0.08512
G1 X122.666 Y46.566 E0.09168
G1 X122.923 Y47.023 E0.09822
G1 X123.108 Y47.514 E0.10476
G1 X123.24 Y48.26 E0.11421
G1 X123.282 Y48.91 E0.12233
G1 X123.496 Y51.635 E0.15642
G1 X123.783 Y54.316 E0.19005
G1 X124.157 Y57.066 E0.22467
G1 X124.6 Y59.744 E0.25853
G1 X125.12 Y62.426 E0.2926
G1 X125.716 Y65.09 E0.32665
G1 X126.383 Y67.724 E0.36054
G1 X127.134 Y70.372 E0.39487
G1 X127.955 Y72.981 E0.42898
G1 X128.842 Y75.543 E0.4628
G1 X129.817 Y78.123 E0.4972
G1 X130.837 Y80.608 E0.5307
G1 X131.963 Y83.14 E0.56526
G1 X133.134 Y85.588 E0.59911
G1 X134.388 Y88.03 E0.63335
G1 X135.691 Y90.401 E0.66709
G1 X137.084 Y92.77 E0.70137
G1 X138.533 Y95.083 E0.73541
G1 X140.047 Y97.357 E0.76949
G1 X141.614 Y99.57 E0.80331
G1 X143.272 Y101.778 E0.83775
G1 X144.959 Y103.896 E0.87152
G1 X146.739 Y106.005 E0.90594
G1 X148.538 Y108.019 E0.93962
G1 X150.258 Y109.842 E0.97088
G1 X150.736 Y110.346 E0.97955
G1 X151.465 Y111.19 E0.99346
G1 X151.99 Y111.813 E1.00362
G1 X152.454 Y112.332 E1.0123
G1 X152.492 Y112.382 E1.01308
G1 X153.381 Y113.396 E1.0299
G1 X153.742 Y113.866 E1.0373
G1 X154.14 Y114.437 E1.04598
G1 X155.09 Y115.783 E1.06652
G1 X155.593 Y116.481 E1.07726
G1 X156.18 Y117.316 E1.08999
G1 X156.26 Y117.434 E1.09176
G1 X156.721 Y118.151 E1.1024
G1 X156.905 Y118.456 E1.10684
G1 X157.248 Y119.053 E1.11543
G1 X157.83 Y120.121 E1.1306
G1 X158.373 Y121.102 E1.14458
G1 X158.464 Y121.277 E1.14704
G1 X158.706 Y121.782 E1.15403
G1 X159.352 Y123.18 E1.17323
G1 X160.425 Y125.346 E1.20338
G1 X160.568 Y125.677 E1.20788
G1 X161.034 Y126.935 E1.22461
G1 X161.451 Y128.118 E1.24026
G1 X161.885 Y129.475 E1.25803
G1 X161.918 Y129.585 E1.25946
G1 X162.213 Y130.633 E1.27304
G1 X162.452 Y131.573 E1.28514
G1 X162.714 Y132.688 E1.29942
G1 X162.912 Y133.596 E1.31101
G1 X163.206 Y135.159 E1.33085
G1 X163.226 Y135.278 E1.33235
G1 X163.307 Y135.81 E1.33907
G1 X163.326 Y135.958 E1.34093
G1 X163.467 Y137.267 E1.35735
G1 X163.506 Y137.66 E1.36227
G1 X163.679 Y139.66 E1.38731
G1 X163.703 Y140.203 E1.39409
G1 X163.698 Y141.75 E1.41339
G1 X163.693 Y142.294 E1.42017
G1 X163.693 Y142.903 E1.42777
G1 X163.683 Y143.601 E1.43647
G1 X163.674 Y143.796 E1.43891
G1 X163.547 Y145.586 E1.46129
G1 X163.51 Y146.192 E1.46886
G1 X163.419 Y147.283 E1.48252
G1 X163.261 Y148.705 E1.50036
G1 X163.199 Y149.309 E1.50794
G1 X163.122 Y149.883 E1.51516
G1 X163.094 Y150.053 E1.51731
G1 X162.744 Y151.897 E1.54072
G1 X162.625 Y152.46 E1.5479
G1 X162.433 Y153.332 E1.55903
G1 X162.226 Y154.163 E1.56971
G1 X162.184 Y154.316 E1.57169
G1 X161.723 Y155.85 E1.59167
G1 X161.564 Y156.351 E1.59823
G1 X161.312 Y157.113 E1.60824
G1 X160.972 Y158.107 E1.62134
G1 X160.399 Y159.639 E1.64174
G1 X160.117 Y160.332 E1.65107
G1 X160.065 Y160.452 E1.6527
G1 X159.315 Y162.113 E1.67543
G1 X158.855 Y163.156 E1.68965
G1 X158.627 Y163.587 E1.69573
G1 X157.939 Y164.692 E1.71197
G1 X157.872 Y164.828 E1.71386
G1 X157.187 Y165.908 E1.72981
G1 X156.529 Y166.994 E1.74565
G1 X155.896 Y167.969 E1.76015
G1 X155.065 Y169.17 E1.77836
G1 X155.001 Y169.281 E1.77996
G1 X153.483 Y171.47 E1.81319
G1 X153.323 Y171.71 E1.81678
G1 X152.896 Y172.231 E1.82519
G1 X152.117 Y173.013 E1.83895
G1 X151.528 Y173.587 E1.84921
G1 X150.854 Y174.275 E1.86122
G1 X149.483 Y175.648 E1.88542
G1 X149.132 Y176.001 E1.89163
G1 X148.221 Y176.884 E1.90746
G1 X148.022 Y177.065 E1.91081
G1 X147.018 Y177.908 E1.92716
G1 X146.539 Y178.321 E1.93505
G1 X145.879 Y178.858 E1.94566
G1 X145.429 Y179.199 E1.95271
G1 X144.637 Y179.765 E1.96485
G1 X143.469 Y180.578 E1.9826
G1 X142.847 Y181.025 E1.99215
G1 X142.52 Y181.234 E1.99699
G1 X141.817 Y181.627 E2.00704
G1 X141.327 Y181.893 E2.01399
G1 X141.267 Y181.92 E2.01481
G1 X138.881 Y183.229 E2.04876
G1 X138.38 Y183.508 E2.05591
G1 X138.038 Y183.675 E2.06065
G1 X137.259 Y184.003 E2.0712
G1 X135.527 Y184.713 E2.09454
G1 X135.088 Y184.885 E2.10042
G1 X134.148 Y185.269 E2.11309
G1 X131.745 Y186.287 E2.14564
G1 X131.499 Y186.38 E2.14892
G1 X130.662 Y186.66 E2.15993
G1 X130.136 Y186.819 E2.16678
G1 X129.224 Y187.072 E2.17859
G1 X128.193 Y187.329 E2.19184
G1 X127.231 Y187.544 E2.20413
G1 X126.141 Y187.762 E2.218
G1 X124.998 Y187.965 E2.23248
G1 X123.594 Y188.174 E2.25018
G1 X122.767 Y188.271 E2.26057
G1 X122.59 Y188.287 E2.26278
G1 X120.766 Y188.406 E2.28558
G1 X119.421 Y188.449 E2.30237
G1 X117.698 Y188.477 E2.32386
G1 X116.768 Y188.483 E2.33546
G1 X115.653 Y188.473 E2.34937
G1 X115.537 Y188.47 E2.35081
G1 X113.993 Y188.404 E2.37009
G1 X113.852 Y188.395 E2.37185
G1 X112.814 Y188.308 E2.38484
G1 X112.694 Y188.296 E2.38635
G1 X111.922 Y188.204 E2.39604
G1 X111.195 Y188.099 E2.40521
G1 X110.731 Y188.026 E2.41106
G1 X109.812 Y187.873 E2.42268
G1 X108.777 Y187.677 E2.43582
G1 X108.052 Y187.524 E2.44506
G1 X106.921 Y187.263 E2.45954
G1 X106.191 Y187.083 E2.46892
G1 X103.699 Y186.494 E2.50086
G1 X103.231 Y186.351 E2.50696
G1 X101.863 Y185.81 E2.52531
G1 X99.981 Y185.025 E2.55074
G1 X96.877 Y183.667 E2.593
G1 X96.27 Y183.391 E2.60132
G1 X95.929 Y183.212 E2.60612
G1 X95.352 Y182.867 E2.61451
G1 X94.281 Y182.206 E2.6302
G1 X94.208 Y182.153 E2.63133
G1 X93.629 Y181.802 E2.63977
G1 X93.153 Y181.516 E2.6467
G1 X92.502 Y181.116 E2.65623
G1 X92.256 Y180.951 E2.65992
G1 X91.62 Y180.48 E2.66979
G1 X90.466 Y179.605 E2.68786
G1 X88.341 Y178.084 E2.72045
G1 X87.777 Y177.691 E2.72903
G1 X87.472 Y177.452 E2.73386
G1 X86.91 Y176.957 E2.7432
G1 X85.665 Y175.834 E2.76411
G1 X85.292 Y175.481 E2.77052
G1 X84.404 Y174.587 E2.78623
G1 X83.454 Y173.585 E2.80345
G1 X83.056 Y173.172 E2.81061
G1 X82.26 Y172.316 E2.82519
G1 X81.92 Y171.922 E2.83168
G1 X81.24 Y171.084 E2.84514
G1 X79.127 Y168.416 E2.88759
G1 X78.827 Y167.991 E2.89408
G1 X78.293 Y167.151 E2.90649
G1 X77.484 Y165.906 E2.92501
G1 X77.213 Y165.427 E2.93187
G1 X77.102 Y165.194 E2.93509
G1 X76.126 Y163.062 E2.96434
G1 X75.477 Y161.733 E2.98279
G1 X75.079 Y160.862 E2.99473
G1 X74.984 Y160.638 E2.99776
G1 X74.488 Y159.404 E3.01435
G1 X73.98 Y158.017 E3.03278
G1 X73.494 Y156.569 E3.05183
G1 X73.406 Y156.291 E3.05546
G1 X73.033 Y155.066 E3.07143
G1 X72.856 Y154.425 E3.07973
G1 X72.62 Y153.49 E3.09176
G1 X72.407 Y152.545 E3.10384
G1 X72.246 Y151.752 E3.11393
G1 X72.05 Y150.73 E3.12691
G1 X71.837 Y149.52 E3.14223
G1 X71.649 Y148.221 E3.1586
G1 X71.519 Y147.084 E3.17288
G1 X71.508 Y146.972 E3.17428
G1 X71.369 Y145.266 E3.19563
G1 X71.304 Y143.907 E3.2126
G1 X71.29 Y143.247 E3.22083
G1 X71.294 Y141.934 E3.23721
G1 X71.314 Y140.533 E3.25469
G1 X71.337 Y140.119 E3.25986
G1 X71.394 Y139.465 E3.26805
G1 X71.521 Y138.208 E3.2838
G1 X71.532 Y138.147 E3.28458
G1 X71.62 Y137.25 E3.29582
G1 X71.866 Y135.325 E3.32002
G1 X71.88 Y135.225 E3.32128
G1 X72.029 Y134.289 E3.3331
G1 X72.245 Y133.111 E3.34804
G1 X72.334 Y132.68 E3.35353
G1 X72.518 Y131.856 E3.36406
G1 X72.742 Y130.975 E3.3754
G1 X72.776 Y130.852 E3.37699
G1 X73.171 Y129.512 E3.39441
G1 X73.554 Y128.295 E3.41033
G1 X73.67 Y127.923 E3.41519
G1 X74.172 Y126.428 E3.43486
G1 X74.381 Y125.864 E3.44236
G1 X74.639 Y125.229 E3.45091
G1 X75.112 Y124.122 E3.46592
G1 X75.695 Y122.84 E3.48349
G1 X76.075 Y122.051 E3.49441
G1 X76.507 Y121.2 E3.50631
G1 X76.908 Y120.446 E3.51697
G1 X77.368 Y119.62 E3.52876
G1 X77.848 Y118.801 E3.5406
G1 X78.324 Y118.024 E3.55196
G1 X78.824 Y117.246 E3.5635
G1 X79.396 Y116.395 E3.57629
G1 X80.425 Y114.953 E3.59838
G1 X80.5 Y114.851 E3.59996
G1 X81.384 Y113.704 E3.61802
G1 X81.458 Y113.612 E3.6195
G1 X82.462 Y112.397 E3.63915
G1 X83.209 Y111.535 E3.65338
G1 X84.432 Y110.205 E3.67592
G1 X84.594 Y110.04 E3.6788
G1 X85.412 Y109.263 E3.69287
G1 X87.428 Y107.371 E3.72736
G1 X89.356 Y105.455 E3.76126
G1 X91.267 Y103.445 E3.79585
G1 X93.093 Y101.412 E3.82993
G1 X94.846 Y99.347 E3.86372
G1 X96.555 Y97.214 E3.89781
G1 X98.196 Y95.042 E3.93176
G1 X99.789 Y92.803 E3.96603
G1 X101.311 Y90.533 E4.00012
G1 X102.757 Y88.239 E4.03394
G1 X104.153 Y85.877 E4.06816
G1 X105.469 Y83.502 E4.10203
G1 X106.735 Y81.052 E4.13643
G1 X107.92 Y78.595 E4.17045
G1 X109.024 Y76.128 E4.20416
G1 X110.089 Y73.559 E4.23885
G1 X111.053 Y71.026 E4.27265
G1 X111.944 Y68.471 E4.3064
G1 X112.779 Y65.844 E4.34078
G1 X113.524 Y63.248 E4.37447
G1 X114.21 Y60.571 E4.40893
G1 X114.816 Y57.902 E4.44307
G1 X115.339 Y55.242 E4.47688
G1 X115.788 Y52.561 E4.51079
G1 X116.166 Y49.844 E4.545
G1 X116.37 Y48.084 E4.5671
G1 X116.47 Y47.569 E4.57364
G1 X116.647 Y47.074 E4.5802
G0 F2160 X116.94 Y47.156
G1 F900 X117.186 Y46.719 E4.58645
G1 X117.499 Y46.327 E4.59271
G1 X117.87 Y45.99 E4.59896
G1 X118.29 Y45.716 E4.60522
G1 X118.748 Y45.512 E4.61147
G1 X119.233 Y45.383 E4.61773
G1 X119.732 Y45.333 E4.62399
G1 X120.233 Y45.362 E4.63024
G1 X120.723 Y45.471 E4.63651
G1 X121.189 Y45.656 E4.64276
G1 X121.62 Y45.913 E4.64902
G1 X122.004 Y46.235 E4.65527
G1 X122.333 Y46.614 E4.66153
G1 X122.598 Y47.04 E4.66779
G1 X122.791 Y47.503 E4.67404
G1 X122.908 Y47.991 E4.6803
G1 X122.94 Y48.279 E4.68391
G1 X122.979 Y48.885 E4.69149
G1 X123.197 Y51.654 E4.72613
G1 X123.49 Y54.39 E4.76045
G1 X123.855 Y57.078 E4.79429
G1 X124.308 Y59.818 E4.82892
G1 X124.825 Y62.484 E4.8628
G1 X125.416 Y65.123 E4.89653
G1 X126.103 Y67.839 E4.93147
G1 X126.841 Y70.438 E4.96517
G1 X127.667 Y73.064 E4.9995
G1 X128.57 Y75.673 E5.03394
G1 X129.523 Y78.194 E5.06755
G1 X130.573 Y80.75 E5.10202
G1 X131.693 Y83.273 E5.13645
G1 X132.864 Y85.72 E5.17028
G1 X134.112 Y88.15 E5.20435
G1 X135.445 Y90.575 E5.23887
G1 X136.818 Y92.91 E5.27265
G1 X138.282 Y95.248 E5.30706
G1 X139.802 Y97.53 E5.34126
G1 X141.373 Y99.749 E5.37517
G1 X143.042 Y101.97 E5.40982
G1 X144.723 Y104.081 E5.44348
G1 X146.499 Y106.187 E5.47784
G1 X148.327 Y108.232 E5.51205
G1 X150.066 Y110.076 E5.54366
G1 X150.509 Y110.542 E5.55168
G1 X151.235 Y111.384 E5.56555
G1 X151.733 Y111.974 E5.57518
G1 X152.231 Y112.532 E5.58451
G1 X152.275 Y112.59 E5.58541
G1 X153.155 Y113.594 E5.60207
G1 X153.496 Y114.037 E5.60904
G1 X153.906 Y114.625 E5.61798
G1 X154.847 Y115.958 E5.63833
G1 X155.348 Y116.653 E5.64902
G1 X155.935 Y117.488 E5.66175
G1 X156.008 Y117.596 E5.66337
G1 X156.469 Y118.313 E5.674
G1 X156.646 Y118.606 E5.67827
G1 X156.985 Y119.197 E5.68677
G1 X157.568 Y120.267 E5.70197
G1 X158.111 Y121.248 E5.71595
G1 X158.193 Y121.407 E5.71819
G1 X158.434 Y121.908 E5.72512
G1 X159.087 Y123.32 E5.74452
G1 X160.156 Y125.479 E5.77457
G1 X160.286 Y125.781 E5.77867
G1 X160.751 Y127.035 E5.79535
G1 X161.168 Y128.218 E5.811
G1 X161.599 Y129.566 E5.82865
G1 X161.901 Y130.63 E5.84244
G1 X162.146 Y131.585 E5.85474
G1 X162.421 Y132.752 E5.8697
G1 X162.617 Y133.652 E5.88118
G1 X162.911 Y135.215 E5.90102
G1 X163.01 Y135.855 E5.9091
G1 X163.028 Y135.99 E5.9108
G1 X163.169 Y137.296 E5.92718
G1 X163.207 Y137.686 E5.93207
G1 X163.372 Y139.579 E5.95577
G1 X163.403 Y140.202 E5.96355
G1 X163.398 Y141.747 E5.98282
G1 X163.393 Y142.291 E5.9896
G1 X163.393 Y142.899 E5.99719
G1 X163.383 Y143.597 E6.00589
G1 X163.375 Y143.775 E6.00812
G1 X163.248 Y145.564 E6.03049
G1 X163.211 Y146.167 E6.03802
G1 X163.121 Y147.25 E6.05157
G1 X162.962 Y148.672 E6.06942
G1 X162.9 Y149.278 E6.07702
G1 X162.824 Y149.842 E6.08412
G1 X162.799 Y149.997 E6.08608
G1 X162.45 Y151.835 E6.10941
G1 X162.332 Y152.395 E6.11655
G1 X162.119 Y153.356 E6.12882
G1 X161.935 Y154.09 E6.13826
G1 X161.897 Y154.23 E6.14007
G1 X161.438 Y155.759 E6.15998
G1 X161.279 Y156.257 E6.1665
G1 X161.028 Y157.015 E6.17646
G1 X160.688 Y158.009 E6.18957
G1 X160.121 Y159.526 E6.20976
G1 X159.839 Y160.219 E6.2191
G1 X159.792 Y160.329 E6.22059
G1 X159.029 Y162.018 E6.2437
G1 X158.58 Y163.035 E6.25757
G1 X158.372 Y163.429 E6.26313
G1 X157.727 Y164.465 E6.27835
G1 X157.619 Y164.667 E6.28121
G1 X156.911 Y165.783 E6.29769
G1 X156.218 Y166.925 E6.31435
G1 X155.595 Y167.879 E6.32856
G1 X154.86 Y168.94 E6.34466
G1 X154.755 Y169.11 E6.34715
G1 X153.201 Y171.351 E6.38117
G1 X153.073 Y171.543 E6.38404
G1 X152.684 Y172.019 E6.39171
G1 X151.907 Y172.798 E6.40543
G1 X151.34 Y173.35 E6.4153
G1 X150.642 Y174.063 E6.42775
G1 X149.273 Y175.433 E6.45191
G1 X148.923 Y175.785 E6.4581
G1 X148.011 Y176.67 E6.47395
G1 X147.829 Y176.835 E6.47701
G1 X146.901 Y177.613 E6.49212
G1 X146.348 Y178.091 E6.50123
G1 X145.776 Y178.557 E6.51043
G1 X145.334 Y178.896 E6.51738
G1 X145.255 Y178.955 E6.51861
G1 X144.466 Y179.518 E6.5307
G1 X143.337 Y180.304 E6.54786
G1 X142.672 Y180.782 E6.55807
G1 X142.373 Y180.972 E6.56249
G1 X141.674 Y181.363 E6.57248
G1 X141.184 Y181.629 E6.57944
G1 X141.131 Y181.653 E6.58016
G1 X138.737 Y182.966 E6.61422
G1 X138.234 Y183.246 E6.6214
G1 X137.922 Y183.398 E6.62573
G1 X137.145 Y183.725 E6.63624
G1 X135.417 Y184.434 E6.65954
G1 X135.019 Y184.59 E6.66487
G1 X133.992 Y185.009 E6.6787
G1 X131.628 Y186.01 E6.71072
G1 X131.404 Y186.096 E6.71371
G1 X130.661 Y186.346 E6.72349
G1 X130.129 Y186.509 E6.73043
G1 X129.151 Y186.781 E6.74309
G1 X128.127 Y187.036 E6.75626
G1 X127.172 Y187.25 E6.76846
G1 X126.089 Y187.467 E6.78224
G1 X124.954 Y187.668 E6.79661
G1 X123.559 Y187.876 E6.81421
G1 X122.732 Y187.973 E6.82459
G1 X122.57 Y187.987 E6.82662
G1 X120.637 Y188.112 E6.85078
G1 X119.416 Y188.149 E6.86602
G1 X117.696 Y188.177 E6.88747
G1 X116.771 Y188.183 E6.89901
G1 X115.656 Y188.173 E6.91292
G1 X115.549 Y188.17 E6.91425
G1 X114.005 Y188.104 E6.93353
G1 X113.877 Y188.096 E6.93513
G1 X112.839 Y188.009 E6.94812
G1 X112.729 Y187.998 E6.9495
G1 X111.957 Y187.906 E6.95919
G1 X111.241 Y187.803 E6.96822
G1 X110.78 Y187.73 E6.97404
G1 X109.867 Y187.578 E6.98558
G1 X108.84 Y187.384 E6.99862
G1 X108.119 Y187.231 E7.00781
G1 X106.992 Y186.972 E7.02223
G1 X106.246 Y186.788 E7.03182
G1 X104.021 Y186.263 E7.06033
G1 X103.341 Y186.072 E7.06914
G1 X101.978 Y185.533 E7.08742
G1 X100.101 Y184.751 E7.11278
G1 X97.001 Y183.393 E7.15499
G1 X96.394 Y183.117 E7.16331
G1 X96.083 Y182.954 E7.16769
G1 X95.51 Y182.612 E7.17601
G1 X94.439 Y181.951 E7.19171
G1 X94.362 Y181.895 E7.1929
G1 X93.785 Y181.545 E7.20132
G1 X93.31 Y181.261 E7.20822
G1 X92.659 Y180.861 E7.21775
G1 X92.435 Y180.71 E7.22112
G1 X91.802 Y180.241 E7.23094
G1 X90.665 Y179.379 E7.24874
G1 X88.479 Y177.814 E7.28227
G1 X87.948 Y177.444 E7.29034
G1 X87.67 Y177.226 E7.29475
G1 X87.111 Y176.735 E7.30403
G1 X85.87 Y175.615 E7.32488
G1 X85.505 Y175.27 E7.33114
G1 X84.622 Y174.38 E7.34678
G1 X83.672 Y173.378 E7.364
G1 X83.275 Y172.967 E7.37113
G1 X82.485 Y172.117 E7.3856
G1 X82.15 Y171.729 E7.392
G1 X81.476 Y170.898 E7.40534
G1 X79.363 Y168.23 E7.44779
G1 X79.08 Y167.83 E7.4539
G1 X78.562 Y167.016 E7.46594
G1 X77.74 Y165.748 E7.48478
G1 X77.484 Y165.298 E7.49124
G1 X77.375 Y165.069 E7.4944
G1 X76.392 Y162.923 E7.52385
G1 X75.714 Y161.53 E7.54317
G1 X75.355 Y160.744 E7.55395
G1 X75.262 Y160.526 E7.5569
G1 X74.806 Y159.394 E7.57212
G1 X74.262 Y157.913 E7.5918
G1 X74.233 Y157.832 E7.59288
G1 X73.78 Y156.479 E7.61067
G1 X73.693 Y156.204 E7.61427
G1 X73.322 Y154.986 E7.63015
G1 X73.165 Y154.422 E7.63745
G1 X72.913 Y153.424 E7.65029
G1 X72.701 Y152.485 E7.6623
G1 X72.541 Y151.695 E7.67235
G1 X72.345 Y150.678 E7.68527
G1 X72.149 Y149.572 E7.69928
G1 X71.96 Y148.284 E7.71551
G1 X71.947 Y148.187 E7.71673
G1 X71.817 Y147.05 E7.73101
