;FLAVOR:Marlin
;TIME:8563
;Filament used: 2.73889m, 0m
;Layer height: 0.1
;MINX:71.29
;MINY:45.04
;MINZ:0.2
;MAXX:163.703
;MAXY:188.483
;MAXZ:2.2
;POSTPROCESSED
;Generated with Cura_SteamEngine 4.8.0
T0
M140 S60
M105
M190 S60
M104 S200
M105
M109 S200
M82 ;absolute extrusion mode
M201 X500.00 Y500.00 Z100.00 E5000.00 	;Setup machine max acceleration
M203 X500.00 Y500.00 Z10.00 E50.00 	;Setup machine max feedrate
M204 P500.00 R1000.00 T500.00 		;Setup Print/Retract/Travel acceleration
M205 X8.00 Y8.00 Z0.40 E5.00 		;Setup Jerk
M220 S100 				;Reset Feedrate
M221 S100 				;Reset Flowrate
G28				;Home the Machine
#G29 				;Bed Level
G92 E0
M300 P150 S587
G92 E0
G1 F1500 E-5.5
;LAYER_COUNT:21
;LAYER:0
M107
G0 F2160 X116.647 Y47.074 Z0.2
;TYPE:SKIRT
G1 F1500 E0
G1 F900 X116.897 Y46.613 E0.01308
G1 X117.214 Y46.195 E0.02617
G1 X117.591 Y45.829 E0.03928
G1 X118.019 Y45.525 E0.05237
G1 X118.489 Y45.29 E0.06548
G1 X118.988 Y45.128 E0.07857
G1 X119.506 Y45.044 E0.09166
G1 X120.031 Y45.04 E0.10475
G1 X120.551 Y45.115 E0.11786
G1 X121.053 Y45.269 E0.13096
G1 X121.526 Y45.496 E0.14404
G1 X121.959 Y45.793 E0.15714
G1 X122.342 Y46.152 E0.17024
G1 X122.666 Y46.566 E0.18335
G1 X122.923 Y47.023 E0.19643
G1 X123.108 Y47.514 E0.20952
G1 X123.24 Y48.26 E0.22842
G1 X123.282 Y48.91 E0.24467
G1 X123.496 Y51.635 E0.31285
G1 X123.783 Y54.316 E0.38011
G1 X124.157 Y57.066 E0.44934
G1 X124.6 Y59.744 E0.51705
G1 X125.12 Y62.426 E0.5852
G1 X125.716 Y65.09 E0.6533
G1 X126.383 Y67.724 E0.72108
G1 X127.134 Y70.372 E0.78974
G1 X127.955 Y72.981 E0.85796
G1 X128.842 Y75.543 E0.92559
G1 X129.817 Y78.123 E0.9944
G1 X130.837 Y80.608 E1.0614
G1 X131.963 Y83.14 E1.13053
G1 X133.134 Y85.588 E1.19822
G1 X134.388 Y88.03 E1.2667
G1 X135.691 Y90.401 E1.33419
G1 X137.084 Y92.77 E1.40274
G1 X138.533 Y95.083 E1.47082
G1 X140.047 Y97.357 E1.53897
G1 X141.614 Y99.57 E1.60661
G1 X143.272 Y101.778 E1.67549
G1 X144.959 Y103.896 E1.74304
G1 X146.739 Y106.005 E1.81188
G1 X148.538 Y108.019 E1.87924
G1 X150.258 Y109.842 E1.94176
G1 X150.736 Y110.346 E1.95909
G1 X151.465 Y111.19 E1.98691
G1 X151.99 Y111.813 E2.00723
G1 X152.454 Y112.332 E2.0246
G1 X152.492 Y112.382 E2.02617
G1 X153.381 Y113.396 E2.05981
G1 X153.742 Y113.866 E2.07459
G1 X154.14 Y114.437 E2.09195
G1 X155.09 Y115.783 E2.13305
G1 X155.593 Y116.481 E2.15451
G1 X156.18 Y117.316 E2.17997
G1 X156.26 Y117.434 E2.18353
G1 X156.721 Y118.151 E2.20479
G1 X156.905 Y118.456 E2.21368
G1 X157.248 Y119.053 E2.23085
G1 X157.83 Y120.121 E2.26119
G1 X158.373 Y121.102 E2.28916
G1 X158.464 Y121.277 E2.29408
G1 X158.706 Y121.782 E2.30805
G1 X159.352 Y123.18 E2.34647
G1 X160.425 Y125.346 E2.40677
G1 X160.568 Y125.677 E2.41576
G1 X161.034 Y126.935 E2.44922
G1 X161.451 Y128.118 E2.48051
G1 X161.885 Y129.475 E2.51605
G1 X161.918 Y129.585 E2.51892
G1 X162.213 Y130.633 E2.54608
G1 X162.452 Y131.573 E2.57027
G1 X162.714 Y132.688 E2.59884
G1 X162.912 Y133.596 E2.62203
G1 X163.206 Y135.159 E2.6617
G1 X163.226 Y135.278 E2.66471
G1 X163.307 Y135.81 E2.67813
G1 X163.326 Y135.958 E2.68185
G1 X163.467 Y137.267 E2.7147
G1 X163.506 Y137.66 E2.72455
G1 X163.679 Y139.66 E2.77462
G1 X163.703 Y140.203 E2.78818
G1 X163.698 Y141.75 E2.82677
G1 X163.693 Y142.294 E2.84034
G1 X163.693 Y142.903 E2.85554
G1 X163.683 Y143.601 E2.87295
G1 X163.674 Y143.796 E2.87782
G1 X163.547 Y145.586 E2.92258
G1 X163.51 Y146.192 E2.93773
G1 X163.419 Y147.283 E2.96504
G1 X163.261 Y148.705 E3.00073
G1 X163.199 Y149.309 E3.01587
G1 X163.122 Y149.883 E3.03032
G1 X163.094 Y150.053 E3.03462
G1 X162.744 Y151.897 E3.08144
G1 X162.625 Y152.46 E3.09579
G1 X162.433 Y153.332 E3.11807
G1 X162.226 Y154.163 E3.13943
G1 X162.184 Y154.316 E3.14339
G1 X161.723 Y155.85 E3.18334
G1 X161.564 Y156.351 E3.19645
G1 X161.312 Y157.113 E3.21647
G1 X160.972 Y158.107 E3.24268
G1 X160.399 Y159.639 E3.28348
G1 X160.117 Y160.332 E3.30215
G1 X160.065 Y160.452 E3.30541
G1 X159.315 Y162.113 E3.35087
G1 X158.855 Y163.156 E3.37931
G1 X158.627 Y163.587 E3.39147
G1 X157.939 Y164.692 E3.42394
G1 X157.872 Y164.828 E3.42772
G1 X157.187 Y165.908 E3.45962
G1 X156.529 Y166.994 E3.4913
G1 X155.896 Y167.969 E3.5203
G1 X155.065 Y169.17 E3.55673
G1 X155.001 Y169.281 E3.55992
G1 X153.483 Y171.47 E3.62637
G1 X153.323 Y171.71 E3.63357
G1 X152.896 Y172.231 E3.65037
G1 X152.117 Y173.013 E3.67791
G1 X151.528 Y173.587 E3.69842
G1 X150.854 Y174.275 E3.72245
G1 X149.483 Y175.648 E3.77085
G1 X149.132 Y176.001 E3.78327
G1 X148.221 Y176.884 E3.81491
G1 X148.022 Y177.065 E3.82163
G1 X147.018 Y177.908 E3.85433
G1 X146.539 Y178.321 E3.8701
G1 X145.879 Y178.858 E3.89133
G1 X145.429 Y179.199 E3.90541
G1 X144.637 Y179.765 E3.9297
G1 X143.469 Y180.578 E3.9652
G1 X142.847 Y181.025 E3.9843
G1 X142.52 Y181.234 E3.99398
G1 X141.817 Y181.627 E4.01407
G1 X141.327 Y181.893 E4.02798
G1 X141.267 Y181.92 E4.02962
G1 X138.881 Y183.229 E4.09751
G1 X138.38 Y183.508 E4.11182
G1 X138.038 Y183.675 E4.12131
G1 X137.259 Y184.003 E4.14239
G1 X135.527 Y184.713 E4.18909
G1 X135.088 Y184.885 E4.20085
G1 X134.148 Y185.269 E4.22618
G1 X131.745 Y186.287 E4.29128
G1 X131.499 Y186.38 E4.29784
G1 X130.662 Y186.66 E4.31986
G1 X130.136 Y186.819 E4.33356
G1 X129.224 Y187.072 E4.35717
G1 X128.193 Y187.329 E4.38368
G1 X127.231 Y187.544 E4.40827
G1 X126.141 Y187.762 E4.436
G1 X124.998 Y187.965 E4.46495
G1 X123.594 Y188.174 E4.50036
G1 X122.767 Y188.271 E4.52113
G1 X122.59 Y188.287 E4.52557
G1 X120.766 Y188.406 E4.57116
G1 X119.421 Y188.449 E4.60473
G1 X117.698 Y188.477 E4.64772
G1 X116.768 Y188.483 E4.67092
G1 X115.653 Y188.473 E4.69873
G1 X115.537 Y188.47 E4.70163
G1 X113.993 Y188.404 E4.74018
G1 X113.852 Y188.395 E4.7437
G1 X112.814 Y188.308 E4.76969
G1 X112.694 Y188.296 E4.77269
G1 X111.922 Y188.204 E4.79209
G1 X111.195 Y188.099 E4.81041
G1 X110.731 Y188.026 E4.82213
G1 X109.812 Y187.873 E4.84537
G1 X108.777 Y187.677 E4.87165
G1 X108.052 Y187.524 E4.89013
G1 X106.921 Y187.263 E4.91908
G1 X106.191 Y187.083 E4.93784
G1 X103.699 Y186.494 E5.00171
G1 X103.231 Y186.351 E5.01392
G1 X101.863 Y185.81 E5.05062
G1 X99.981 Y185.025 E5.10149
G1 X96.877 Y183.667 E5.186
G1 X96.27 Y183.391 E5.20263
G1 X95.929 Y183.212 E5.21224
G1 X95.352 Y182.867 E5.22901
G1 X94.281 Y182.206 E5.26041
G1 X94.208 Y182.153 E5.26266
G1 X93.629 Y181.802 E5.27955
G1 X93.148 Y181.513 E5.29354
G1 X92.502 Y181.116 E5.31246
G1 X92.257 Y180.951 E5.31983
G1 X91.638 Y180.493 E5.33903
G1 X90.509 Y179.635 E5.37441
G1 X88.338 Y178.081 E5.44101
G1 X87.774 Y177.687 E5.45817
G1 X87.478 Y177.455 E5.46755
G1 X86.91 Y176.957 E5.48639
G1 X85.665 Y175.834 E5.52822
G1 X85.292 Y175.481 E5.54103
G1 X84.404 Y174.587 E5.57246
G1 X83.454 Y173.585 E5.60691
G1 X83.056 Y173.172 E5.62121
G1 X82.26 Y172.316 E5.65037
G1 X81.92 Y171.922 E5.66335
G1 X81.24 Y171.084 E5.69027
G1 X79.127 Y168.416 E5.77517
G1 X78.827 Y167.991 E5.78815
G1 X78.293 Y167.151 E5.81298
G1 X77.484 Y165.906 E5.85002
G1 X77.213 Y165.427 E5.86374
G1 X77.102 Y165.194 E5.87018
G1 X76.126 Y163.062 E5.92867
G1 X75.477 Y161.733 E5.96557
G1 X75.079 Y160.862 E5.98945
G1 X74.984 Y160.638 E5.99552
G1 X74.488 Y159.404 E6.0287
G1 X73.98 Y158.017 E6.06555
G1 X73.494 Y156.569 E6.10365
G1 X73.406 Y156.291 E6.11092
G1 X73.033 Y155.066 E6.14286
G1 X72.856 Y154.425 E6.15945
G1 X72.62 Y153.49 E6.18351
G1 X72.407 Y152.545 E6.20767
G1 X72.246 Y151.752 E6.22786
G1 X72.05 Y150.73 E6.25382
G1 X71.837 Y149.52 E6.28446
G1 X71.649 Y148.221 E6.3172
G1 X71.519 Y147.084 E6.34575
G1 X71.508 Y146.972 E6.34856
G1 X71.369 Y145.266 E6.39126
G1 X71.304 Y143.907 E6.4252
G1 X71.29 Y143.247 E6.44166
G1 X71.294 Y141.934 E6.47442
G1 X71.314 Y140.533 E6.50937
G1 X71.337 Y140.119 E6.51971
G1 X71.394 Y139.465 E6.53609
G1 X71.521 Y138.208 E6.5676
G1 X71.532 Y138.147 E6.56915
G1 X71.62 Y137.25 E6.59163
G1 X71.866 Y135.325 E6.64004
G1 X71.88 Y135.225 E6.64256
G1 X72.029 Y134.289 E6.6662
G1 X72.245 Y133.111 E6.69608
G1 X72.334 Y132.68 E6.70706
G1 X72.518 Y131.856 E6.72812
G1 X72.742 Y130.975 E6.75079
G1 X72.776 Y130.852 E6.75398
G1 X73.171 Y129.512 E6.78883
G1 X73.554 Y128.295 E6.82065
G1 X73.67 Y127.923 E6.83037
G1 X74.172 Y126.428 E6.86971
G1 X74.381 Y125.864 E6.88471
G1 X74.639 Y125.229 E6.90181
G1 X75.112 Y124.122 E6.93184
G1 X75.695 Y122.84 E6.96697
G1 X76.075 Y122.051 E6.98882
G1 X76.507 Y121.2 E7.01263
G1 X76.908 Y120.446 E7.03393
G1 X77.368 Y119.62 E7.05751
G1 X77.848 Y118.801 E7.08119
G1 X78.324 Y118.024 E7.10392
G1 X78.824 Y117.246 E7.12699
G1 X79.396 Y116.395 E7.15257
G1 X80.425 Y114.953 E7.19676
G1 X80.5 Y114.851 E7.19992
G1 X81.384 Y113.704 E7.23604
G1 X81.458 Y113.612 E7.23899
G1 X82.462 Y112.397 E7.2783
G1 X83.209 Y111.535 E7.30676
G1 X84.432 Y110.205 E7.35183
G1 X84.594 Y110.04 E7.3576
G1 X85.412 Y109.263 E7.38574
G1 X87.428 Y107.371 E7.45471
G1 X89.356 Y105.455 E7.52251
G1 X91.267 Y103.445 E7.5917
G1 X93.093 Y101.412 E7.65986
G1 X94.846 Y99.347 E7.72743
G1 X96.555 Y97.214 E7.79561
G1 X98.196 Y95.042 E7.86352
G1 X99.789 Y92.803 E7.93206
G1 X101.311 Y90.533 E8.00024
G1 X102.757 Y88.239 E8.06788
G1 X104.153 Y85.877 E8.13632
G1 X105.469 Y83.502 E8.20406
G1 X106.735 Y81.052 E8.27285
G1 X107.92 Y78.595 E8.3409
G1 X109.024 Y76.128 E8.40832
G1 X110.089 Y73.559 E8.47769
G1 X111.053 Y71.026 E8.5453
G1 X111.944 Y68.471 E8.61279
G1 X112.779 Y65.844 E8.68156
G1 X113.524 Y63.248 E8.74893
G1 X114.21 Y60.571 E8.81786
G1 X114.816 Y57.902 E8.88614
G1 X115.339 Y55.242 E8.95376
G1 X115.788 Y52.561 E9.02157
G1 X116.166 Y49.844 E9.09
G1 X116.37 Y48.084 E9.1342
G1 X116.47 Y47.569 E9.14728
G1 X116.647 Y47.074 E9.1604
G0 F2160 X116.94 Y47.156
G1 F900 X117.186 Y46.719 E9.17291
G1 X117.499 Y46.327 E9.18542
G1 X117.87 Y45.99 E9.19792
G1 X118.29 Y45.716 E9.21043
G1 X118.748 Y45.512 E9.22294
G1 X119.233 Y45.383 E9.23546
G1 X119.732 Y45.333 E9.24797
G1 X120.233 Y45.362 E9.26048
G1 X120.723 Y45.471 E9.27301
G1 X121.189 Y45.656 E9.28551
G1 X121.62 Y45.913 E9.29803
G1 X122.004 Y46.235 E9.31053
G1 X122.333 Y46.614 E9.32305
G1 X122.598 Y47.04 E9.33557
G1 X122.791 Y47.503 E9.34808
G1 X122.908 Y47.991 E9.3606
G1 X122.94 Y48.279 E9.36783
G1 X122.979 Y48.885 E9.38297
G1 X123.197 Y51.654 E9.45226
G1 X123.49 Y54.39 E9.5209
G1 X123.855 Y57.078 E9.58857
G1 X124.308 Y59.818 E9.65785
G1 X124.825 Y62.484 E9.72559
G1 X125.416 Y65.123 E9.79305
G1 X126.103 Y67.839 E9.86293
G1 X126.841 Y70.438 E9.93033
G1 X127.667 Y73.064 E9.999
G1 X128.57 Y75.673 E10.06787
G1 X129.523 Y78.194 E10.1351
G1 X130.573 Y80.75 E10.20403
G1 X131.693 Y83.273 E10.27289
G1 X132.864 Y85.72 E10.34056
G1 X134.112 Y88.15 E10.4087
G1 X135.445 Y90.575 E10.47773
G1 X136.818 Y92.91 E10.5453
G1 X138.282 Y95.248 E10.61411
G1 X139.802 Y97.53 E10.68251
G1 X141.373 Y99.749 E10.75033
G1 X143.042 Y101.97 E10.81963
G1 X144.723 Y104.081 E10.88695
G1 X146.499 Y106.187 E10.95567
G1 X148.327 Y108.232 E11.02409
G1 X150.066 Y110.076 E11.08732
G1 X150.509 Y110.542 E11.10336
G1 X151.235 Y111.384 E11.13109
G1 X151.733 Y111.974 E11.15035
G1 X152.231 Y112.532 E11.16901
G1 X152.275 Y112.59 E11.17082
G1 X153.155 Y113.594 E11.20413
G1 X153.496 Y114.037 E11.21807
G1 X153.906 Y114.625 E11.23595
G1 X154.847 Y115.958 E11.27666
G1 X155.348 Y116.653 E11.29803
G1 X155.935 Y117.488 E11.32349
G1 X156.008 Y117.596 E11.32674
G1 X156.469 Y118.313 E11.348
G1 X156.646 Y118.606 E11.35654
G1 X156.985 Y119.197 E11.37354
G1 X157.568 Y120.267 E11.40393
G1 X158.111 Y121.248 E11.4319
G1 X158.193 Y121.407 E11.43637
G1 X158.434 Y121.908 E11.45024
G1 X159.087 Y123.32 E11.48904
G1 X160.156 Y125.479 E11.54914
G1 X160.286 Y125.781 E11.55734
G1 X160.751 Y127.035 E11.5907
G1 X161.168 Y128.218 E11.62199
G1 X161.599 Y129.566 E11.6573
G1 X161.901 Y130.63 E11.68489
G1 X162.146 Y131.585 E11.70948
G1 X162.421 Y132.752 E11.73939
G1 X162.617 Y133.652 E11.76236
G1 X162.911 Y135.215 E11.80204
G1 X163.01 Y135.855 E11.81819
G1 X163.028 Y135.99 E11.82159
G1 X163.169 Y137.296 E11.85436
G1 X163.207 Y137.686 E11.86413
G1 X163.372 Y139.579 E11.91153
G1 X163.403 Y140.202 E11.92709
G1 X163.398 Y141.747 E11.96563
G1 X163.393 Y142.291 E11.9792
G1 X163.393 Y142.899 E11.99437
G1 X163.383 Y143.597 E12.01178
G1 X163.375 Y143.775 E12.01623
G1 X163.248 Y145.564 E12.06097
G1 X163.211 Y146.167 E12.07604
G1 X163.121 Y147.25 E12.10315
G1 X162.962 Y148.672 E12.13884
G1 X162.9 Y149.278 E12.15403
G1 X162.824 Y149.842 E12.16823
G1 X162.799 Y149.997 E12.17215
G1 X162.45 Y151.835 E12.21882
G1 X162.332 Y152.395 E12.23309
G1 X162.119 Y153.356 E12.25765
G1 X161.935 Y154.09 E12.27652
G1 X161.897 Y154.23 E12.28014
G1 X161.438 Y155.759 E12.31996
G1 X161.279 Y156.257 E12.333
G1 X161.028 Y157.015 E12.35292
G1 X160.688 Y158.009 E12.37913
G1 X160.121 Y159.526 E12.41953
G1 X159.839 Y160.219 E12.43819
G1 X159.792 Y160.329 E12.44117
G1 X159.029 Y162.018 E12.48741
G1 X158.58 Y163.035 E12.51514
G1 X158.372 Y163.429 E12.52625
G1 X157.727 Y164.465 E12.55669
G1 X157.619 Y164.667 E12.56241
G1 X156.911 Y165.783 E12.59538
G1 X156.218 Y166.925 E12.6287
G1 X155.595 Y167.879 E12.65712
G1 X154.86 Y168.94 E12.68932
G1 X154.755 Y169.11 E12.6943
G1 X153.201 Y171.351 E12.76233
G1 X153.073 Y171.543 E12.76809
G1 X152.684 Y172.019 E12.78342
G1 X151.907 Y172.798 E12.81087
G1 X151.34 Y173.35 E12.83061
G1 X150.642 Y174.063 E12.8555
G1 X149.273 Y175.433 E12.90381
G1 X148.923 Y175.785 E12.91619
G1 X148.011 Y176.67 E12.94789
G1 X147.829 Y176.835 E12.95402
G1 X146.901 Y177.613 E12.98423
G1 X146.348 Y178.091 E13.00246
G1 X145.776 Y178.557 E13.02087
G1 X145.334 Y178.896 E13.03476
G1 X145.255 Y178.955 E13.03722
G1 X144.466 Y179.518 E13.0614
G1 X143.337 Y180.304 E13.09571
G1 X142.672 Y180.782 E13.11614
G1 X142.373 Y180.972 E13.12498
G1 X141.674 Y181.363 E13.14496
G1 X141.184 Y181.629 E13.15887
G1 X141.131 Y181.653 E13.16032
G1 X138.737 Y182.966 E13.22843
G1 X138.234 Y183.246 E13.24279
G1 X137.922 Y183.398 E13.25145
G1 X137.145 Y183.725 E13.27248
G1 X135.417 Y184.434 E13.31907
G1 X135.019 Y184.59 E13.32973
G1 X133.992 Y185.009 E13.3574
G1 X131.628 Y186.01 E13.42144
G1 X131.404 Y186.096 E13.42743
G1 X130.661 Y186.346 E13.44698
G1 X130.129 Y186.509 E13.46086
G1 X129.151 Y186.781 E13.48618
G1 X128.127 Y187.036 E13.51251
G1 X127.172 Y187.25 E13.53692
G1 X126.089 Y187.467 E13.56447
G1 X124.954 Y187.668 E13.59323
G1 X123.559 Y187.876 E13.62841
G1 X122.732 Y187.973 E13.64918
G1 X122.57 Y187.987 E13.65324
G1 X120.637 Y188.112 E13.70156
G1 X119.416 Y188.149 E13.73203
G1 X117.696 Y188.177 E13.77494
G1 X116.771 Y188.183 E13.79801
G1 X115.656 Y188.173 E13.82583
G1 X115.549 Y188.17 E13.8285
G1 X114.005 Y188.104 E13.86705
G1 X113.877 Y188.096 E13.87025
G1 X112.839 Y188.009 E13.89623
G1 X112.729 Y187.998 E13.89899
G1 X111.957 Y187.906 E13.91838
G1 X111.241 Y187.803 E13.93643
G1 X110.78 Y187.73 E13.94807
G1 X109.867 Y187.578 E13.97116
G1 X108.84 Y187.384 E13.99723
G1 X108.119 Y187.231 E14.01562
G1 X106.992 Y186.972 E14.04446
G1 X106.246 Y186.788 E14.06363
G1 X104.021 Y186.263 E14.12066
G1 X103.341 Y186.072 E14.13828
G1 X101.978 Y185.533 E14.17484
G1 X100.101 Y184.751 E14.22556
G1 X97.001 Y183.393 E14.30999
G1 X96.394 Y183.117 E14.32662
G1 X96.083 Y182.954 E14.33538
G1 X95.51 Y182.612 E14.35202
G1 X94.439 Y181.951 E14.38342
G1 X94.362 Y181.895 E14.38579
G1 X93.785 Y181.545 E14.40263
G1 X93.305 Y181.258 E14.41658
G1 X92.659 Y180.861 E14.43549
G1 X92.435 Y180.71 E14.44223
G1 X91.819 Y180.254 E14.46135
G1 X90.69 Y179.396 E14.49672
G1 X88.48 Y177.814 E14.56452
G1 X87.946 Y177.441 E14.58077
G1 X87.675 Y177.229 E14.58935
G1 X87.111 Y176.735 E14.60805
G1 X85.87 Y175.615 E14.64975
G1 X85.505 Y175.27 E14.66228
G1 X84.622 Y174.38 E14.69356
G1 X83.672 Y173.378 E14.728
G1 X83.275 Y172.967 E14.74225
G1 X82.485 Y172.117 E14.7712
G1 X82.15 Y171.729 E14.78399
G1 X81.476 Y170.898 E14.81068
G1 X79.363 Y168.23 E14.89558
G1 X79.08 Y167.83 E14.9078
G1 X78.562 Y167.016 E14.93187
G1 X77.74 Y165.748 E14.96956
G1 X77.484 Y165.298 E14.98248
G1 X77.375 Y165.069 E14.9888
G1 X76.392 Y162.923 E15.04769
G1 X75.714 Y161.53 E15.08633
G1 X75.355 Y160.744 E15.10789
G1 X75.262 Y160.526 E15.1138
G1 X74.806 Y159.394 E15.14424
G1 X74.262 Y157.913 E15.1836
G1 X74.233 Y157.832 E15.18574
G1 X73.78 Y156.479 E15.22134
G1 X73.693 Y156.204 E15.22853
G1 X73.322 Y154.986 E15.26029
G1 X73.165 Y154.422 E15.2749
G1 X72.913 Y153.424 E15.30057
