;FLAVOR:Marlin
;TIME:11852
;Filament used: 11.1567m, 0m
;Layer height: 0.2
;MINX:90.755
;MINY:89.9
;MINZ:0.3
;MAXX:144.245
;MAXY:145.1
;MAXZ:74.9
;Generated with Cura_SteamEngine 4.7.1
T0
M140 S60
M105
M190 S60
M104 S200
M105
M109 S200
M82 ;absolute extrusion mode
M201 X500.00 Y500.00 Z100.00 E5000.00 	;Setup machine max acceleration
M203 X500.00 Y500.00 Z10.00 E50.00 	;Setup machine max feedrate
M204 P500.00 R1000.00 T500.00 		;Setup Print/Retract/Travel acceleration
M205 X8.00 Y8.00 Z0.40 E5.00 		;Setup Jerk
M220 S100 				;Reset Feedrate
M221 S100 				;Reset Flowrate
G28				;Home the Machine
G29 				;Bed Level
G92 E0
M300 P150 S587
G92 E0
;LAYER_COUNT:374
;LAYER:0
M107
G0 F3600 X92.013 Y91.451 Z0.3
;TYPE:SKIRT
G1 F1500 X92.433 Y91.049 E0.02901
G1 X92.854 Y90.717 E0.05575
G1 X93.365 Y90.43 E0.08499
G1 X93.81 Y90.238 E0.10917
G1 X94.32 Y90.071 E0.13595
G1 X95.023 Y89.955 E0.17149
G1 X95.443 Y89.924 E0.1925
G1 X96.137 Y89.914 E0.22713
G1 X138.893 Y89.914 E2.36024
G1 X139.61 Y89.925 E2.39601
G1 X140.117 Y89.968 E2.4214
G1 X140.47 Y90.026 E2.43925
G1 X140.99 Y90.155 E2.46597
G1 X141.486 Y90.359 E2.49273
G1 X141.945 Y90.604 E2.51869
G1 X142.393 Y90.898 E2.54542
G1 X142.863 Y91.329 E2.57724
G1 X143.109 Y91.599 E2.59546
G1 X143.44 Y92.022 E2.62226
G1 X143.788 Y92.68 E2.65939
G1 X143.943 Y93.065 E2.6801
G1 X144.105 Y93.576 E2.70684
G1 X144.21 Y94.399 E2.74824
G1 X144.232 Y95.541 E2.80522
G1 X144.232 Y139.723 E5.00947
G1 X144.221 Y140.464 E5.04644
G1 X144.156 Y141.109 E5.07879
G1 X144.108 Y141.375 E5.09227
G1 X143.974 Y141.894 E5.11901
G1 X143.767 Y142.38 E5.14537
G1 X143.615 Y142.676 E5.16197
G1 X143.336 Y143.134 E5.18872
G1 X142.988 Y143.548 E5.21571
G1 X142.567 Y143.951 E5.24478
G1 X142.146 Y144.283 E5.27153
G1 X141.635 Y144.57 E5.30077
G1 X141.19 Y144.762 E5.32495
G1 X140.68 Y144.929 E5.35172
G1 X139.977 Y145.045 E5.38727
G1 X139.557 Y145.076 E5.40828
G1 X138.863 Y145.086 E5.44291
G1 X96.107 Y145.086 E7.57601
G1 X95.388 Y145.075 E7.61189
G1 X94.731 Y145.008 E7.64484
G1 X94.477 Y144.962 E7.65772
G1 X93.958 Y144.828 E7.68446
G1 X93.448 Y144.61 E7.71213
G1 X93.005 Y144.367 E7.73734
G1 X92.56 Y144.069 E7.76406
G1 X92.138 Y143.682 E7.79262
G1 X91.796 Y143.291 E7.81854
G1 X91.483 Y142.856 E7.84527
G1 X91.217 Y142.332 E7.87459
G1 X91.062 Y141.951 E7.89511
G1 X90.898 Y141.44 E7.92189
G1 X90.81 Y140.907 E7.94884
G1 X90.79 Y140.589 E7.96474
G1 X90.768 Y139.43 E8.02257
G1 X90.768 Y95.241 E10.22717
G1 X90.779 Y94.533 E10.26249
G1 X90.847 Y93.871 E10.2957
G1 X90.896 Y93.606 E10.30914
G1 X91.033 Y93.088 E10.33587
G1 X91.238 Y92.608 E10.36191
G1 X91.39 Y92.314 E10.37842
G1 X91.671 Y91.857 E10.40519
G1 X92.013 Y91.451 E10.43167
G0 F3600 X92.384 Y91.644
G1 F1500 X92.704 Y91.344 E10.45356
G1 X93.102 Y91.033 E10.47876
G1 X93.654 Y90.738 E10.50998
G1 X93.963 Y90.608 E10.52671
G1 X94.444 Y90.452 E10.55193
G1 X95.075 Y90.352 E10.58381
G1 X95.449 Y90.324 E10.60252
G1 X96.143 Y90.314 E10.63715
G1 X138.887 Y90.314 E12.76965
G1 X139.604 Y90.325 E12.80543
G1 X140.186 Y90.383 E12.83461
G1 X140.402 Y90.42 E12.84554
G1 X140.892 Y90.544 E12.87076
G1 X141.507 Y90.819 E12.90437
G1 X141.751 Y90.954 E12.91828
G1 X142.173 Y91.233 E12.94352
G1 X142.567 Y91.599 E12.97035
G1 X142.813 Y91.869 E12.98857
G1 X143.123 Y92.268 E13.01378
G1 X143.416 Y92.829 E13.04536
G1 X143.571 Y93.214 E13.06606
G1 X143.723 Y93.696 E13.09128
G1 X143.81 Y94.407 E13.12701
G1 X143.832 Y95.541 E13.1836
G1 X143.832 Y139.717 E15.38755
G1 X143.821 Y140.458 E15.42452
G1 X143.762 Y141.038 E15.45361
G1 X143.714 Y141.304 E15.46709
G1 X143.585 Y141.793 E15.49232
G1 X143.26 Y142.494 E15.53087
G1 X142.994 Y142.924 E15.5561
G1 X142.616 Y143.357 E15.58477
G1 X142.296 Y143.656 E15.60662
G1 X141.898 Y143.967 E15.63182
G1 X141.346 Y144.262 E15.66305
G1 X141.037 Y144.392 E15.67977
G1 X140.556 Y144.548 E15.705
G1 X139.925 Y144.648 E15.73687
G1 X139.551 Y144.676 E15.75559
G1 X138.857 Y144.686 E15.79021
G1 X96.113 Y144.686 E17.92272
G1 X95.394 Y144.675 E17.95859
G1 X94.803 Y144.615 E17.98823
G1 X94.549 Y144.569 E18.00111
G1 X94.06 Y144.44 E18.02634
G1 X93.453 Y144.161 E18.05967
G1 X93.202 Y144.019 E18.07406
G1 X92.783 Y143.736 E18.09928
G1 X92.342 Y143.314 E18.12973
G1 X92.102 Y143.034 E18.14813
G1 X91.809 Y142.622 E18.17336
G1 X91.433 Y141.8 E18.21845
G1 X91.28 Y141.318 E18.24368
G1 X91.19 Y140.582 E18.28067
G1 X91.168 Y139.43 E18.33816
G1 X91.168 Y95.247 E20.54246
G1 X91.179 Y94.539 E20.57778
G1 X91.24 Y93.944 E20.60762
G1 X91.289 Y93.679 E20.62107
G1 X91.42 Y93.191 E20.64628
G1 X91.745 Y92.497 E20.68451
G1 X92.012 Y92.068 E20.70972
G1 X92.384 Y91.644 E20.73786
;MESH:assortment_box_1x1_v4.STL
G0 F3600 X94.977 Y92.922
G0 X95.498 Y94.133
G0 X139.645 Y94.236
G0 X139.676 Y94.142
;TYPE:WALL-INNER
G1 F900 X139.846 Y94.233 E20.74748
G1 X139.952 Y94.355 E20.75554
G1 X140.023 Y94.541 E20.76548
G1 X140.032 Y94.634 E20.77014
G1 X140.032 Y140.355 E23.05117
G1 X140 Y140.543 E23.06068
G1 X139.932 Y140.676 E23.06813
G1 X139.807 Y140.795 E23.07674
G1 X139.627 Y140.872 E23.08651
G1 X139.503 Y140.886 E23.09274
G1 X95.502 Y140.886 E25.28796
G1 X95.316 Y140.856 E25.29736
G1 X95.153 Y140.767 E25.30662
G1 X95.048 Y140.646 E25.31461
G1 X94.977 Y140.459 E25.32459
G1 X94.968 Y140.366 E25.32925
G1 X94.968 Y94.645 E27.61028
G1 X95 Y94.457 E27.6198
G1 X95.068 Y94.324 E27.62725
G1 X95.193 Y94.205 E27.63586
G1 X95.373 Y94.128 E27.64563
G1 X95.497 Y94.114 E27.65185
G1 X139.497 Y94.114 E29.84702
G1 X139.676 Y94.142 E29.85606
G0 F3600 X139.807 Y93.758
;TYPE:WALL-OUTER
G1 F900 X140.1 Y93.915 E29.87265
G1 X140.301 Y94.146 E29.88792
G1 X140.416 Y94.447 E29.904
G1 X140.432 Y94.618 E29.91257
G1 X140.432 Y140.385 E32.19589
G1 X140.384 Y140.671 E32.21036
G1 X140.257 Y140.919 E32.22426
G1 X140.029 Y141.135 E32.23993
G1 X139.732 Y141.262 E32.25605
G1 X139.523 Y141.286 E32.26654
G1 X95.469 Y141.286 E34.4644
G1 X95.185 Y141.24 E34.47876
G1 X94.899 Y141.084 E34.49501
G1 X94.699 Y140.854 E34.51022
G1 X94.584 Y140.553 E34.52629
G1 X94.568 Y140.382 E34.53486
G1 X94.568 Y94.615 E36.81819
G1 X94.616 Y94.329 E36.83265
G1 X94.743 Y94.081 E36.84656
G1 X94.971 Y93.865 E36.86222
G1 X95.268 Y93.738 E36.87834
G1 X95.477 Y93.714 E36.88884
G1 X139.527 Y93.714 E39.0865
G1 X139.807 Y93.758 E39.10064
G0 F3600 X139.983 Y93.852
G0 X139.597 Y94.541
;TYPE:SKIN
G1 F900 X139.613 Y94.559 E39.10196
G1 X139.641 Y94.633 E39.1063
G1 X139.642 Y140.325 E41.61384
G1 X139.626 Y140.419 E41.61908
G1 X139.617 Y140.437 E41.62018
G1 X139.588 Y140.464 E41.62236
G1 X139.527 Y140.49 E41.626
G1 X139.477 Y140.496 E41.62876
G1 X95.533 Y140.496 E44.04037
G1 X95.446 Y140.482 E44.04521
G1 X95.401 Y140.458 E44.04801
G1 X95.388 Y140.443 E44.0491
G1 X95.36 Y140.369 E44.05344
G1 X95.358 Y140.355 E44.05421
G1 X95.358 Y94.676 E46.56104
G1 X95.374 Y94.581 E46.56633
G1 X95.383 Y94.563 E46.56743
G1 X95.412 Y94.536 E46.56961
G1 X95.473 Y94.51 E46.57325
G1 X95.524 Y94.504 E46.57606
G1 X139.463 Y94.504 E48.9874
G1 X139.553 Y94.518 E48.9924
G1 X139.597 Y94.541 E48.99513
G0 F3600 X139.373 Y94.684
G1 F900 X139.461 Y94.772 E49.00196
G0 F3600 X139.461 Y95.337
G1 F900 X138.807 Y94.684 E49.05267
G0 F3600 X138.242 Y94.684
G1 F900 X139.461 Y95.903 E49.14728
G0 F3600 X139.461 Y96.469
G1 F900 X137.676 Y94.684 E49.28582
G0 F3600 X137.11 Y94.684
G1 F900 X139.461 Y97.034 E49.46824
G0 F3600 X139.461 Y97.6
G1 F900 X136.545 Y94.684 E49.69456
G0 F3600 X135.979 Y94.684
G1 F900 X139.461 Y98.166 E49.9648
G0 F3600 X139.461 Y98.731
G1 F900 X135.413 Y94.684 E50.27893
G0 F3600 X134.848 Y94.684
G1 F900 X139.461 Y99.297 E50.63695
G0 F3600 X139.461 Y99.863
G1 F900 X134.282 Y94.684 E51.03889
G0 F3600 X133.716 Y94.684
G1 F900 X139.461 Y100.428 E51.48473
G0 F3600 X139.461 Y100.994
G1 F900 X133.151 Y94.684 E51.97445
G0 F3600 X132.585 Y94.684
G1 F900 X139.461 Y101.56 E52.50811
G0 F3600 X139.461 Y102.126
G1 F900 X132.019 Y94.684 E53.08569
G0 F3600 X131.453 Y94.684
G1 F900 X139.461 Y102.691 E53.70716
G0 F3600 X139.461 Y103.257
G1 F900 X130.888 Y94.684 E54.37252
G0 F3600 X130.322 Y94.684
G1 F900 X139.461 Y103.823 E55.0818
G0 F3600 X139.461 Y104.388
G1 F900 X129.756 Y94.684 E55.83498
G0 F3600 X129.191 Y94.684
G1 F900 X139.461 Y104.954 E56.63204
G0 F3600 X139.461 Y105.52
G1 F900 X128.625 Y94.684 E57.47303
G0 F3600 X128.059 Y94.684
G1 F900 X139.461 Y106.085 E58.35792
G0 F3600 X139.461 Y106.651
G1 F900 X127.494 Y94.684 E59.28669
G0 F3600 X126.928 Y94.684
G1 F900 X139.461 Y107.217 E60.25938
G0 F3600 X139.461 Y107.782
G1 F900 X126.362 Y94.684 E61.27597
G0 F3600 X125.797 Y94.684
G1 F900 X139.461 Y108.348 E62.33645
G0 F3600 X139.461 Y108.914
G1 F900 X125.231 Y94.684 E63.44085
G0 F3600 X124.665 Y94.684
G1 F900 X139.461 Y109.479 E64.58914
G0 F3600 X139.461 Y110.045
G1 F900 X124.1 Y94.684 E65.78132
G0 F3600 X123.534 Y94.684
G1 F900 X139.461 Y110.611 E67.01743
G0 F3600 X139.461 Y111.176
G1 F900 X122.968 Y94.684 E68.29743
G0 F3600 X122.403 Y94.684
G1 F900 X139.461 Y111.742 E69.62132
G0 F3600 X139.461 Y112.308
G1 F900 X121.837 Y94.684 E70.98914
G0 F3600 X121.271 Y94.684
G1 F900 X139.461 Y112.874 E72.40088
G0 F3600 X139.461 Y113.439
G1 F900 X120.705 Y94.684 E73.85651
G0 F3600 X120.14 Y94.684
G1 F900 X139.461 Y114.005 E75.35603
G0 F3600 X139.461 Y114.571
G1 F900 X119.574 Y94.684 E76.89948
G0 F3600 X119.008 Y94.684
G1 F900 X139.461 Y115.136 E78.48682
G0 F3600 X139.461 Y115.702
G1 F900 X118.443 Y94.684 E80.11804
G0 F3600 X117.877 Y94.684
G1 F900 X139.461 Y116.268 E81.7932
G0 F3600 X139.461 Y116.833
G1 F900 X117.311 Y94.684 E83.51224
G0 F3600 X116.746 Y94.684
G1 F900 X139.461 Y117.399 E85.27518
G0 F3600 X139.461 Y117.965
G1 F900 X116.18 Y94.684 E87.08204
G0 F3600 X115.614 Y94.684
G1 F900 X139.461 Y118.531 E88.93282
G0 F3600 X139.461 Y119.097
G1 F900 X115.049 Y94.684 E90.8275
G0 F3600 X114.483 Y94.684
G1 F900 X139.461 Y119.662 E92.76607
G0 F3600 X139.461 Y120.228
G1 F900 X113.917 Y94.684 E94.74856
G0 F3600 X113.352 Y94.684
G1 F900 X139.461 Y120.794 E96.77494
G0 F3600 X139.461 Y121.36
G1 F900 X112.786 Y94.684 E98.84525
G0 F3600 X112.22 Y94.684
G1 F900 X139.461 Y121.925 E100.95945
G0 F3600 X139.461 Y122.491
G1 F900 X111.654 Y94.684 E103.11758
G0 F3600 X111.089 Y94.684
G1 F900 X139.461 Y123.057 E105.3196
G0 F3600 X139.461 Y123.622
G1 F900 X110.523 Y94.684 E107.5655
G0 F3600 X109.957 Y94.684
G1 F900 X139.461 Y124.188 E109.85534
G0 F3600 X139.461 Y124.754
G1 F900 X109.392 Y94.684 E112.18906
G0 F3600 X108.826 Y94.684
G1 F900 X139.461 Y125.319 E114.56667
G0 F3600 X139.461 Y125.885
G1 F900 X108.26 Y94.684 E116.98821
G0 F3600 X107.695 Y94.684
G1 F900 X139.461 Y126.451 E119.45364
G0 F3600 X139.461 Y127.016
G1 F900 X107.129 Y94.684 E121.96295
G0 F3600 X106.563 Y94.684
G1 F900 X139.461 Y127.582 E124.5162
G0 F3600 X139.461 Y128.148
G1 F900 X105.998 Y94.684 E127.11333
G0 F3600 X105.432 Y94.684
G1 F900 X139.461 Y128.713 E129.75436
G0 F3600 X139.461 Y129.279
G1 F900 X104.866 Y94.684 E132.43931
G0 F3600 X104.301 Y94.684
G1 F900 X139.461 Y129.845 E135.16815
G0 F3600 X139.461 Y130.41
G1 F900 X103.735 Y94.684 E137.94087
G0 F3600 X103.169 Y94.684
G1 F900 X139.461 Y130.976 E140.75753
G0 F3600 X139.461 Y131.542
G1 F900 X102.604 Y94.684 E143.61808
G0 F3600 X102.038 Y94.684
G1 F900 X139.461 Y132.108 E146.52255
G0 F3600 X139.461 Y132.673
G1 F900 X101.472 Y94.684 E149.47091
G0 F3600 X100.906 Y94.684
G1 F900 X139.461 Y133.239 E152.4632
G0 F3600 X139.461 Y133.805
G1 F900 X100.341 Y94.684 E155.49938
G0 F3600 X99.775 Y94.684
G1 F900 X139.461 Y134.37 E158.57945
G0 F3600 X139.461 Y134.936
G1 F900 X99.209 Y94.684 E161.70344
G0 F3600 X98.644 Y94.684
G1 F900 X139.461 Y135.502 E164.87133
G0 F3600 X139.461 Y136.067
G1 F900 X98.078 Y94.684 E168.0831
G0 F3600 X97.512 Y94.684
G1 F900 X139.461 Y136.633 E171.3388
G0 F3600 X139.461 Y137.199
G1 F900 X96.947 Y94.684 E174.63839
G0 F3600 X96.381 Y94.684
G1 F900 X139.461 Y137.764 E177.98187
G0 F3600 X139.461 Y138.33
G1 F900 X95.815 Y94.684 E181.36928
G0 F3600 X95.537 Y94.971
G1 F900 X139.461 Y138.896 E184.7783
G0 F3600 X139.461 Y139.461
G1 F900 X95.537 Y95.537 E188.18728
G0 F3600 X95.537 Y96.102
G1 F900 X139.461 Y140.027 E191.59631
G0 F3600 X139.183 Y140.314
G1 F900 X95.537 Y96.668 E194.98371
G0 F3600 X95.537 Y97.234
G1 F900 X138.617 Y140.314 E198.32719
G0 F3600 X138.051 Y140.314
G1 F900 X95.537 Y97.799 E201.62678
G0 F3600 X95.537 Y98.365
G1 F900 X137.486 Y140.314 E204.88248
G0 F3600 X136.92 Y140.314
G1 F900 X95.537 Y98.931 E208.09426
G0 F3600 X95.537 Y99.496
G1 F900 X136.354 Y140.314 E211.26214
G0 F3600 X135.789 Y140.314
G1 F900 X95.537 Y100.062 E214.38614
G0 F3600 X95.537 Y100.628
G1 F900 X135.223 Y140.314 E217.46621
G0 F3600 X134.657 Y140.314
G1 F900 X95.537 Y101.194 E220.50235
G0 F3600 X95.537 Y101.759
G1 F900 X134.092 Y140.314 E223.49463
G0 F3600 X133.526 Y140.314
G1 F900 X95.537 Y102.325 E226.443
G0 F3600 X95.537 Y102.891
G1 F900 X132.96 Y140.314 E229.34743
G0 F3600 X132.395 Y140.314
G1 F900 X95.537 Y103.456 E232.20802
G0 F3600 X95.537 Y104.022
G1 F900 X131.829 Y140.314 E235.02467
G0 F3600 X131.263 Y140.314
G1 F900 X95.537 Y104.588 E237.7974
G0 F3600 X95.537 Y105.153
G1 F900 X130.698 Y140.314 E240.52628
G0 F3600 X130.132 Y140.314
G1 F900 X95.537 Y105.719 E243.21123
G0 F3600 X95.537 Y106.285
G1 F900 X129.566 Y140.314 E245.85225
G0 F3600 X129.001 Y140.314
G1 F900 X95.537 Y106.85 E248.44942
G0 F3600 X95.537 Y107.416
G1 F900 X128.435 Y140.314 E251.00267
G0 F3600 X127.869 Y140.314
G1 F900 X95.537 Y107.982 E253.51199
G0 F3600 X95.537 Y108.547
G1 F900 X127.303 Y140.314 E255.97741
G0 F3600 X126.738 Y140.314
G1 F900 X95.537 Y109.113 E258.39895
G0 F3600 X95.537 Y109.679
G1 F900 X126.172 Y140.314 E260.77656
G0 F3600 X125.606 Y140.314
G1 F900 X95.537 Y110.245 E263.11025
G0 F3600 X95.537 Y110.81
G1 F900 X125.041 Y140.314 E265.40008
G0 F3600 X124.475 Y140.314
G1 F900 X95.537 Y111.376 E267.64599
G0 F3600 X95.537 Y111.942
G1 F900 X123.909 Y140.314 E269.84796
G0 F3600 X123.344 Y140.314
G1 F900 X95.537 Y112.507 E272.00609
G0 F3600 X95.537 Y113.073
G1 F900 X122.778 Y140.314 E274.12029
G0 F3600 X122.212 Y140.314
G1 F900 X95.537 Y113.639 E276.19056
G0 F3600 X95.537 Y114.204
G1 F900 X121.647 Y140.314 E278.21698
G0 F3600 X121.081 Y140.314
G1 F900 X95.537 Y114.77 E280.19948
G0 F3600 X95.537 Y115.336
G1 F900 X120.515 Y140.314 E282.13804
G0 F3600 X119.95 Y140.314
G1 F900 X95.537 Y115.901 E284.03276
G0 F3600 X95.537 Y116.467
G1 F900 X119.384 Y140.314 E285.88355
G0 F3600 X118.818 Y140.314
G1 F900 X95.537 Y117.033 E287.69041
G0 F3600 X95.537 Y117.598
G1 F900 X118.253 Y140.314 E289.45342
G0 F3600 X117.687 Y140.314
G1 F900 X95.537 Y118.164 E291.1725
G0 F3600 X95.537 Y118.73
G1 F900 X117.121 Y140.314 E292.84766
G0 F3600 X116.555 Y140.314
G1 F900 X95.537 Y119.295 E294.47892
G0 F3600 X95.537 Y119.861
G1 F900 X115.99 Y140.314 E296.0663
G0 F3600 X115.424 Y140.314
G1 F900 X95.537 Y120.427 E297.60975
G0 F3600 X95.537 Y120.993
G1 F900 X114.858 Y140.314 E299.10927
G0 F3600 X114.293 Y140.314
G1 F900 X95.537 Y121.558 E300.56494
G0 F3600 X95.537 Y122.124
G1 F900 X113.727 Y140.314 E301.97668
G0 F3600 X113.161 Y140.314
G1 F900 X95.537 Y122.69 E303.3445
G0 F3600 X95.537 Y123.255
G1 F900 X112.596 Y140.314 E304.66846
G0 F3600 X112.03 Y140.314
G1 F900 X95.537 Y123.821 E305.9485
G0 F3600 X95.537 Y124.387
G1 F900 X111.464 Y140.314 E307.18461
G0 F3600 X110.899 Y140.314
G1 F900 X95.537 Y124.952 E308.37687
G0 F3600 X95.537 Y125.518
G1 F900 X110.333 Y140.314 E309.5252
G0 F3600 X109.767 Y140.314
G1 F900 X95.537 Y126.084 E310.6296
G0 F3600 X95.537 Y126.649
G1 F900 X109.202 Y140.314 E311.69016
G0 F3600 X108.636 Y140.314
G1 F900 X95.537 Y127.215 E312.70678
G0 F3600 X95.537 Y127.781
G1 F900 X108.07 Y140.314 E313.67948
G0 F3600 X107.504 Y140.314
