;FLAVOR:Marlin
;TIME:2220
;Filament used: 1.30474m, 0m
;Layer height: 0.2
;MINX:49.427
;MINY:67.105
;MINZ:0.26
;MAXX:185.553
;MAXY:166.861
;MAXZ:1.26
;POSTPROCESSED
;Generated with Cura_SteamEngine 4.8.0
T0
M140 S60
M105
M190 S60
M104 S200
M105
M109 S200
M82 ;absolute extrusion mode
M201 X500.00 Y500.00 Z100.00 E5000.00 	;Setup machine max acceleration
M203 X500.00 Y500.00 Z10.00 E50.00 	;Setup machine max feedrate
M204 P500.00 R1000.00 T500.00 		;Setup Print/Retract/Travel acceleration
M205 X8.00 Y8.00 Z0.40 E5.00 		;Setup Jerk
M220 S100 				;Reset Feedrate
M221 S100 				;Reset Flowrate
G28				;Home the Machine
#G29 				;Bed Level
G92 E0
M300 P150 S587
G92 E0
G1 F1500 E-5.5
;LAYER_COUNT:6
;LAYER:0
M107
G0 F2160 X105.188 Y68.696 Z0.26
;TYPE:SKIRT
G1 F1500 E0
G1 F900 X105.503 Y68.276 E0.01703
G1 X105.878 Y67.908 E0.03406
G1 X106.304 Y67.602 E0.05107
G1 X106.772 Y67.363 E0.06811
G1 X107.271 Y67.199 E0.08515
G1 X107.788 Y67.112 E0.10215
G1 X108.313 Y67.105 E0.11917
G1 X108.833 Y67.177 E0.1362
G1 X109.336 Y67.327 E0.15322
G1 X109.81 Y67.552 E0.17023
G1 X110.245 Y67.847 E0.18728
G1 X110.63 Y68.204 E0.20431
G1 X110.957 Y68.615 E0.22134
G1 X111.224 Y69.087 E0.23892
G1 X111.331 Y69.315 E0.24709
G1 X112.278 Y71.419 E0.32191
G1 X113.448 Y73.831 E0.40885
G1 X114.729 Y76.293 E0.49885
G1 X116.038 Y78.646 E0.58616
G1 X117.447 Y81.013 E0.67549
G1 X118.895 Y83.301 E0.7633
G1 X120.44 Y85.596 E0.85302
G1 X122.013 Y87.793 E0.94064
G1 X123.676 Y89.982 E1.02979
G1 X125.379 Y92.099 E1.1179
G1 X127.129 Y94.152 E1.20538
G1 X129.003 Y96.227 E1.29605
G1 X130.857 Y98.167 E1.38307
G1 X132.817 Y100.107 E1.4725
G1 X134.793 Y101.954 E1.56021
G1 X136.863 Y103.781 E1.64975
G1 X138.945 Y105.517 E1.73765
G1 X141.089 Y107.205 E1.82614
G1 X143.311 Y108.854 E1.91587
G1 X145.527 Y110.403 E2.00355
G1 X147.827 Y111.916 E2.09283
G1 X150.102 Y113.323 E2.17957
G1 X152.509 Y114.717 E2.26977
G1 X154.898 Y116.015 E2.35794
G1 X157.333 Y117.247 E2.44644
G1 X159.781 Y118.401 E2.5342
G1 X161.576 Y119.181 E2.59767
G1 X162.724 Y119.699 E2.63851
G1 X163.298 Y120.004 E2.65959
G1 X163.616 Y120.212 E2.67191
G1 X164.1 Y120.552 E2.69109
G1 X164.578 Y120.939 E2.71104
G1 X164.909 Y121.25 E2.72577
G1 X165.435 Y121.796 E2.75035
G1 X165.822 Y122.229 E2.76919
G1 X166.089 Y122.556 E2.78288
G1 X166.574 Y123.198 E2.80897
G1 X166.894 Y123.652 E2.82698
G1 X167.245 Y124.214 E2.84847
G1 X168.66 Y126.533 E2.93656
G1 X170.161 Y128.841 E3.02584
G1 X171.72 Y131.097 E3.11477
G1 X173.316 Y133.274 E3.20231
G1 X175.006 Y135.445 E3.29153
G1 X176.747 Y137.557 E3.38029
G1 X178.541 Y139.61 E3.4687
G1 X180.515 Y141.746 E3.56302
G1 X181.071 Y142.411 E3.59113
G1 X181.254 Y142.658 E3.6011
G1 X181.803 Y143.476 E3.63304
G1 X182.312 Y144.254 E3.66319
G1 X183.444 Y145.862 E3.72696
G1 X183.499 Y145.955 E3.73047
G1 X184.261 Y147.058 E3.77394
G1 X184.55 Y147.521 E3.79164
G1 X184.723 Y147.817 E3.80276
G1 X185.023 Y148.347 E3.82251
G1 X185.325 Y149.052 E3.84738
G1 X185.468 Y149.59 E3.86543
G1 X185.553 Y150.108 E3.88246
G1 X185.551 Y150.723 E3.9024
G1 X185.528 Y150.973 E3.91054
G1 X185.441 Y151.491 E3.92757
G1 X185.184 Y152.189 E3.95169
G1 X185.007 Y152.546 E3.96462
G1 X184.739 Y152.998 E3.98166
G1 X184.574 Y153.213 E3.99045
G1 X183.863 Y154.073 E4.02663
G1 X183.447 Y154.564 E4.0475
G1 X181.402 Y157.129 E4.15388
G1 X180.916 Y157.689 E4.17793
G1 X180.475 Y158.097 E4.19741
G1 X179.945 Y158.507 E4.21914
G1 X179.834 Y158.588 E4.22359
G1 X179.409 Y158.853 E4.23984
G1 X178.856 Y159.135 E4.25997
G1 X178.195 Y159.395 E4.283
G1 X177.564 Y159.577 E4.3043
G1 X176.952 Y159.694 E4.3245
G1 X175.577 Y159.892 E4.36955
G1 X174.985 Y159.969 E4.38891
G1 X172.347 Y160.387 E4.47552
G1 X169.617 Y160.899 E4.5656
G1 X166.961 Y161.477 E4.65374
G1 X164.338 Y162.125 E4.74136
G1 X161.692 Y162.859 E4.83041
G1 X159.085 Y163.661 E4.91886
G1 X156.888 Y164.403 E4.99406
G1 X156.448 Y164.52 E5.00882
G1 X155.902 Y164.627 E5.02687
G1 X155.588 Y164.673 E5.03716
G1 X154.429 Y164.791 E5.07494
G1 X151.651 Y165.114 E5.16563
G1 X148.981 Y165.502 E5.25312
G1 X146.269 Y165.974 E5.34239
G1 X142.84 Y166.684 E5.45595
G1 X142.23 Y166.798 E5.47607
G1 X141.693 Y166.853 E5.49358
G1 X141.074 Y166.861 E5.51365
G1 X140.495 Y166.813 E5.53249
G1 X139.996 Y166.735 E5.54887
G1 X138.843 Y166.473 E5.58722
G1 X136.107 Y165.894 E5.67791
G1 X133.451 Y165.41 E5.76545
G1 X130.766 Y164.998 E5.85354
G1 X128.016 Y164.656 E5.94341
G1 X125.325 Y164.398 E6.03108
G1 X122.586 Y164.213 E6.1201
G1 X119.889 Y164.108 E6.20763
G1 X117.112 Y164.078 E6.29769
G1 X114.412 Y164.125 E6.38526
G1 X111.706 Y164.25 E6.4731
G1 X108.941 Y164.455 E6.56301
G1 X106.255 Y164.73 E6.65057
G1 X103.533 Y165.088 E6.7396
G1 X99.825 Y165.702 E6.86149
G1 X98.237 Y165.996 E6.91386
G1 X97.738 Y166.055 E6.93015
G1 X94.422 Y166.401 E7.03827
G1 X93.784 Y166.479 E7.05911
G1 X92.872 Y166.56 E7.0888
G1 X92.259 Y166.582 E7.1087
G1 X91.726 Y166.563 E7.12599
G1 X91.169 Y166.514 E7.14412
G1 X90.297 Y166.356 E7.17286
G1 X89.532 Y166.123 E7.1988
G1 X89.29 Y166.029 E7.20721
G1 X88.587 Y165.727 E7.23203
G1 X86.811 Y164.935 E7.29509
G1 X84.266 Y163.886 E7.38435
G1 X81.689 Y162.907 E7.47375
G1 X79.148 Y162.027 E7.56095
G1 X76.554 Y161.205 E7.64919
G1 X73.908 Y160.451 E7.73842
G1 X71.227 Y159.767 E7.82814
G1 X68.612 Y159.181 E7.91505
G1 X65.915 Y158.654 E8.00416
G1 X63.233 Y158.208 E8.09233
G1 X60.534 Y157.838 E8.18067
G1 X57.791 Y157.54 E8.27015
G1 X57.512 Y157.515 E8.27923
G1 X56.837 Y157.445 E8.30124
G1 X56.627 Y157.416 E8.30811
G1 X55.947 Y157.303 E8.33047
G1 X55.382 Y157.176 E8.34925
G1 X54.741 Y156.973 E8.37105
G1 X54.196 Y156.733 E8.39036
G1 X53.686 Y156.447 E8.40932
G1 X53.502 Y156.332 E8.41636
G1 X53.01 Y155.96 E8.43636
G1 X52.578 Y155.557 E8.45552
G1 X52.129 Y155.034 E8.47787
G1 X51.791 Y154.527 E8.49763
G1 X51.543 Y154.072 E8.51444
G1 X51.309 Y153.514 E8.53406
G1 X51.155 Y153.02 E8.55084
G1 X51.106 Y152.803 E8.55805
G1 X50.884 Y151.68 E8.59518
G1 X50.796 Y151.144 E8.61279
G1 X50.675 Y150.261 E8.64169
G1 X50.602 Y149.657 E8.66142
G1 X50.522 Y148.93 E8.68514
G1 X50.443 Y148.15 E8.71056
G1 X50.411 Y147.805 E8.7218
G1 X50.344 Y147.03 E8.74702
G1 X50.252 Y145.871 E8.78473
G1 X50.167 Y144.687 E8.82322
G1 X50.016 Y142.426 E8.89671
G1 X49.938 Y141.148 E8.93823
G1 X49.873 Y139.944 E8.97733
G1 X49.789 Y138.14 E9.03589
G1 X49.658 Y134.864 E9.14221
G1 X49.61 Y133.428 E9.18881
G1 X49.569 Y131.932 E9.23734
G1 X49.527 Y130.165 E9.29466
G1 X49.444 Y127.192 E9.3911
G1 X49.427 Y126.244 E9.42185
G1 X49.436 Y125.274 E9.45331
G1 X49.465 Y124.704 E9.47182
G1 X49.548 Y124.064 E9.49275
G1 X49.694 Y123.459 E9.51293
G1 X49.832 Y123.079 E9.52604
G1 X50.147 Y122.449 E9.54888
G1 X50.573 Y121.839 E9.57301
G1 X50.784 Y121.589 E9.58362
G1 X51.183 Y121.187 E9.60198
G1 X51.466 Y120.946 E9.61404
G1 X52.117 Y120.509 E9.63946
G1 X52.758 Y120.188 E9.66271
G1 X53.289 Y119.962 E9.68143
G1 X55.845 Y118.86 E9.77169
G1 X58.303 Y117.716 E9.85961
G1 X60.758 Y116.489 E9.94861
G1 X63.19 Y115.185 E10.0381
G1 X65.517 Y113.852 E10.12506
G1 X67.856 Y112.422 E10.21397
G1 X70.153 Y110.928 E10.30283
G1 X72.403 Y109.37 E10.39158
G1 X74.608 Y107.752 E10.48027
G1 X76.757 Y106.078 E10.5686
G1 X78.868 Y104.336 E10.65736
G1 X80.902 Y102.557 E10.74499
G1 X82.93 Y100.681 E10.83458
G1 X84.873 Y98.779 E10.92275
G1 X86.764 Y96.82 E11.01105
G1 X88.606 Y94.8 E11.0997
G1 X90.406 Y92.71 E11.18914
G1 X92.096 Y90.633 E11.27598
G1 X93.783 Y88.432 E11.36591
G1 X95.376 Y86.232 E11.45399
G1 X96.917 Y83.969 E11.54277
G1 X98.402 Y81.65 E11.63207
G1 X99.788 Y79.345 E11.71929
G1 X101.14 Y76.944 E11.80865
G1 X102.397 Y74.558 E11.89611
G1 X103.619 Y72.07 E11.986
G1 X104.978 Y69.089 E12.09224
G1 X105.188 Y68.696 E12.10669
G0 F2160 X105.454 Y68.838
G1 F900 X105.758 Y68.44 E12.12293
G1 X106.123 Y68.095 E12.13922
G1 X106.537 Y67.812 E12.15548
G1 X106.991 Y67.599 E12.17174
G1 X107.473 Y67.461 E12.188
G1 X107.971 Y67.401 E12.20426
G1 X108.473 Y67.42 E12.22056
G1 X108.964 Y67.519 E12.2368
G1 X109.434 Y67.695 E12.25307
G1 X109.87 Y67.943 E12.26934
G1 X110.261 Y68.257 E12.2856
G1 X110.597 Y68.629 E12.30186
G1 X110.953 Y69.214 E12.32406
G1 X111.057 Y69.439 E12.3321
G1 X111.996 Y71.525 E12.40629
G1 X113.17 Y73.946 E12.49354
G1 X114.469 Y76.444 E12.58485
G1 X115.779 Y78.797 E12.67218
G1 X117.18 Y81.151 E12.76101
G1 X118.662 Y83.492 E12.85086
G1 X120.192 Y85.764 E12.93969
G1 X121.762 Y87.958 E13.02718
G1 X123.448 Y90.177 E13.11755
G1 X125.134 Y92.273 E13.20478
G1 X126.924 Y94.372 E13.29424
G1 X128.775 Y96.423 E13.38383
G1 X130.641 Y98.376 E13.47143
G1 X132.613 Y100.328 E13.56141
G1 X134.601 Y102.186 E13.64965
G1 X136.668 Y104.009 E13.73902
G1 X138.742 Y105.739 E13.82661
G1 X140.916 Y107.451 E13.91634
G1 X143.135 Y109.097 E14.00594
G1 X145.34 Y110.639 E14.09319
G1 X147.664 Y112.167 E14.18339
G1 X149.969 Y113.593 E14.27128
G1 X152.365 Y114.98 E14.36106
G1 X154.727 Y116.263 E14.44823
G1 X157.219 Y117.524 E14.5388
G1 X159.693 Y118.691 E14.6275
G1 X161.453 Y119.455 E14.68972
G1 X162.601 Y119.973 E14.73057
G1 X163.136 Y120.257 E14.75021
G1 X163.444 Y120.457 E14.76212
G1 X163.928 Y120.797 E14.7813
G1 X164.376 Y121.161 E14.80002
G1 X164.693 Y121.459 E14.81413
G1 X165.219 Y122.005 E14.83871
G1 X165.591 Y122.42 E14.85678
G1 X165.85 Y122.737 E14.87006
G1 X166.274 Y123.296 E14.89281
G1 X166.572 Y123.713 E14.90943
G1 X166.86 Y124.153 E14.92649
G1 X166.987 Y124.367 E14.93456
G1 X168.423 Y126.719 E15.02392
G1 X169.906 Y129.001 E15.11218
G1 X171.463 Y131.254 E15.20099
G1 X173.095 Y133.478 E15.29044
G1 X174.768 Y135.629 E15.37881
G1 X176.503 Y137.732 E15.46722
G1 X178.325 Y139.818 E15.55704
G1 X180.295 Y141.951 E15.6512
G1 X180.838 Y142.6 E15.67864
G1 X181.005 Y142.825 E15.68773
G1 X181.552 Y143.641 E15.71958
G1 X182.056 Y144.412 E15.74945
G1 X183.199 Y146.035 E15.81383
G1 X183.251 Y146.123 E15.81714
G1 X184.014 Y147.228 E15.86069
G1 X184.293 Y147.677 E15.87783
G1 X184.462 Y147.964 E15.88863
G1 X184.762 Y148.494 E15.90838
G1 X185.037 Y149.139 E15.93112
G1 X185.176 Y149.661 E15.94864
G1 X185.256 Y150.156 E15.9649
G1 X185.253 Y150.696 E15.98241
G1 X185.23 Y150.946 E15.99055
G1 X185.144 Y151.44 E16.00681
G1 X184.915 Y152.056 E16.02812
G1 X184.738 Y152.413 E16.04104
G1 X184.343 Y153.022 E16.06458
G1 X183.634 Y153.879 E16.10065
G1 X183.211 Y154.378 E16.12187
G1 X181.17 Y156.938 E16.22804
G1 X180.694 Y157.487 E16.2516
G1 X180.291 Y157.86 E16.26941
G1 X179.768 Y158.265 E16.29086
G1 X179.269 Y158.587 E16.31012
G1 X178.724 Y158.865 E16.32996
G1 X178.094 Y159.112 E16.3519
G1 X177.504 Y159.283 E16.37182
G1 X176.901 Y159.398 E16.39173
G1 X175.539 Y159.594 E16.43635
G1 X174.966 Y159.668 E16.45509
G1 X172.276 Y160.095 E16.54341
G1 X169.57 Y160.603 E16.6327
G1 X166.898 Y161.184 E16.72137
G1 X164.258 Y161.836 E16.80956
G1 X161.629 Y162.565 E16.89803
G1 X158.974 Y163.383 E16.98812
G1 X156.792 Y164.119 E17.0628
G1 X156.391 Y164.225 E17.07625
G1 X155.845 Y164.332 E17.09429
G1 X155.558 Y164.375 E17.1037
G1 X154.365 Y164.496 E17.14259
G1 X151.611 Y164.817 E17.2325
G1 X148.918 Y165.207 E17.32074
G1 X146.221 Y165.677 E17.40952
G1 X142.793 Y166.387 E17.52304
G1 X142.199 Y166.5 E17.54265
G1 X141.662 Y166.555 E17.56016
G1 X141.097 Y166.562 E17.57848
G1 X140.529 Y166.515 E17.59696
G1 X140.062 Y166.443 E17.61229
G1 X138.9 Y166.179 E17.65093
G1 X136.151 Y165.597 E17.74205
G1 X133.518 Y165.118 E17.82884
G1 X130.776 Y164.697 E17.9188
G1 X128.083 Y164.362 E18.0068
G1 X125.337 Y164.099 E18.09626
G1 X122.618 Y163.915 E18.18463
G1 X119.867 Y163.807 E18.27391
G1 X117.147 Y163.779 E18.36212
G1 X114.393 Y163.826 E18.45144
G1 X111.636 Y163.953 E18.54095
G1 X108.96 Y164.151 E18.62796
G1 X106.184 Y164.436 E18.71846
G1 X103.504 Y164.789 E18.80612
G1 X99.776 Y165.406 E18.92865
G1 X98.182 Y165.701 E18.98122
G1 X97.739 Y165.754 E18.99569
G1 X94.376 Y166.104 E19.10534
G1 X93.747 Y166.181 E19.12589
G1 X92.846 Y166.261 E19.15522
G1 X92.266 Y166.282 E19.17404
G1 X91.752 Y166.264 E19.19072
G1 X91.195 Y166.215 E19.20885
G1 X90.358 Y166.063 E19.23644
G1 X89.629 Y165.839 E19.26117
G1 X89.408 Y165.753 E19.26886
G1 X88.71 Y165.453 E19.2935
G1 X86.925 Y164.657 E19.35688
G1 X84.4 Y163.617 E19.44543
G1 X81.799 Y162.628 E19.53567
G1 X79.219 Y161.735 E19.62421
G1 X76.622 Y160.912 E19.71255
G1 X74.001 Y160.165 E19.80093
G1 X71.334 Y159.485 E19.89019
G1 X68.662 Y158.885 E19.979
G1 X65.949 Y158.356 E20.06863
G1 X63.29 Y157.913 E20.15605
G1 X60.569 Y157.54 E20.24511
G1 X57.797 Y157.239 E20.33553
G1 X57.543 Y157.216 E20.3438
G1 X56.868 Y157.146 E20.36581
G1 X56.677 Y157.12 E20.37206
G1 X55.997 Y157.007 E20.39441
G1 X55.452 Y156.885 E20.41252
G1 X54.837 Y156.689 E20.43346
G1 X54.34 Y156.47 E20.45107
G1 X53.845 Y156.192 E20.46948
G1 X53.661 Y156.077 E20.47652
G1 X53.212 Y155.738 E20.49476
G1 X52.785 Y155.339 E20.51371
G1 X52.374 Y154.862 E20.53413
G1 X52.043 Y154.364 E20.55352
G1 X51.74 Y153.777 E20.57494
G1 X51.447 Y152.952 E20.60333
G1 X51.401 Y152.745 E20.61021
G1 X51.16 Y151.518 E20.65076
G1 X51.093 Y151.103 E20.66439
G1 X50.973 Y150.225 E20.69313
G1 X50.9 Y149.624 E20.71276
G1 X50.82 Y148.9 E20.73638
G1 X50.741 Y148.122 E20.76174
G1 X50.643 Y147.006 E20.79807
G1 X50.551 Y145.85 E20.83568
G1 X50.466 Y144.668 E20.87411
G1 X50.316 Y142.407 E20.94759
G1 X50.238 Y141.132 E20.98901
G1 X50.172 Y139.93 E21.02805
G1 X50.089 Y138.128 E21.08655
G1 X49.958 Y134.854 E21.19281
G1 X49.91 Y133.42 E21.23934
G1 X49.869 Y131.925 E21.28783
G1 X49.827 Y130.158 E21.34515
G1 X49.744 Y127.186 E21.44157
G1 X49.727 Y126.247 E21.47202
G1 X49.738 Y125.184 E21.5065
G1 X49.784 Y124.541 E21.5274
G1 X49.845 Y124.107 E21.54161
G1 X49.978 Y123.555 E21.56003
G1 X50.113 Y123.186 E21.57277
G1 X50.401 Y122.61 E21.59365
G1 X50.802 Y122.032 E21.61647
G1 X51.013 Y121.782 E21.62707
G1 X51.378 Y121.416 E21.64384
G1 X51.661 Y121.175 E21.65589
G1 X52.255 Y120.776 E21.6791
G1 X52.888 Y120.458 E21.70207
G1 X53.433 Y120.227 E21.72126
G1 X55.942 Y119.145 E21.80987
G1 X58.458 Y117.974 E21.89986
G1 X60.9 Y116.754 E21.98839
G1 X63.305 Y115.464 E22.07689
G1 X65.673 Y114.108 E22.16538
G1 X68.043 Y112.66 E22.25544
G1 X70.313 Y111.182 E22.34329
G1 X72.56 Y109.627 E22.4319
G1 X74.795 Y107.987 E22.5218
G1 X76.957 Y106.302 E22.61069
G1 X79.043 Y104.58 E22.6984
G1 X81.108 Y102.775 E22.78735
G1 X83.15 Y100.886 E22.87755
G1 X85.07 Y99.007 E22.96467
G1 X86.989 Y97.018 E23.0543
G1 X88.825 Y95.005 E23.14265
G1 X90.639 Y92.899 E23.23279
G1 X92.336 Y90.814 E23.31997
G1 X94.02 Y88.617 E23.40973
G1 X95.623 Y86.403 E23.49837
G1 X97.174 Y84.125 E23.58774
G1 X98.641 Y81.832 E23.67602
G1 X100.046 Y79.498 E23.76436
G1 X101.406 Y77.083 E23.85424
G1 X102.678 Y74.668 E23.94275
G1 X103.88 Y72.22 E24.03119
G1 X105.246 Y69.222 E24.13803
G1 X105.454 Y68.838 E24.15219
G1 F1500 E18.65219
;MESH:Bianca.stl
G0 F2160 X83.596 Y125.854
G0 X84.195 Y126.594
G0 X82.327 Y130.406
G0 X81.683 Y129.136
G0 X80.838 Y127.81
G0 X80.017 Y127.561
G0 X77.224 Y142.84
;TYPE:WALL-INNER
G1 F1500 E24.15219
G1 F900 X77.234 Y142.847 E24.15259
G1 X78.199 Y143.516 E24.19067
G1 X78.501 Y143.967 E24.20827
G1 X78.566 Y144.178 E24.21543
G1 X78.588 Y144.514 E24.22635
G1 X78.529 Y144.834 E24.2369
G1 X78.44 Y145.053 E24.24457
G1 X78.165 Y145.449 E24.2602
G1 X77.822 Y145.701 E24.274
G1 X77.558 Y145.79 E24.28304
G1 X77.236 Y145.824 E24.29354
G1 X76.887 Y145.792 E24.3049
G1 X76.623 Y145.697 E24.314
G1 X76.39 Y145.538 E24.32315
G1 X76.204 Y145.33 E24.3322
G1 X76.026 Y144.957 E24.3456
G1 X75.947 Y144.441 E24.36253
G1 X75.999 Y144.06 E24.375
G1 X76.201 Y143.621 E24.39067
G1 X76.43 Y143.378 E24.4015
G1 X77.227 Y142.859 E24.43234
G1 X77.224 Y142.84 E24.4325
G0 F2160 X80.017 Y127.561
G0 X98.531 Y143.357
G0 X101.421 Y126.855
G0 X102.87 Y128.327
G0 X112.139 Y148.83
