;FLAVOR:Marlin
;TIME:2015
;Filament used: 1.2118m, 0m
;Layer height: 0.2
;MINX:83.466
;MINY:67.023
;MINZ:0.26
;MAXX:159.577
;MAXY:186.087
;MAXZ:1.26
;POSTPROCESSED
;Generated with Cura_SteamEngine 4.8.0
T0
M140 S60
M105
M190 S60
M104 S200
M105
M109 S200
M82 ;absolute extrusion mode
M201 X500.00 Y500.00 Z100.00 E5000.00 	;Setup machine max acceleration
M203 X500.00 Y500.00 Z10.00 E50.00 	;Setup machine max feedrate
M204 P500.00 R1000.00 T500.00 		;Setup Print/Retract/Travel acceleration
M205 X8.00 Y8.00 Z0.40 E5.00 		;Setup Jerk
M220 S100 				;Reset Feedrate
M221 S100 				;Reset Flowrate
G28				;Home the Machine
#G29 				;Bed Level
G92 E0
M300 P150 S587
G92 E0
G1 F1500 E-5.5
;LAYER_COUNT:6
;LAYER:0
M107
G0 F2160 X123.602 Y68.985 Z0.26
;TYPE:SKIRT
G1 F1500 E0
G1 F900 X123.863 Y68.53 E0.01701
G1 X124.19 Y68.119 E0.03404
G1 X124.576 Y67.763 E0.05107
G1 X125.011 Y67.469 E0.0681
G1 X125.486 Y67.245 E0.08513
G1 X125.989 Y67.095 E0.10215
G1 X126.509 Y67.023 E0.11917
G1 X127.034 Y67.031 E0.1362
G1 X127.551 Y67.119 E0.15321
G1 X128.05 Y67.284 E0.17025
G1 X128.517 Y67.523 E0.18726
G1 X128.943 Y67.83 E0.20429
G1 X129.317 Y68.198 E0.22131
G1 X129.631 Y68.619 E0.23834
G1 X129.878 Y69.083 E0.25538
G1 X130.01 Y69.433 E0.26751
G1 X130.304 Y70.372 E0.29942
G1 X130.579 Y71.289 E0.33047
G1 X131.446 Y73.907 E0.4199
G1 X132.372 Y76.459 E0.50794
G1 X133.382 Y79.019 E0.59718
G1 X134.449 Y81.509 E0.68503
G1 X135.587 Y83.973 E0.77304
G1 X136.814 Y86.443 E0.86248
G1 X138.097 Y88.852 E0.95099
G1 X139.445 Y91.22 E1.03935
G1 X140.867 Y93.56 E1.12815
G1 X142.339 Y95.838 E1.2161
G1 X143.893 Y98.096 E1.30499
G1 X145.51 Y100.309 E1.39387
G1 X147.166 Y102.448 E1.48159
G1 X148.918 Y104.582 E1.57113
G1 X150.696 Y106.628 E1.65903
G1 X152.546 Y108.639 E1.74765
G1 X154.452 Y110.595 E1.83621
G1 X156.415 Y112.5 E1.92492
G1 X157.652 Y113.628 E1.9792
G1 X158.467 Y114.386 E2.0153
G1 X158.823 Y114.771 E2.0323
G1 X159.116 Y115.207 E2.04934
G1 X159.34 Y115.682 E2.06637
G1 X159.489 Y116.185 E2.08338
G1 X159.565 Y116.806 E2.10367
G1 X159.577 Y117.237 E2.11765
G1 X159.577 Y119.673 E2.19665
G1 X159.566 Y120.399 E2.22019
G1 X159.518 Y120.922 E2.23722
G1 X159.389 Y121.438 E2.25447
G1 X159.287 Y121.744 E2.26493
G1 X158.446 Y124.357 E2.35395
G1 X157.689 Y126.963 E2.44195
G1 X156.996 Y129.629 E2.53128
G1 X156.383 Y132.293 E2.61993
G1 X155.85 Y134.951 E2.70784
G1 X155.38 Y137.698 E2.79821
G1 X155.004 Y140.337 E2.88466
G1 X154.696 Y143.053 E2.9733
G1 X154.462 Y145.817 E3.06325
G1 X154.311 Y148.466 E3.14929
G1 X154.232 Y151.257 E3.23984
G1 X154.232 Y153.961 E3.32752
G1 X154.311 Y156.734 E3.41749
G1 X154.461 Y159.397 E3.50398
G1 X154.608 Y161.231 E3.56365
G1 X154.765 Y162.979 E3.62056
G1 X154.801 Y163.643 E3.64212
G1 X154.807 Y164.359 E3.66534
G1 X154.805 Y164.509 E3.67021
G1 X154.768 Y165.559 E3.70428
G1 X154.759 Y165.71 E3.70918
G1 X154.68 Y166.71 E3.74171
G1 X154.665 Y166.859 E3.74657
G1 X154.537 Y167.899 E3.78055
G1 X154.514 Y168.055 E3.78566
G1 X154.359 Y168.967 E3.81566
G1 X154.316 Y169.185 E3.82287
G1 X154.104 Y170.147 E3.85481
G1 X154.064 Y170.304 E3.86007
G1 X153.835 Y171.149 E3.88846
G1 X153.761 Y171.393 E3.89673
G1 X153.533 Y172.094 E3.92063
G1 X153.252 Y172.854 E3.94691
G1 X152.93 Y173.621 E3.97388
G1 X152.69 Y174.146 E3.9926
G1 X152.49 Y174.552 E4.00728
G1 X152.2 Y175.103 E4.02747
G1 X152.129 Y175.231 E4.03222
G1 X151.837 Y175.733 E4.05105
G1 X151.754 Y175.868 E4.05619
G1 X151.343 Y176.505 E4.08077
G1 X151.254 Y176.636 E4.08591
G1 X150.888 Y177.15 E4.10637
G1 X150.793 Y177.278 E4.11154
G1 X150.35 Y177.843 E4.13482
G1 X149.958 Y178.307 E4.15452
G1 X149.823 Y178.456 E4.16104
G1 X148.932 Y179.385 E4.20278
G1 X148.538 Y179.76 E4.22042
G1 X148.083 Y180.16 E4.24007
G1 X147.637 Y180.53 E4.25886
G1 X147.553 Y180.598 E4.26237
G1 X147.047 Y180.99 E4.28312
G1 X146.806 Y181.166 E4.2928
G1 X146.268 Y181.538 E4.31401
G1 X145.947 Y181.75 E4.32649
G1 X145.375 Y182.106 E4.34833
G1 X145.085 Y182.276 E4.35924
G1 X144.398 Y182.656 E4.3847
G1 X144.204 Y182.757 E4.39179
G1 X143.553 Y183.077 E4.41531
G1 X143.205 Y183.237 E4.42773
G1 X142.458 Y183.559 E4.45411
G1 X142.317 Y183.616 E4.45904
G1 X141.493 Y183.929 E4.48763
G1 X141.34 Y183.983 E4.49289
G1 X140.552 Y184.24 E4.51977
G1 X140.202 Y184.344 E4.53161
G1 X139.517 Y184.529 E4.55462
G1 X139.352 Y184.569 E4.56012
G1 X138.105 Y184.841 E4.60151
G1 X137.97 Y184.867 E4.60597
G1 X136.996 Y185.039 E4.63804
G1 X136.866 Y185.06 E4.64232
G1 X135.907 Y185.192 E4.67371
G1 X135.783 Y185.207 E4.67776
G1 X134.761 Y185.31 E4.71107
G1 X133.525 Y185.393 E4.75124
G1 X133.407 Y185.399 E4.75507
G1 X132.328 Y185.432 E4.79008
G1 X131.172 Y185.431 E4.82757
G1 X129.891 Y185.393 E4.86913
G1 X128.063 Y185.311 E4.92846
G1 X125.325 Y185.266 E5.01727
G1 X122.586 Y185.299 E5.10609
G1 X119.883 Y185.407 E5.19382
G1 X117.154 Y185.593 E5.28252
G1 X114.427 Y185.858 E5.37137
G1 X112.794 Y186.056 E5.42472
G1 X112.603 Y186.075 E5.43094
G1 X112.078 Y186.087 E5.44797
G1 X111.435 Y185.991 E5.46905
G1 X110.395 Y185.733 E5.5038
G1 X86.595 Y179.298 E6.30331
G1 X85.96 Y179.117 E6.32473
G1 X85.468 Y178.935 E6.34174
G1 X85.009 Y178.68 E6.35877
G1 X84.593 Y178.359 E6.37581
G1 X84.232 Y177.979 E6.3928
G1 X83.932 Y177.548 E6.40983
G1 X83.701 Y177.076 E6.42687
G1 X83.544 Y176.575 E6.4439
G1 X83.466 Y176.056 E6.46092
G1 X83.466 Y175.531 E6.47794
G1 X83.606 Y174.792 E6.50233
G1 X83.91 Y173.8 E6.53598
G1 X85.969 Y167.498 E6.75098
G1 X86.199 Y166.827 E6.77398
G1 X86.267 Y166.646 E6.78025
G1 X86.57 Y165.904 E6.80624
G1 X87.063 Y164.739 E6.84726
G1 X88.065 Y162.172 E6.93662
G1 X88.982 Y159.616 E7.02468
G1 X89.823 Y157.042 E7.1125
G1 X90.604 Y154.396 E7.20196
G1 X91.306 Y151.747 E7.29083
G1 X91.932 Y149.089 E7.37939
G1 X92.48 Y146.416 E7.46787
G1 X92.953 Y143.727 E7.55641
G1 X93.35 Y141.033 E7.64472
G1 X93.67 Y138.321 E7.73327
G1 X93.913 Y135.62 E7.82122
G1 X94.081 Y132.856 E7.91102
G1 X94.17 Y130.153 E7.99872
G1 X94.183 Y127.413 E8.08757
G1 X94.118 Y124.671 E8.17652
G1 X93.978 Y121.969 E8.26426
G1 X93.893 Y120.847 E8.30075
G1 X93.861 Y120.115 E8.32451
G1 X93.86 Y117.565 E8.4072
G1 X93.87 Y116.862 E8.43
G1 X93.918 Y116.339 E8.44703
G1 X94.044 Y115.83 E8.46403
G1 X94.246 Y115.345 E8.48107
G1 X94.519 Y114.897 E8.49809
G1 X95.005 Y114.353 E8.52174
G1 X95.606 Y113.809 E8.54803
G1 X97.598 Y111.951 E8.63636
G1 X99.564 Y110.013 E8.72589
G1 X101.419 Y108.076 E8.81286
G1 X103.272 Y106.029 E8.9024
G1 X105.038 Y103.963 E8.99054
G1 X106.774 Y101.814 E9.08013
G1 X108.393 Y99.686 E9.16684
G1 X110.01 Y97.433 E9.25677
G1 X111.533 Y95.178 E9.34501
G1 X112.992 Y92.883 E9.4332
G1 X114.393 Y90.532 E9.52195
G1 X115.727 Y88.145 E9.61062
G1 X116.995 Y85.715 E9.69951
G1 X118.182 Y83.275 E9.7875
G1 X119.314 Y80.77 E9.87664
G1 X120.373 Y78.242 E9.96553
G1 X121.348 Y75.708 E10.05357
G1 X122.253 Y73.146 E10.14169
G1 X123.268 Y69.962 E10.25006
G1 X123.414 Y69.475 E10.26655
G1 X123.602 Y68.985 E10.28357
G0 F2160 X123.883 Y69.094
G1 F900 X124.137 Y68.661 E10.29984
G1 X124.456 Y68.275 E10.31608
G1 X124.833 Y67.943 E10.33237
G1 X125.257 Y67.676 E10.34862
G1 X125.719 Y67.48 E10.3649
G1 X126.206 Y67.359 E10.38117
G1 X126.706 Y67.317 E10.39744
G1 X127.206 Y67.355 E10.4137
G1 X127.694 Y67.472 E10.42998
G1 X128.157 Y67.665 E10.44624
G1 X128.583 Y67.929 E10.4625
G1 X128.962 Y68.257 E10.47875
G1 X129.285 Y68.641 E10.49502
G1 X129.542 Y69.072 E10.51129
G1 X129.723 Y69.523 E10.52705
G1 X130.017 Y70.458 E10.55884
G1 X130.299 Y71.396 E10.5906
G1 X131.16 Y73.998 E10.67948
G1 X132.091 Y76.566 E10.76806
G1 X133.097 Y79.112 E10.85684
G1 X134.177 Y81.634 E10.9458
G1 X135.334 Y84.14 E11.03531
G1 X136.541 Y86.569 E11.12327
G1 X137.825 Y88.981 E11.21188
G1 X139.188 Y91.376 E11.30124
G1 X140.603 Y93.704 E11.38959
G1 X142.101 Y96.021 E11.47906
G1 X143.648 Y98.268 E11.56753
G1 X145.275 Y100.496 E11.65699
G1 X146.942 Y102.648 E11.74527
G1 X148.675 Y104.759 E11.83384
G1 X150.492 Y106.85 E11.92367
G1 X152.322 Y108.84 E12.01134
G1 X154.222 Y110.79 E12.09963
G1 X156.217 Y112.726 E12.18978
G1 X157.447 Y113.847 E12.24375
G1 X158.262 Y114.605 E12.27984
G1 X158.601 Y114.975 E12.29612
G1 X158.877 Y115.394 E12.31239
G1 X159.083 Y115.851 E12.32864
G1 X159.214 Y116.336 E12.34494
G1 X159.276 Y117.14 E12.37109
G1 X159.277 Y119.669 E12.4531
G1 X159.266 Y120.395 E12.47664
G1 X159.218 Y120.894 E12.4929
G1 X159.012 Y121.618 E12.51731
G1 X158.157 Y124.277 E12.60789
G1 X157.4 Y126.886 E12.69598
G1 X156.706 Y129.551 E12.78529
G1 X156.088 Y132.239 E12.87473
G1 X155.551 Y134.914 E12.96321
G1 X155.088 Y137.621 E13.05226
G1 X154.707 Y140.299 E13.13998
G1 X154.397 Y143.03 E13.22911
G1 X154.164 Y145.773 E13.31839
G1 X154.01 Y148.494 E13.40677
G1 X153.932 Y151.248 E13.49611
G1 X153.932 Y153.97 E13.58438
G1 X154.01 Y156.724 E13.67373
G1 X154.165 Y159.455 E13.76243
G1 X154.312 Y161.288 E13.82206
G1 X154.474 Y163.108 E13.88132
G1 X154.501 Y163.646 E13.89878
G1 X154.507 Y164.362 E13.922
G1 X154.505 Y164.499 E13.92645
G1 X154.468 Y165.549 E13.96052
G1 X154.46 Y165.686 E13.96497
G1 X154.381 Y166.686 E13.9975
G1 X154.367 Y166.823 E14.00196
G1 X154.239 Y167.863 E14.03595
G1 X154.219 Y168.005 E14.0406
G1 X154.064 Y168.91 E14.07037
G1 X154.023 Y169.121 E14.07734
G1 X153.813 Y170.074 E14.10899
G1 X153.774 Y170.226 E14.11408
G1 X153.548 Y171.062 E14.14216
G1 X153.476 Y171.3 E14.15022
G1 X153.248 Y172.001 E14.17413
G1 X152.972 Y172.746 E14.19989
G1 X152.653 Y173.505 E14.22659
G1 X152.421 Y174.014 E14.24473
G1 X152.224 Y174.412 E14.25913
G1 X151.934 Y174.963 E14.27932
G1 X151.87 Y175.08 E14.28365
G1 X151.578 Y175.582 E14.30248
G1 X151.502 Y175.706 E14.3072
G1 X151.091 Y176.343 E14.33178
G1 X151.01 Y176.462 E14.33645
G1 X150.644 Y176.976 E14.35691
G1 X150.557 Y177.093 E14.36164
G1 X150.114 Y177.658 E14.38492
G1 X149.729 Y178.112 E14.40423
G1 X149.606 Y178.248 E14.41017
G1 X148.715 Y179.177 E14.45191
G1 X148.334 Y179.541 E14.469
G1 X147.886 Y179.934 E14.48833
G1 X147.446 Y180.299 E14.50687
G1 X147.369 Y180.361 E14.51007
G1 X146.868 Y180.749 E14.53062
G1 X146.635 Y180.919 E14.53998
G1 X146.102 Y181.289 E14.56102
G1 X145.788 Y181.495 E14.57319
G1 X145.136 Y181.9 E14.59808
G1 X144.94 Y182.013 E14.60542
G1 X144.258 Y182.391 E14.63071
G1 X144.072 Y182.488 E14.63751
G1 X143.343 Y182.845 E14.66383
G1 X143.086 Y182.962 E14.67299
G1 X142.339 Y183.284 E14.69937
G1 X142.211 Y183.336 E14.70385
G1 X141.387 Y183.649 E14.73243
G1 X141.246 Y183.698 E14.73727
G1 X140.465 Y183.953 E14.76392
G1 X140.123 Y184.054 E14.77548
G1 X139.438 Y184.239 E14.79849
G1 X139.288 Y184.276 E14.8035
G1 X138.041 Y184.548 E14.84489
G1 X137.918 Y184.572 E14.84895
G1 X136.944 Y184.744 E14.88103
G1 X136.826 Y184.763 E14.8849
G1 X135.867 Y184.895 E14.9163
G1 X134.731 Y185.011 E14.95333
G1 X134.623 Y185.02 E14.95684
G1 X133.505 Y185.094 E14.99318
G1 X133.398 Y185.099 E14.99665
G1 X132.328 Y185.132 E15.03136
G1 X131.181 Y185.131 E15.06856
G1 X129.904 Y185.093 E15.10999
G1 X128.081 Y185.011 E15.16917
G1 X125.327 Y184.966 E15.25849
G1 X122.571 Y184.999 E15.34787
G1 X119.886 Y185.106 E15.43501
G1 X117.103 Y185.296 E15.52547
G1 X114.404 Y185.558 E15.6134
G1 X112.686 Y185.766 E15.66952
G1 X112.574 Y185.777 E15.67317
G1 X112.072 Y185.786 E15.68945
G1 X111.508 Y185.699 E15.70796
G1 X110.404 Y185.425 E15.74485
G1 X86.678 Y179.009 E16.54188
G1 X86.043 Y178.828 E16.5633
G1 X85.573 Y178.653 E16.57956
G1 X85.137 Y178.405 E16.59583
G1 X84.745 Y178.091 E16.61211
G1 X84.409 Y177.719 E16.62837
G1 X84.136 Y177.298 E16.64464
G1 X83.933 Y176.84 E16.66089
G1 X83.805 Y176.355 E16.67715
G1 X83.757 Y175.855 E16.69344
G1 X83.787 Y175.355 E16.70969
G1 X83.893 Y174.879 E16.7255
G1 X84.195 Y173.894 E16.75891
G1 X86.253 Y167.596 E16.97377
G1 X86.483 Y166.925 E16.99677
G1 X86.545 Y166.759 E17.00252
G1 X86.846 Y166.021 E17.02837
G1 X87.35 Y164.829 E17.07034
G1 X88.334 Y162.309 E17.15807
G1 X89.268 Y159.705 E17.24778
G1 X90.114 Y157.114 E17.33616
G1 X90.891 Y154.485 E17.42507
G1 X91.597 Y151.82 E17.51447
G1 X92.225 Y149.153 E17.60332
G1 X92.778 Y146.456 E17.6926
G1 X93.248 Y143.786 E17.78052
G1 X93.646 Y141.079 E17.86924
G1 X93.969 Y138.346 E17.95849
G1 X94.213 Y135.631 E18.04689
G1 X94.381 Y132.884 E18.13614
G1 X94.47 Y130.163 E18.22442
G1 X94.483 Y127.407 E18.3138
G1 X94.418 Y124.685 E18.40209
G1 X94.276 Y121.929 E18.49158
G1 X94.192 Y120.829 E18.52736
G1 X94.161 Y120.107 E18.55079
G1 X94.16 Y117.569 E18.6331
G1 X94.17 Y116.866 E18.6559
G1 X94.217 Y116.367 E18.67215
G1 X94.343 Y115.881 E18.68843
G1 X94.544 Y115.422 E18.70468
G1 X94.816 Y115 E18.72096
G1 X95.206 Y114.576 E18.73964
G1 X95.781 Y114.055 E18.76481
G1 X97.802 Y112.172 E18.85438
G1 X99.761 Y110.239 E18.94363
G1 X101.664 Y108.253 E19.03283
G1 X103.493 Y106.232 E19.12122
G1 X105.282 Y104.139 E19.21051
G1 X106.972 Y102.048 E19.29769
G1 X108.661 Y99.828 E19.38815
G1 X110.259 Y97.602 E19.47701
G1 X111.764 Y95.373 E19.56423
G1 X113.268 Y93.007 E19.65515
G1 X114.643 Y90.698 E19.7423
G1 X115.994 Y88.282 E19.83206
G1 X117.27 Y85.837 E19.9215
G1 X118.451 Y83.409 E20.00905
G1 X119.589 Y80.891 E20.09866
G1 X120.65 Y78.36 E20.18766
G1 X121.63 Y75.811 E20.27622
G1 X122.541 Y73.232 E20.36492
G1 X123.538 Y70.104 E20.47138
G1 X123.701 Y69.561 E20.48976
G1 X123.883 Y69.094 E20.50602
G1 F1500 E15.00602
;MESH:12.stl
G0 F2160 X126.691 Y74.187
G0 X126.686 Y75.023
G0 X126.802 Y81.634
G0 X124.021 Y129.664
G0 X124.805 Y131.873
G0 X126.143 Y133.782
G0 X128.024 Y136.034
G0 X130.295 Y138.389
G0 X132.011 Y139.995
G0 X142.071 Y148.814
G0 X146.586 Y165.182
;TYPE:WALL-INNER
G1 F1500 E20.50602
G1 F900 X145.934 Y164.739 E20.53158
G1 X145.373 Y164.562 E20.55066
G1 X144.677 Y164.495 E20.57333
G1 X144.52 Y164.485 E20.57843
G1 X143.788 Y164.552 E20.60227
G1 X143.163 Y164.741 E20.62344
G1 X142.558 Y165.182 E20.64772
G1 X142.232 Y165.782 E20.66987
G1 X142.085 Y166.467 E20.69259
G1 X142.043 Y167.2 E20.7164
G1 X142.121 Y167.938 E20.74046
G1 X142.473 Y168.656 E20.76639
G1 X143.068 Y169.149 E20.79145
G1 X143.767 Y169.386 E20.81539
G1 X144.508 Y169.449 E20.8395
G1 X145.242 Y169.392 E20.86338
G1 X145.97 Y169.155 E20.8882
G1 X146.504 Y168.722 E20.9105
G1 X146.854 Y168.181 E20.93139
G1 X147.048 Y167.4 E20.95749
G1 X147.061 Y166.646 E20.98194
G1 X146.936 Y165.872 E21.00737
G1 X146.586 Y165.182 E21.03246
G0 F2160 X146.353 Y165.387
G1 F900 X145.802 Y165.012 E21.05407
G1 X145.313 Y164.858 E21.0707
G1 X144.653 Y164.794 E21.0922
G1 X144.524 Y164.786 E21.09639
G1 X143.846 Y164.848 E21.11847
G1 X143.299 Y165.013 E21.137
G1 X142.789 Y165.385 E21.15747
G1 X142.516 Y165.887 E21.176
G1 X142.383 Y166.507 E21.19656
G1 X142.344 Y167.193 E21.21885
G1 X142.414 Y167.854 E21.2404
G1 X142.714 Y168.466 E21.2625
G1 X143.217 Y168.883 E21.28369
G1 X143.829 Y169.09 E21.30464
G1 X144.509 Y169.148 E21.32677
G1 X145.183 Y169.096 E21.3487
G1 X145.824 Y168.887 E21.37056
G1 X146.278 Y168.519 E21.38951
G1 X146.575 Y168.06 E21.40724
G1 X146.749 Y167.361 E21.4306
G1 X146.761 Y166.668 E21.45308
G1 X146.647 Y165.966 E21.47614
G1 X146.353 Y165.387 E21.4972
G0 F2160 X146.12 Y165.592
G1 F900 X145.67 Y165.285 E21.51486
G1 X145.253 Y165.154 E21.52904
G1 X144.629 Y165.093 E21.54937
G1 X144.529 Y165.087 E21.55262
G1 X143.903 Y165.144 E21.573
G1 X143.435 Y165.285 E21.58885
G1 X143.02 Y165.588 E21.60552
G1 X142.8 Y165.992 E21.62043
G1 X142.681 Y166.547 E21.63884
G1 X142.645 Y167.186 E21.65959
G1 X142.707 Y167.77 E21.67864
G1 X142.955 Y168.276 E21.69691
G1 X143.366 Y168.617 E21.71423
G1 X143.891 Y168.794 E21.7322
G1 X144.51 Y168.847 E21.75234
G1 X145.124 Y168.8 E21.77231
G1 X145.678 Y168.619 E21.79121
G1 X146.052 Y168.316 E21.80682
G1 X146.296 Y167.939 E21.82139
G1 X146.45 Y167.322 E21.84201
G1 X146.461 Y166.69 E21.86251
