;FLAVOR:Marlin
;TIME:1171
;Filament used: 0.404245m, 0m
;Layer height: 0.1
;MINX:94.05
;MINY:102.65
;MINZ:0.2
;MAXX:140.95
;MAXY:129.55
;MAXZ:2.8
;POSTPROCESSED
;Generated with Cura_SteamEngine 4.8.0
T0
M140 S60
M105
M190 S60
M104 S200
M105
M109 S200
M82 ;absolute extrusion mode
M201 X500.00 Y500.00 Z100.00 E5000.00 	;Setup machine max acceleration
M203 X500.00 Y500.00 Z10.00 E50.00 	;Setup machine max feedrate
M204 P500.00 R1000.00 T500.00 		;Setup Print/Retract/Travel acceleration
M205 X8.00 Y8.00 Z0.40 E5.00 		;Setup Jerk
M220 S100 				;Reset Feedrate
M221 S100 				;Reset Flowrate
G28				;Home the Machine
#G29 				;Bed Level
G92 E0
M300 P150 S587
G92 E0
G1 F1500 E-5.5
;LAYER_COUNT:27
;LAYER:0
M107
G0 F2160 X95.306 Y104.021 Z0.2
;TYPE:SKIRT
G1 F1500 E0
G1 F900 X95.686 Y103.68 E0.01274
G1 X96.275 Y103.273 E0.0306
G1 X96.739 Y103.026 E0.04371
G1 X97.321 Y102.831 E0.05902
G1 X97.885 Y102.716 E0.07338
G1 X98.452 Y102.66 E0.08759
G1 X99.112 Y102.65 E0.10406
G1 X135.846 Y102.65 E1.02039
G1 X136.54 Y102.66 E1.0377
G1 X137.116 Y102.717 E1.05214
G1 X137.376 Y102.765 E1.05874
G1 X138.005 Y102.944 E1.07505
G1 X138.233 Y103.033 E1.08116
G1 X138.706 Y103.261 E1.09425
G1 X139.165 Y103.565 E1.10799
G1 X139.573 Y103.896 E1.12109
G1 X140.002 Y104.386 E1.13734
G1 X140.318 Y104.858 E1.15151
G1 X140.567 Y105.32 E1.1646
G1 X140.767 Y105.913 E1.18021
G1 X140.882 Y106.473 E1.19447
G1 X140.94 Y107.05 E1.20894
G1 X140.95 Y107.703 E1.22523
G1 X140.95 Y124.447 E1.64291
G1 X140.94 Y125.14 E1.6602
G1 X140.883 Y125.712 E1.67454
G1 X140.837 Y125.963 E1.6809
G1 X140.669 Y126.567 E1.69654
G1 X140.58 Y126.801 E1.70279
G1 X140.356 Y127.277 E1.71591
G1 X140.023 Y127.78 E1.73096
G1 X139.691 Y128.186 E1.74404
G1 X139.195 Y128.615 E1.7604
G1 X138.726 Y128.926 E1.77444
G1 X138.262 Y129.173 E1.78755
G1 X137.679 Y129.369 E1.80289
G1 X137.145 Y129.479 E1.81649
G1 X136.482 Y129.542 E1.83311
G1 X135.882 Y129.55 E1.84807
G1 X99.152 Y129.55 E2.76431
G1 X98.475 Y129.54 E2.7812
G1 X97.854 Y129.478 E2.79676
G1 X97.614 Y129.433 E2.80286
G1 X96.995 Y129.256 E2.81892
G1 X96.767 Y129.167 E2.82502
G1 X96.294 Y128.939 E2.83812
G1 X95.846 Y128.643 E2.85151
G1 X95.438 Y128.312 E2.86462
G1 X95.054 Y127.882 E2.879
G1 X94.67 Y127.321 E2.89596
G1 X94.424 Y126.857 E2.90906
G1 X94.222 Y126.25 E2.92502
G1 X94.114 Y125.701 E2.93898
G1 X94.06 Y125.144 E2.95293
G1 X94.05 Y124.458 E2.97005
G1 X94.05 Y107.741 E3.38706
G1 X94.06 Y107.059 E3.40407
G1 X94.117 Y106.484 E3.41848
G1 X94.165 Y106.224 E3.42508
G1 X94.339 Y105.608 E3.44105
G1 X94.427 Y105.38 E3.44714
G1 X94.653 Y104.906 E3.46024
G1 X94.972 Y104.426 E3.47462
G1 X95.306 Y104.021 E3.48771
G0 F2160 X95.538 Y104.213
G1 F900 X95.979 Y103.832 E3.50225
G1 X96.436 Y103.526 E3.51597
G1 X96.88 Y103.292 E3.52849
G1 X97.391 Y103.123 E3.54192
G1 X97.938 Y103.011 E3.55585
G1 X98.456 Y102.96 E3.56883
G1 X99.116 Y102.95 E3.5853
G1 X135.841 Y102.95 E4.5014
G1 X136.535 Y102.96 E4.51872
G1 X137.062 Y103.012 E4.53193
G1 X137.322 Y103.06 E4.53852
G1 X137.895 Y103.224 E4.55339
G1 X138.123 Y103.313 E4.5595
G1 X138.77 Y103.657 E4.57777
G1 X138.994 Y103.812 E4.58457
G1 X139.383 Y104.129 E4.59709
G1 X139.758 Y104.561 E4.61136
G1 X140.065 Y105.02 E4.62513
G1 X140.302 Y105.463 E4.63766
G1 X140.476 Y105.983 E4.65134
G1 X140.587 Y106.528 E4.66522
G1 X140.64 Y107.055 E4.67843
G1 X140.65 Y107.708 E4.69472
G1 X140.65 Y124.442 E5.11215
G1 X140.64 Y125.135 E5.12944
G1 X140.588 Y125.658 E5.14255
G1 X140.542 Y125.909 E5.14892
G1 X140.388 Y126.461 E5.16321
G1 X140.299 Y126.695 E5.16946
G1 X140.084 Y127.148 E5.18197
G1 X139.777 Y127.608 E5.19576
G1 X139.458 Y127.995 E5.20827
G1 X139.021 Y128.371 E5.22265
G1 X138.565 Y128.673 E5.2363
G1 X138.121 Y128.907 E5.24882
G1 X137.609 Y129.077 E5.26227
G1 X137.09 Y129.184 E5.27549
G1 X136.478 Y129.242 E5.29083
G1 X135.878 Y129.25 E5.3058
G1 X99.156 Y129.25 E6.22183
G1 X98.479 Y129.24 E6.23872
G1 X97.909 Y129.183 E6.25301
G1 X97.669 Y129.138 E6.2591
G1 X97.105 Y128.976 E6.27374
G1 X96.877 Y128.887 E6.27984
G1 X96.23 Y128.544 E6.29811
G1 X96.016 Y128.396 E6.3046
G1 X95.628 Y128.079 E6.3171
G1 X95.293 Y127.702 E6.32968
G1 X94.923 Y127.16 E6.34605
G1 X94.689 Y126.717 E6.35855
G1 X94.515 Y126.182 E6.37258
G1 X94.409 Y125.648 E6.38616
G1 X94.36 Y125.14 E6.39889
G1 X94.35 Y124.454 E6.41601
G1 X94.35 Y107.746 E6.83279
G1 X94.36 Y107.064 E6.8498
G1 X94.412 Y106.538 E6.86299
G1 X94.46 Y106.278 E6.86958
G1 X94.619 Y105.716 E6.88415
G1 X94.707 Y105.488 E6.89025
G1 X94.925 Y105.036 E6.90277
G1 X95.218 Y104.599 E6.91589
G1 X95.538 Y104.213 E6.9284
G1 F1500 E1.4284
;MESH:Pedro.stl
G0 F2160 X98.326 Y105.457
G0 X98.546 Y106.57
G0 X113.07 Y120.843
G0 X114.204 Y121.692
G0 X115.495 Y122.272
G0 X116.179 Y122.455
G0 X117.588 Y122.588
G0 X118.295 Y122.542
G0 X119.673 Y122.216
G0 X120.819 Y121.66
G0 X122.101 Y120.764
G0 X122.031 Y120.693
;TYPE:WALL-INNER
G1 F1500 E6.9284
G1 F900 X122.503 Y120.171 E6.94596
G1 X122.917 Y119.601 E6.96353
G1 X123.268 Y118.989 E6.98113
G1 X123.549 Y118.343 E6.9987
G1 X123.757 Y117.67 E7.01627
G1 X123.89 Y116.978 E7.03385
G1 X123.948 Y116.277 E7.0514
G1 X123.93 Y115.573 E7.06896
G1 X123.834 Y114.874 E7.08656
G1 X123.661 Y114.191 E7.10414
G1 X123.417 Y113.53 E7.12172
G1 X123.101 Y112.901 E7.13928
G1 X122.719 Y112.308 E7.15687
G1 X122.274 Y111.762 E7.17444
G1 X121.773 Y111.267 E7.19201
G1 X121.22 Y110.829 E7.20961
G1 X120.623 Y110.456 E7.22717
G1 X119.989 Y110.149 E7.24474
G1 X119.326 Y109.913 E7.26229
G1 X118.639 Y109.751 E7.2799
G1 X117.94 Y109.664 E7.29747
G1 X117.236 Y109.655 E7.31504
G1 X116.535 Y109.722 E7.3326
G1 X115.845 Y109.865 E7.35018
G1 X115.175 Y110.082 E7.36775
G1 X114.533 Y110.373 E7.38533
G1 X113.925 Y110.729 E7.40291
G1 X113.36 Y111.152 E7.42051
G1 X112.845 Y111.633 E7.43809
G1 X112.386 Y112.167 E7.45566
G1 X111.988 Y112.748 E7.47322
G1 X111.655 Y113.369 E7.4908
G1 X111.393 Y114.024 E7.5084
G1 X111.203 Y114.702 E7.52596
G1 X111.089 Y115.39 E7.54336
G1 X111.059 Y115.754 E7.55247
G1 X111.059 Y116.453 E7.56991
G1 X111.135 Y117.153 E7.58747
G1 X111.288 Y117.841 E7.60505
G1 X111.515 Y118.507 E7.6226
G1 X111.813 Y119.146 E7.64019
G1 X112.18 Y119.748 E7.65778
G1 X112.609 Y120.306 E7.67534
G1 X113.097 Y120.814 E7.69291
G1 X113.637 Y121.265 E7.71046
G1 X114.224 Y121.658 E7.72808
G1 X114.85 Y121.981 E7.74565
G1 X115.507 Y122.234 E7.76322
G1 X116.187 Y122.416 E7.78078
G1 X116.884 Y122.521 E7.79836
G1 X117.588 Y122.549 E7.81593
G1 X118.291 Y122.503 E7.83351
G1 X118.985 Y122.378 E7.8511
G1 X119.66 Y122.179 E7.86865
G1 X120.31 Y121.906 E7.88624
G1 X120.926 Y121.565 E7.9038
G1 X121.502 Y121.16 E7.92137
G1 X122.031 Y120.693 E7.93897
G0 F2160 X121.855 Y120.515
;TYPE:WALL-OUTER
G1 F900 X122.309 Y120.013 E7.95585
G1 X122.707 Y119.465 E7.97275
G1 X123.044 Y118.877 E7.98965
G1 X123.314 Y118.256 E8.00655
G1 X123.514 Y117.609 E8.02344
G1 X123.642 Y116.944 E8.04033
G1 X123.698 Y116.27 E8.0572
G1 X123.68 Y115.593 E8.0741
G1 X123.588 Y114.922 E8.09099
G1 X123.422 Y114.265 E8.1079
G1 X123.187 Y113.63 E8.12479
G1 X122.884 Y113.025 E8.14166
G1 X122.516 Y112.455 E8.15859
G1 X122.089 Y111.93 E8.17547
G1 X121.607 Y111.455 E8.19235
G1 X121.076 Y111.034 E8.20925
G1 X120.502 Y110.675 E8.22614
G1 X119.892 Y110.38 E8.24305
G1 X119.255 Y110.153 E8.25991
G1 X118.595 Y109.997 E8.27683
G1 X117.923 Y109.914 E8.29372
G1 X117.246 Y109.905 E8.31061
G1 X116.572 Y109.97 E8.3275
G1 X115.909 Y110.107 E8.34439
G1 X115.265 Y110.316 E8.36128
G1 X114.648 Y110.595 E8.37817
G1 X114.064 Y110.938 E8.39507
G1 X113.521 Y111.344 E8.41198
G1 X113.026 Y111.806 E8.42887
G1 X112.585 Y112.32 E8.44576
G1 X112.202 Y112.878 E8.46265
G1 X111.882 Y113.475 E8.47954
G1 X111.63 Y114.104 E8.49645
G1 X111.447 Y114.756 E8.51334
G1 X111.337 Y115.421 E8.53015
G1 X111.309 Y115.764 E8.53874
G1 X111.309 Y116.439 E8.55557
G1 X111.382 Y117.112 E8.57246
G1 X111.529 Y117.773 E8.58935
G1 X111.747 Y118.414 E8.60624
G1 X112.034 Y119.028 E8.62315
G1 X112.386 Y119.606 E8.64003
G1 X112.799 Y120.143 E8.65693
G1 X113.268 Y120.631 E8.67381
G1 X113.787 Y121.065 E8.69069
G1 X114.351 Y121.442 E8.70761
G1 X114.953 Y121.753 E8.72452
G1 X115.584 Y121.996 E8.74138
G1 X116.238 Y122.171 E8.75827
G1 X116.908 Y122.272 E8.77517
G1 X117.585 Y122.299 E8.79207
G1 X118.26 Y122.254 E8.80895
G1 X118.927 Y122.134 E8.82585
G1 X119.576 Y121.943 E8.84273
G1 X120.201 Y121.681 E8.85964
G1 X120.793 Y121.353 E8.87652
G1 X121.347 Y120.963 E8.89342
G1 X121.855 Y120.515 E8.91031
G0 F2160 X121.989 Y120.367
G0 X122.233 Y120.588
G0 X122.248 Y120.602
G0 X136.672 Y106.693
G0 X136.71 Y106.601
;TYPE:WALL-INNER
G1 F900 X136.884 Y106.718 E8.91555
G1 X137.002 Y106.898 E8.92091
G1 X137.05 Y107.142 E8.92712
G1 X137.05 Y125.059 E9.37406
G1 X136.999 Y125.31 E9.38045
G1 X136.882 Y125.484 E9.38568
G1 X136.702 Y125.602 E9.39105
G1 X136.458 Y125.65 E9.39725
G1 X98.541 Y125.65 E10.34309
G1 X98.29 Y125.599 E10.34948
G1 X98.116 Y125.482 E10.35471
G1 X97.998 Y125.302 E10.36008
G1 X97.95 Y125.058 E10.36629
G1 X97.95 Y107.141 E10.81323
G1 X98.001 Y106.89 E10.81962
G1 X98.118 Y106.716 E10.82485
G1 X98.298 Y106.598 E10.83022
G1 X98.542 Y106.55 E10.83642
G1 X136.459 Y106.55 E11.78226
G1 X136.71 Y106.601 E11.78865
G0 F2160 X136.808 Y106.366
;TYPE:WALL-OUTER
G1 F900 X137.066 Y106.54 E11.79641
G1 X137.237 Y106.799 E11.80416
G1 X137.3 Y107.119 E11.81229
G1 X137.3 Y125.084 E12.26043
G1 X137.234 Y125.408 E12.26868
G1 X137.06 Y125.666 E12.27644
G1 X136.801 Y125.837 E12.28418
G1 X136.481 Y125.9 E12.29232
G1 X98.516 Y125.9 E13.23936
G1 X98.192 Y125.834 E13.24761
G1 X97.934 Y125.66 E13.25537
G1 X97.763 Y125.401 E13.26311
G1 X97.7 Y125.081 E13.27125
G1 X97.7 Y107.116 E13.71939
G1 X97.766 Y106.792 E13.72764
G1 X97.94 Y106.534 E13.7354
G1 X98.199 Y106.363 E13.74314
G1 X98.519 Y106.3 E13.75128
G1 X136.484 Y106.3 E14.69832
G1 X136.808 Y106.366 E14.70656
G0 F2160 X136.973 Y106.477
G0 X136.788 Y106.75
G0 X136.676 Y106.928
;TYPE:SKIN
G1 F900 X136.76 Y107.168 E14.71291
G1 X136.76 Y125.031 E15.1585
G1 X136.672 Y125.276 E15.165
G1 X136.432 Y125.36 E15.17134
G1 X98.569 Y125.36 E16.11583
G1 X98.324 Y125.272 E16.12233
G1 X98.24 Y125.032 E16.12867
G1 X98.24 Y107.169 E16.57427
G1 X98.328 Y106.924 E16.58076
G1 X98.568 Y106.84 E16.5871
G1 X136.431 Y106.84 E17.5316
G1 X136.676 Y106.928 E17.53809
G0 F2160 X123.684 Y113.414
G1 F900 X123.353 Y112.757 E17.55644
G1 X122.954 Y112.138 E17.57481
G1 X122.489 Y111.567 E17.59318
G1 X121.966 Y111.05 E17.61153
G1 X121.388 Y110.591 E17.62994
G1 X120.764 Y110.202 E17.64828
G1 X120.101 Y109.881 E17.66666
G1 X119.408 Y109.635 E17.685
G1 X118.691 Y109.465 E17.70338
G1 X117.96 Y109.374 E17.72176
G1 X117.224 Y109.365 E17.74012
G1 X116.492 Y109.434 E17.75846
G1 X115.771 Y109.584 E17.77683
G1 X115.07 Y109.811 E17.79521
G1 X114.4 Y110.116 E17.81358
G1 X113.764 Y110.487 E17.83194
G1 X113.174 Y110.929 E17.85033
G1 X112.636 Y111.432 E17.8687
G1 X112.156 Y111.99 E17.88707
G1 X111.74 Y112.597 E17.90542
G1 X111.392 Y113.247 E17.92381
G1 X111.118 Y113.931 E17.94219
G1 X110.919 Y114.639 E17.96054
G1 X110.801 Y115.355 E17.97864
G1 X110.769 Y115.742 E17.98833
G1 X110.769 Y116.469 E18.00646
G1 X110.849 Y117.2 E18.02481
G1 X111.008 Y117.92 E18.0432
G1 X111.246 Y118.615 E18.06152
G1 X111.557 Y119.283 E18.07991
G1 X111.94 Y119.912 E18.09828
G1 X112.389 Y120.495 E18.11663
G1 X112.899 Y121.027 E18.13502
G1 X113.463 Y121.497 E18.15333
G1 X114.077 Y121.908 E18.17176
G1 X114.731 Y122.246 E18.19012
G1 X115.418 Y122.51 E18.20848
G1 X116.127 Y122.7 E18.22679
G1 X116.857 Y122.811 E18.24521
G1 X117.592 Y122.839 E18.26356
G1 X118.326 Y122.791 E18.28191
G1 X119.052 Y122.66 E18.30031
G1 X119.757 Y122.453 E18.31864
G1 X120.437 Y122.167 E18.33704
G1 X121.08 Y121.811 E18.35538
G1 X121.682 Y121.388 E18.37373
G1 X122.236 Y120.9 E18.39215
G1 X122.729 Y120.354 E18.4105
G1 X123.161 Y119.759 E18.42884
G1 X123.527 Y119.119 E18.44723
G1 X123.821 Y118.444 E18.4656
G1 X124.039 Y117.74 E18.48398
G1 X124.178 Y117.017 E18.50235
G1 X124.238 Y116.285 E18.52067
G1 X124.22 Y115.55 E18.53901
G1 X124.119 Y114.818 E18.55744
G1 X123.938 Y114.105 E18.57579
G1 X123.684 Y113.414 E18.59415
G0 F2160 X136.624 Y107.35
G1 F900 X136.248 Y106.974 E18.60742
G0 F2160 X135.824 Y106.974
G1 F900 X136.624 Y107.774 E18.63564
G0 F2160 X136.624 Y108.198
G1 F900 X135.4 Y106.974 E18.67882
G0 F2160 X134.976 Y106.974
G1 F900 X136.624 Y108.622 E18.73696
G0 F2160 X136.624 Y109.047
G1 F900 X134.551 Y106.974 E18.81009
G0 F2160 X134.127 Y106.974
G1 F900 X136.624 Y109.471 E18.89818
G0 F2160 X136.624 Y109.895
G1 F900 X133.703 Y106.974 E19.00122
G0 F2160 X133.279 Y106.974
G1 F900 X136.624 Y110.319 E19.11923
G0 F2160 X136.624 Y110.744
G1 F900 X132.854 Y106.974 E19.25222
G0 F2160 X132.43 Y106.974
G1 F900 X136.624 Y111.168 E19.40018
G0 F2160 X136.624 Y111.592
G1 F900 X132.006 Y106.974 E19.56309
G0 F2160 X131.581 Y106.974
G1 F900 X136.624 Y112.017 E19.741
G0 F2160 X136.624 Y112.441
G1 F900 X131.157 Y106.974 E19.93386
G0 F2160 X130.733 Y106.974
G1 F900 X136.624 Y112.865 E20.14168
G0 F2160 X136.624 Y113.289
G1 F900 X130.309 Y106.974 E20.36446
G0 F2160 X129.884 Y106.974
G1 F900 X136.624 Y113.714 E20.60223
G0 F2160 X136.624 Y114.138
G1 F900 X129.46 Y106.974 E20.85496
G0 F2160 X129.036 Y106.974
G1 F900 X136.624 Y114.562 E21.12265
G0 F2160 X136.624 Y114.986
G1 F900 X128.612 Y106.974 E21.40529
G0 F2160 X128.187 Y106.974
G1 F900 X136.624 Y115.411 E21.70293
G0 F2160 X136.624 Y115.835
G1 F900 X127.763 Y106.974 E22.01553
G0 F2160 X127.339 Y106.974
G1 F900 X136.624 Y116.259 E22.34308
G0 F2160 X136.624 Y116.683
G1 F900 X126.915 Y106.974 E22.68559
G0 F2160 X126.49 Y106.974
G1 F900 X136.624 Y117.108 E23.0431
G0 F2160 X136.624 Y117.532
G1 F900 X126.066 Y106.974 E23.41556
G0 F2160 X125.642 Y106.974
G1 F900 X136.624 Y117.956 E23.80298
G0 F2160 X136.624 Y118.38
G1 F900 X125.218 Y106.974 E24.20536
G0 F2160 X124.793 Y106.974
G1 F900 X136.624 Y118.805 E24.62273
G0 F2160 X136.624 Y119.229
G1 F900 X124.369 Y106.974 E25.05505
G0 F2160 X123.945 Y106.974
G1 F900 X136.624 Y119.653 E25.50234
G0 F2160 X136.624 Y120.078
G1 F900 X123.52 Y106.974 E25.96462
G0 F2160 X123.096 Y106.974
G1 F900 X136.624 Y120.502 E26.44186
G0 F2160 X136.624 Y120.926
G1 F900 X122.672 Y106.974 E26.93405
G0 F2160 X122.248 Y106.974
G1 F900 X136.624 Y121.35 E27.4412
G0 F2160 X136.624 Y121.775
G1 F900 X121.823 Y106.974 E27.96335
G0 F2160 X121.399 Y106.974
G1 F900 X136.624 Y122.199 E28.50045
G0 F2160 X136.624 Y122.623
G1 F900 X120.975 Y106.974 E29.05251
G0 F2160 X120.551 Y106.974
G1 F900 X136.624 Y123.047 E29.61953
G0 F2160 X136.624 Y123.472
G1 F900 X120.126 Y106.974 E30.20154
G0 F2160 X119.702 Y106.974
G1 F900 X136.624 Y123.896 E30.79851
G0 F2160 X136.624 Y124.32
G1 F900 X119.278 Y106.974 E31.41044
G0 F2160 X118.854 Y106.974
G1 F900 X136.624 Y124.744 E32.03732
G0 F2160 X136.581 Y125.126
G1 F900 X118.429 Y106.974 E32.67768
G0 F2160 X118.005 Y106.974
G1 F900 X121.687 Y110.656 E32.80758
G1 X121.74 Y110.709
G0 F2160 X120.559 Y109.952
G1 F900 X117.581 Y106.974 E32.91263
G0 F2160 X117.156 Y106.974
G1 F900 X119.819 Y109.636 E33.00656
G1 X119.872 Y109.689
G0 F2160 X119.206 Y109.448
G1 F900 X116.732 Y106.974 E33.09384
G0 F2160 X116.308 Y106.974
G1 F900 X118.658 Y109.325 E33.17676
G0 F2160 X118.173 Y109.264
G1 F900 X115.884 Y106.974 E33.25752
G0 F2160 X115.459 Y106.974
G1 F900 X117.72 Y109.235 E33.33729
G0 F2160 X117.291 Y109.23
G1 F900 X115.035 Y106.974 E33.41687
G0 F2160 X114.611 Y106.974
G1 F900 X116.896 Y109.259 E33.49748
G0 F2160 X116.508 Y109.296
G1 F900 X114.187 Y106.974 E33.57938
G0 F2160 X113.762 Y106.974
G1 F900 X116.154 Y109.366 E33.66377
G0 F2160 X115.802 Y109.438
G1 F900 X113.338 Y106.974 E33.75069
G0 F2160 X112.914 Y106.974
