;FLAVOR:Marlin
;TIME:10665
;Filament used: 3.75345m, 0m
;Layer height: 0.1
;MINX:53.05
;MINY:60.65
;MINZ:0.2
;MAXX:181.95
;MAXY:171.55
;MAXZ:2.8
;POSTPROCESSED
;Generated with Cura_SteamEngine 4.8.0
T0
M140 S60
M105
M190 S60
M104 S200
M105
M109 S200
M82 ;absolute extrusion mode
M201 X500.00 Y500.00 Z100.00 E5000.00 	;Setup machine max acceleration
M203 X500.00 Y500.00 Z10.00 E50.00 	;Setup machine max feedrate
M204 P500.00 R1000.00 T500.00 		;Setup Print/Retract/Travel acceleration
M205 X8.00 Y8.00 Z0.40 E5.00 		;Setup Jerk
M220 S100 				;Reset Feedrate
M221 S100 				;Reset Flowrate
G28				;Home the Machine
#G29 				;Bed Level
G92 E0
M300 P150 S587
G92 E0
G1 F1500 E-5.5
;LAYER_COUNT:27
;LAYER:0
M107
G0 F2160 X54.686 Y74.08 Z0.2
;TYPE:SKIRT
G1 F1500 E0
G1 F900 X55.275 Y73.673 E0.01786
G1 X55.739 Y73.426 E0.03097
G1 X56.321 Y73.231 E0.04628
G1 X56.855 Y73.121 E0.05988
G1 X57.174 Y73.076 E0.06792
G1 X58.334 Y72.964 E0.09699
G1 X58.561 Y72.946 E0.10267
G1 X61.271 Y72.651 E0.17067
G1 X63.992 Y72.276 E0.23919
G1 X66.652 Y71.832 E0.30646
G1 X69.351 Y71.303 E0.37507
G1 X72.021 Y70.702 E0.44334
G1 X74.667 Y70.026 E0.51146
G1 X77.267 Y69.283 E0.57892
G1 X79.897 Y68.453 E0.64771
G1 X82.475 Y67.554 E0.71582
G1 X85.019 Y66.586 E0.78372
G1 X87.516 Y65.557 E0.85109
G1 X90.047 Y64.428 E0.92022
G1 X92.506 Y63.246 E0.98828
G1 X94.916 Y62.003 E1.05592
G1 X96.181 Y61.309 E1.09191
G1 X96.508 Y61.136 E1.10114
G1 X96.989 Y60.927 E1.11422
G1 X97.616 Y60.765 E1.13038
G1 X98.234 Y60.673 E1.14596
G1 X98.518 Y60.658 E1.15306
G1 X99.118 Y60.65 E1.16803
G1 X135.851 Y60.65 E2.08433
G1 X136.549 Y60.661 E2.10175
G1 X137.12 Y60.718 E2.11606
G1 X137.633 Y60.82 E2.12911
G1 X138.136 Y60.973 E2.14223
G1 X138.534 Y61.158 E2.15317
G1 X139.397 Y61.627 E2.17768
G1 X141.876 Y62.93 E2.24754
G1 X144.287 Y64.112 E2.31452
G1 X146.813 Y65.263 E2.38376
G1 X149.309 Y66.317 E2.45135
G1 X151.858 Y67.305 E2.51954
G1 X154.448 Y68.229 E2.58814
G1 X157.016 Y69.064 E2.6555
G1 X159.65 Y69.838 E2.72398
G1 X162.281 Y70.531 E2.79185
G1 X164.97 Y71.161 E2.86075
G1 X167.595 Y71.693 E2.92756
G1 X170.329 Y72.171 E2.99679
G1 X173.002 Y72.56 E3.06417
G1 X175.734 Y72.878 E3.13278
G1 X176.638 Y72.957 E3.15542
G1 X177.816 Y73.074 E3.18495
G1 X178.379 Y73.166 E3.19918
G1 X179.005 Y73.344 E3.21541
G1 X179.233 Y73.433 E3.22152
G1 X179.706 Y73.661 E3.23462
G1 X180.165 Y73.965 E3.24835
G1 X180.573 Y74.296 E3.26146
G1 X181.002 Y74.786 E3.2777
G1 X181.318 Y75.258 E3.29187
G1 X181.567 Y75.72 E3.30496
G1 X181.767 Y76.313 E3.32057
G1 X181.882 Y76.873 E3.33484
G1 X181.94 Y77.45 E3.3493
G1 X181.95 Y78.103 E3.36559
G1 X181.95 Y94.847 E3.78327
G1 X181.94 Y95.54 E3.80056
G1 X181.883 Y96.116 E3.815
G1 X181.835 Y96.376 E3.8216
G1 X181.656 Y97.005 E3.83791
G1 X181.567 Y97.233 E3.84401
G1 X181.339 Y97.706 E3.85711
G1 X181.038 Y98.16 E3.8707
G1 X180.921 Y98.318 E3.87561
G1 X180.134 Y99.323 E3.90745
G1 X179.875 Y99.645 E3.91776
G1 X178.241 Y101.793 E3.98508
G1 X176.63 Y104.042 E4.05409
G1 X175.129 Y106.267 E4.12104
G1 X173.633 Y108.625 E4.1907
G1 X172.252 Y110.945 E4.25805
G1 X170.917 Y113.339 E4.32643
G1 X169.664 Y115.745 E4.39409
G1 X168.478 Y118.185 E4.46177
G1 X167.341 Y120.706 E4.53076
G1 X166.274 Y123.257 E4.59973
G1 X165.321 Y125.744 E4.66617
G1 X164.405 Y128.341 E4.73487
G1 X163.563 Y130.965 E4.80361
G1 X162.81 Y133.558 E4.87096
G1 X162.128 Y136.185 E4.93867
G1 X161.948 Y136.962 E4.95856
G1 X161.76 Y137.717 E4.97797
G1 X161.595 Y138.215 E4.99106
G1 X161.357 Y138.681 E5.00411
G1 X161.015 Y139.191 E5.01943
G1 X160.652 Y139.627 E5.03358
G1 X160.064 Y140.224 E5.05448
G1 X158.14 Y142.236 E5.12393
G1 X156.299 Y144.27 E5.19236
G1 X154.544 Y146.329 E5.25985
G1 X152.839 Y148.443 E5.3276
G1 X151.162 Y150.649 E5.39672
G1 X149.592 Y152.839 E5.46394
G1 X148.038 Y155.144 E5.53329
G1 X146.591 Y157.426 E5.60069
G1 X145.201 Y159.759 E5.66843
G1 X143.861 Y162.165 E5.73713
G1 X142.612 Y164.559 E5.80449
G1 X141.389 Y167.078 E5.87434
G1 X140.679 Y168.645 E5.91725
G1 X140.359 Y169.278 E5.93495
G1 X140.035 Y169.764 E5.94952
G1 X139.703 Y170.17 E5.9626
G1 X139.308 Y170.525 E5.97585
G1 X138.726 Y170.926 E5.99348
G1 X138.262 Y171.173 E6.00659
G1 X137.679 Y171.369 E6.02193
G1 X137.153 Y171.479 E6.03534
G1 X136.558 Y171.54 E6.05026
G1 X135.887 Y171.55 E6.067
G1 X99.153 Y171.55 E6.98333
G1 X98.475 Y171.54 E7.00025
G1 X97.854 Y171.478 E7.01581
G1 X97.23 Y171.338 E7.03177
G1 X96.599 Y171.114 E7.04847
G1 X94.199 Y170.023 E7.11423
G1 X91.697 Y168.97 E7.18195
G1 X89.127 Y167.969 E7.25075
G1 X86.581 Y167.067 E7.31813
G1 X83.944 Y166.211 E7.38729
G1 X81.361 Y165.454 E7.45443
G1 X78.722 Y164.759 E7.5225
G1 X76.046 Y164.136 E7.59104
G1 X73.39 Y163.595 E7.65866
G1 X70.664 Y163.123 E7.72767
G1 X68.004 Y162.737 E7.79472
G1 X65.275 Y162.42 E7.86325
G1 X62.551 Y162.181 E7.93146
G1 X59.813 Y162.019 E7.99988
G1 X58.072 Y161.967 E8.04333
G1 X57.372 Y161.938 E8.06081
G1 X56.623 Y161.834 E8.07967
G1 X55.995 Y161.656 E8.09595
G1 X55.767 Y161.567 E8.10206
G1 X55.294 Y161.339 E8.11516
G1 X54.819 Y161.023 E8.12939
G1 X54.413 Y160.69 E8.14249
G1 X53.989 Y160.2 E8.15865
G1 X53.674 Y159.727 E8.17283
G1 X53.426 Y159.264 E8.18593
G1 X53.219 Y158.635 E8.20245
G1 X53.115 Y158.109 E8.21582
G1 X53.06 Y157.544 E8.22998
G1 X53.05 Y156.858 E8.2471
G1 X53.05 Y140.153 E8.6638
G1 X53.06 Y139.46 E8.68109
G1 X53.118 Y138.88 E8.69563
G1 X53.267 Y138.148 E8.71427
G1 X53.813 Y135.472 E8.7824
G1 X54.282 Y132.793 E8.85024
G1 X54.673 Y130.097 E8.9182
G1 X54.994 Y127.362 E8.98689
G1 X55.233 Y124.644 E9.05495
G1 X55.397 Y121.905 E9.1234
G1 X55.482 Y119.202 E9.19086
G1 X55.491 Y116.464 E9.25916
G1 X55.422 Y113.723 E9.32756
G1 X55.276 Y110.987 E9.3959
G1 X55.055 Y108.289 E9.46343
G1 X54.755 Y105.571 E9.53164
G1 X54.377 Y102.858 E9.59997
G1 X53.927 Y100.182 E9.66766
G1 X53.392 Y97.468 E9.73667
G1 X53.343 Y97.248 E9.74229
G1 X53.174 Y96.432 E9.76308
G1 X53.116 Y96.113 E9.77116
G1 X53.06 Y95.546 E9.78538
G1 X53.05 Y94.858 E9.80254
G1 X53.05 Y78.141 E10.21955
G1 X53.06 Y77.459 E10.23656
G1 X53.117 Y76.884 E10.25098
G1 X53.165 Y76.624 E10.25757
G1 X53.339 Y76.008 E10.27354
G1 X53.427 Y75.78 E10.27963
G1 X53.653 Y75.306 E10.29273
G1 X53.972 Y74.826 E10.30711
G1 X54.306 Y74.421 E10.32021
G1 X54.686 Y74.08 E10.33294
G0 F2160 X54.979 Y74.232
G1 F900 X55.436 Y73.926 E10.34666
G1 X55.88 Y73.692 E10.35918
G1 X56.391 Y73.523 E10.37261
G1 X56.91 Y73.416 E10.38583
G1 X57.203 Y73.375 E10.39321
G1 X58.358 Y73.263 E10.42215
G1 X58.58 Y73.245 E10.42771
G1 X61.311 Y72.948 E10.49624
G1 X64.045 Y72.571 E10.56508
G1 X66.727 Y72.124 E10.63291
G1 X69.402 Y71.6 E10.7009
G1 X72.088 Y70.994 E10.76959
G1 X74.717 Y70.323 E10.83727
G1 X77.367 Y69.566 E10.90602
G1 X80.022 Y68.728 E10.97547
G1 X82.576 Y67.837 E11.04295
G1 X85.092 Y66.88 E11.11009
G1 X87.66 Y65.821 E11.17939
G1 X90.18 Y64.697 E11.24822
G1 X92.625 Y63.522 E11.31589
G1 X95.065 Y62.263 E11.38438
G1 X96.321 Y61.575 E11.4201
G1 X96.648 Y61.402 E11.42933
G1 X97.109 Y61.203 E11.44185
G1 X97.671 Y61.06 E11.45632
G1 X98.256 Y60.972 E11.47108
G1 X98.522 Y60.958 E11.47772
G1 X99.122 Y60.95 E11.49269
G1 X135.847 Y60.95 E12.4088
G1 X136.545 Y60.961 E12.42621
G1 X137.066 Y61.013 E12.43927
G1 X137.568 Y61.113 E12.45204
G1 X138.048 Y61.26 E12.46457
G1 X138.391 Y61.421 E12.47402
G1 X139.297 Y61.914 E12.49975
G1 X141.71 Y63.183 E12.56776
G1 X144.165 Y64.386 E12.63595
G1 X146.677 Y65.53 E12.70481
G1 X149.231 Y66.609 E12.77397
G1 X151.753 Y67.587 E12.84145
G1 X154.328 Y68.505 E12.90964
G1 X156.935 Y69.352 E12.97802
G1 X159.572 Y70.128 E13.04659
G1 X162.209 Y70.822 E13.11461
G1 X164.906 Y71.454 E13.18371
G1 X167.557 Y71.991 E13.25118
G1 X170.271 Y72.466 E13.31991
G1 X172.956 Y72.856 E13.38759
G1 X175.707 Y73.177 E13.45668
G1 X176.608 Y73.255 E13.47924
G1 X177.786 Y73.372 E13.50877
G1 X178.324 Y73.461 E13.52237
G1 X178.895 Y73.624 E13.53718
G1 X179.123 Y73.713 E13.54329
G1 X179.77 Y74.057 E13.56157
G1 X179.994 Y74.212 E13.56836
G1 X180.383 Y74.529 E13.58088
G1 X180.758 Y74.961 E13.59515
G1 X181.065 Y75.42 E13.60893
G1 X181.302 Y75.863 E13.62146
G1 X181.476 Y76.383 E13.63514
G1 X181.587 Y76.928 E13.64901
G1 X181.64 Y77.455 E13.66222
G1 X181.65 Y78.108 E13.67851
G1 X181.65 Y94.842 E14.09595
G1 X181.64 Y95.535 E14.11323
G1 X181.588 Y96.062 E14.12644
G1 X181.54 Y96.322 E14.13304
G1 X181.376 Y96.895 E14.14791
G1 X181.287 Y97.123 E14.15401
G1 X180.94 Y97.775 E14.17244
G1 X180.685 Y98.133 E14.1834
G1 X179.901 Y99.134 E14.21512
G1 X179.643 Y99.454 E14.22537
G1 X177.99 Y101.627 E14.29348
G1 X176.392 Y103.858 E14.36193
G1 X174.86 Y106.129 E14.43027
G1 X173.392 Y108.444 E14.49865
G1 X171.993 Y110.794 E14.56687
G1 X170.658 Y113.189 E14.63527
G1 X169.404 Y115.595 E14.70295
G1 X168.177 Y118.121 E14.773
G1 X167.078 Y120.558 E14.83969
G1 X165.998 Y123.14 E14.9095
G1 X165.034 Y125.654 E14.97667
G1 X164.117 Y128.254 E15.04544
G1 X163.283 Y130.853 E15.11353
G1 X162.523 Y133.472 E15.18156
G1 X161.826 Y136.158 E15.25078
G1 X161.657 Y136.889 E15.26949
G1 X161.469 Y137.644 E15.2889
G1 X161.309 Y138.12 E15.30143
G1 X161.043 Y138.619 E15.31554
G1 X160.77 Y139.019 E15.32762
G1 X160.438 Y139.417 E15.34054
G1 X159.816 Y140.049 E15.36266
G1 X157.931 Y142.019 E15.43068
G1 X156.092 Y144.052 E15.49906
G1 X154.313 Y146.139 E15.56747
G1 X152.581 Y148.286 E15.63628
G1 X150.923 Y150.466 E15.7046
G1 X149.343 Y152.671 E15.77227
G1 X147.797 Y154.965 E15.84128
G1 X146.334 Y157.271 E15.9094
G1 X144.942 Y159.608 E15.97725
G1 X143.601 Y162.014 E16.04596
G1 X142.337 Y164.437 E16.11414
G1 X141.127 Y166.93 E16.18326
G1 X140.408 Y168.517 E16.22672
G1 X140.103 Y169.121 E16.2436
G1 X139.789 Y169.592 E16.25772
G1 X139.471 Y169.98 E16.27024
G1 X139.017 Y170.371 E16.28518
G1 X138.565 Y170.673 E16.29874
G1 X138.121 Y170.907 E16.31126
G1 X137.609 Y171.077 E16.32472
G1 X137.096 Y171.184 E16.33779
G1 X136.554 Y171.24 E16.35139
G1 X135.883 Y171.25 E16.36813
G1 X99.158 Y171.25 E17.28423
G1 X98.48 Y171.24 E17.30115
G1 X97.909 Y171.183 E17.31546
G1 X97.319 Y171.051 E17.33055
G1 X96.723 Y170.841 E17.34631
G1 X94.305 Y169.742 E17.41256
G1 X91.804 Y168.69 E17.48025
G1 X89.231 Y167.687 E17.54913
G1 X86.669 Y166.779 E17.61694
G1 X84.089 Y165.943 E17.68459
G1 X81.416 Y165.158 E17.75408
G1 X78.794 Y164.468 E17.82172
G1 X76.101 Y163.841 E17.89069
G1 X73.435 Y163.298 E17.95856
G1 X70.721 Y162.828 E18.02727
G1 X68.044 Y162.44 E18.09475
G1 X65.303 Y162.121 E18.16358
G1 X62.594 Y161.883 E18.23142
G1 X59.841 Y161.721 E18.30021
G1 X58.085 Y161.667 E18.34403
G1 X57.385 Y161.638 E18.36151
G1 X56.677 Y161.539 E18.37934
G1 X56.105 Y161.376 E18.39418
G1 X55.877 Y161.287 E18.40029
G1 X55.217 Y160.935 E18.41895
G1 X54.991 Y160.777 E18.42582
G1 X54.604 Y160.457 E18.43835
G1 X54.233 Y160.026 E18.45254
G1 X53.927 Y159.566 E18.46632
G1 X53.692 Y159.123 E18.47883
G1 X53.512 Y158.569 E18.49336
G1 X53.41 Y158.055 E18.50643
G1 X53.36 Y157.54 E18.51934
G1 X53.35 Y156.854 E18.53645
G1 X53.35 Y140.158 E18.95293
G1 X53.36 Y139.465 E18.97022
G1 X53.413 Y138.935 E18.98351
G1 X53.56 Y138.212 E19.00191
G1 X54.104 Y135.546 E19.06979
G1 X54.581 Y132.821 E19.1388
G1 X54.97 Y130.142 E19.20633
G1 X55.293 Y127.386 E19.27555
G1 X55.534 Y124.651 E19.34403
G1 X55.696 Y121.932 E19.41198
G1 X55.782 Y119.213 E19.47984
G1 X55.791 Y116.457 E19.54859
G1 X55.723 Y113.735 E19.61651
G1 X55.573 Y110.939 E19.68636
G1 X55.354 Y108.268 E19.75321
G1 X55.052 Y105.534 E19.82182
G1 X54.673 Y102.805 E19.89055
G1 X54.224 Y100.141 E19.95794
G1 X53.688 Y97.417 E20.0272
G1 X53.637 Y97.187 E20.03307
G1 X53.469 Y96.378 E20.05369
G1 X53.411 Y96.059 E20.06177
G1 X53.36 Y95.542 E20.07473
G1 X53.35 Y94.854 E20.0919
G1 X53.35 Y78.146 E20.50868
G1 X53.36 Y77.464 E20.52569
G1 X53.412 Y76.938 E20.53888
G1 X53.46 Y76.678 E20.54547
G1 X53.619 Y76.116 E20.56004
G1 X53.707 Y75.888 E20.56614
G1 X53.925 Y75.436 E20.57866
G1 X54.218 Y74.999 E20.59178
G1 X54.538 Y74.613 E20.60429
G1 X54.979 Y74.232 E20.61883
G1 F1500 E15.11883
;MESH:Ht.stl(9)
G0 F2160 X57.323 Y75.858
G0 X57.543 Y76.969
G0 X72.07 Y91.243
G0 X73.204 Y92.092
G0 X74.495 Y92.672
G0 X75.179 Y92.855
G0 X76.588 Y92.988
G0 X77.295 Y92.942
G0 X78.673 Y92.616
G0 X79.327 Y92.341
G0 X80.006 Y91.917
G0 X81.101 Y91.164
G0 X81.031 Y91.093
;TYPE:WALL-INNER
G1 F1500 E20.61883
G1 F900 X81.503 Y90.571 E20.63638
G1 X81.917 Y90.001 E20.65396
G1 X82.268 Y89.389 E20.67156
G1 X82.549 Y88.743 E20.68913
G1 X82.757 Y88.07 E20.7067
G1 X82.89 Y87.378 E20.72428
G1 X82.948 Y86.677 E20.74182
G1 X82.93 Y85.973 E20.75939
G1 X82.834 Y85.274 E20.77699
G1 X82.661 Y84.591 E20.79457
G1 X82.417 Y83.93 E20.81214
G1 X82.101 Y83.301 E20.8297
G1 X81.719 Y82.708 E20.8473
G1 X81.274 Y82.162 E20.86487
G1 X80.773 Y81.667 E20.88244
G1 X80.22 Y81.229 E20.90004
G1 X79.623 Y80.856 E20.9176
G1 X78.989 Y80.549 E20.93517
G1 X78.326 Y80.313 E20.95272
G1 X77.639 Y80.151 E20.97033
G1 X76.94 Y80.064 E20.9879
G1 X76.236 Y80.055 E21.00546
G1 X75.535 Y80.122 E21.02303
G1 X74.845 Y80.265 E21.04061
G1 X74.175 Y80.482 E21.05818
G1 X73.533 Y80.773 E21.07576
G1 X72.925 Y81.131 E21.09336
G1 X72.362 Y81.552 E21.1109
G1 X71.845 Y82.033 E21.12851
G1 X71.386 Y82.567 E21.14608
G1 X70.988 Y83.148 E21.16364
G1 X70.655 Y83.769 E21.18122
G1 X70.393 Y84.424 E21.19882
G1 X70.203 Y85.102 E21.21638
G1 X70.089 Y85.79 E21.23378
G1 X70.059 Y86.154 E21.24289
G1 X70.059 Y86.853 E21.26033
G1 X70.135 Y87.553 E21.27789
G1 X70.288 Y88.241 E21.29547
G1 X70.515 Y88.907 E21.31302
G1 X70.813 Y89.546 E21.33061
G1 X71.18 Y90.148 E21.3482
G1 X71.609 Y90.706 E21.36576
G1 X72.097 Y91.214 E21.38333
G1 X72.637 Y91.665 E21.40088
G1 X73.224 Y92.058 E21.4185
G1 X73.85 Y92.381 E21.43607
G1 X74.507 Y92.634 E21.45363
G1 X75.187 Y92.816 E21.47119
G1 X75.884 Y92.921 E21.48878
G1 X76.588 Y92.949 E21.50635
G1 X77.291 Y92.903 E21.52393
G1 X77.985 Y92.778 E21.54152
G1 X78.66 Y92.579 E21.55907
G1 X79.31 Y92.306 E21.57666
G1 X79.926 Y91.965 E21.59422
G1 X80.502 Y91.56 E21.61179
G1 X81.031 Y91.093 E21.62939
G0 F2160 X80.855 Y90.915
;TYPE:WALL-OUTER
G1 F900 X81.309 Y90.413 E21.64627
G1 X81.707 Y89.865 E21.66317
G1 X82.044 Y89.277 E21.68007
G1 X82.314 Y88.656 E21.69696
G1 X82.514 Y88.009 E21.71386
G1 X82.642 Y87.344 E21.73075
G1 X82.698 Y86.67 E21.74762
G1 X82.68 Y85.993 E21.76452
G1 X82.588 Y85.322 E21.78141
G1 X82.422 Y84.665 E21.79831
G1 X82.187 Y84.03 E21.8152
G1 X81.884 Y83.425 E21.83208
G1 X81.516 Y82.855 E21.84901
G1 X81.089 Y82.33 E21.86589
G1 X80.607 Y81.855 E21.88277
G1 X80.076 Y81.434 E21.89967
G1 X79.502 Y81.075 E21.91656
G1 X78.892 Y80.78 E21.93346
G1 X78.255 Y80.553 E21.95033
G1 X77.595 Y80.397 E21.96725
G1 X76.923 Y80.314 E21.98414
G1 X76.246 Y80.305 E22.00103
G1 X75.572 Y80.37 E22.01792
G1 X74.909 Y80.507 E22.03481
G1 X74.265 Y80.716 E22.0517
G1 X73.648 Y80.995 E22.06859
G1 X73.064 Y81.339 E22.0855
G1 X72.522 Y81.744 E22.10238
G1 X72.026 Y82.206 E22.11928
G1 X71.585 Y82.72 E22.13618
G1 X71.202 Y83.278 E22.15306
G1 X70.882 Y83.875 E22.16996
G1 X70.63 Y84.504 E22.18686
G1 X70.447 Y85.156 E22.20375
G1 X70.337 Y85.821 E22.22057
G1 X70.309 Y86.164 E22.22915
G1 X70.309 Y86.839 E22.24599
G1 X70.382 Y87.512 E22.26288
G1 X70.529 Y88.173 E22.27977
G1 X70.747 Y88.814 E22.29666
G1 X71.034 Y89.428 E22.31356
G1 X71.386 Y90.006 E22.33045
G1 X71.799 Y90.543 E22.34734
G1 X72.268 Y91.031 E22.36423
G1 X72.787 Y91.465 E22.3811
G1 X73.351 Y91.842 E22.39803
G1 X73.953 Y92.153 E22.41493
G1 X74.584 Y92.396 E22.4318
G1 X75.238 Y92.571 E22.44869
G1 X75.908 Y92.672 E22.46559
G1 X76.585 Y92.699 E22.48249
G1 X77.26 Y92.654 E22.49936
G1 X77.927 Y92.534 E22.51627
G1 X78.576 Y92.343 E22.53315
G1 X79.201 Y92.081 E22.55005
G1 X79.793 Y91.753 E22.56693
G1 X80.347 Y91.363 E22.58383
G1 X80.855 Y90.915 E22.60073
