;FLAVOR:Marlin
;TIME:3508
;Filament used: 1.58766m, 0m
;Layer height: 0.1
;MINX:80.369
;MINY:74.462
;MINZ:0.2
;MAXX:154.631
;MAXY:155.337
;MAXZ:3.5
;POSTPROCESSED
;Generated with Cura_SteamEngine 4.8.0
T0
M140 S60
M105
M190 S60
M104 S200
M105
M109 S200
M82 ;absolute extrusion mode
M201 X500.00 Y500.00 Z100.00 E5000.00 	;Setup machine max acceleration
M203 X500.00 Y500.00 Z10.00 E50.00 	;Setup machine max feedrate
M204 P500.00 R1000.00 T500.00 		;Setup Print/Retract/Travel acceleration
M205 X8.00 Y8.00 Z0.40 E5.00 		;Setup Jerk
M220 S100 				;Reset Feedrate
M221 S100 				;Reset Flowrate
G28				;Home the Machine
#G29 				;Bed Level
G92 E0
M300 P150 S587
G92 E0
G1 F1500 E-5.5
;LAYER_COUNT:34
;LAYER:0
M107
G0 F2160 X85.34 Y91.051 Z0.2
;TYPE:SKIRT
G1 F1500 E0
G1 F900 X85.646 Y90.777 E0.01025
G1 X86.142 Y90.361 E0.02639
G1 X86.763 Y89.889 E0.04585
G1 X87.093 Y89.658 E0.0559
G1 X87.568 Y89.346 E0.07008
G1 X88.34 Y88.889 E0.09246
G1 X89.119 Y88.486 E0.11433
G1 X89.934 Y88.107 E0.13676
G1 X91.35 Y87.482 E0.17537
G1 X93.865 Y86.284 E0.24486
G1 X96.24 Y85.069 E0.3114
G1 X98.672 Y83.738 E0.38056
G1 X101.026 Y82.361 E0.44859
G1 X103.334 Y80.921 E0.51645
G1 X105.595 Y79.422 E0.58412
G1 X107.979 Y77.72 E0.65719
G1 X108.843 Y77.118 E0.68346
G1 X109.293 Y76.825 E0.69685
G1 X109.577 Y76.651 E0.70516
G1 X110.15 Y76.324 E0.72162
G1 X110.86 Y75.964 E0.74148
G1 X111.677 Y75.603 E0.76376
G1 X112.551 Y75.278 E0.78702
G1 X112.946 Y75.15 E0.79738
G1 X113.467 Y74.999 E0.81091
G1 X114.345 Y74.788 E0.83343
G1 X115.246 Y74.628 E0.85626
G1 X115.629 Y74.577 E0.8659
G1 X116.221 Y74.516 E0.88074
G1 X117.046 Y74.468 E0.90136
G1 X117.506 Y74.462 E0.91283
G1 X118.007 Y74.47 E0.92533
G1 X118.403 Y74.489 E0.93522
G1 X118.963 Y74.532 E0.94923
G1 X119.864 Y74.644 E0.97188
G1 X120.725 Y74.802 E0.99372
G1 X121.145 Y74.899 E1.00447
G1 X121.694 Y75.043 E1.01863
G1 X122.543 Y75.309 E1.04082
G1 X122.941 Y75.453 E1.05138
G1 X123.411 Y75.638 E1.06398
G1 X123.765 Y75.791 E1.0736
G1 X124.251 Y76.017 E1.08697
G1 X125.051 Y76.435 E1.10949
G1 X125.863 Y76.923 E1.13312
G1 X126.194 Y77.143 E1.14303
G1 X126.621 Y77.445 E1.15608
G1 X126.953 Y77.696 E1.16646
G1 X127.349 Y78.013 E1.17911
G1 X128.021 Y78.603 E1.20142
G1 X128.296 Y78.866 E1.21091
G1 X128.8 Y79.382 E1.22891
G1 X129.313 Y79.96 E1.24818
G1 X129.571 Y80.277 E1.25838
G1 X129.942 Y80.761 E1.27359
G1 X130.123 Y81.015 E1.28137
G1 X130.499 Y81.57 E1.2981
G1 X130.895 Y82.226 E1.31721
G1 X131.1 Y82.596 E1.32776
G1 X131.375 Y83.132 E1.34279
G1 X131.513 Y83.422 E1.3508
G1 X131.756 Y83.975 E1.36587
G1 X131.881 Y84.287 E1.37425
G1 X132.14 Y84.984 E1.3928
G1 X132.926 Y87.201 E1.45148
G1 X133.891 Y89.694 E1.51816
G1 X134.968 Y92.263 E1.58765
G1 X136.073 Y94.701 E1.65442
G1 X137.297 Y97.209 E1.72404
G1 X138.526 Y99.558 E1.79017
G1 X139.895 Y102.005 E1.86011
G1 X141.28 Y104.322 E1.92745
G1 X142.747 Y106.626 E1.99558
G1 X144.289 Y108.903 E2.06418
G1 X145.879 Y111.113 E2.1321
G1 X147.535 Y113.282 E2.20017
G1 X149.245 Y115.398 E2.26803
G1 X150.557 Y116.939 E2.31852
G1 X150.923 Y117.36 E2.33243
G1 X151.36 Y117.895 E2.34967
G1 X151.546 Y118.141 E2.35736
G1 X151.927 Y118.671 E2.37364
G1 X152.08 Y118.898 E2.38047
G1 X152.358 Y119.336 E2.39341
G1 X152.792 Y120.092 E2.41516
G1 X152.993 Y120.481 E2.42608
G1 X153.285 Y121.092 E2.44297
G1 X153.581 Y121.803 E2.46218
G1 X153.726 Y122.192 E2.47254
G1 X153.906 Y122.725 E2.48657
G1 X154.142 Y123.541 E2.50776
G1 X154.246 Y123.975 E2.51889
G1 X154.374 Y124.584 E2.53442
G1 X154.415 Y124.826 E2.54054
G1 X154.517 Y125.52 E2.55804
G1 X154.59 Y126.284 E2.57718
G1 X154.631 Y127.191 E2.59983
G1 X154.63 Y127.57 E2.60929
G1 X154.609 Y128.219 E2.62548
G1 X154.544 Y129.058 E2.64648
G1 X154.493 Y129.471 E2.65686
G1 X154.413 Y129.997 E2.67013
G1 X154.35 Y130.342 E2.67888
G1 X154.231 Y130.899 E2.69308
G1 X154.012 Y131.732 E2.71457
G1 X153.872 Y132.184 E2.72637
G1 X153.665 Y132.781 E2.74214
G1 X153.563 Y133.047 E2.74924
G1 X153.363 Y133.53 E2.76228
G1 X153.214 Y133.862 E2.77136
G1 X152.962 Y134.383 E2.7858
G1 X152.546 Y135.15 E2.80756
G1 X152.058 Y135.934 E2.8306
G1 X151.814 Y136.291 E2.84139
G1 X151.448 Y136.79 E2.85682
G1 X151.252 Y137.04 E2.86475
G1 X150.927 Y137.432 E2.87745
G1 X150.317 Y138.106 E2.90013
G1 X149.703 Y138.71 E2.92161
G1 X149.361 Y139.016 E2.93306
G1 X148.855 Y139.442 E2.94956
G1 X148.237 Y139.911 E2.96891
G1 X147.878 Y140.163 E2.97985
G1 X147.438 Y140.452 E2.99298
G1 X147.122 Y140.646 E3.00223
G1 X146.537 Y140.979 E3.01903
G1 X145.859 Y141.324 E3.038
G1 X144.925 Y141.756 E3.06367
G1 X143.691 Y142.3 E3.09731
G1 X141.2 Y143.484 E3.16611
G1 X138.776 Y144.723 E3.23402
G1 X136.352 Y146.049 E3.30294
G1 X134.03 Y147.407 E3.37004
G1 X131.691 Y148.862 E3.43876
G1 X129.448 Y150.348 E3.50588
G1 X127.079 Y152.039 E3.57848
G1 X126.191 Y152.658 E3.60548
G1 X125.752 Y152.947 E3.61859
G1 X125.415 Y153.153 E3.62845
G1 X124.869 Y153.463 E3.64411
G1 X124.592 Y153.611 E3.65194
G1 X124.144 Y153.834 E3.66443
G1 X123.317 Y154.198 E3.68697
G1 X122.468 Y154.516 E3.70958
G1 X122.071 Y154.645 E3.71999
G1 X121.545 Y154.798 E3.73366
G1 X120.65 Y155.013 E3.75662
G1 X120.274 Y155.085 E3.76617
G1 X119.646 Y155.186 E3.78204
G1 X118.82 Y155.28 E3.80277
G1 X117.926 Y155.332 E3.82511
G1 X117.545 Y155.337 E3.83462
G1 X116.945 Y155.327 E3.84959
G1 X116.577 Y155.309 E3.85878
G1 X116.052 Y155.269 E3.87191
G1 X115.152 Y155.158 E3.89453
G1 X114.768 Y155.094 E3.90424
G1 X114.214 Y154.984 E3.91833
G1 X113.362 Y154.772 E3.94023
G1 X112.922 Y154.643 E3.95167
G1 X112.361 Y154.457 E3.96642
G1 X112.097 Y154.361 E3.97342
G1 X111.574 Y154.154 E3.98745
G1 X110.779 Y153.797 E4.00919
G1 X110.427 Y153.621 E4.01901
G1 X109.886 Y153.329 E4.03435
G1 X109.165 Y152.894 E4.05535
G1 X108.824 Y152.668 E4.06556
G1 X108.275 Y152.278 E4.08235
G1 X108.047 Y152.104 E4.08951
G1 X107.651 Y151.787 E4.10216
G1 X106.979 Y151.197 E4.12447
G1 X106.706 Y150.936 E4.13389
G1 X106.257 Y150.477 E4.14991
G1 X105.692 Y149.843 E4.17109
G1 X105.424 Y149.517 E4.18162
G1 X105.058 Y149.038 E4.19666
G1 X104.858 Y148.759 E4.20522
G1 X104.576 Y148.344 E4.21774
G1 X104.361 Y148.005 E4.22775
G1 X104.05 Y147.477 E4.24304
G1 X103.9 Y147.204 E4.25081
G1 X103.619 Y146.655 E4.26619
G1 X103.485 Y146.371 E4.27402
G1 X103.241 Y145.815 E4.28917
G1 X103.115 Y145.506 E4.29749
G1 X102.883 Y144.878 E4.31419
G1 X102.071 Y142.591 E4.37473
G1 X101.091 Y140.062 E4.44239
G1 X100.022 Y137.518 E4.51123
G1 X98.894 Y135.033 E4.5793
G1 X97.691 Y132.567 E4.64775
G1 X96.431 Y130.163 E4.71545
G1 X95.094 Y127.774 E4.78374
G1 X93.699 Y125.445 E4.85146
G1 X92.23 Y123.14 E4.91965
G1 X90.68 Y120.853 E4.98856
G1 X89.105 Y118.664 E5.05583
G1 X87.441 Y116.488 E5.12417
G1 X85.715 Y114.355 E5.19261
G1 X84.44 Y112.856 E5.2417
G1 X84.008 Y112.357 E5.25817
G1 X83.661 Y111.928 E5.27193
G1 X83.448 Y111.65 E5.28067
G1 X83.086 Y111.148 E5.29611
G1 X82.923 Y110.906 E5.30338
G1 X82.621 Y110.428 E5.31749
G1 X82.441 Y110.125 E5.32628
G1 X82.185 Y109.665 E5.33941
G1 X81.956 Y109.218 E5.35194
G1 X81.638 Y108.529 E5.37087
G1 X81.416 Y107.987 E5.38548
G1 X81.259 Y107.567 E5.39667
G1 X81.096 Y107.083 E5.40941
G1 X80.855 Y106.245 E5.43116
G1 X80.769 Y105.888 E5.44032
G1 X80.622 Y105.184 E5.45826
G1 X80.501 Y104.416 E5.47765
G1 X80.454 Y104.008 E5.4879
G1 X80.408 Y103.477 E5.50119
G1 X80.369 Y102.609 E5.52287
G1 X80.37 Y102.232 E5.53227
G1 X80.396 Y101.476 E5.55114
G1 X80.457 Y100.737 E5.56964
G1 X80.507 Y100.33 E5.57987
G1 X80.587 Y99.803 E5.59316
G1 X80.656 Y99.431 E5.6026
G1 X80.793 Y98.801 E5.61868
G1 X81.007 Y98.007 E5.6392
G1 X81.292 Y97.14 E5.66196
G1 X81.439 Y96.748 E5.67241
G1 X81.634 Y96.275 E5.68517
G1 X81.785 Y95.941 E5.69431
G1 X82.084 Y95.325 E5.71139
G1 X82.456 Y94.647 E5.73068
G1 X82.94 Y93.869 E5.75354
G1 X83.186 Y93.509 E5.76442
G1 X83.55 Y93.012 E5.77978
G1 X83.748 Y92.76 E5.78778
G1 X84.14 Y92.289 E5.80306
G1 X84.693 Y91.685 E5.82349
G1 X85.34 Y91.051 E5.84609
G0 F2160 X85.547 Y91.269
G1 F900 X85.84 Y91.006 E5.85591
G1 X86.329 Y90.596 E5.87183
G1 X86.942 Y90.129 E5.89105
G1 X87.258 Y89.909 E5.90066
G1 X87.733 Y89.597 E5.91483
G1 X88.49 Y89.149 E5.93678
G1 X89.253 Y88.754 E5.95821
G1 X90.06 Y88.379 E5.98041
G1 X91.494 Y87.745 E6.01952
G1 X93.982 Y86.56 E6.08826
G1 X96.414 Y85.316 E6.1564
G1 X98.792 Y84.015 E6.22402
G1 X101.177 Y82.62 E6.29294
G1 X103.51 Y81.165 E6.36153
G1 X105.775 Y79.663 E6.42933
G1 X108.151 Y77.966 E6.50216
G1 X109.008 Y77.369 E6.52821
G1 X109.45 Y77.08 E6.54139
G1 X109.727 Y76.911 E6.54948
G1 X110.291 Y76.589 E6.56568
G1 X110.993 Y76.232 E6.58533
G1 X111.795 Y75.879 E6.60719
G1 X112.652 Y75.561 E6.62999
G1 X113.029 Y75.439 E6.63987
G1 X113.55 Y75.288 E6.6534
G1 X114.411 Y75.081 E6.67549
G1 X115.294 Y74.924 E6.69787
G1 X115.66 Y74.876 E6.70707
G1 X116.252 Y74.815 E6.72192
G1 X117.059 Y74.768 E6.74208
G1 X117.501 Y74.762 E6.75311
G1 X118.002 Y74.77 E6.76561
G1 X118.38 Y74.788 E6.77505
G1 X119.026 Y74.839 E6.79121
G1 X119.823 Y74.941 E6.81126
G1 X120.667 Y75.097 E6.83267
G1 X121.069 Y75.189 E6.84296
G1 X121.712 Y75.359 E6.85955
G1 X122.449 Y75.594 E6.87884
G1 X122.831 Y75.732 E6.88897
G1 X123.301 Y75.917 E6.90157
G1 X123.638 Y76.063 E6.91074
G1 X124.216 Y76.333 E6.92665
G1 X124.909 Y76.699 E6.9462
G1 X125.705 Y77.178 E6.96937
G1 X126.021 Y77.388 E6.97884
G1 X126.529 Y77.749 E6.99438
G1 X126.766 Y77.93 E7.00182
G1 X127.243 Y78.314 E7.0171
G1 X127.82 Y78.825 E7.03632
G1 X128.081 Y79.076 E7.04536
G1 X128.581 Y79.587 E7.06319
G1 X129.086 Y80.156 E7.08217
G1 X129.333 Y80.46 E7.09194
G1 X129.639 Y80.857 E7.10444
G1 X129.875 Y81.184 E7.1145
G1 X130.245 Y81.73 E7.13096
G1 X130.637 Y82.379 E7.14987
G1 X130.833 Y82.733 E7.15996
G1 X131.105 Y83.263 E7.17482
G1 X131.238 Y83.543 E7.18256
G1 X131.478 Y84.088 E7.19741
G1 X131.6 Y84.391 E7.20556
G1 X131.857 Y85.084 E7.224
G1 X132.633 Y87.273 E7.28193
G1 X133.628 Y89.844 E7.3507
G1 X134.687 Y92.368 E7.41898
G1 X135.812 Y94.851 E7.48698
G1 X137.008 Y97.303 E7.55503
G1 X138.288 Y99.747 E7.62385
G1 X139.621 Y102.131 E7.69199
G1 X141.03 Y104.488 E7.76049
G1 X142.506 Y106.806 E7.82904
G1 X144.024 Y109.048 E7.89658
G1 X145.641 Y111.296 E7.96565
G1 X147.294 Y113.461 E8.0336
G1 X149.014 Y115.589 E8.10186
G1 X150.352 Y117.161 E8.15335
G1 X150.696 Y117.557 E8.16644
G1 X151.054 Y117.993 E8.18051
G1 X151.302 Y118.316 E8.19067
G1 X151.68 Y118.84 E8.20678
G1 X151.827 Y119.059 E8.21336
G1 X152.105 Y119.497 E8.22631
G1 X152.53 Y120.238 E8.24761
G1 X152.723 Y120.611 E8.25809
G1 X152.962 Y121.108 E8.27185
G1 X153.303 Y121.916 E8.29372
G1 X153.441 Y122.288 E8.30362
G1 X153.648 Y122.903 E8.31981
G1 X153.852 Y123.62 E8.3384
G1 X153.953 Y124.037 E8.34911
G1 X154.06 Y124.543 E8.36201
G1 X154.119 Y124.87 E8.3703
G1 X154.206 Y125.454 E8.38503
G1 X154.292 Y126.31 E8.40649
G1 X154.331 Y127.199 E8.42868
G1 X154.33 Y127.56 E8.43769
G1 X154.305 Y128.302 E8.45621
G1 X154.245 Y129.031 E8.47446
G1 X154.196 Y129.426 E8.48438
G1 X154.101 Y130.041 E8.49991
G1 X154.056 Y130.279 E8.50595
G1 X153.911 Y130.95 E8.52307
G1 X153.723 Y131.651 E8.54118
G1 X153.588 Y132.086 E8.55254
G1 X153.384 Y132.675 E8.56809
G1 X153.285 Y132.932 E8.57496
G1 X153.051 Y133.495 E8.59017
G1 X152.944 Y133.732 E8.59665
G1 X152.692 Y134.253 E8.61109
G1 X152.284 Y135.003 E8.63239
G1 X151.805 Y135.772 E8.65499
G1 X151.572 Y136.114 E8.66531
G1 X151.211 Y136.606 E8.68053
G1 X151.021 Y136.848 E8.68821
G1 X150.639 Y137.307 E8.70311
G1 X150.097 Y137.902 E8.72318
G1 X149.496 Y138.493 E8.74421
G1 X149.167 Y138.787 E8.75522
G1 X148.747 Y139.142 E8.76893
G1 X148.058 Y139.671 E8.7906
G1 X147.713 Y139.912 E8.8011
G1 X147.201 Y140.247 E8.81636
G1 X146.974 Y140.385 E8.82299
G1 X146.394 Y140.714 E8.83962
G1 X145.725 Y141.056 E8.85837
G1 X144.8 Y141.484 E8.88379
G1 X143.547 Y142.037 E8.91796
G1 X141.069 Y143.215 E8.9864
G1 X138.616 Y144.468 E9.05511
G1 X136.233 Y145.772 E9.12287
G1 X133.869 Y147.153 E9.19117
G1 X131.542 Y148.602 E9.25955
G1 X129.255 Y150.117 E9.32798
G1 X126.908 Y151.793 E9.39992
G1 X126.026 Y152.407 E9.42673
G1 X125.587 Y152.696 E9.43984
G1 X125.266 Y152.892 E9.44922
G1 X124.726 Y153.199 E9.46472
G1 X124.459 Y153.342 E9.47227
G1 X124.011 Y153.565 E9.48476
G1 X123.2 Y153.922 E9.50686
G1 X122.367 Y154.234 E9.52905
G1 X121.987 Y154.357 E9.53901
G1 X121.461 Y154.51 E9.55268
G1 X120.584 Y154.72 E9.57517
G1 X120.226 Y154.789 E9.58427
G1 X119.605 Y154.889 E9.59996
G1 X118.79 Y154.981 E9.62042
G1 X117.913 Y155.032 E9.64233
G1 X117.55 Y155.037 E9.65139
G1 X116.95 Y155.027 E9.66636
G1 X116.6 Y155.01 E9.6751
G1 X115.966 Y154.96 E9.69096
G1 X115.192 Y154.861 E9.71043
G1 X114.827 Y154.8 E9.71966
G1 X114.273 Y154.69 E9.73375
G1 X113.438 Y154.482 E9.75521
G1 X113.016 Y154.358 E9.76618
G1 X112.538 Y154.201 E9.77873
G1 X112.208 Y154.082 E9.78749
G1 X111.685 Y153.875 E9.80152
G1 X110.907 Y153.525 E9.8228
G1 X110.57 Y153.357 E9.83219
G1 X110.029 Y153.065 E9.84753
G1 X109.324 Y152.64 E9.86806
G1 X108.997 Y152.423 E9.87785
G1 X108.455 Y152.038 E9.89443
G1 X108.234 Y151.87 E9.90136
G1 X107.757 Y151.486 E9.91663
G1 X107.18 Y150.975 E9.93586
G1 X106.92 Y150.726 E9.94484
G1 X106.471 Y150.267 E9.96086
G1 X105.918 Y149.646 E9.9816
G1 X105.662 Y149.334 E9.99167
G1 X105.301 Y148.862 E10.00649
G1 X105.107 Y148.59 E10.01483
G1 X104.768 Y148.09 E10.02989
G1 X104.619 Y147.852 E10.0369
G1 X104.312 Y147.331 E10.05198
G1 X104.167 Y147.067 E10.0595
G1 X103.889 Y146.525 E10.07469
G1 X103.76 Y146.25 E10.08227
G1 X103.518 Y145.699 E10.09728
G1 X103.396 Y145.401 E10.10531
G1 X103.166 Y144.778 E10.12188
G1 X102.353 Y142.488 E10.1825
G1 X101.362 Y139.93 E10.25093
G1 X100.297 Y137.396 E10.31949
G1 X99.17 Y134.911 E10.38756
G1 X97.966 Y132.444 E10.45604
G1 X96.699 Y130.026 E10.52413
G1 X95.359 Y127.634 E10.59253
G1 X93.939 Y125.263 E10.66147
G1 X92.482 Y122.977 E10.72909
G1 X90.944 Y120.708 E10.79747
G1 X89.342 Y118.481 E10.8659
G1 X87.667 Y116.291 E10.93468
G1 X85.944 Y114.161 E11.00302
G1 X84.69 Y112.687 E11.05129
G1 X84.305 Y112.244 E11.06593
G1 X83.898 Y111.745 E11.082
G1 X83.692 Y111.475 E11.09047
G1 X83.334 Y110.978 E11.10575
G1 X83.177 Y110.745 E11.11276
G1 X82.83 Y110.194 E11.129
G1 X82.704 Y109.979 E11.13522
G1 X82.448 Y109.519 E11.14835
G1 X82.063 Y108.746 E11.16989
G1 X81.694 Y107.874 E11.19351
G1 X81.544 Y107.471 E11.20424
G1 X81.35 Y106.892 E11.21947
G1 X81.145 Y106.166 E11.23829
G1 X81.063 Y105.826 E11.24701
G1 X80.918 Y105.131 E11.26472
G1 X80.798 Y104.372 E11.28389
G1 X80.753 Y103.982 E11.29368
G1 X80.7 Y103.359 E11.30928
G1 X80.669 Y102.6 E11.32823
G1 X80.67 Y102.241 E11.33718
G1 X80.695 Y101.495 E11.3558
G1 X80.755 Y100.765 E11.37408
G1 X80.804 Y100.375 E11.38388
G1 X80.901 Y99.747 E11.39973
G1 X80.949 Y99.494 E11.40616
G1 X81.085 Y98.872 E11.42204
G1 X81.296 Y98.088 E11.44229
G1 X81.575 Y97.237 E11.46463
G1 X81.717 Y96.862 E11.47463
G1 X81.912 Y96.389 E11.4874
G1 X82.055 Y96.072 E11.49607
G1 X82.35 Y95.463 E11.51295
G1 X82.717 Y94.795 E11.53196
G1 X83.193 Y94.031 E11.55442
G1 X83.428 Y93.686 E11.56483
G1 X83.788 Y93.196 E11.58
G1 X83.979 Y92.952 E11.58773
G1 X84.365 Y92.488 E11.60278
G1 X84.912 Y91.89 E11.623
G1 X85.547 Y91.269 E11.64516
G1 F1500 E6.14516
;MESH:Blocked_Magnet_v3.stl(5)
G0 F2160 X88.067 Y92.377
G0 X88.785 Y93.254
G0 X97.368 Y96.595
G0 X99.201 Y97.392
G0 X99.147 Y97.475
;TYPE:WALL-INNER
G1 F1500 E11.64516
G1 F900 X98.305 Y97.003 E11.66923
G1 X97.739 Y96.772 E11.68448
G1 X96.802 Y96.536 E11.70859
G1 X96.193 Y96.462 E11.72389
G1 X95.228 Y96.478 E11.74797
G1 X94.621 Y96.567 E11.76327
G1 X93.695 Y96.838 E11.78734
G1 X93.132 Y97.083 E11.80265
G1 X92.31 Y97.588 E11.82672
G1 X91.831 Y97.971 E11.84202
G1 X91.169 Y98.674 E11.86611
G1 X90.809 Y99.168 E11.88135
G1 X90.354 Y100.02 E11.90545
G1 X90.135 Y100.592 E11.92073
G1 X89.921 Y101.535 E11.94485
G1 X89.86 Y102.144 E11.96012
G1 X89.9 Y103.109 E11.98421
G1 X90.001 Y103.713 E11.99948
G1 X90.292 Y104.633 E12.02355
G1 X90.548 Y105.19 E12.03885
G1 X91.072 Y106.002 E12.06295
G1 X91.466 Y106.471 E12.07823
G1 X92.182 Y107.117 E12.10229
G1 X92.685 Y107.467 E12.11757
G1 X93.547 Y107.902 E12.14166
G1 X94.123 Y108.108 E12.15692
G1 X95.07 Y108.302 E12.18103
G1 X95.681 Y108.349 E12.19632
G1 X96.644 Y108.29 E12.22039
G1 X97.246 Y108.174 E12.23568
G1 X98.162 Y107.863 E12.25981
