;FLAVOR:Marlin
;TIME:1484
;Filament used: 0.493237m, 0m
;Layer height: 0.1
;MINX:94.05
;MINY:60.65
;MINZ:0.2
;MAXX:140.95
;MAXY:87.55
;MAXZ:2.6
;POSTPROCESSED
;Generated with Cura_SteamEngine 4.8.0
T0
M140 S60
M105
M190 S60
M104 S200
M105
M109 S200
M82 ;absolute extrusion mode
M201 X500.00 Y500.00 Z100.00 E5000.00 	;Setup machine max acceleration
M203 X500.00 Y500.00 Z10.00 E50.00 	;Setup machine max feedrate
M204 P500.00 R1000.00 T500.00 		;Setup Print/Retract/Travel acceleration
M205 X8.00 Y8.00 Z0.40 E5.00 		;Setup Jerk
M220 S100 				;Reset Feedrate
M221 S100 				;Reset Flowrate
G28				;Home the Machine
#G29 				;Bed Level
G92 E0
M300 P150 S587
G92 E0
G1 F1500 E-5.5
;LAYER_COUNT:25
;LAYER:0
M107
G0 F2160 X94.853 Y62.596 Z0.2
;TYPE:SKIRT
G1 F1500 E0
G1 F900 X94.988 Y62.405 E0.00583
G1 X95.322 Y62 E0.01893
G1 X95.811 Y61.581 E0.03499
G1 X96.278 Y61.272 E0.04896
G1 X96.741 Y61.026 E0.06204
G1 X97.318 Y60.832 E0.07723
G1 X97.888 Y60.716 E0.09174
G1 X98.5 Y60.658 E0.10707
G1 X99.141 Y60.65 E0.12306
G1 X135.848 Y60.65 E1.03872
G1 X136.534 Y60.66 E1.05584
G1 X137.11 Y60.717 E1.07027
G1 X137.381 Y60.767 E1.07715
G1 X138.1 Y60.983 E1.09588
G1 X138.355 Y61.091 E1.10278
G1 X139 Y61.45 E1.1212
G1 X139.194 Y61.587 E1.12712
G1 X139.599 Y61.921 E1.14022
G1 X140.018 Y62.409 E1.15626
G1 X140.322 Y62.868 E1.17
G1 X140.571 Y63.33 E1.18309
G1 X140.779 Y63.958 E1.19959
G1 X140.88 Y64.459 E1.21234
G1 X140.942 Y65.098 E1.22835
G1 X140.95 Y65.719 E1.24385
G1 X140.95 Y82.413 E1.66028
G1 X140.94 Y83.132 E1.67822
G1 X140.883 Y83.709 E1.69268
G1 X140.734 Y84.374 E1.70968
G1 X140.673 Y84.568 E1.71475
G1 X140.478 Y85.055 E1.72784
G1 X140.225 Y85.489 E1.74037
G1 X140.008 Y85.8 E1.74983
G1 X139.673 Y86.204 E1.76292
G1 X139.203 Y86.608 E1.77838
G1 X138.73 Y86.923 E1.79256
G1 X138.268 Y87.172 E1.80565
G1 X137.635 Y87.381 E1.82228
G1 X137.106 Y87.485 E1.83573
G1 X136.5 Y87.542 E1.85091
G1 X135.859 Y87.55 E1.8669
G1 X99.152 Y87.55 E2.78256
G1 X98.466 Y87.54 E2.79968
G1 X97.89 Y87.483 E2.81411
G1 X97.619 Y87.433 E2.82099
G1 X96.9 Y87.217 E2.83972
G1 X96.645 Y87.109 E2.84662
G1 X96 Y86.75 E2.86504
G1 X95.806 Y86.613 E2.87096
G1 X95.401 Y86.279 E2.88406
G1 X94.977 Y85.783 E2.90033
G1 X94.677 Y85.33 E2.91389
G1 X94.428 Y84.868 E2.92698
G1 X94.224 Y84.258 E2.94302
G1 X94.113 Y83.693 E2.95739
G1 X94.058 Y83.1 E2.97224
G1 X94.05 Y82.46 E2.98821
G1 X94.05 Y65.752 E3.40499
G1 X94.06 Y65.066 E3.42211
G1 X94.119 Y64.482 E3.43675
G1 X94.17 Y64.209 E3.44368
G1 X94.387 Y63.491 E3.46239
G1 X94.496 Y63.235 E3.46933
G1 X94.853 Y62.596 E3.48759
G0 F2160 X95.098 Y62.769
G1 F900 X95.233 Y62.578 E3.49342
G1 X95.554 Y62.193 E3.50593
G1 X95.984 Y61.826 E3.52003
G1 X96.438 Y61.526 E3.5336
G1 X96.882 Y61.292 E3.54612
G1 X97.388 Y61.123 E3.55943
G1 X97.942 Y61.011 E3.57353
G1 X98.504 Y60.958 E3.58761
G1 X99.145 Y60.95 E3.6036
G1 X135.844 Y60.95 E4.51906
G1 X136.53 Y60.96 E4.53617
G1 X137.056 Y61.012 E4.54936
G1 X137.327 Y61.062 E4.55623
G1 X137.983 Y61.259 E4.57332
G1 X138.238 Y61.367 E4.58023
G1 X138.827 Y61.695 E4.59705
G1 X139.021 Y61.832 E4.60297
G1 X139.406 Y62.153 E4.61547
G1 X139.773 Y62.583 E4.62958
G1 X140.069 Y63.029 E4.64293
G1 X140.305 Y63.472 E4.65545
G1 X140.487 Y64.025 E4.66997
G1 X140.629 Y64.848 E4.69081
G1 X140.642 Y65.101 E4.69712
G1 X140.65 Y65.722 E4.71262
G1 X140.65 Y82.409 E5.12888
G1 X140.64 Y83.128 E5.14681
G1 X140.588 Y83.655 E5.16002
G1 X140.448 Y84.284 E5.1761
G1 X140.387 Y84.478 E5.18117
G1 X140.199 Y84.943 E5.19368
G1 X139.901 Y85.433 E5.20799
G1 X139.764 Y85.626 E5.21389
G1 X139.442 Y86.011 E5.22641
G1 X139.028 Y86.364 E5.23998
G1 X138.569 Y86.671 E5.25376
G1 X138.126 Y86.906 E5.26627
G1 X137.569 Y87.088 E5.28089
G1 X137.053 Y87.19 E5.29401
G1 X136.496 Y87.242 E5.30796
G1 X135.855 Y87.25 E5.32395
G1 X99.156 Y87.25 E6.23941
G1 X98.47 Y87.24 E6.25653
G1 X97.944 Y87.188 E6.26971
G1 X97.673 Y87.138 E6.27659
G1 X97.017 Y86.941 E6.29367
G1 X96.762 Y86.833 E6.30058
G1 X96.173 Y86.505 E6.3174
G1 X95.979 Y86.368 E6.32332
G1 X95.594 Y86.047 E6.33583
G1 X95.222 Y85.61 E6.35014
G1 X94.929 Y85.169 E6.36335
G1 X94.694 Y84.726 E6.37586
G1 X94.517 Y84.19 E6.38994
G1 X94.408 Y83.641 E6.4039
G1 X94.358 Y83.096 E6.41755
G1 X94.35 Y82.456 E6.43352
G1 X94.35 Y65.756 E6.8501
G1 X94.36 Y65.07 E6.86722
G1 X94.414 Y64.538 E6.88056
G1 X94.465 Y64.265 E6.88748
G1 X94.663 Y63.609 E6.90458
G1 X94.772 Y63.353 E6.91152
G1 X95.098 Y62.769 E6.9282
G1 F1500 E1.4282
;MESH:GS.stl(6)
G0 F2160 X98.323 Y63.458
G0 X98.543 Y64.569
G0 X136.67 Y64.693
G0 X136.708 Y64.601
;TYPE:WALL-INNER
G1 F1500 E6.9282
G1 F900 X136.885 Y64.721 E6.93354
G1 X137.002 Y64.897 E6.93881
G1 X137.05 Y65.142 E6.94504
G1 X137.05 Y83.059 E7.39198
G1 X136.999 Y83.308 E7.39832
G1 X136.879 Y83.485 E7.40365
G1 X136.703 Y83.602 E7.40892
G1 X136.458 Y83.65 E7.41515
G1 X98.541 Y83.65 E8.36099
G1 X98.292 Y83.599 E8.36733
G1 X98.115 Y83.479 E8.37267
G1 X97.998 Y83.303 E8.37794
G1 X97.95 Y83.058 E8.38417
G1 X97.95 Y65.141 E8.83111
G1 X98.001 Y64.892 E8.83745
G1 X98.121 Y64.715 E8.84278
G1 X98.297 Y64.598 E8.84806
G1 X98.542 Y64.55 E8.85428
G1 X136.459 Y64.55 E9.80013
G1 X136.708 Y64.601 E9.80647
G0 F2160 X136.807 Y64.366
;TYPE:WALL-OUTER
G1 F900 X137.065 Y64.541 E9.81424
G1 X137.237 Y64.8 E9.822
G1 X137.3 Y65.119 E9.83011
G1 X137.3 Y83.085 E10.27828
G1 X137.234 Y83.407 E10.28647
G1 X137.059 Y83.665 E10.29425
G1 X136.8 Y83.837 E10.30201
G1 X136.481 Y83.9 E10.31012
G1 X98.515 Y83.9 E11.25718
G1 X98.193 Y83.834 E11.26538
G1 X97.935 Y83.659 E11.27316
G1 X97.763 Y83.4 E11.28092
G1 X97.7 Y83.081 E11.28903
G1 X97.7 Y65.115 E11.73719
G1 X97.766 Y64.793 E11.74539
G1 X97.941 Y64.535 E11.75317
G1 X98.2 Y64.363 E11.76092
G1 X98.519 Y64.3 E11.76903
G1 X136.485 Y64.3 E12.7161
G1 X136.807 Y64.366 E12.7243
G0 F2160 X136.972 Y64.478
G0 X136.787 Y64.75
G0 X136.674 Y64.928
;TYPE:SKIN
G1 F900 X136.76 Y65.168 E12.73066
G1 X136.76 Y83.031 E13.17625
G1 X136.672 Y83.274 E13.1827
G1 X136.432 Y83.36 E13.18906
G1 X98.569 Y83.36 E14.13355
G1 X98.326 Y83.272 E14.14
G1 X98.24 Y83.032 E14.14636
G1 X98.24 Y65.169 E14.59196
G1 X98.328 Y64.926 E14.5984
G1 X98.568 Y64.84 E14.60476
G1 X136.431 Y64.84 E15.54926
G1 X136.674 Y64.928 E15.55571
G0 F2160 X136.624 Y65.347
G1 F900 X136.251 Y64.975 E15.56885
G0 F2160 X135.827 Y64.975
G1 F900 X136.624 Y65.772 E15.59696
G0 F2160 X136.624 Y66.196
G1 F900 X135.403 Y64.975 E15.64004
G0 F2160 X134.978 Y64.975
G1 F900 X136.624 Y66.62 E15.69809
G0 F2160 X136.624 Y67.045
G1 F900 X134.554 Y64.975 E15.77111
G0 F2160 X134.13 Y64.975
G1 F900 X136.624 Y67.469 E15.85909
G0 F2160 X136.624 Y67.893
G1 F900 X133.706 Y64.975 E15.96203
G0 F2160 X133.281 Y64.975
G1 F900 X136.624 Y68.317 E16.07995
G0 F2160 X136.624 Y68.742
G1 F900 X132.857 Y64.975 E16.21284
G0 F2160 X132.433 Y64.975
G1 F900 X136.624 Y69.166 E16.36069
G0 F2160 X136.624 Y69.59
G1 F900 X132.009 Y64.975 E16.5235
G0 F2160 X131.584 Y64.975
G1 F900 X136.624 Y70.014 E16.70128
G0 F2160 X136.624 Y70.439
G1 F900 X131.16 Y64.975 E16.89404
G0 F2160 X130.736 Y64.975
G1 F900 X136.624 Y70.863 E17.10175
G0 F2160 X136.624 Y71.287
G1 F900 X130.312 Y64.975 E17.32442
G0 F2160 X129.887 Y64.975
G1 F900 X136.624 Y71.711 E17.56207
G0 F2160 X136.624 Y72.136
G1 F900 X129.463 Y64.975 E17.8147
G0 F2160 X129.039 Y64.975
G1 F900 X136.624 Y72.56 E18.08228
G0 F2160 X136.624 Y72.984
G1 F900 X128.614 Y64.975 E18.36483
G0 F2160 X128.19 Y64.975
G1 F900 X136.624 Y73.408 E18.66235
G0 F2160 X136.624 Y73.833
G1 F900 X127.766 Y64.975 E18.97484
G0 F2160 X127.342 Y64.975
G1 F900 X136.624 Y74.257 E19.30229
G0 F2160 X136.624 Y74.681
G1 F900 X126.917 Y64.975 E19.64471
G0 F2160 X126.493 Y64.975
G1 F900 X136.624 Y75.106 E20.00211
G0 F2160 X136.624 Y75.53
G1 F900 X126.069 Y64.975 E20.37446
G0 F2160 X125.645 Y64.975
G1 F900 X136.624 Y75.954 E20.76178
G0 F2160 X136.624 Y76.378
G1 F900 X125.22 Y64.975 E21.16407
G0 F2160 X124.796 Y64.975
G1 F900 X136.624 Y76.803 E21.58133
G0 F2160 X136.624 Y77.227
G1 F900 X124.372 Y64.975 E22.01355
G0 F2160 X123.948 Y64.975
G1 F900 X136.624 Y77.651 E22.46073
G0 F2160 X136.624 Y78.075
G1 F900 X123.523 Y64.975 E22.92289
G0 F2160 X123.099 Y64.975
G1 F900 X136.624 Y78.5 E23.40002
G0 F2160 X136.624 Y78.924
G1 F900 X122.675 Y64.975 E23.89211
G0 F2160 X122.25 Y64.975
G1 F900 X136.624 Y79.348 E24.39917
G0 F2160 X136.624 Y79.772
G1 F900 X121.826 Y64.975 E24.92119
G0 F2160 X121.402 Y64.975
G1 F900 X136.624 Y80.197 E25.45819
G0 F2160 X136.624 Y80.621
G1 F900 X120.978 Y64.975 E26.01015
G0 F2160 X120.553 Y64.975
G1 F900 X136.624 Y81.045 E26.57708
G0 F2160 X136.624 Y81.47
G1 F900 X120.129 Y64.975 E27.15898
G0 F2160 X119.705 Y64.975
G1 F900 X136.624 Y81.894 E27.75585
G0 F2160 X136.624 Y82.318
G1 F900 X119.281 Y64.975 E28.36767
G0 F2160 X118.856 Y64.975
G1 F900 X136.624 Y82.742 E28.99446
G0 F2160 X136.582 Y83.125
G1 F900 X118.432 Y64.975 E29.63475
G0 F2160 X118.008 Y64.975
G1 F900 X136.258 Y83.225 E30.27857
G0 F2160 X135.833 Y83.225
G1 F900 X117.584 Y64.975 E30.92237
G0 F2160 X117.159 Y64.975
G1 F900 X135.409 Y83.225 E31.56619
G0 F2160 X134.985 Y83.225
G1 F900 X116.735 Y64.975 E32.21001
G0 F2160 X116.311 Y64.975
G1 F900 X134.561 Y83.225 E32.85383
G0 F2160 X134.136 Y83.225
G1 F900 X115.887 Y64.975 E33.49763
G0 F2160 X115.462 Y64.975
G1 F900 X133.712 Y83.225 E34.14144
G0 F2160 X133.288 Y83.225
G1 F900 X115.038 Y64.975 E34.78526
G0 F2160 X114.614 Y64.975
G1 F900 X132.863 Y83.225 E35.42906
G0 F2160 X132.439 Y83.225
G1 F900 X114.189 Y64.975 E36.07288
G0 F2160 X113.765 Y64.975
G1 F900 X132.015 Y83.225 E36.7167
G0 F2160 X131.591 Y83.225
G1 F900 X113.341 Y64.975 E37.36052
G0 F2160 X112.917 Y64.975
G1 F900 X131.166 Y83.225 E38.00432
G0 F2160 X130.742 Y83.225
G1 F900 X112.492 Y64.975 E38.64814
G0 F2160 X112.068 Y64.975
G1 F900 X130.318 Y83.225 E39.29195
G0 F2160 X129.894 Y83.225
G1 F900 X111.644 Y64.975 E39.93577
G0 F2160 X111.22 Y64.975
G1 F900 X129.469 Y83.225 E40.57957
G0 F2160 X129.045 Y83.225
G1 F900 X110.795 Y64.975 E41.22339
G0 F2160 X110.371 Y64.975
G1 F900 X128.621 Y83.225 E41.86721
G0 F2160 X128.197 Y83.225
G1 F900 X109.947 Y64.975 E42.51103
G0 F2160 X109.523 Y64.975
G1 F900 X127.772 Y83.225 E43.15483
G0 F2160 X127.348 Y83.225
G1 F900 X109.098 Y64.975 E43.79864
G0 F2160 X108.674 Y64.975
G1 F900 X126.924 Y83.225 E44.44246
G0 F2160 X126.499 Y83.225
G1 F900 X108.25 Y64.975 E45.08626
G0 F2160 X107.826 Y64.975
G1 F900 X126.075 Y83.225 E45.73006
G0 F2160 X125.651 Y83.225
G1 F900 X107.401 Y64.975 E46.37388
G0 F2160 X106.977 Y64.975
G1 F900 X125.227 Y83.225 E47.0177
G0 F2160 X124.802 Y83.225
G1 F900 X106.553 Y64.975 E47.6615
G0 F2160 X106.128 Y64.975
G1 F900 X124.378 Y83.225 E48.30532
G0 F2160 X123.954 Y83.225
G1 F900 X105.704 Y64.975 E48.94914
G0 F2160 X105.28 Y64.975
G1 F900 X123.53 Y83.225 E49.59295
G0 F2160 X123.105 Y83.225
G1 F900 X104.856 Y64.975 E50.23675
G0 F2160 X104.431 Y64.975
G1 F900 X122.681 Y83.225 E50.88057
G0 F2160 X122.257 Y83.225
G1 F900 X104.007 Y64.975 E51.52439
G0 F2160 X103.583 Y64.975
G1 F900 X121.833 Y83.225 E52.16821
G0 F2160 X121.408 Y83.225
G1 F900 X103.159 Y64.975 E52.81201
G0 F2160 X102.734 Y64.975
G1 F900 X120.984 Y83.225 E53.45583
G0 F2160 X120.56 Y83.225
G1 F900 X102.31 Y64.975 E54.09964
G0 F2160 X101.886 Y64.975
G1 F900 X120.136 Y83.225 E54.74346
G0 F2160 X119.711 Y83.225
G1 F900 X101.462 Y64.975 E55.38726
G0 F2160 X101.037 Y64.975
G1 F900 X119.287 Y83.225 E56.03108
G0 F2160 X118.863 Y83.225
G1 F900 X100.613 Y64.975 E56.6749
G0 F2160 X100.189 Y64.975
G1 F900 X118.438 Y83.225 E57.3187
G0 F2160 X118.014 Y83.225
G1 F900 X99.764 Y64.975 E57.96252
G0 F2160 X99.34 Y64.975
G1 F900 X117.59 Y83.225 E58.60634
G0 F2160 X117.166 Y83.225
G1 F900 X98.916 Y64.975 E59.25015
G0 F2160 X98.517 Y65
G1 F900 X116.741 Y83.225 E59.89307
G0 F2160 X116.317 Y83.225
G1 F900 X98.374 Y65.281 E60.52608
G0 F2160 X98.374 Y65.705
G1 F900 X115.893 Y83.225 E61.14413
G0 F2160 X115.469 Y83.225
G1 F900 X98.374 Y66.13 E61.7472
G0 F2160 X98.374 Y66.554
G1 F900 X115.044 Y83.225 E62.33529
G0 F2160 X114.62 Y83.225
G1 F900 X98.374 Y66.978 E62.90843
G0 F2160 X98.374 Y67.402
G1 F900 X114.196 Y83.225 E63.46662
G0 F2160 X113.772 Y83.225
G1 F900 X98.374 Y67.827 E64.00982
G0 F2160 X98.374 Y68.251
G1 F900 X113.347 Y83.225 E64.53805
G0 F2160 X112.923 Y83.225
G1 F900 X98.374 Y68.675 E65.05132
G0 F2160 X98.374 Y69.099
G1 F900 X112.499 Y83.225 E65.54964
G0 F2160 X112.075 Y83.225
G1 F900 X98.374 Y69.524 E66.03298
G0 F2160 X98.374 Y69.948
G1 F900 X111.65 Y83.225 E66.50134
G0 F2160 X111.226 Y83.225
G1 F900 X98.374 Y70.372 E66.95475
G0 F2160 X98.374 Y70.796
G1 F900 X110.802 Y83.225 E67.3932
G0 F2160 X110.377 Y83.225
G1 F900 X98.374 Y71.221 E67.81666
G0 F2160 X98.374 Y71.645
G1 F900 X109.953 Y83.225 E68.22515
G0 F2160 X109.529 Y83.225
G1 F900 X98.374 Y72.069 E68.61869
G0 F2160 X98.374 Y72.494
G1 F900 X109.105 Y83.225 E68.99726
G0 F2160 X108.68 Y83.225
G1 F900 X98.374 Y72.918 E69.36085
G0 F2160 X98.374 Y73.342
G1 F900 X108.256 Y83.225 E69.70948
G0 F2160 X107.832 Y83.225
G1 F900 X98.374 Y73.766 E70.04315
G0 F2160 X98.374 Y74.191
G1 F900 X107.408 Y83.225 E70.36185
G0 F2160 X106.983 Y83.225
G1 F900 X98.374 Y74.615 E70.66558
G0 F2160 X98.374 Y75.039
G1 F900 X106.559 Y83.225 E70.95434
G0 F2160 X106.135 Y83.225
G1 F900 X98.374 Y75.463 E71.22815
G0 F2160 X98.374 Y75.888
G1 F900 X105.711 Y83.225 E71.48698
G0 F2160 X105.286 Y83.225
G1 F900 X98.374 Y76.312 E71.73084
G0 F2160 X98.374 Y76.736
G1 F900 X104.862 Y83.225 E71.95974
G0 F2160 X104.438 Y83.225
G1 F900 X98.374 Y77.16 E72.17368
G0 F2160 X98.374 Y77.585
G1 F900 X104.013 Y83.225 E72.37263
G0 F2160 X103.589 Y83.225
G1 F900 X98.374 Y78.009 E72.55662
G0 F2160 X98.374 Y78.433
G1 F900 X103.165 Y83.225 E72.72565
G0 F2160 X102.741 Y83.225
G1 F900 X98.374 Y78.857 E72.87973
G0 F2160 X98.374 Y79.282
G1 F900 X102.316 Y83.225 E73.01881
G0 F2160 X101.892 Y83.225
G1 F900 X98.374 Y79.706 E73.14294
G0 F2160 X98.374 Y80.13
G1 F900 X101.468 Y83.225 E73.2521
G0 F2160 X101.044 Y83.225
G1 F900 X98.374 Y80.555 E73.34629
G0 F2160 X98.374 Y80.979
G1 F900 X100.619 Y83.225 E73.42551
G0 F2160 X100.195 Y83.225
G1 F900 X98.374 Y81.403 E73.48977
G0 F2160 X98.374 Y81.827
G1 F900 X99.771 Y83.225 E73.53907
G0 F2160 X99.347 Y83.225
G1 F900 X98.374 Y82.252 E73.57339
G0 F2160 X98.374 Y82.676
G1 F900 X98.922 Y83.225 E73.59274
G1 X98.975 Y83.278
;MESH:NONMESH
G0 F600 X98.975 Y83.278 Z0.3
G0 F2160 X136.443 Y64.648
G0 X136.463 Y64.551
;TIME_ELAPSED:206.577661
;LAYER:1
M106 S255
;TYPE:WALL-INNER
;MESH:GS.stl(6)
G1 F2460 X136.714 Y64.604 E73.59594
G1 X136.886 Y64.723 E73.59855
G1 X137.004 Y64.903 E73.60124
G1 X137.05 Y65.139 E73.60424
G1 X137.049 Y83.063 E73.82779
G1 X136.996 Y83.314 E73.83099
G1 X136.877 Y83.486 E73.8336
G1 X136.697 Y83.604 E73.83629
G1 X136.461 Y83.65 E73.83929
G1 X98.537 Y83.649 E74.31229
G1 X98.286 Y83.596 E74.31549
G1 X98.114 Y83.477 E74.3181
G1 X97.996 Y83.297 E74.32079
G1 X97.95 Y83.061 E74.32379
G1 X97.951 Y65.137 E74.54734
G1 X98.004 Y64.886 E74.55054
G1 X98.123 Y64.714 E74.55315
G1 X98.303 Y64.596 E74.55584
G1 X98.539 Y64.55 E74.55884
G1 X136.463 Y64.551 E75.03184
G0 F4680 X136.49 Y64.301
;TYPE:WALL-OUTER
G1 F1470 X136.814 Y64.369 E75.03597
G1 X137.068 Y64.544 E75.03982
G1 X137.24 Y64.807 E75.04374
G1 X137.3 Y65.117 E75.04768
G1 X137.299 Y83.09 E75.27185
G1 X137.231 Y83.414 E75.27598
G1 X137.056 Y83.668 E75.27982
G1 X136.793 Y83.84 E75.28374
G1 X136.483 Y83.9 E75.28768
G1 X98.51 Y83.899 E75.7613
G1 X98.186 Y83.831 E75.76543
G1 X97.932 Y83.656 E75.76928
G1 X97.76 Y83.393 E75.7732
G1 X97.7 Y83.083 E75.77714
G1 X97.701 Y65.11 E76.00131
G1 X97.769 Y64.786 E76.00543
G1 X97.944 Y64.532 E76.00928
G1 X98.207 Y64.36 E76.0132
G1 X98.517 Y64.3 E76.01714
