;FLAVOR:Marlin
;TIME:756
;Filament used: 1.4306m, 0m
;Layer height: 0.28
;MINX:99.55
;MINY:114.5
;MINZ:0.3
;MAXX:135.432
;MAXY:140.5
;MAXZ:19.9
;Generated with Cura_SteamEngine 4.7.1
T0
M140 S60
M105
M190 S60
M104 S200
M105
M109 S200
M82 ;absolute extrusion mode
M201 X500.00 Y500.00 Z100.00 E5000.00 	;Setup machine max acceleration
M203 X500.00 Y500.00 Z10.00 E50.00 	;Setup machine max feedrate
M204 P500.00 R1000.00 T500.00 		;Setup Print/Retract/Travel acceleration
M205 X8.00 Y8.00 Z0.40 E5.00 		;Setup Jerk
M220 S100 				;Reset Feedrate
M221 S100 				;Reset Flowrate
G28				;Home the Machine
#G29 				;Bed Level
G92 E0
M300 P150 S587
G92 E0
G1 F1500 E-6.5
;LAYER_COUNT:71
;LAYER:0
M107
G0 F2160 X101.126 Y115.88 Z0.3
;TYPE:SKIRT
G1 F1500 E0
G1 F900 X101.703 Y115.422 E0.03675
G1 X102.177 Y115.114 E0.06495
G1 X102.689 Y114.876 E0.09312
G1 X103.218 Y114.711 E0.12077
G1 X103.696 Y114.601 E0.14524
G1 X104.309 Y114.521 E0.17608
G1 X105.013 Y114.5 E0.21122
G1 X111.973 Y114.501 E0.55846
G1 X112.675 Y114.512 E0.59348
G1 X113.459 Y114.603 E0.63286
G1 X114.036 Y114.748 E0.66254
G1 X114.569 Y114.937 E0.69076
G1 X115.033 Y115.171 E0.71668
G1 X117.246 Y116.399 E0.84295
G1 X119.666 Y117.653 E0.97893
G1 X122.094 Y118.826 E1.11346
G1 X124.563 Y119.932 E1.24843
G1 X127.046 Y120.965 E1.3826
G1 X127.057 Y120.968 E1.38317
G1 X129.205 Y121.79 E1.49791
G1 X129.423 Y121.877 E1.50962
G1 X129.932 Y122.123 E1.53783
G1 X130.547 Y122.533 E1.5747
G1 X130.987 Y122.888 E1.60291
G1 X131.372 Y123.302 E1.63111
G1 X131.79 Y123.901 E1.66756
G1 X131.836 Y123.972 E1.67178
G1 X132.107 Y124.468 E1.69997
G1 X132.296 Y124.965 E1.7265
G1 X132.606 Y125.98 E1.77945
G1 X132.776 Y126.565 E1.80984
G1 X133.602 Y129.136 E1.94457
G1 X134.37 Y131.325 E2.0603
G1 X134.982 Y133.008 E2.14965
G1 X135.216 Y133.682 E2.18524
G1 X135.363 Y134.228 E2.21345
G1 X135.432 Y134.789 E2.24165
G1 X135.421 Y135.354 E2.26985
G1 X135.33 Y135.912 E2.29805
G1 X135.162 Y136.452 E2.32627
G1 X134.919 Y136.963 E2.3545
G1 X134.607 Y137.434 E2.38268
G1 X134.231 Y137.856 E2.41088
G1 X133.8 Y138.222 E2.43909
G1 X133.321 Y138.522 E2.46729
G1 X132.915 Y138.711 E2.48963
G1 X131.763 Y139.169 E2.55148
G1 X130.836 Y139.557 E2.60162
G1 X130.689 Y139.607 E2.60936
G1 X129.548 Y140.073 E2.67085
G1 X128.981 Y140.257 E2.70059
G1 X128.488 Y140.377 E2.72591
G1 X127.681 Y140.488 E2.76655
G1 X127.083 Y140.5 E2.79639
G1 X115.279 Y140.5 E3.38529
G1 X114.071 Y140.481 E3.44556
G1 X113.7 Y140.463 E3.4641
G1 X113.088 Y140.416 E3.49472
G1 X112.734 Y140.377 E3.51249
G1 X112.162 Y140.296 E3.54131
G1 X111.917 Y140.254 E3.55371
G1 X111.178 Y140.102 E3.59135
G1 X110.876 Y140.03 E3.60684
G1 X110.353 Y139.888 E3.63388
G1 X110.012 Y139.784 E3.65166
G1 X109.412 Y139.58 E3.68328
G1 X109.172 Y139.489 E3.69609
G1 X108.519 Y139.219 E3.73134
G1 X108.252 Y139.1 E3.74592
G1 X107.703 Y138.832 E3.7764
G1 X107.373 Y138.657 E3.79504
G1 X106.848 Y138.358 E3.82518
G1 X106.64 Y138.231 E3.83734
G1 X106.066 Y137.856 E3.87154
G1 X105.866 Y137.716 E3.88372
G1 X105.362 Y137.341 E3.91507
G1 X105.095 Y137.128 E3.93211
G1 X104.58 Y136.69 E3.96584
G1 X104.393 Y136.521 E3.97841
G1 X103.9 Y136.045 E4.0126
G1 X103.666 Y135.803 E4.02939
G1 X103.299 Y135.401 E4.05655
G1 X103.075 Y135.14 E4.07371
G1 X102.664 Y134.63 E4.10639
G1 X102.474 Y134.376 E4.12221
G1 X102.124 Y133.88 E4.1525
G1 X101.982 Y133.664 E4.1654
G1 X101.594 Y133.031 E4.20244
G1 X101.434 Y132.753 E4.21844
G1 X101.185 Y132.283 E4.24498
G1 X101.021 Y131.948 E4.26358
G1 X100.783 Y131.423 E4.29234
G1 X100.664 Y131.136 E4.30784
G1 X100.421 Y130.498 E4.3419
G1 X100.308 Y130.168 E4.35931
G1 X100.151 Y129.659 E4.38588
G1 X100.07 Y129.365 E4.40109
G1 X99.899 Y128.659 E4.43733
G1 X99.847 Y128.408 E4.45012
G1 X99.741 Y127.804 E4.48072
G1 X99.689 Y127.435 E4.49931
G1 X99.624 Y126.853 E4.52853
G1 X99.599 Y126.54 E4.54419
G1 X99.572 Y125.983 E4.57201
G1 X99.568 Y125.852 E4.57855
G1 X99.55 Y124.715 E4.63528
G1 X99.55 Y120.145 E4.86328
G1 X99.561 Y119.435 E4.89871
G1 X99.61 Y118.873 E4.92685
G1 X99.704 Y118.366 E4.95258
G1 X99.855 Y117.822 E4.98074
G1 X100.209 Y117.079 E5.0218
G1 X100.409 Y116.751 E5.04097
G1 X100.737 Y116.29 E5.0692
G1 X101.126 Y115.88 E5.09739
G0 F2160 X101.437 Y116.138
G1 F900 X101.944 Y115.741 E5.12952
G1 X102.395 Y115.451 E5.15627
G1 X102.884 Y115.23 E5.18304
G1 X103.547 Y115.042 E5.21742
G1 X103.779 Y114.993 E5.22925
G1 X104.33 Y114.92 E5.25698
G1 X105.018 Y114.9 E5.29132
G1 X111.966 Y114.901 E5.63796
G1 X112.668 Y114.912 E5.67299
G1 X113.374 Y114.994 E5.70845
G1 X113.929 Y115.134 E5.737
G1 X114.675 Y115.433 E5.7771
G1 X114.839 Y115.521 E5.78639
G1 X117.074 Y116.761 E5.9139
G1 X119.445 Y117.99 E6.04714
G1 X121.936 Y119.193 E6.18515
G1 X124.426 Y120.309 E6.32128
G1 X126.914 Y121.342 E6.45568
G1 X129.056 Y122.161 E6.57009
G1 X129.274 Y122.248 E6.5818
G1 X129.756 Y122.484 E6.60858
G1 X130.318 Y122.861 E6.64234
G1 X130.734 Y123.2 E6.66911
G1 X131.095 Y123.597 E6.69588
G1 X131.456 Y124.122 E6.72767
G1 X131.499 Y124.188 E6.7316
G1 X131.755 Y124.66 E6.75839
G1 X131.914 Y125.082 E6.78089
G1 X132.222 Y126.092 E6.83357
G1 X132.385 Y126.652 E6.86266
G1 X133.231 Y129.287 E7.00073
G1 X133.994 Y131.462 E7.11573
G1 X134.604 Y133.139 E7.20476
G1 X134.838 Y133.813 E7.24035
G1 X134.976 Y134.332 E7.26715
G1 X135.035 Y134.865 E7.2939
G1 X135.014 Y135.4 E7.32061
G1 X134.914 Y135.927 E7.34737
G1 X134.737 Y136.434 E7.37416
G1 X134.486 Y136.908 E7.40092
G1 X134.168 Y137.339 E7.42765
G1 X133.789 Y137.719 E7.45442
G1 X133.358 Y138.038 E7.48117
G1 X132.767 Y138.339 E7.51426
G1 X131.645 Y138.785 E7.5745
G1 X130.682 Y139.188 E7.62658
G1 X130.547 Y139.233 E7.63368
G1 X129.397 Y139.703 E7.69566
G1 X128.886 Y139.868 E7.72245
G1 X128.393 Y139.988 E7.74776
G1 X127.668 Y140.088 E7.78428
G1 X127.078 Y140.1 E7.81372
G1 X115.285 Y140.1 E8.40207
G1 X114.077 Y140.081 E8.46235
G1 X113.73 Y140.064 E8.47968
G1 X113.118 Y140.017 E8.5103
G1 X112.79 Y139.981 E8.52677
G1 X112.218 Y139.9 E8.55559
G1 X111.998 Y139.862 E8.56673
G1 X111.166 Y139.69 E8.60911
G1 X110.981 Y139.644 E8.61862
G1 X110.458 Y139.502 E8.64566
G1 X110.141 Y139.405 E8.6622
G1 X109.541 Y139.201 E8.69382
G1 X109.324 Y139.12 E8.70537
G1 X108.671 Y138.85 E8.74063
G1 X108.428 Y138.74 E8.75393
G1 X107.879 Y138.472 E8.78441
G1 X107.571 Y138.309 E8.8018
G1 X107.046 Y138.01 E8.83194
G1 X106.859 Y137.896 E8.84287
G1 X106.285 Y137.521 E8.87707
G1 X106.105 Y137.395 E8.88803
G1 X105.601 Y137.02 E8.91938
G1 X105.354 Y136.823 E8.93514
G1 X104.839 Y136.385 E8.96887
G1 X104.67 Y136.233 E8.98021
G1 X104.177 Y135.757 E9.0144
G1 X103.961 Y135.533 E9.02992
G1 X103.594 Y135.131 E9.05708
G1 X103.387 Y134.889 E9.07297
G1 X102.976 Y134.379 E9.10564
G1 X102.801 Y134.146 E9.12018
G1 X102.451 Y133.65 E9.15047
G1 X102.323 Y133.455 E9.16211
G1 X101.881 Y132.733 E9.20434
G1 X101.788 Y132.565 E9.21392
G1 X101.539 Y132.095 E9.24046
G1 X101.385 Y131.782 E9.25786
G1 X101.147 Y131.257 E9.28662
G1 X101.038 Y130.993 E9.30087
G1 X100.795 Y130.355 E9.33493
G1 X100.69 Y130.05 E9.35102
G1 X100.533 Y129.541 E9.3776
G1 X100.459 Y129.27 E9.39161
G1 X100.288 Y128.564 E9.42785
G1 X100.241 Y128.339 E9.43932
G1 X100.135 Y127.735 E9.46991
G1 X100.086 Y127.391 E9.48725
G1 X100.021 Y126.809 E9.51647
G1 X99.998 Y126.52 E9.53093
G1 X99.971 Y125.963 E9.55875
G1 X99.967 Y125.846 E9.56459
G1 X99.95 Y124.772 E9.61818
G1 X99.95 Y120.151 E9.84872
G1 X99.961 Y119.441 E9.88415
G1 X100.005 Y118.936 E9.90944
G1 X100.096 Y118.446 E9.9343
G1 X100.241 Y117.93 E9.96104
G1 X100.55 Y117.287 E9.99663
G1 X100.75 Y116.959 E10.0158
G1 X101.063 Y116.523 E10.04258
G1 X101.437 Y116.138 E10.06936
G0 F2160 X101.894 Y116.28
G1 F900 X102.185 Y116.06 E10.08756
G1 X102.611 Y115.788 E10.11277
G1 X103.257 Y115.53 E10.14748
G1 X103.862 Y115.384 E10.17853
G1 X104.557 Y115.309 E10.2134
G1 X105.061 Y115.3 E10.23855
G1 X111.96 Y115.301 E10.58274
G1 X112.662 Y115.312 E10.61777
G1 X113.29 Y115.385 E10.64931
G1 X113.823 Y115.519 E10.67673
G1 X114.485 Y115.785 E10.71233
G1 X114.645 Y115.871 E10.72139
G1 X116.875 Y117.108 E10.84861
G1 X119.266 Y118.347 E10.98297
G1 X121.777 Y119.56 E11.12209
G1 X124.257 Y120.672 E11.25769
G1 X126.759 Y121.712 E11.39287
G1 X126.771 Y121.715 E11.39348
G1 X128.908 Y122.533 E11.50764
G1 X129.126 Y122.62 E11.51935
G1 X129.77 Y122.967 E11.55585
G1 X130.09 Y123.19 E11.57531
G1 X130.48 Y123.511 E11.60051
G1 X130.93 Y124.051 E11.63558
G1 X131.163 Y124.405 E11.65672
G1 X131.402 Y124.85 E11.68192
G1 X131.531 Y125.199 E11.70048
G1 X131.838 Y126.203 E11.75286
G1 X132.006 Y126.78 E11.78285
G1 X132.855 Y129.426 E11.92148
G1 X133.618 Y131.599 E12.03638
G1 X134.226 Y133.27 E12.1251
G1 X134.46 Y133.944 E12.16069
G1 X134.588 Y134.434 E12.18596
G1 X134.636 Y134.937 E12.21117
G1 X134.606 Y135.442 E12.23641
G1 X134.496 Y135.935 E12.26161
G1 X134.309 Y136.405 E12.28684
G1 X134.051 Y136.84 E12.31208
G1 X133.728 Y137.228 E12.33726
G1 X133.347 Y137.561 E12.36251
G1 X132.919 Y137.83 E12.38773
G1 X132.619 Y137.968 E12.4042
G1 X131.437 Y138.438 E12.46766
G1 X130.527 Y138.819 E12.51688
G1 X130.39 Y138.864 E12.52408
G1 X129.245 Y139.332 E12.58579
G1 X128.792 Y139.479 E12.60955
G1 X128.299 Y139.599 E12.63486
G1 X127.654 Y139.688 E12.66735
G1 X127.073 Y139.7 E12.69634
G1 X115.292 Y139.7 E13.2841
G1 X114.084 Y139.681 E13.34437
G1 X113.761 Y139.666 E13.3605
G1 X113.149 Y139.619 E13.39113
G1 X112.846 Y139.585 E13.40634
G1 X112.274 Y139.504 E13.43516
G1 X112.078 Y139.47 E13.44508
G1 X111.257 Y139.3 E13.48691
G1 X111.086 Y139.258 E13.4957
G1 X110.563 Y139.116 E13.52273
G1 X110.27 Y139.027 E13.53801
G1 X109.67 Y138.823 E13.56963
G1 X109.477 Y138.75 E13.57992
G1 X108.824 Y138.48 E13.61518
G1 X108.603 Y138.381 E13.62726
G1 X108.054 Y138.113 E13.65774
G1 X107.769 Y137.962 E13.67383
G1 X107.244 Y137.663 E13.70397
G1 X107.078 Y137.561 E13.71369
G1 X106.504 Y137.186 E13.7479
G1 X106.344 Y137.074 E13.75764
G1 X105.84 Y136.699 E13.78898
G1 X105.613 Y136.519 E13.80344
G1 X105.098 Y136.081 E13.83717
G1 X104.948 Y135.945 E13.84727
G1 X104.455 Y135.469 E13.88146
G1 X104.257 Y135.264 E13.89568
G1 X103.89 Y134.862 E13.92283
G1 X103.698 Y134.638 E13.93755
G1 X103.287 Y134.128 E13.97023
G1 X103.127 Y133.915 E13.98352
G1 X102.777 Y133.419 E14.01381
G1 X102.664 Y133.246 E14.02411
G1 X102.228 Y132.534 E14.06577
G1 X102.141 Y132.378 E14.07468
G1 X101.892 Y131.908 E14.10121
G1 X101.749 Y131.617 E14.11739
G1 X101.511 Y131.092 E14.14615
G1 X101.412 Y130.851 E14.15915
G1 X101.169 Y130.213 E14.19321
G1 X101.072 Y129.932 E14.20804
G1 X100.915 Y129.423 E14.23461
G1 X100.848 Y129.176 E14.24738
G1 X100.677 Y128.47 E14.28362
G1 X100.635 Y128.27 E14.29382
G1 X100.529 Y127.666 E14.32441
G1 X100.484 Y127.346 E14.34053
G1 X100.419 Y126.764 E14.36975
G1 X100.398 Y126.501 E14.38291
G1 X100.367 Y125.84 E14.41593
G1 X100.35 Y124.766 E14.46952
G1 X100.35 Y120.157 E14.69946
G1 X100.361 Y119.447 E14.73489
G1 X100.418 Y118.884 E14.76312
G1 X100.488 Y118.525 E14.78137
G1 X100.627 Y118.039 E14.80659
G1 X100.892 Y117.495 E14.83677
G1 X101.092 Y117.167 E14.85594
G1 X101.388 Y116.758 E14.88113
G1 X101.894 Y116.28 E14.91586
G1 F1500 E8.41586
;MESH:samla_clips_20180525-55-10mad2w.stl
G0 F2160 X104.292 Y117.877
G0 X104.569 Y119.12
G0 X106.182 Y127.652
G0 X106.734 Y129.182
G0 X107.562 Y130.581
G0 X108.262 Y131.424
G0 X109.472 Y132.49
G0 X110.871 Y133.318
G0 X112.401 Y133.869
G0 X114.019 Y134.123
G0 X123.59 Y134.139
G0 X124.823 Y133.819
G0 X125.782 Y132.917
G0 X127.35 Y128.999
;TYPE:WALL-INNER
G1 F1500 E14.91586
G1 F900 X127.736 Y130.061 E14.97223
G1 X128.782 Y132.934 E15.12477
G1 X128.879 Y133.2 E15.1389
G1 X128.596 Y133.2 E15.14724
G1 X128.595 Y133.2 E15.14729
G1 X127.245 Y133.2 E15.21464
G1 X126.931 Y133.2 E15.23031
G1 X127.065 Y132.916 E15.23936
G1 X127.176 Y132.68 E15.25237
G1 X127.342 Y131.817 E15.29622
G1 X127.35 Y131.483 E15.31289
G1 X127.35 Y130.13 E15.38039
G1 X127.35 Y130.128 E15.38049
G1 X127.35 Y128.999 E15.40907
G0 F2160 X125.587 Y134.699
G1 F900 X126.081 Y134.339 E15.43957
G1 X126.161 Y134.281 E15.4445
G1 X126.397 Y133.995 E15.463
G1 X126.75 Y133.567 E15.49068
G1 X126.75 Y134.121 E15.50531
G1 X126.75 Y134.122 E15.50536
G1 X126.75 Y134.699 E15.53415
G1 X126.199 Y134.699 E15.56163
G1 X126.198 Y134.699 E15.56168
G1 X125.587 Y134.699 E15.57767
G0 F2160 X113.467 Y134.072
G0 X111.88 Y133.716
G0 X110.388 Y133.071
G0 X109.031 Y132.147
G0 X107.896 Y131.01
G0 X106.98 Y129.665
G0 X106.334 Y128.174
G0 X105.98 Y126.588
G0 X105.911 Y125.513
G0 X105.922 Y120.872
G0 X111.95 Y120.1
G1 F900 X105.15 Y120.1 E15.91693
G1 X105.15 Y125.5 E16.18633
G1 X105.15 Y125.526 E16.18763
G1 X105.169 Y126.097 E16.21614
G1 X105.225 Y126.683 E16.2455
G1 X105.312 Y127.234 E16.27333
G1 X105.317 Y127.264 E16.27485
G1 X105.444 Y127.843 E16.30442
G1 X105.607 Y128.395 E16.33314
G1 X105.612 Y128.41 E16.33393
G1 X105.811 Y128.965 E16.36334
G1 X106.046 Y129.507 E16.39282
G1 X106.298 Y130.003 E16.42057
G1 X106.313 Y130.032 E16.4222
G1 X106.614 Y130.54 E16.45166
G1 X106.946 Y131.029 E16.48115
G1 X107.291 Y131.471 E16.50912
G1 X107.31 Y131.495 E16.51065
G1 X107.697 Y131.934 E16.53985
G1 X107.716 Y131.955 E16.54126
G1 X108.13 Y132.344 E16.5696
G1 X108.536 Y132.725 E16.59738
G1 X108.571 Y132.752 E16.59958
G1 X109.025 Y133.106 E16.62831
G1 X109.514 Y133.438 E16.65779
G1 X110.021 Y133.738 E16.68718
G1 X110.524 Y133.994 E16.71534
G1 X110.548 Y134.006 E16.71668
G1 X111.09 Y134.24 E16.74613
G1 X111.101 Y134.244 E16.74672
G1 X111.644 Y134.438 E16.77548
G1 X112.21 Y134.607 E16.80495
G1 X112.22 Y134.609 E16.80546
G1 X112.789 Y134.734 E16.83453
G1 X113.372 Y134.827 E16.86398
G1 X113.944 Y134.881 E16.89265
G1 X113.975 Y134.884 E16.8942
G1 X114.599 Y134.897 E16.92534
G1 X114.702 Y134.9 E16.93048
G1 X123.64 Y134.9 E17.3764
G1 X124.397 Y134.802 E17.41448
G1 X124.649 Y134.704 E17.42797
G1 X125.192 Y134.492 E17.45705
G1 X125.885 Y133.987 E17.49983
G1 X126.429 Y133.328 E17.54246
G1 X126.793 Y132.555 E17.58509
G1 X126.943 Y131.774 E17.62477
G1 X126.95 Y131.478 E17.63954
G1 X126.95 Y127.844 E17.82084
G1 X126.95 Y127.28 E17.84898
G1 X126.95 Y126.901 E17.86789
G1 X127.15 Y126.901 E17.87786
G1 X127.15 Y127.28 E17.88734
G1 X127.342 Y127.81 E17.90855
G1 X129.354 Y133.334 E18.20186
G1 X129.451 Y133.6 E18.21598
G1 X129.168 Y133.6 E18.22433
G1 X129.167 Y133.6 E18.22438
G1 X127.15 Y133.6 E18.325
G1 X127.15 Y135.099 E18.39979
G1 X124.668 Y135.099 E18.52362
G1 X124.397 Y135.099 E18.53544
G1 X123.64 Y135.099 E18.55889
G1 X114.703 Y135.099 E18.78125
G1 X114.595 Y135.1 E18.78403
G1 X113.969 Y135.08 E18.79968
G1 X113.926 Y135.078 E18.80089
G1 X113.352 Y135.024 E18.81514
G1 X113.342 Y135.023 E18.81564
G1 X112.758 Y134.931 E18.83034
G1 X112.739 Y134.927 E18.83106
G1 X112.178 Y134.802 E18.84518
G1 X112.156 Y134.796 E18.8459
G1 X111.589 Y134.632 E18.86058
G1 X111.577 Y134.628 E18.86106
G1 X111.034 Y134.433 E18.87552
G1 X111.011 Y134.423 E18.87632
G1 X110.47 Y134.188 E18.89094
G1 X110.434 Y134.172 E18.89207
G1 X109.923 Y133.911 E18.90641
G1 X109.408 Y133.607 E18.92137
G1 X108.913 Y133.272 E18.93644
G1 X108.901 Y133.263 E18.937
G1 X108.448 Y132.912 E18.95134
G1 X108.405 Y132.874 E18.95294
G1 X107.983 Y132.501 E18.96756
G1 X107.577 Y132.094 E18.98241
G1 X107.549 Y132.066 E18.98352
G1 X107.161 Y131.627 E18.99808
G1 X107.133 Y131.595 E18.99928
G1 X106.785 Y131.146 E19.01351
G1 X106.446 Y130.644 E19.02865
G1 X106.144 Y130.133 E19.04331
G1 X106.121 Y130.094 E19.04459
G1 X105.867 Y129.595 E19.05851
G1 X105.629 Y129.044 E19.07361
G1 X105.621 Y129.026 E19.0746
G1 X105.425 Y128.477 E19.08896
G1 X105.416 Y128.452 E19.08975
G1 X105.254 Y127.896 E19.10414
G1 X105.252 Y127.886 E19.10465
G1 X105.124 Y127.307 E19.1192
G1 X105.115 Y127.266 E19.12037
