;FLAVOR:Marlin
;TIME:1776
;Filament used: 2.08517m, 0m
;Layer height: 0.2
;MINX:86.853
;MINY:99.563
;MINZ:0.3
;MAXX:137.33
;MAXY:168.713
;MAXZ:20.1
;Generated with Cura_SteamEngine 4.7.1
T0
M140 S60
M105
M190 S60
M104 S190
M105
M109 S190
M82 ;absolute extrusion mode
M201 X500.00 Y500.00 Z100.00 E5000.00 	;Setup machine max acceleration
M203 X500.00 Y500.00 Z10.00 E50.00 	;Setup machine max feedrate
M204 P500.00 R1000.00 T500.00 		;Setup Print/Retract/Travel acceleration
M205 X8.00 Y8.00 Z0.40 E5.00 		;Setup Jerk
M220 S100 				;Reset Feedrate
M221 S100 				;Reset Flowrate
G28				;Home the Machine
G29 				;Bed Level
G92 E0
M300 P150 S587
G92 E0
G1 F1500 E-6.5
;LAYER_COUNT:100
;LAYER:0
M107
G0 F3600 X116.28 Y102.57 Z0.3
;TYPE:SKIRT
G1 F1500 E0
G1 X116.796 Y102.016 E0.03777
G1 X117.43 Y101.458 E0.07991
G1 X117.95 Y101.075 E0.11213
G1 X118.618 Y100.659 E0.15139
G1 X119.345 Y100.301 E0.19182
G1 X119.827 Y100.106 E0.21776
G1 X120.381 Y99.921 E0.2469
G1 X120.89 Y99.789 E0.27313
G1 X121.493 Y99.674 E0.30376
G1 X122.144 Y99.602 E0.33643
G1 X122.495 Y99.586 E0.35396
G1 X123.752 Y99.563 E0.41669
G1 X128.101 Y99.564 E0.63366
G1 X128.665 Y99.574 E0.6618
G1 X129.43 Y99.611 E0.70001
G1 X130.025 Y99.676 E0.72987
G1 X130.775 Y99.823 E0.768
G1 X131.284 Y99.965 E0.79437
G1 X131.833 Y100.156 E0.82337
G1 X132.339 Y100.372 E0.85082
G1 X132.84 Y100.623 E0.87877
G1 X133.427 Y100.976 E0.91294
G1 X134.05 Y101.421 E0.95114
G1 X134.665 Y101.957 E0.99184
G1 X135.03 Y102.328 E1.01781
G1 X135.432 Y102.794 E1.04851
G1 X135.815 Y103.314 E1.08073
G1 X136.227 Y103.972 E1.11946
G1 X136.574 Y104.686 E1.15907
G1 X136.7 Y104.99 E1.17549
G1 X136.907 Y105.561 E1.20579
G1 X137.062 Y106.076 E1.23262
G1 X137.216 Y106.844 E1.2717
G1 X137.29 Y107.492 E1.30424
G1 X137.307 Y107.86 E1.32262
G1 X137.33 Y109.119 E1.38544
G1 X137.329 Y119.335 E1.89512
G1 X137.327 Y121.55 E2.00562
G1 X137.323 Y121.608 E2.00852
G1 X137.33 Y122.623 E2.05916
G1 X137.33 Y135.182 E2.68573
G1 X137.32 Y135.886 E2.72086
G1 X137.272 Y136.42 E2.74761
G1 X137.146 Y136.941 E2.77435
G1 X136.943 Y137.438 E2.80114
G1 X136.62 Y137.968 E2.8321
G1 X136.531 Y138.089 E2.83959
G1 X134.947 Y140.297 E2.97517
G1 X133.402 Y142.588 E3.11303
G1 X131.95 Y144.875 E3.24818
G1 X130.57 Y147.193 E3.38277
G1 X129.229 Y149.597 E3.5201
G1 X127.964 Y152.024 E3.65665
G1 X126.784 Y154.453 E3.79137
G1 X125.657 Y156.951 E3.92809
G1 X124.607 Y159.464 E4.06397
G1 X124.042 Y160.949 E4.14324
G1 X123.328 Y162.751 E4.23994
G1 X123.063 Y163.327 E4.27157
G1 X122.717 Y163.937 E4.30656
G1 X122.407 Y164.415 E4.33499
G1 X122.069 Y164.878 E4.36359
G1 X121.698 Y165.334 E4.39291
G1 X121.267 Y165.788 E4.42415
G1 X120.771 Y166.246 E4.45783
G1 X120.271 Y166.674 E4.49066
G1 X119.826 Y166.995 E4.51804
G1 X119.023 Y167.488 E4.56505
G1 X118.504 Y167.755 E4.59417
G1 X117.842 Y168.042 E4.63016
G1 X117.313 Y168.223 E4.65806
G1 X116.797 Y168.379 E4.68495
G1 X116.031 Y168.555 E4.72416
G1 X115.405 Y168.653 E4.75577
G1 X114.725 Y168.707 E4.78981
G1 X114.159 Y168.713 E4.81805
G1 X113.654 Y168.705 E4.84324
G1 X112.952 Y168.64 E4.87842
G1 X112.231 Y168.519 E4.91489
G1 X111.72 Y168.394 E4.94114
G1 X111.472 Y168.327 E4.95395
G1 X108.788 Y167.641 E5.09216
G1 X106.095 Y167.034 E5.22989
G1 X103.456 Y166.517 E5.36405
G1 X101.182 Y166.132 E5.47912
G1 X100.69 Y166.054 E5.50397
G1 X100.168 Y165.93 E5.53074
G1 X99.67 Y165.731 E5.55749
G1 X99.208 Y165.46 E5.58421
G1 X98.79 Y165.123 E5.611
G1 X98.428 Y164.728 E5.63773
G1 X98.219 Y164.434 E5.65573
G1 X97.902 Y163.937 E5.68514
G1 X97.008 Y162.487 E5.77012
G1 X96.668 Y161.969 E5.80103
G1 X96.043 Y160.986 E5.85915
G1 X95.761 Y160.446 E5.88954
G1 X95.625 Y160.121 E5.90712
G1 X94.837 Y158.166 E6.01228
G1 X93.736 Y155.644 E6.14957
G1 X92.578 Y153.186 E6.28513
G1 X91.35 Y150.756 E6.42096
G1 X90.048 Y148.351 E6.5574
G1 X88.338 Y145.418 E6.72678
G1 X88.043 Y144.915 E6.75588
G1 X87.81 Y144.455 E6.7816
G1 X87.551 Y143.856 E6.81416
G1 X87.342 Y143.264 E6.84548
G1 X87.141 Y142.594 E6.88038
G1 X87.053 Y142.19 E6.90101
G1 X86.958 Y141.653 E6.92822
G1 X86.911 Y141.262 E6.94786
G1 X86.869 Y140.624 E6.97976
G1 X86.853 Y139.83 E7.01938
G1 X86.919 Y139.014 E7.06023
G1 X87.003 Y138.453 E7.08853
G1 X87.132 Y137.837 E7.11993
G1 X87.273 Y137.326 E7.14637
G1 X87.495 Y136.681 E7.1804
G1 X87.586 Y136.46 E7.19233
G1 X87.824 Y135.933 E7.22118
G1 X87.931 Y135.716 E7.23325
G1 X88.203 Y135.208 E7.262
G1 X88.441 Y134.824 E7.28454
G1 X88.861 Y134.232 E7.32075
G1 X89.152 Y133.856 E7.34447
G1 X89.482 Y133.473 E7.36969
G1 X89.933 Y133.016 E7.40172
G1 X90.388 Y132.62 E7.43182
G1 X90.382 Y132.613 E7.43228
G1 X91.127 Y132.008 E7.48016
G1 X92.267 Y131.109 E7.55259
G1 X94.359 Y129.361 E7.6886
G1 X96.421 Y127.538 E7.82591
G1 X98.391 Y125.693 E7.96057
G1 X100.318 Y123.785 E8.09586
G1 X102.208 Y121.804 E8.23246
G1 X104.047 Y119.764 E8.36948
G1 X105.802 Y117.702 E8.50457
G1 X107.529 Y115.553 E8.64212
G1 X109.147 Y113.417 E8.7758
G1 X110.747 Y111.179 E8.91306
G1 X112.282 Y108.896 E9.05031
G1 X113.727 Y106.612 E9.18515
G1 X114.717 Y104.959 E9.28128
G1 X115.376 Y103.834 E9.34632
G1 X115.876 Y103.075 E9.39167
G1 X116.28 Y102.57 E9.42393
G0 F3600 X116.576 Y102.838
G1 F1500 X117.07 Y102.307 E9.46012
G1 X117.689 Y101.762 E9.50126
G1 X118.167 Y101.41 E9.53088
G1 X118.805 Y101.012 E9.56839
G1 X119.516 Y100.662 E9.60793
G1 X120.097 Y100.435 E9.63905
G1 X120.787 Y100.223 E9.67506
G1 X121.566 Y100.068 E9.71469
G1 X122.165 Y100.001 E9.74476
G1 X122.503 Y99.986 E9.76164
G1 X123.752 Y99.963 E9.82396
G1 X128.096 Y99.964 E10.04069
G1 X128.646 Y99.974 E10.06813
G1 X129.411 Y100.011 E10.10634
G1 X129.974 Y100.073 E10.1346
G1 X130.692 Y100.214 E10.1711
G1 X131.294 Y100.389 E10.20238
G1 X131.965 Y100.641 E10.23814
G1 X132.658 Y100.98 E10.27663
G1 X133.2 Y101.305 E10.30816
G1 X133.796 Y101.73 E10.34468
G1 X134.398 Y102.254 E10.3845
G1 X134.838 Y102.714 E10.41625
G1 X135.292 Y103.264 E10.45183
G1 X135.734 Y103.924 E10.49146
G1 X136.002 Y104.409 E10.51911
G1 X136.324 Y105.126 E10.55832
G1 X136.531 Y105.697 E10.58862
G1 X136.719 Y106.371 E10.62353
G1 X136.823 Y106.917 E10.65126
G1 X136.89 Y107.513 E10.68119
G1 X136.907 Y107.867 E10.69887
G1 X136.93 Y109.119 E10.76134
G1 X136.929 Y119.335 E11.27102
G1 X136.927 Y121.55 E11.38152
G1 X136.923 Y121.606 E11.38433
G1 X136.93 Y122.626 E11.43521
G1 X136.93 Y135.176 E12.06134
G1 X136.92 Y135.88 E12.09646
G1 X136.873 Y136.384 E12.12172
G1 X136.747 Y136.873 E12.14691
G1 X136.545 Y137.337 E12.17216
G1 X136.209 Y137.852 E12.20284
G1 X134.623 Y140.063 E12.33859
G1 X133.077 Y142.355 E12.47652
G1 X131.612 Y144.662 E12.61286
G1 X130.212 Y147.015 E12.74946
G1 X128.868 Y149.424 E12.88708
G1 X127.607 Y151.842 E13.02314
G1 X126.417 Y154.292 E13.15902
G1 X125.304 Y156.759 E13.29405
G1 X124.234 Y159.321 E13.43257
G1 X123.67 Y160.802 E13.51163
G1 X122.956 Y162.604 E13.60833
G1 X122.709 Y163.139 E13.63773
G1 X122.374 Y163.732 E13.67171
G1 X122.084 Y164.179 E13.69829
G1 X121.746 Y164.642 E13.72689
G1 X121.402 Y165.066 E13.75413
G1 X120.996 Y165.494 E13.78357
G1 X120.5 Y165.952 E13.81725
G1 X120.025 Y166.358 E13.84842
G1 X119.598 Y166.667 E13.87472
G1 X118.822 Y167.143 E13.92014
G1 X118.339 Y167.39 E13.9472
G1 X117.708 Y167.665 E13.98154
G1 X117.197 Y167.84 E14.00849
G1 X116.681 Y167.996 E14.03538
G1 X115.948 Y168.164 E14.0729
G1 X115.365 Y168.255 E14.10234
G1 X114.721 Y168.307 E14.13457
G1 X114.066 Y168.313 E14.16725
G1 X113.329 Y168.282 E14.20405
G1 X112.6 Y168.184 E14.24075
G1 X111.909 Y168.03 E14.27607
G1 X111.528 Y167.928 E14.29575
G1 X108.903 Y167.257 E14.43092
G1 X106.155 Y166.637 E14.57147
G1 X103.522 Y166.122 E14.70532
G1 X101.237 Y165.735 E14.82094
G1 X100.753 Y165.658 E14.84539
G1 X100.261 Y165.54 E14.87063
G1 X99.794 Y165.346 E14.89586
G1 X99.364 Y165.08 E14.92109
G1 X98.981 Y164.75 E14.94631
G1 X98.556 Y164.219 E14.98024
G1 X98.243 Y163.727 E15.00933
G1 X97.356 Y162.288 E15.09367
G1 X97.006 Y161.754 E15.12552
G1 X96.381 Y160.771 E15.18364
G1 X96.13 Y160.292 E15.21062
G1 X95.996 Y159.972 E15.22792
G1 X95.198 Y157.993 E15.33438
G1 X94.107 Y155.492 E15.47051
G1 X92.933 Y153 E15.60794
G1 X91.709 Y150.578 E15.74333
G1 X90.395 Y148.152 E15.88098
G1 X88.7 Y145.245 E16.04886
G1 X88.391 Y144.719 E16.0793
G1 X88.122 Y144.181 E16.10931
G1 X87.929 Y143.723 E16.1341
G1 X87.688 Y143.037 E16.17038
G1 X87.531 Y142.506 E16.198
G1 X87.447 Y142.12 E16.21771
G1 X87.352 Y141.583 E16.24492
G1 X87.31 Y141.236 E16.26236
G1 X87.268 Y140.598 E16.29426
G1 X87.252 Y139.85 E16.33158
G1 X87.317 Y139.053 E16.37148
G1 X87.395 Y138.533 E16.39771
G1 X87.52 Y137.933 E16.42829
G1 X87.657 Y137.439 E16.45386
G1 X87.87 Y136.821 E16.48648
G1 X87.951 Y136.625 E16.49706
G1 X88.189 Y136.098 E16.5259
G1 X88.284 Y135.905 E16.53664
G1 X88.556 Y135.397 E16.56539
G1 X88.767 Y135.055 E16.58543
G1 X89.187 Y134.463 E16.62165
G1 X89.455 Y134.117 E16.64348
G1 X89.785 Y133.734 E16.6687
G1 X90.211 Y133.304 E16.6989
G1 X90.64 Y132.93 E16.7273
G1 X90.635 Y132.924 E16.72769
G1 X91.374 Y132.322 E16.77524
G1 X92.525 Y131.414 E16.84838
G1 X94.635 Y129.651 E16.98556
G1 X96.676 Y127.846 E17.12149
G1 X98.681 Y125.97 E17.25848
G1 X100.589 Y124.08 E17.39247
G1 X102.512 Y122.065 E17.53143
G1 X104.35 Y120.025 E17.66842
G1 X106.117 Y117.948 E17.80447
G1 X107.831 Y115.817 E17.94091
G1 X109.489 Y113.628 E18.07791
G1 X111.072 Y111.414 E18.21369
G1 X112.615 Y109.119 E18.35166
G1 X114.077 Y106.808 E18.48809
G1 X115.061 Y105.164 E18.58368
G1 X115.763 Y103.966 E18.65296
G1 X116.205 Y103.302 E18.69275
G1 X116.576 Y102.838 E18.72239
G1 F1500 E12.22239
G0 F3600 X116.609 Y134.958
G0 X118.268 Y135.464
G0 X119.116 Y134.259
G0 X118.837 Y133.821
;TYPE:SUPPORT
G1 F1500 E18.72239
G1 X123.156 Y133.821 E18.93787
G1 X123.333 Y134.204 E18.95892
G1 X123.333 Y135.168 E19.00701
G1 X118.625 Y135.168 E19.24189
G1 X118.635 Y134.259 E19.28725
G1 X118.837 Y133.821 E19.31131
G0 F3600 X120 Y133.981
G1 F1500 X120 Y135.008 E19.36255
G1 F1500 E12.86255
G0 F3600 X121.226 Y159.024
G0 X120.812 Y161.182
G0 X120.362 Y162.175
G0 X119.64 Y163.237
G0 X118.118 Y164.619
G0 X116.854 Y165.291
G0 X115.852 Y165.609
G0 X114.687 Y165.784
G0 X113.65 Y165.779
G0 X101.097 Y163.17
G0 X100.219 Y160.233
G0 X104.35 Y156.043
G0 X104.789 Y155.789
G1 F1500 E19.36255
G1 X104.789 Y158.962 E19.52085
G1 X102.043 Y160.546 E19.67901
G1 X101.169 Y160.04 E19.72939
G1 X101.153 Y160.053 E19.73042
G1 X100.936 Y159.93 E19.74286
G1 X100.245 Y159.532 E19.78265
G1 X99.277 Y158.955 E19.83887
G1 X99.277 Y156.615 E19.95561
G1 X99.297 Y156.608 E19.95667
G1 X99.297 Y155.789 E19.99753
G1 X102.043 Y154.205 E20.15569
G1 X104.789 Y155.789 E20.31384
G0 F3600 X104 Y155.519
G1 F1500 X104 Y159.233 E20.49914
G0 F3600 X102.668 Y160
G1 F1500 X101.416 Y160 E20.5616
G1 F1500 E14.0616
;MESH:BLTouch_Wing.stl
G0 F3600 X101.559 Y159.752
G0 X98.611 Y157.323
G0 X97.774 Y156.434
G0 X90.568 Y143.435
G0 X90 Y141.976
G0 X89.822 Y141.02
G0 X89.773 Y139.998
G0 X89.969 Y138.552
G0 X90.315 Y137.498
G0 X90.844 Y136.478
G0 X91.719 Y135.358
G0 X92.71 Y134.503
G0 X93.472 Y134.027
G0 X94.448 Y133.598
G0 X117.134 Y128.304
G0 X118.209 Y129.016
G0 X119.596 Y114.53
;TYPE:WALL-INNER
G1 F1500 E20.5616
G1 X119.596 Y114.231 E20.57652
G1 X119.596 Y113.778 E20.59912
G1 X119.596 Y108.189 E20.87795
G1 X119.625 Y107.739 E20.90045
G1 X119.703 Y107.351 E20.92019
G1 X119.799 Y107.07 E20.93501
G1 X119.846 Y106.931 E20.94233
G1 X120.001 Y106.619 E20.95971
G1 X120.032 Y106.557 E20.96317
G1 X120.257 Y106.216 E20.98355
G1 X120.342 Y106.12 E20.98995
G1 X120.316 Y106.23 E20.99019
G1 X120.224 Y106.603 E20.9971
G1 X120.196 Y106.715 E21.00066
G1 X120.196 Y106.931 E21.00746
G1 X120.196 Y107.078 E21.01436
G1 X120.196 Y107.559 E21.03835
G1 X120.374 Y108.328 E21.07773
G1 X120.805 Y109.135 E21.12338
G1 X121.474 Y109.819 E21.17111
G1 X122.224 Y110.272 E21.21482
G1 X123.305 Y110.532 E21.27029
G1 X124.136 Y110.494 E21.31179
G1 X125.265 Y110.093 E21.37157
G1 X126.15 Y109.348 E21.42928
G1 X126.749 Y108.317 E21.48877
G1 X126.933 Y107.269 E21.54185
G1 X126.905 Y106.642 E21.57317
G1 X126.683 Y105.838 E21.61478
G1 X126.365 Y105.297 E21.64609
G1 X126.25 Y105.101 E21.65743
G1 X126.103 Y104.963 E21.66748
G1 X126.25 Y104.963 E21.66813
G1 X126.478 Y104.963 E21.67629
G1 X128.694 Y104.964 E21.78684
G1 X129.151 Y104.993 E21.80969
G1 X129.544 Y105.073 E21.8297
G1 X129.954 Y105.212 E21.8513
G1 X130.325 Y105.395 E21.87193
G1 X130.674 Y105.628 E21.89287
G1 X130.998 Y105.912 E21.91437
G1 X131.268 Y106.218 E21.93472
G1 X131.487 Y106.547 E21.95444
G1 X131.686 Y106.951 E21.97691
G1 X131.817 Y107.337 E21.99725
G1 X131.9 Y107.745 E22.01802
G1 X131.93 Y108.204 E22.04097
G1 X131.93 Y112.615 E22.26103
G1 X130.23 Y112.617 E22.34585
G1 X129.641 Y112.616 E22.37523
G1 X128.582 Y113.072 E22.43276
G1 X127.951 Y113.819 E22.48154
G1 X127.778 Y114.321 E22.50803
G1 X127.752 Y114.399 E22.51213
G1 X127.659 Y114.668 E22.52633
G1 X127.659 Y114.868 E22.53631
G1 X127.595 Y114.692 E22.53695
G1 X127.449 Y114.296 E22.54945
G1 X127.406 Y114.226 E22.55319
G1 X126.983 Y113.538 E22.59348
G1 X126.16 Y112.714 E22.65158
G1 X125.281 Y112.212 E22.70208
G1 X124.572 Y111.978 E22.73933
G1 X123.64 Y111.863 E22.78618
G1 X122.821 Y111.921 E22.82714
G1 X121.931 Y112.195 E22.8736
G1 X121.731 Y112.285 E22.88455
G1 X121.003 Y112.697 E22.92628
G1 X120.395 Y113.273 E22.96806
G1 X120.245 Y113.44 E22.97926
G1 X119.971 Y113.854 E23.00403
G1 X119.722 Y114.231 E23.01917
G1 X119.596 Y114.53 E23.0225
G0 F3600 X125.09 Y108.461
G0 X125.565 Y107.182
G0 X124.908 Y104.939
G1 F1500 X124.151 Y104.651 E23.06291
G1 X123.371 Y104.579 E23.10199
G1 X122.674 Y104.72 E23.13747
G1 X122.003 Y105.093 E23.17577
G1 X121.448 Y105.657 E23.21524
G1 X121.125 Y106.282 E23.25034
G1 X120.996 Y106.811 E23.27751
G1 X120.996 Y107.467 E23.31024
G1 X121.13 Y108.044 E23.33979
G1 X121.457 Y108.657 E23.37445
G1 X121.975 Y109.187 E23.41143
G1 X122.479 Y109.491 E23.44079
G1 X122.532 Y109.524 E23.4439
G1 X123.381 Y109.728 E23.48747
G1 X123.98 Y109.7 E23.51738
G1 X124.861 Y109.387 E23.56403
G1 X125.528 Y108.826 E23.60751
G1 X125.985 Y108.039 E23.65291
G1 X126.129 Y107.217 E23.69455
G1 X126.109 Y106.768 E23.71697
G1 X125.939 Y106.152 E23.74885
G1 X125.618 Y105.605 E23.78049
G1 X124.908 Y104.939 E23.82906
G0 F3600 X124.692 Y105.285
G1 F1500 X124.06 Y105.044 E23.86281
G1 X123.393 Y104.983 E23.89622
G1 X122.814 Y105.1 E23.92569
G1 X122.248 Y105.415 E23.95801
G1 X121.775 Y105.895 E23.99163
G1 X121.502 Y106.423 E24.02128
G1 X121.396 Y106.859 E24.04367
G1 X121.396 Y107.421 E24.07171
G1 X121.508 Y107.902 E24.09635
G1 X121.783 Y108.418 E24.12552
G1 X122.226 Y108.871 E24.15713
G1 X122.686 Y109.15 E24.18397
G1 X123.419 Y109.326 E24.22158
G1 X123.902 Y109.303 E24.2457
G1 X124.659 Y109.034 E24.28578
G1 X125.217 Y108.565 E24.32215
G1 X125.603 Y107.9 E24.36051
G1 X125.727 Y107.191 E24.39642
G1 X125.711 Y106.831 E24.4144
G1 X125.567 Y106.309 E24.44141
G1 X125.302 Y105.857 E24.46755
G1 X124.692 Y105.285 E24.50927
G0 F3600 X124.476 Y105.631
;TYPE:WALL-OUTER
G1 F1500 X123.969 Y105.437 E24.53636
G1 X123.415 Y105.387 E24.56411
G1 X122.954 Y105.48 E24.58757
G1 X122.493 Y105.737 E24.6139
G1 X122.102 Y106.133 E24.64167
G1 X121.879 Y106.564 E24.66588
G1 X121.796 Y106.907 E24.68348
G1 X121.796 Y107.375 E24.70683
G1 X121.886 Y107.76 E24.72656
G1 X122.109 Y108.179 E24.75024
G1 X122.477 Y108.555 E24.77649
G1 X122.84 Y108.776 E24.79769
G1 X123.457 Y108.924 E24.82934
G1 X123.824 Y108.906 E24.84768
G1 X124.457 Y108.681 E24.88119
G1 X124.906 Y108.304 E24.91044
G1 X125.221 Y107.761 E24.94176
G1 X125.325 Y107.165 E24.97194
G1 X125.313 Y106.894 E24.98548
G1 X125.195 Y106.466 E25.00763
G1 X124.986 Y106.109 E25.02827
G1 X124.476 Y105.631 E25.06314
