;FLAVOR:Marlin
;TIME:1696
;Filament used: 2.08924m, 0m
;Layer height: 0.2
;MINX:98.616
;MINY:101.767
;MINZ:0.3
;MAXX:136.384
;MAXY:133.234
;MAXZ:19.1
;Generated with Cura_SteamEngine 4.7.1
T0
M140 S60
M105
M190 S60
M104 S190
M105
M109 S190
M82 ;absolute extrusion mode
M201 X500.00 Y500.00 Z100.00 E5000.00 	;Setup machine max acceleration
M203 X500.00 Y500.00 Z10.00 E50.00 	;Setup machine max feedrate
M204 P500.00 R1000.00 T500.00 		;Setup Print/Retract/Travel acceleration
M205 X8.00 Y8.00 Z0.40 E5.00 		;Setup Jerk
M220 S100 				;Reset Feedrate
M221 S100 				;Reset Flowrate
G28				;Home the Machine
G29 				;Bed Level
G92 E0
M300 P150 S587
G92 E0
G1 F1500 E-6.5
;LAYER_COUNT:95
;LAYER:0
M107
G0 F3600 X103.102 Y103.737 Z0.3
;TYPE:SKIRT
G1 F1500 E0
G1 X103.557 Y103.302 E0.03141
G1 X104.206 Y102.801 E0.07231
G1 X104.682 Y102.495 E0.10054
G1 X105.314 Y102.207 E0.13519
G1 X105.553 Y102.118 E0.14791
G1 X106.222 Y101.934 E0.18253
G1 X106.923 Y101.822 E0.21795
G1 X107.823 Y101.768 E0.26293
G1 X126.89 Y101.767 E1.21419
G1 X127.591 Y101.777 E1.24916
G1 X128.238 Y101.834 E1.28157
G1 X128.767 Y101.922 E1.30832
G1 X129.316 Y102.057 E1.33653
G1 X130.039 Y102.346 E1.37537
G1 X130.751 Y102.739 E1.41595
G1 X131.193 Y103.048 E1.44285
G1 X131.626 Y103.411 E1.47104
G1 X131.971 Y103.79 E1.49661
G1 X132.33 Y104.239 E1.52529
G1 X132.486 Y104.446 E1.53822
G1 X132.789 Y104.923 E1.56641
G1 X133.147 Y105.747 E1.61124
G1 X133.372 Y106.532 E1.65198
G1 X133.427 Y106.858 E1.66847
G1 X133.591 Y108.063 E1.72914
G1 X134.002 Y110.786 E1.86653
G1 X134.486 Y113.477 E2.00294
G1 X135.039 Y116.126 E2.13795
G1 X135.673 Y118.775 E2.27384
G1 X136.094 Y120.366 E2.35595
G1 X136.213 Y120.914 E2.38393
G1 X136.308 Y121.549 E2.41596
G1 X136.366 Y122.265 E2.4518
G1 X136.384 Y122.838 E2.4804
G1 X136.346 Y123.621 E2.51951
G1 X136.269 Y124.284 E2.55281
G1 X136.153 Y124.986 E2.58831
G1 X136.02 Y125.53 E2.61625
G1 X135.946 Y125.779 E2.62921
G1 X135.696 Y126.523 E2.66836
G1 X135.384 Y127.265 E2.70852
G1 X135.127 Y127.79 E2.73768
G1 X134.763 Y128.403 E2.77325
G1 X134.624 Y128.613 E2.78582
G1 X134.241 Y129.151 E2.81876
G1 X134.007 Y129.448 E2.83763
G1 X133.577 Y129.945 E2.87041
G1 X133.229 Y130.312 E2.89565
G1 X132.67 Y130.818 E2.93326
G1 X132.49 Y130.965 E2.94486
G1 X132.084 Y131.278 E2.97043
G1 X131.627 Y131.604 E2.99844
G1 X130.933 Y132.021 E3.03883
G1 X130.385 Y132.299 E3.06949
G1 X129.865 Y132.523 E3.09774
G1 X129.219 Y132.765 E3.13215
G1 X128.866 Y132.879 E3.15066
G1 X128.366 Y133.015 E3.17651
G1 X128.041 Y133.094 E3.1932
G1 X127.436 Y133.191 E3.22377
G1 X126.854 Y133.226 E3.25286
G1 X126.327 Y133.234 E3.27915
G1 X108.756 Y133.234 E4.15577
G1 X108.059 Y133.224 E4.19055
G1 X107.504 Y133.181 E4.21832
G1 X106.996 Y133.094 E4.24404
G1 X106.479 Y132.97 E4.27056
G1 X105.989 Y132.831 E4.29597
G1 X105.275 Y132.581 E4.33371
G1 X104.726 Y132.346 E4.36351
G1 X104.102 Y132.034 E4.39831
G1 X103.51 Y131.68 E4.43273
G1 X103.298 Y131.539 E4.44543
G1 X102.773 Y131.164 E4.47762
G1 X102.439 Y130.902 E4.49879
G1 X102.049 Y130.566 E4.52448
G1 X101.58 Y130.119 E4.5568
G1 X101.151 Y129.64 E4.58888
G1 X101.002 Y129.457 E4.60065
G1 X100.637 Y128.98 E4.63062
G1 X100.397 Y128.634 E4.65163
G1 X100.05 Y128.082 E4.68416
G1 X99.708 Y127.457 E4.7197
G1 X99.464 Y126.919 E4.74917
G1 X99.241 Y126.347 E4.7798
G1 X99.105 Y125.934 E4.8015
G1 X98.911 Y125.229 E4.83798
G1 X98.825 Y124.844 E4.85766
G1 X98.715 Y124.202 E4.89015
G1 X98.644 Y123.552 E4.92277
G1 X98.631 Y123.285 E4.93611
G1 X98.616 Y122.778 E4.96142
G1 X98.628 Y122.232 E4.98866
G1 X98.669 Y121.771 E5.01175
G1 X98.75 Y121.162 E5.0424
G1 X98.834 Y120.683 E5.06667
G1 X98.953 Y120.159 E5.09347
G1 X98.985 Y120.032 E5.10001
G1 X99.256 Y118.996 E5.15343
G1 X99.92 Y116.303 E5.29181
G1 X100.493 Y113.662 E5.42664
G1 X100.996 Y110.98 E5.56278
G1 X101.424 Y108.283 E5.69901
G1 X101.563 Y107.263 E5.75037
G1 X101.673 Y106.649 E5.78149
G1 X101.772 Y106.192 E5.80482
G1 X101.931 Y105.649 E5.83305
G1 X102.249 Y104.972 E5.87036
G1 X102.683 Y104.273 E5.91141
G1 X103.044 Y103.802 E5.94102
G1 X103.102 Y103.737 E5.94537
G0 F3600 X103.401 Y104.003
G1 F1500 X103.81 Y103.611 E5.97363
G1 X104.446 Y103.121 E6.01368
G1 X104.898 Y102.833 E6.04042
G1 X105.454 Y102.582 E6.07086
G1 X105.693 Y102.493 E6.08358
G1 X106.295 Y102.327 E6.11474
G1 X106.979 Y102.218 E6.14929
G1 X107.834 Y102.168 E6.19202
G1 X126.884 Y102.167 E7.14243
G1 X127.585 Y102.177 E7.17741
G1 X128.187 Y102.231 E7.20756
G1 X128.699 Y102.316 E7.23345
G1 X129.22 Y102.446 E7.26024
G1 X129.883 Y102.715 E7.29594
G1 X130.524 Y103.068 E7.33245
G1 X130.958 Y103.372 E7.35888
G1 X131.368 Y103.718 E7.38565
G1 X131.659 Y104.04 E7.4073
G1 X132.018 Y104.489 E7.43598
G1 X132.164 Y104.683 E7.4481
G1 X132.45 Y105.137 E7.47487
G1 X132.776 Y105.896 E7.51608
G1 X132.979 Y106.603 E7.55278
G1 X133.031 Y106.912 E7.56841
G1 X133.196 Y108.123 E7.62938
G1 X133.612 Y110.879 E7.76844
G1 X134.093 Y113.551 E7.90389
G1 X134.646 Y116.203 E8.03904
G1 X135.29 Y118.894 E8.17709
G1 X135.707 Y120.469 E8.25837
G1 X135.822 Y120.995 E8.28523
G1 X135.911 Y121.602 E8.31584
G1 X135.967 Y122.293 E8.35043
G1 X135.984 Y122.83 E8.37723
G1 X135.947 Y123.594 E8.41539
G1 X135.872 Y124.235 E8.44759
G1 X135.762 Y124.901 E8.48127
G1 X135.634 Y125.428 E8.50833
G1 X135.566 Y125.652 E8.52
G1 X135.316 Y126.396 E8.55916
G1 X135.019 Y127.102 E8.59737
G1 X134.776 Y127.596 E8.62484
G1 X134.424 Y128.192 E8.65937
G1 X134.298 Y128.381 E8.67071
G1 X133.915 Y128.919 E8.70365
G1 X133.704 Y129.186 E8.72063
G1 X133.274 Y129.683 E8.75342
G1 X132.847 Y130.128 E8.78419
G1 X132.408 Y130.516 E8.81342
G1 X132.246 Y130.648 E8.82384
G1 X131.84 Y130.961 E8.84942
G1 X131.411 Y131.267 E8.87571
G1 X130.732 Y131.675 E8.91523
G1 X130.221 Y131.934 E8.94381
G1 X129.725 Y132.148 E8.97076
G1 X129.079 Y132.39 E9.00518
G1 X128.761 Y132.493 E9.02186
G1 X128.261 Y132.629 E9.04771
G1 X127.948 Y132.705 E9.06378
G1 X127.404 Y132.792 E9.09126
G1 X126.841 Y132.826 E9.1194
G1 X126.322 Y132.834 E9.1453
G1 X108.761 Y132.834 E10.02142
G1 X108.064 Y132.824 E10.0562
G1 X107.546 Y132.784 E10.08212
G1 X107.089 Y132.705 E10.10525
G1 X106.572 Y132.581 E10.13178
G1 X105.807 Y132.348 E10.17168
G1 X105.226 Y132.13 E10.20263
G1 X104.486 Y131.784 E10.24339
G1 X103.991 Y131.509 E10.27164
G1 X103.531 Y131.213 E10.29893
G1 X103.006 Y130.838 E10.33112
G1 X102.7 Y130.599 E10.35049
G1 X102.31 Y130.263 E10.37617
G1 X101.874 Y129.848 E10.4062
G1 X101.454 Y129.379 E10.43761
G1 X101.32 Y129.214 E10.44822
G1 X100.955 Y128.737 E10.47818
G1 X100.735 Y128.421 E10.49739
G1 X100.388 Y127.869 E10.52992
G1 X100.07 Y127.286 E10.56305
G1 X99.829 Y126.756 E10.5921
G1 X99.615 Y126.206 E10.62154
G1 X99.491 Y125.828 E10.64139
G1 X99.297 Y125.123 E10.67787
G1 X99.22 Y124.776 E10.6956
G1 X99.11 Y124.134 E10.7281
G1 X99.044 Y123.53 E10.75841
G1 X99.031 Y123.273 E10.77125
G1 X99.016 Y122.766 E10.79656
G1 X99.027 Y122.261 E10.82176
G1 X99.065 Y121.823 E10.84369
G1 X99.146 Y121.214 E10.87434
G1 X99.224 Y120.772 E10.89673
G1 X99.343 Y120.248 E10.92354
G1 X99.371 Y120.133 E10.92945
G1 X99.657 Y119.041 E10.98576
G1 X100.308 Y116.404 E11.12127
G1 X100.891 Y113.715 E11.25855
G1 X101.385 Y111.08 E11.3923
G1 X101.825 Y108.306 E11.53242
G1 X101.958 Y107.324 E11.58186
G1 X102.066 Y106.723 E11.61233
G1 X102.162 Y106.277 E11.63509
G1 X102.316 Y105.763 E11.66186
G1 X102.604 Y105.156 E11.69538
G1 X103.018 Y104.492 E11.73441
G1 X103.343 Y104.068 E11.76107
G1 X103.401 Y104.003 E11.76541
G0 F3600 X103.699 Y104.269
G1 F1500 X104.063 Y103.921 E11.79054
G1 X104.685 Y103.441 E11.82973
G1 X105.302 Y103.08 E11.8654
G1 X105.832 Y102.868 E11.89388
G1 X106.367 Y102.72 E11.92157
G1 X107.034 Y102.614 E11.95527
G1 X107.845 Y102.568 E11.99579
G1 X126.879 Y102.567 E12.9454
G1 X127.58 Y102.577 E12.98038
G1 X128.136 Y102.628 E13.00823
G1 X128.632 Y102.71 E13.03332
G1 X129.343 Y102.92 E13.0703
G1 X129.726 Y103.083 E13.09107
G1 X130.296 Y103.397 E13.12354
G1 X130.724 Y103.696 E13.14958
G1 X131.109 Y104.024 E13.17482
G1 X131.346 Y104.29 E13.19259
G1 X131.705 Y104.739 E13.22127
G1 X131.843 Y104.921 E13.23267
G1 X132.11 Y105.35 E13.25788
G1 X132.405 Y106.045 E13.29554
G1 X132.585 Y106.673 E13.32814
G1 X132.635 Y106.967 E13.34301
G1 X132.807 Y108.228 E13.40651
G1 X133.216 Y110.939 E13.54329
G1 X133.701 Y113.633 E13.67986
G1 X134.252 Y116.273 E13.8144
G1 X134.896 Y118.962 E13.95235
G1 X135.321 Y120.571 E14.03538
G1 X135.43 Y121.076 E14.06115
G1 X135.515 Y121.654 E14.0903
G1 X135.568 Y122.321 E14.12368
G1 X135.584 Y122.822 E14.14869
G1 X135.548 Y123.567 E14.1859
G1 X135.475 Y124.185 E14.21695
G1 X135.372 Y124.815 E14.2488
G1 X135.247 Y125.325 E14.27499
G1 X135.187 Y125.524 E14.28536
G1 X134.937 Y126.268 E14.32452
G1 X134.654 Y126.938 E14.36081
G1 X134.426 Y127.402 E14.3866
G1 X134.084 Y127.981 E14.42015
G1 X133.972 Y128.149 E14.43022
G1 X133.589 Y128.687 E14.46317
G1 X133.402 Y128.925 E14.47827
G1 X132.972 Y129.422 E14.51106
G1 X132.571 Y129.838 E14.53988
G1 X132.145 Y130.214 E14.56823
G1 X132.002 Y130.331 E14.57745
G1 X131.596 Y130.644 E14.60303
G1 X131.04 Y131.03 E14.63679
G1 X130.532 Y131.329 E14.6662
G1 X130.058 Y131.569 E14.69271
G1 X129.585 Y131.774 E14.71843
G1 X128.939 Y132.016 E14.75285
G1 X128.656 Y132.107 E14.76768
G1 X128.156 Y132.243 E14.79353
G1 X127.371 Y132.393 E14.8334
G1 X126.828 Y132.426 E14.86054
G1 X126.317 Y132.434 E14.88604
G1 X108.767 Y132.434 E15.76161
G1 X108.07 Y132.424 E15.79639
G1 X107.183 Y132.316 E15.84097
G1 X106.666 Y132.192 E15.86749
G1 X105.933 Y131.969 E15.90572
G1 X105.385 Y131.763 E15.93492
G1 X104.662 Y131.424 E15.97476
G1 X104.202 Y131.169 E16.001
G1 X103.763 Y130.888 E16.02701
G1 X103.238 Y130.513 E16.05919
G1 X102.961 Y130.296 E16.07675
G1 X102.571 Y129.96 E16.10243
G1 X102.169 Y129.577 E16.13013
G1 X101.757 Y129.117 E16.16094
G1 X101.638 Y128.971 E16.17034
G1 X101.273 Y128.494 E16.2003
G1 X101.074 Y128.208 E16.21769
G1 X100.727 Y127.656 E16.25022
G1 X100.431 Y127.115 E16.28098
G1 X100.194 Y126.593 E16.30958
G1 X99.99 Y126.065 E16.33782
G1 X99.877 Y125.722 E16.35584
G1 X99.683 Y125.017 E16.39232
G1 X99.614 Y124.708 E16.40812
G1 X99.504 Y124.066 E16.44061
G1 X99.443 Y123.507 E16.46867
G1 X99.43 Y123.262 E16.48091
G1 X99.415 Y122.755 E16.50621
G1 X99.442 Y122.068 E16.54051
G1 X99.462 Y121.876 E16.55014
G1 X99.543 Y121.267 E16.58079
G1 X99.614 Y120.86 E16.60141
G1 X99.733 Y120.336 E16.62821
G1 X99.758 Y120.234 E16.63345
G1 X100.044 Y119.142 E16.68977
G1 X100.701 Y116.479 E16.82661
G1 X101.282 Y113.802 E16.96328
G1 X101.786 Y111.11 E17.09992
G1 X102.212 Y108.429 E17.23535
G1 X102.354 Y107.386 E17.28787
G1 X102.46 Y106.796 E17.31777
G1 X102.553 Y106.363 E17.33987
G1 X102.7 Y105.879 E17.3651
G1 X102.959 Y105.341 E17.39489
G1 X103.352 Y104.711 E17.43194
G1 X103.699 Y104.269 E17.45997
G1 F1500 E10.95997
G0 F3600 X108.988 Y110.516
G0 X108.781 Y110.353
;TYPE:SUPPORT
G1 F1500 E17.45997
G1 X109.021 Y110.163 E17.47524
G1 X109.12 Y110.088 E17.48144
G1 X109.374 Y109.947 E17.49593
G1 X109.598 Y109.852 E17.50807
G1 X109.944 Y109.757 E17.52597
G1 X110.22 Y109.709 E17.53995
G1 X110.414 Y109.687 E17.54969
G1 X110.538 Y109.693 E17.55588
G1 X110.858 Y109.73 E17.57196
G1 X111.182 Y109.783 E17.58834
G1 X111.269 Y109.806 E17.59282
G1 X111.493 Y109.891 E17.60478
G1 X111.8 Y110.05 E17.62203
G1 X111.958 Y110.145 E17.63122
G1 X112.273 Y110.406 E17.65163
G1 X112.35 Y110.475 E17.65679
G1 X112.471 Y110.622 E17.66629
G1 X112.582 Y110.761 E17.67516
G1 X112.766 Y111.038 E17.69176
G1 X112.845 Y111.189 E17.70026
G1 X112.862 Y111.231 E17.70252
G1 X112.919 Y111.412 E17.71199
G1 X112.989 Y111.708 E17.72716
G1 X113.034 Y111.924 E17.73817
G1 X113.04 Y111.964 E17.74019
G1 X113.044 Y112.006 E17.74229
G1 X113.05 Y112.27 E17.75547
G1 X113.045 Y112.318 E17.75787
G1 X113.023 Y112.699 E17.77691
G1 X113.016 Y112.76 E17.77998
G1 X112.979 Y112.941 E17.78919
G1 X112.95 Y113.072 E17.79589
G1 X112.945 Y113.089 E17.79677
G1 X112.767 Y113.479 E17.81816
G1 X112.741 Y113.525 E17.82079
G1 X112.638 Y113.688 E17.83041
G1 X112.623 Y113.715 E17.83196
G1 X112.568 Y113.798 E17.83692
G1 X112.427 Y113.966 E17.84787
G1 X112.356 Y114.047 E17.85324
G1 X111.748 Y114.494 E17.89089
G1 X111.698 Y114.534 E17.89408
G1 X111.624 Y114.567 E17.89812
G1 X111.449 Y114.636 E17.90751
G1 X110.991 Y114.778 E17.93143
G1 X110.808 Y114.819 E17.94079
G1 X110.675 Y114.838 E17.94749
G1 X110.211 Y114.819 E17.97066
G1 X110.055 Y114.791 E17.97857
G1 X109.905 Y114.762 E17.98619
G1 X109.713 Y114.718 E17.99602
G1 X109.51 Y114.639 E18.00688
G1 X109.16 Y114.462 E18.02645
G1 X108.849 Y114.248 E18.04529
G1 X108.731 Y114.142 E18.0532
G1 X108.583 Y113.994 E18.06364
G1 X108.367 Y113.694 E18.08208
G1 X108.241 Y113.484 E18.0943
G1 X108.177 Y113.363 E18.10113
G1 X108.129 Y113.261 E18.10676
G1 X108.082 Y113.148 E18.11286
G1 X108.05 Y113.057 E18.11767
G1 X108.031 Y112.951 E18.12305
G1 X107.957 Y111.937 E18.17377
G1 X107.969 Y111.818 E18.17974
G1 X108.026 Y111.547 E18.19355
G1 X108.135 Y111.251 E18.20929
G1 X108.216 Y111.089 E18.21833
G1 X108.424 Y110.744 E18.23842
G1 X108.515 Y110.615 E18.2463
G1 X108.659 Y110.457 E18.25697
G1 X108.781 Y110.353 E18.26496
G1 F1500 E11.76496
G0 F3600 X108.121 Y112
G1 F1500 E18.26496
G1 X112.883 Y112 E18.50254
G1 F1500 E12.00254
G0 F3600 X112 Y110.388
G1 F1500 E18.50254
G1 X112 Y114.111 E18.68828
G1 F1500 E12.18828
G0 F3600 X111.928 Y114.016
G0 X110.841 Y119.418
G0 X111.274 Y119.945
G1 F1500 E18.68828
G1 X111.274 Y129.034 E19.14173
G1 X108.12 Y129.034 E19.29909
G1 X108.035 Y129.028 E19.30334
G1 X107.902 Y129.007 E19.31006
G1 X107.327 Y128.86 E19.33967
G1 X106.723 Y128.649 E19.37159
G1 X106.157 Y128.382 E19.40281
G1 X105.628 Y128.062 E19.43365
G1 X105.099 Y127.67 E19.4665
G1 X104.659 Y127.278 E19.4959
G1 X104.263 Y126.833 E19.52562
G1 X103.858 Y126.285 E19.55962
G1 X103.552 Y125.775 E19.58929
G1 X103.283 Y125.194 E19.62123
G1 X103.08 Y124.63 E19.65114
G1 X102.926 Y124.019 E19.68257
G1 X102.84 Y123.451 E19.71123
G1 X102.805 Y122.662 E19.75063
G1 X102.83 Y122.229 E19.77227
G1 X102.941 Y121.489 E19.80961
G1 X103.07 Y120.967 E19.83643
G1 X103.289 Y120.363 E19.86848
G1 X103.556 Y119.799 E19.89962
G1 X103.877 Y119.266 E19.93066
G1 X104.256 Y118.754 E19.96244
G1 X104.662 Y118.304 E19.99268
G1 X104.692 Y118.294 E19.99425
G1 X105.228 Y118.994 E20.03824
G1 X105.619 Y119.325 E20.0638
G1 X106.348 Y119.762 E20.1062
G1 X107.637 Y120.157 E20.17346
G1 X109.206 Y120.157 E20.25174
G1 X109.587 Y119.941 E20.27359
G1 X111.274 Y119.945 E20.35775
G1 F1500 E13.85775
G0 F3600 X110.829 Y119.945
G0 X106.579 Y120
G1 F1500 E20.35775
G1 X103.638 Y120 E20.50448
G0 F3600 X104 Y119.371
G1 F1500 X104 Y126.206 E20.84548
G0 F3600 X105.834 Y128
G1 F1500 X111.113 Y128 E21.10885
G1 F1500 E14.60885
G0 F3600 X110.829 Y128
G0 X110.833 Y129.391
G0 X115.797 Y129.895
G0 X116.305 Y129.034
G0 X115.86 Y129.034
G1 F1500 E21.10885
G1 X115.86 Y118.985 E21.6102
G1 X123.855 Y118.985 E22.00907
G1 X123.855 Y119.59 E22.03925
G1 X124.256 Y119.99 E22.06751
G1 X125.365 Y119.982 E22.12284
G1 X125.424 Y120.174 E22.13286
G1 X125.913 Y120.448 E22.16083
G1 X128.696 Y119.717 E22.30438
G1 X129.424 Y119.363 E22.34477
G1 X129.772 Y119.023 E22.36904
G1 X130.142 Y118.603 E22.39697
G1 X130.32 Y118.318 E22.41373
G1 X130.323 Y118.359 E22.41578
G1 X130.791 Y118.827 E22.4488
G1 X131.129 Y119.284 E22.47716
G1 X131.444 Y119.817 E22.50805
G1 X131.662 Y120.268 E22.53304
G1 X131.719 Y120.393 E22.53989
G1 X131.914 Y120.933 E22.56854
G1 X132.077 Y121.579 E22.60178
G1 X132.161 Y122.156 E22.63087
G1 X132.194 Y122.759 E22.66099
G1 X132.194 Y122.792 E22.66264
G1 X132.162 Y123.378 E22.69192
G1 X132.061 Y124.089 E22.72775
G1 X131.922 Y124.637 E22.75595
