;FLAVOR:Marlin
;TIME:7750
;Filament used: 3.50055m, 0m
;Layer height: 0.15
;MINX:69.062
;MINY:44.953
;MINZ:0.2
;MAXX:165.928
;MAXY:188.095
;MAXZ:2.3
;POSTPROCESSED
;Generated with Cura_SteamEngine 4.8.0
T0
M140 S60
M105
M190 S60
M104 S200
M105
M109 S200
M82 ;absolute extrusion mode
M201 X500.00 Y500.00 Z100.00 E5000.00 	;Setup machine max acceleration
M203 X500.00 Y500.00 Z10.00 E50.00 	;Setup machine max feedrate
M204 P500.00 R1000.00 T500.00 		;Setup Print/Retract/Travel acceleration
M205 X8.00 Y8.00 Z0.40 E5.00 		;Setup Jerk
M220 S100 				;Reset Feedrate
M221 S100 				;Reset Flowrate
G28				;Home the Machine
#G29 				;Bed Level
G92 E0
M300 P150 S587
G92 E0
G1 F1500 E-5.5
;LAYER_COUNT:15
;LAYER:0
M107
G0 F2160 X112.853 Y46.876 Z0.2
;TYPE:SKIRT
G1 F1500 E0
G1 F900 X113.119 Y46.424 E0.01308
G1 X113.452 Y46.017 E0.0262
G1 X113.842 Y45.666 E0.03929
G1 X114.281 Y45.378 E0.05239
G1 X114.759 Y45.16 E0.06549
G1 X115.264 Y45.017 E0.07858
G1 X115.785 Y44.953 E0.09168
G1 X116.31 Y44.968 E0.10478
G1 X116.826 Y45.063 E0.11787
G1 X117.322 Y45.234 E0.13096
G1 X117.786 Y45.48 E0.14406
G1 X118.208 Y45.792 E0.15715
G1 X118.577 Y46.165 E0.17024
G1 X118.886 Y46.59 E0.18334
G1 X119.126 Y47.057 E0.19644
G1 X119.293 Y47.555 E0.20954
G1 X119.383 Y48.077 E0.22276
G1 X119.428 Y48.56 E0.23486
G1 X119.576 Y50.402 E0.28095
G1 X119.872 Y53.125 E0.34928
G1 X120.245 Y55.843 E0.41772
G1 X120.688 Y58.503 E0.48498
G1 X121.217 Y61.209 E0.55376
G1 X121.815 Y63.864 E0.62165
G1 X122.483 Y66.484 E0.6891
G1 X123.24 Y69.14 E0.75799
G1 X124.071 Y71.769 E0.82677
G1 X124.957 Y74.316 E0.89404
G1 X125.922 Y76.858 E0.96187
G1 X126.962 Y79.38 E1.02992
G1 X128.085 Y81.898 E1.09869
G1 X129.266 Y84.359 E1.16678
G1 X130.51 Y86.771 E1.23448
G1 X131.833 Y89.17 E1.30282
G1 X133.228 Y91.536 E1.37134
G1 X134.666 Y93.825 E1.43877
G1 X136.197 Y96.119 E1.50757
G1 X137.77 Y98.332 E1.5753
G1 X139.402 Y100.499 E1.64297
G1 X141.104 Y102.63 E1.711
G1 X142.908 Y104.762 E1.78067
G1 X144.673 Y106.732 E1.84665
G1 X146.596 Y108.762 E1.9164
G1 X148.511 Y110.669 E1.98381
G1 X149.925 Y112.012 E2.03246
G1 X150.609 Y112.651 E2.05581
G1 X150.972 Y113.006 E2.06848
G1 X151.244 Y113.296 E2.07839
G1 X151.923 Y114.084 E2.10434
G1 X152.281 Y114.547 E2.11894
G1 X152.573 Y114.982 E2.13201
G1 X152.832 Y115.391 E2.14409
G1 X153.247 Y116.089 E2.16434
G1 X153.888 Y117.202 E2.19638
G1 X155.305 Y119.509 E2.26392
G1 X156.8 Y121.797 E2.3321
G1 X158.359 Y124.038 E2.4002
G1 X159.993 Y126.253 E2.46886
G1 X161.656 Y128.378 E2.53617
G1 X163.104 Y130.113 E2.59254
G1 X163.914 Y131.105 E2.62449
G1 X164.048 Y131.279 E2.62997
G1 X164.531 Y131.954 E2.65067
G1 X164.91 Y132.554 E2.66837
G1 X165.163 Y133.024 E2.68169
G1 X165.467 Y133.667 E2.69943
G1 X165.653 Y134.152 E2.71239
G1 X165.829 Y134.832 E2.72991
G1 X165.917 Y135.532 E2.74751
G1 X165.928 Y136.115 E2.76205
G1 X165.927 Y136.177 E2.7636
G1 X165.872 Y136.735 E2.77759
G1 X165.755 Y137.382 E2.79399
G1 X165.302 Y140.096 E2.86263
G1 X164.933 Y142.759 E2.92969
G1 X164.736 Y144.565 E2.97501
G1 X164.492 Y146.763 E3.03017
G1 X164.41 Y147.339 E3.04469
G1 X164.048 Y150.106 E3.1143
G1 X163.773 Y152.795 E3.18173
G1 X163.567 Y155.584 E3.25149
G1 X163.491 Y157.082 E3.2889
G1 X163.455 Y157.892 E3.30913
G1 X163.438 Y158.106 E3.31448
G1 X163.34 Y159.012 E3.33722
G1 X163.234 Y159.621 E3.35264
G1 X163.09 Y160.232 E3.36829
G1 X162.866 Y160.937 E3.38675
G1 X162.67 Y161.404 E3.39938
G1 X162.304 Y162.105 E3.41911
G1 X162.013 Y162.555 E3.43248
G1 X161.65 Y163.002 E3.44684
G1 X161.36 Y163.333 E3.45782
G1 X160.048 Y164.793 E3.50678
G1 X158.265 Y166.895 E3.57554
G1 X156.573 Y169.007 E3.64305
G1 X154.918 Y171.198 E3.71154
G1 X153.737 Y172.845 E3.7621
G1 X153.318 Y173.382 E3.77909
G1 X153.022 Y173.691 E3.78976
G1 X152.64 Y174.061 E3.80303
G1 X152.191 Y174.429 E3.81751
G1 X151.735 Y174.739 E3.83126
G1 X151.449 Y174.923 E3.83975
G1 X150.902 Y175.21 E3.85515
G1 X150.476 Y175.38 E3.8666
G1 X147.947 Y176.415 E3.93476
G1 X145.437 Y177.525 E4.00322
G1 X142.989 Y178.692 E4.07087
G1 X140.518 Y179.958 E4.14013
G1 X138.154 Y181.254 E4.20738
G1 X136.281 Y182.341 E4.2614
G1 X135.319 Y182.88 E4.28891
G1 X134.362 Y183.384 E4.31589
G1 X133.252 Y183.931 E4.34676
G1 X132.224 Y184.401 E4.37495
G1 X131.203 Y184.836 E4.40264
G1 X130.09 Y185.278 E4.43251
G1 X129.207 Y185.602 E4.45597
G1 X127.795 Y186.074 E4.49311
G1 X127.67 Y186.113 E4.49638
G1 X126.111 Y186.569 E4.5369
G1 X125.981 Y186.604 E4.54026
G1 X124.418 Y186.996 E4.58045
G1 X124.283 Y187.027 E4.58391
G1 X122.715 Y187.354 E4.62386
G1 X122.58 Y187.38 E4.62729
G1 X121.054 Y187.635 E4.66589
G1 X120.911 Y187.656 E4.66949
G1 X119.262 Y187.861 E4.71094
G1 X119.124 Y187.875 E4.7144
G1 X117.486 Y188.012 E4.75541
G1 X117.358 Y188.02 E4.75861
G1 X115.978 Y188.083 E4.79307
G1 X115.379 Y188.095 E4.80801
G1 X114.417 Y188.094 E4.83201
G1 X113.647 Y188.077 E4.85122
G1 X112.614 Y188.036 E4.87701
G1 X111.861 Y187.989 E4.89583
G1 X110.947 Y187.914 E4.91871
G1 X110.016 Y187.818 E4.94205
G1 X109.223 Y187.719 E4.96199
G1 X108.315 Y187.588 E4.98487
G1 X107.439 Y187.442 E5.00703
G1 X106.61 Y187.287 E5.02806
G1 X105.682 Y187.095 E5.0517
G1 X104.87 Y186.907 E5.07249
G1 X104.034 Y186.696 E5.094
G1 X103.106 Y186.441 E5.11801
G1 X102.302 Y186.202 E5.13893
G1 X101.487 Y185.942 E5.16027
G1 X100.599 Y185.638 E5.18369
G1 X99.599 Y185.273 E5.21024
G1 X98.607 Y184.883 E5.23683
G1 X97.666 Y184.485 E5.26232
G1 X96.255 Y183.852 E5.30089
G1 X96.132 Y183.803 E5.3042
G1 X94.313 Y182.992 E5.35388
G1 X91.788 Y181.948 E5.42203
G1 X89.285 Y181 E5.4888
G1 X86.665 Y180.089 E5.55799
G1 X84.079 Y179.271 E5.62565
G1 X82.201 Y178.734 E5.67438
G1 X81.76 Y178.602 E5.68586
G1 X81.107 Y178.331 E5.7035
G1 X80.732 Y178.128 E5.71413
G1 X80.118 Y177.704 E5.73275
G1 X79.705 Y177.322 E5.74678
G1 X79.311 Y176.865 E5.76183
G1 X79.067 Y176.527 E5.77223
G1 X78.716 Y175.921 E5.7897
G1 X78.384 Y175.117 E5.8114
G1 X78.234 Y174.628 E5.82416
G1 X78.097 Y174.025 E5.83958
G1 X78.074 Y173.916 E5.84236
G1 X77.792 Y172.459 E5.87938
G1 X77.716 Y172.031 E5.89023
G1 X77.166 Y169.394 E5.95742
G1 X76.537 Y166.75 E6.02522
G1 X75.824 Y164.1 E6.09367
G1 X75.037 Y161.466 E6.16225
G1 X74.313 Y159.279 E6.21971
G1 X73.866 Y157.888 E6.25616
G1 X73.582 Y156.93 E6.28109
G1 X73.312 Y155.931 E6.3069
G1 X73.084 Y155.001 E6.33079
G1 X72.864 Y154.008 E6.35616
G1 X72.689 Y153.135 E6.37837
G1 X72.475 Y151.895 E6.40976
G1 X72.262 Y150.392 E6.44762
G1 X72.247 Y150.271 E6.45067
G1 X72.107 Y148.946 E6.4839
G1 X72.096 Y148.822 E6.48701
G1 X71.982 Y147.162 E6.52851
G1 X71.874 Y144.891 E6.58523
G1 X71.668 Y142.178 E6.6531
G1 X71.236 Y138.267 E6.75125
G1 X71.158 Y137.672 E6.76622
G1 X71.105 Y137.02 E6.78254
G1 X71.102 Y136.469 E6.79628
G1 X71.129 Y135.262 E6.8264
G1 X71.152 Y132.469 E6.89607
G1 X71.098 Y129.772 E6.96337
G1 X70.965 Y127.033 E7.03177
G1 X70.757 Y124.307 E7.09997
G1 X70.469 Y121.583 E7.1683
G1 X70.036 Y118.404 E7.24833
G1 X69.859 Y117.249 E7.27748
G1 X69.819 Y116.887 E7.28656
G1 X69.759 Y116.016 E7.30834
G1 X69.682 Y114.627 E7.34304
G1 X69.451 Y111.911 E7.41104
G1 X69.165 Y109.351 E7.4753
G1 X69.101 Y108.753 E7.4903
G1 X69.062 Y107.948 E7.5104
G1 X69.073 Y107.419 E7.5236
G1 X69.108 Y106.892 E7.53678
G1 X69.209 Y106.193 E7.55439
G1 X69.324 Y105.684 E7.56741
G1 X69.494 Y105.116 E7.5822
G1 X69.69 Y104.599 E7.59599
G1 X69.809 Y104.344 E7.60301
G1 X70.053 Y103.871 E7.61629
G1 X70.549 Y103.101 E7.63914
G1 X70.819 Y102.756 E7.65007
G1 X71.197 Y102.332 E7.66424
G1 X71.671 Y101.872 E7.68071
G1 X72.152 Y101.478 E7.69622
G1 X72.64 Y101.129 E7.71119
G1 X73.452 Y100.587 E7.73554
G1 X75.748 Y99.012 E7.805
G1 X77.964 Y97.399 E7.87337
G1 X80.108 Y95.742 E7.94096
G1 X82.22 Y94.012 E8.00906
G1 X84.283 Y92.223 E8.07718
G1 X86.318 Y90.355 E8.14609
G1 X88.252 Y88.477 E8.21333
G1 X90.149 Y86.527 E8.2812
G1 X92.013 Y84.498 E8.34993
G1 X93.808 Y82.431 E8.41822
G1 X95.524 Y80.337 E8.48575
G1 X97.214 Y78.153 E8.55464
G1 X98.807 Y75.969 E8.62207
G1 X100.364 Y73.702 E8.69067
G1 X101.836 Y71.426 E8.75829
G1 X103.255 Y69.085 E8.82657
G1 X104.608 Y66.703 E8.89491
G1 X105.884 Y64.305 E8.96267
G1 X107.096 Y61.86 E9.03074
G1 X108.251 Y59.358 E9.09948
G1 X109.324 Y56.844 E9.16767
G1 X110.317 Y54.325 E9.23521
G1 X111.248 Y51.756 E9.30337
G1 X112.108 Y49.149 E9.37185
G1 X112.368 Y48.281 E9.39446
G1 X112.657 Y47.363 E9.41846
G1 X112.853 Y46.876 E9.43156
G0 F2160 X113.132 Y46.988
G1 F900 X113.391 Y46.559 E9.44406
G1 X113.716 Y46.176 E9.45659
G1 X114.097 Y45.85 E9.4691
G1 X114.525 Y45.589 E9.4816
G1 X114.989 Y45.399 E9.49411
G1 X115.477 Y45.284 E9.50662
G1 X115.978 Y45.249 E9.51914
G1 X116.477 Y45.294 E9.53164
G1 X116.964 Y45.417 E9.54417
G1 X117.424 Y45.616 E9.55668
G1 X117.847 Y45.886 E9.56919
G1 X118.222 Y46.219 E9.5817
G1 X118.539 Y46.608 E9.59422
G1 X118.791 Y47.042 E9.60674
G1 X118.97 Y47.51 E9.61924
G1 X119.084 Y48.105 E9.63435
G1 X119.129 Y48.584 E9.64635
G1 X119.276 Y50.421 E9.69232
G1 X119.575 Y53.165 E9.76118
G1 X119.95 Y55.895 E9.82992
G1 X120.396 Y58.577 E9.89774
G1 X120.921 Y61.26 E9.96594
G1 X121.522 Y63.932 E10.03425
G1 X122.197 Y66.577 E10.10235
G1 X122.939 Y69.182 E10.16992
G1 X123.786 Y71.863 E10.24005
G1 X124.674 Y74.416 E10.30748
G1 X125.641 Y76.962 E10.37542
G1 X126.692 Y79.511 E10.44419
G1 X127.802 Y82.002 E10.51222
G1 X128.998 Y84.492 E10.58113
G1 X130.264 Y86.947 E10.65003
G1 X131.551 Y89.281 E10.71652
G1 X132.985 Y91.714 E10.78697
G1 X134.407 Y93.977 E10.85364
G1 X135.948 Y96.285 E10.92287
G1 X137.518 Y98.495 E10.99049
G1 X139.19 Y100.714 E11.0598
G1 X140.875 Y102.824 E11.12715
G1 X142.668 Y104.943 E11.1964
G1 X144.486 Y106.971 E11.26434
G1 X146.376 Y108.967 E11.33291
G1 X148.305 Y110.887 E11.4008
G1 X149.696 Y112.209 E11.44867
G1 X150.399 Y112.866 E11.47267
G1 X150.762 Y113.221 E11.48534
G1 X151.017 Y113.492 E11.49462
G1 X151.69 Y114.273 E11.52034
G1 X152.033 Y114.714 E11.53427
G1 X152.32 Y115.142 E11.54713
G1 X152.574 Y115.545 E11.55901
G1 X152.987 Y116.239 E11.57916
G1 X153.617 Y117.334 E11.61067
G1 X155.06 Y119.681 E11.6794
G1 X156.563 Y121.982 E11.74795
G1 X158.115 Y124.213 E11.81575
G1 X159.743 Y126.419 E11.88414
G1 X161.445 Y128.595 E11.95305
G1 X162.872 Y130.303 E12.00857
G1 X163.682 Y131.295 E12.04052
G1 X163.804 Y131.454 E12.04552
G1 X164.287 Y132.129 E12.06622
G1 X164.651 Y132.707 E12.08326
G1 X164.892 Y133.153 E12.09591
G1 X165.196 Y133.796 E12.11365
G1 X165.419 Y134.415 E12.13006
G1 X165.537 Y134.9 E12.14251
G1 X165.617 Y135.539 E12.15858
G1 X165.628 Y136.11 E12.17282
G1 X165.627 Y136.172 E12.17437
G1 X165.577 Y136.682 E12.18715
G1 X165.46 Y137.329 E12.20356
G1 X165.007 Y140.044 E12.27222
G1 X164.632 Y142.753 E12.34044
G1 X164.438 Y144.532 E12.38508
G1 X164.194 Y146.73 E12.44025
G1 X164.106 Y147.344 E12.45572
G1 X163.754 Y150.035 E12.52342
G1 X163.468 Y152.83 E12.5935
G1 X163.272 Y155.491 E12.66006
G1 X163.19 Y157.09 E12.7
G1 X163.155 Y157.879 E12.7197
G1 X163.14 Y158.074 E12.72458
G1 X163.043 Y158.971 E12.74709
G1 X162.94 Y159.563 E12.76208
G1 X162.802 Y160.149 E12.77709
G1 X162.582 Y160.842 E12.79523
G1 X162.221 Y161.627 E12.81678
G1 X161.775 Y162.373 E12.83847
G1 X161.425 Y162.805 E12.85233
G1 X161.137 Y163.133 E12.86322
G1 X159.809 Y164.612 E12.91281
G1 X158.043 Y166.693 E12.98089
G1 X156.344 Y168.813 E13.04866
G1 X154.655 Y171.05 E13.11858
G1 X153.492 Y172.672 E13.16837
G1 X153.099 Y173.177 E13.18433
G1 X152.814 Y173.476 E13.19464
G1 X152.432 Y173.846 E13.2079
G1 X152.021 Y174.181 E13.22113
G1 X151.572 Y174.487 E13.23468
G1 X151.286 Y174.671 E13.24317
G1 X150.787 Y174.932 E13.25721
G1 X150.354 Y175.106 E13.26885
G1 X147.818 Y176.143 E13.3372
G1 X145.307 Y177.254 E13.40569
G1 X142.871 Y178.416 E13.47302
G1 X140.386 Y179.688 E13.54266
G1 X138.008 Y180.992 E13.61031
G1 X136.134 Y182.08 E13.66436
G1 X135.179 Y182.614 E13.69166
G1 X134.147 Y183.156 E13.72074
G1 X133.127 Y183.658 E13.7491
G1 X132.106 Y184.125 E13.7771
G1 X131.092 Y184.558 E13.80461
G1 X129.986 Y184.997 E13.83429
G1 X129.112 Y185.318 E13.85751
G1 X127.7 Y185.79 E13.89465
G1 X126.026 Y186.281 E13.93817
G1 X125.908 Y186.313 E13.94122
G1 X124.345 Y186.705 E13.98142
G1 X124.222 Y186.734 E13.98457
G1 X122.654 Y187.061 E14.02452
G1 X122.53 Y187.084 E14.02767
G1 X121.004 Y187.339 E14.06626
G1 X120.874 Y187.358 E14.06954
G1 X119.225 Y187.563 E14.11099
G1 X119.099 Y187.576 E14.11415
G1 X117.461 Y187.713 E14.15516
G1 X117.344 Y187.721 E14.15808
G1 X116.052 Y187.781 E14.19034
G1 X115.379 Y187.795 E14.20714
G1 X114.423 Y187.794 E14.23098
G1 X113.659 Y187.778 E14.25005
G1 X112.633 Y187.736 E14.27566
G1 X111.885 Y187.69 E14.29436
G1 X110.978 Y187.616 E14.31706
G1 X110.053 Y187.52 E14.34025
G1 X109.265 Y187.422 E14.36006
G1 X108.364 Y187.292 E14.38277
G1 X107.494 Y187.148 E14.40477
G1 X106.67 Y186.993 E14.42568
G1 X105.749 Y186.802 E14.44915
G1 X104.943 Y186.616 E14.46978
G1 X104.113 Y186.407 E14.49113
G1 X103.192 Y186.153 E14.51496
G1 X102.393 Y185.916 E14.53575
G1 X101.584 Y185.658 E14.55694
G1 X100.701 Y185.357 E14.58021
G1 X99.709 Y184.994 E14.60656
G1 X98.723 Y184.607 E14.63298
G1 X97.789 Y184.212 E14.65828
G1 X96.31 Y183.548 E14.69872
G1 X96.255 Y183.529 E14.70017
G1 X94.445 Y182.722 E14.7496
G1 X91.914 Y181.676 E14.81792
G1 X89.341 Y180.701 E14.88656
G1 X86.78 Y179.811 E14.95419
G1 X84.179 Y178.988 E15.02224
G1 X82.287 Y178.447 E15.07133
G1 X81.846 Y178.315 E15.08281
G1 X81.249 Y178.067 E15.09894
G1 X80.874 Y177.864 E15.10958
G1 X80.314 Y177.477 E15.12656
G1 X79.914 Y177.106 E15.14016
G1 X79.554 Y176.69 E15.15389
G1 X79.31 Y176.352 E15.16429
G1 X78.99 Y175.798 E15.18025
G1 X78.663 Y175.008 E15.20157
G1 X78.526 Y174.562 E15.21321
G1 X78.389 Y173.959 E15.22864
G1 X78.368 Y173.859 E15.23119
G1 X78.088 Y172.407 E15.26807
G1 X78.018 Y172.016 E15.27798
G1 X77.448 Y169.279 E15.34772
G1 X76.823 Y166.657 E15.41496
G1 X76.111 Y164.009 E15.48336
G1 X75.329 Y161.391 E15.55152
G1 X74.599 Y159.187 E15.60944
G1 X74.154 Y157.803 E15.6457
G1 X73.872 Y156.851 E15.67047
G1 X73.604 Y155.859 E15.6961
G1 X73.377 Y154.936 E15.71981
G1 X73.158 Y153.949 E15.74503
G1 X72.968 Y152.994 E15.76932
G1 X72.772 Y151.853 E15.7982
G1 X72.559 Y150.35 E15.83607
G1 X72.545 Y150.239 E15.83886
G1 X72.405 Y148.914 E15.87209
G1 X72.286 Y147.217 E15.91453
G1 X72.175 Y144.889 E15.97267
G1 X71.967 Y142.152 E16.04114
G1 X71.526 Y138.165 E16.1412
G1 X71.445 Y137.544 E16.15682
G1 X71.405 Y137.017 E16.17001
G1 X71.402 Y136.475 E16.18353
G1 X71.429 Y135.27 E16.21359
G1 X71.452 Y132.469 E16.28347
G1 X71.398 Y129.752 E16.35126
G1 X71.266 Y127.03 E16.41924
G1 X71.056 Y124.289 E16.48781
G1 X70.766 Y121.54 E16.55677
G1 X70.332 Y118.358 E16.63688
G1 X70.155 Y117.203 E16.66603
G1 X70.118 Y116.866 E16.67448
G1 X70.059 Y115.999 E16.69616
G1 X69.982 Y114.621 E16.73059
G1 X69.746 Y111.834 E16.80036
G1 X69.464 Y109.317 E16.86354
G1 X69.399 Y108.724 E16.87842
G1 X69.362 Y107.94 E16.898
G1 X69.372 Y107.428 E16.91077
G1 X69.406 Y106.926 E16.92332
G1 X69.505 Y106.242 E16.94056
G1 X69.695 Y105.468 E16.96044
G1 X69.894 Y104.897 E16.97553
G1 X70.076 Y104.482 E16.98683
G1 X70.32 Y104.009 E17.00011
G1 X70.796 Y103.27 E17.02204
G1 X71.043 Y102.956 E17.032
G1 X71.421 Y102.532 E17.04617
G1 X71.866 Y102.1 E17.06164
G1 X72.327 Y101.722 E17.07651
G1 X72.904 Y101.311 E17.09419
G1 X73.661 Y100.808 E17.11686
G1 X75.896 Y99.275 E17.18446
G1 X78.133 Y97.647 E17.25348
G1 X80.306 Y95.967 E17.322
G1 X82.433 Y94.226 E17.39056
G1 X84.47 Y92.458 E17.45785
G1 X86.518 Y90.579 E17.52718
G1 X88.464 Y88.69 E17.59483
G1 X90.372 Y86.727 E17.66312
G1 X92.233 Y84.703 E17.7317
G1 X94.036 Y82.625 E17.80033
G1 X95.766 Y80.514 E17.86842
G1 X97.432 Y78.361 E17.93632
G1 X99.064 Y76.125 E18.00538
G1 X100.619 Y73.86 E18.07391
G1 X102.084 Y71.595 E18.1412
G1 X103.518 Y69.229 E18.21022
G1 X104.874 Y66.843 E18.27867
G1 X106.149 Y64.445 E18.34642
G1 X107.376 Y61.97 E18.41533
G1 X108.518 Y59.496 E18.4833
G1 X109.598 Y56.966 E18.55192
G1 X110.598 Y54.432 E18.61988
G1 X111.534 Y51.847 E18.68846
G1 X112.389 Y49.256 E18.75652
G1 X112.654 Y48.371 E18.77957
G1 X112.943 Y47.453 E18.80357
G1 X113.132 Y46.988 E18.81609
G1 F1500 E13.31609
;MESH:Maria.stl
G0 F2160 X94.485 Y103.447
G0 X93.525 Y103.656
G0 X93.36 Y105.532
;TYPE:WALL-INNER
G1 F1500 E18.81609
