;FLAVOR:Marlin
;TIME:4671
;Filament used: 2.64006m, 0m
;Layer height: 0.2
;MINX:67.278
;MINY:66.517
;MINZ:0.2
;MAXX:167.726
;MAXY:166.089
;MAXZ:2.4
;POSTPROCESSED
;Generated with Cura_SteamEngine 4.8.0
T0
M140 S60
M105
M190 S60
M104 S200
M105
M109 S200
M82 ;absolute extrusion mode
M201 X500.00 Y500.00 Z100.00 E5000.00 	;Setup machine max acceleration
M203 X500.00 Y500.00 Z10.00 E50.00 	;Setup machine max feedrate
M204 P500.00 R1000.00 T500.00 		;Setup Print/Retract/Travel acceleration
M205 X8.00 Y8.00 Z0.40 E5.00 		;Setup Jerk
M220 S100 				;Reset Feedrate
M221 S100 				;Reset Flowrate
G28				;Home the Machine
#G29 				;Bed Level
G92 E0
M300 P150 S587
G92 E0
G1 F1500 E-5.5
;LAYER_COUNT:12
;LAYER:0
M107
G0 F2160 X81.171 Y104.723 Z0.2
;TYPE:SKIRT
G1 F1500 E0
G1 F900 X81.589 Y104.411 E0.01301
G1 X81.69 Y104.339 E0.01611
G1 X83.327 Y103.219 E0.06558
G1 X83.47 Y103.109 E0.07008
G1 X84.758 Y102.225 E0.10905
G1 X86.966 Y100.614 E0.17723
G1 X89.129 Y98.939 E0.24548
G1 X91.238 Y97.209 E0.31352
G1 X93.295 Y95.423 E0.38148
G1 X95.328 Y93.553 E0.45038
G1 X97.266 Y91.667 E0.51784
G1 X99.18 Y89.694 E0.58641
G1 X101.003 Y87.707 E0.65367
G1 X102.809 Y85.623 E0.72246
G1 X104.539 Y83.511 E0.79057
G1 X106.2 Y81.358 E0.8584
G1 X107.803 Y79.157 E0.92632
G1 X109.353 Y76.896 E0.9947
G1 X110.851 Y74.572 E1.06367
G1 X112.249 Y72.26 E1.13107
G1 X113.594 Y69.891 E1.19903
G1 X113.791 Y69.528 E1.20933
G1 X114.452 Y68.316 E1.24377
G1 X114.737 Y67.875 E1.25686
G1 X115.086 Y67.483 E1.26996
G1 X115.491 Y67.149 E1.28305
G1 X115.942 Y66.88 E1.29615
G1 X116.428 Y66.682 E1.30924
G1 X116.938 Y66.56 E1.32232
G1 X117.462 Y66.517 E1.33544
G1 X117.985 Y66.554 E1.34852
G1 X118.497 Y66.67 E1.36161
G1 X118.986 Y66.862 E1.37472
G1 X119.439 Y67.127 E1.38781
G1 X119.848 Y67.457 E1.40092
G1 X120.201 Y67.845 E1.414
G1 X120.518 Y68.331 E1.42848
G1 X120.751 Y68.763 E1.44072
G1 X121.566 Y70.33 E1.48478
G1 X122.89 Y72.712 E1.55276
G1 X124.284 Y75.058 E1.62084
G1 X125.73 Y77.343 E1.68829
G1 X127.28 Y79.648 E1.75758
G1 X128.852 Y81.845 E1.82497
G1 X130.514 Y84.036 E1.89357
G1 X132.218 Y86.155 E1.9614
G1 X133.969 Y88.212 E2.02878
G1 X135.819 Y90.261 E2.09765
G1 X137.708 Y92.242 E2.16593
G1 X139.65 Y94.165 E2.2341
G1 X141.644 Y96.03 E2.30221
G1 X143.674 Y97.823 E2.36977
G1 X145.781 Y99.581 E2.43822
G1 X147.914 Y101.263 E2.50598
G1 X150.111 Y102.894 E2.57424
G1 X152.722 Y104.695 E2.65336
G1 X153.381 Y105.165 E2.67355
G1 X153.851 Y105.521 E2.68826
G1 X154.025 Y105.662 E2.69385
G1 X154.632 Y106.188 E2.71388
G1 X154.817 Y106.36 E2.72019
G1 X155.21 Y106.749 E2.73398
G1 X155.354 Y106.901 E2.7392
G1 X155.871 Y107.479 E2.75855
G1 X156.085 Y107.735 E2.76687
G1 X156.411 Y108.15 E2.78003
G1 X156.542 Y108.329 E2.78557
G1 X156.989 Y108.981 E2.80529
G1 X157.394 Y109.633 E2.82443
G1 X157.545 Y109.902 E2.83213
G1 X158.006 Y110.783 E2.85693
G1 X158.935 Y112.637 E2.90866
G1 X160.239 Y115.066 E2.97743
G1 X161.608 Y117.45 E3.04601
G1 X163.013 Y119.745 E3.11313
G1 X163.814 Y120.969 E3.14962
G1 X164.643 Y122.278 E3.18828
G1 X164.793 Y122.531 E3.19561
G1 X165.191 Y123.239 E3.21587
G1 X165.363 Y123.566 E3.22509
G1 X165.701 Y124.249 E3.2441
G1 X165.863 Y124.597 E3.25367
G1 X166.132 Y125.221 E3.27062
G1 X166.295 Y125.63 E3.28161
G1 X166.532 Y126.27 E3.29863
G1 X166.668 Y126.672 E3.30922
G1 X166.847 Y127.241 E3.3241
G1 X166.983 Y127.718 E3.33647
G1 X167.159 Y128.409 E3.35426
G1 X167.237 Y128.758 E3.36318
G1 X167.373 Y129.431 E3.38031
G1 X167.44 Y129.815 E3.39003
G1 X167.543 Y130.508 E3.40751
G1 X167.59 Y130.896 E3.41726
G1 X167.661 Y131.636 E3.4358
G1 X167.686 Y132.005 E3.44503
G1 X167.723 Y132.839 E3.46585
G1 X167.726 Y133.015 E3.47024
G1 X167.724 Y133.857 E3.49125
G1 X167.716 Y134.154 E3.49866
G1 X167.675 Y134.982 E3.51934
G1 X167.664 Y135.134 E3.52314
G1 X167.57 Y136.135 E3.54822
G1 X167.551 Y136.293 E3.55219
G1 X167.436 Y137.11 E3.57277
G1 X167.409 Y137.277 E3.57699
G1 X167.189 Y138.428 E3.60622
G1 X167.16 Y138.561 E3.60962
G1 X167.031 Y139.116 E3.62383
G1 X166.997 Y139.252 E3.62733
G1 X166.726 Y140.235 E3.65276
G1 X166.562 Y140.751 E3.66627
G1 X166.335 Y141.38 E3.68295
G1 X166.282 Y141.517 E3.68661
G1 X166.032 Y142.127 E3.70306
G1 X165.97 Y142.271 E3.70697
G1 X165.693 Y142.868 E3.72339
G1 X165.629 Y142.998 E3.727
G1 X165.337 Y143.564 E3.74289
G1 X165.258 Y143.708 E3.74699
G1 X164.931 Y144.274 E3.76329
G1 X164.852 Y144.404 E3.76709
G1 X164.4 Y145.112 E3.78804
G1 X162.941 Y147.469 E3.85719
G1 X161.562 Y149.845 E3.92572
G1 X160.263 Y152.237 E3.99362
G1 X158.738 Y155.271 E4.07832
G1 X158.482 Y155.8 E4.09298
G1 X158.255 Y156.233 E4.10518
G1 X157.887 Y156.873 E4.12359
G1 X157.715 Y157.15 E4.13173
G1 X157.416 Y157.592 E4.14504
G1 X157.317 Y157.73 E4.14928
G1 X157.013 Y158.135 E4.16191
G1 X156.585 Y158.656 E4.17873
G1 X156.475 Y158.781 E4.18288
G1 X156.119 Y159.168 E4.196
G1 X156.005 Y159.286 E4.20009
G1 X155.499 Y159.784 E4.2178
G1 X155.095 Y160.161 E4.23158
G1 X155.002 Y160.245 E4.23471
G1 X154.586 Y160.606 E4.24845
G1 X154.04 Y161.052 E4.26604
G1 X153.46 Y161.487 E4.28412
G1 X152.782 Y161.952 E4.30463
G1 X152.306 Y162.247 E4.3186
G1 X151.832 Y162.52 E4.33224
G1 X151.183 Y162.868 E4.35061
G1 X150.701 Y163.1 E4.36396
G1 X150.233 Y163.306 E4.37671
G1 X149.571 Y163.576 E4.39455
G1 X149.085 Y163.749 E4.40742
G1 X148.54 Y163.923 E4.42169
G1 X148.435 Y163.955 E4.42443
G1 X147.851 Y164.12 E4.43956
G1 X147.273 Y164.257 E4.45438
G1 X146.802 Y164.353 E4.46637
G1 X146.151 Y164.468 E4.48286
G1 X145.984 Y164.494 E4.48708
G1 X145.381 Y164.569 E4.50224
G1 X145.094 Y164.598 E4.50943
G1 X144.4 Y164.651 E4.5268
G1 X144.248 Y164.659 E4.53059
G1 X143.566 Y164.681 E4.54761
G1 X143.405 Y164.683 E4.55163
G1 X142.788 Y164.674 E4.56702
G1 X142.627 Y164.668 E4.57104
G1 X141.829 Y164.619 E4.59099
G1 X139.089 Y164.488 E4.65941
G1 X136.384 Y164.434 E4.7269
G1 X133.647 Y164.458 E4.79518
G1 X130.911 Y164.56 E4.86348
G1 X128.171 Y164.74 E4.93197
G1 X125.451 Y164.995 E5.00012
G1 X122.776 Y165.323 E5.06735
G1 X119.167 Y165.885 E5.15846
G1 X118.549 Y165.993 E5.17411
G1 X118.029 Y166.052 E5.18717
G1 X117.859 Y166.063 E5.19142
G1 X117.235 Y166.089 E5.207
G1 X116.595 Y166.059 E5.22298
G1 X116.109 Y165.994 E5.23521
G1 X115.323 Y165.871 E5.25505
G1 X112.605 Y165.481 E5.32355
G1 X109.848 Y165.166 E5.39277
G1 X107.159 Y164.937 E5.46009
G1 X104.452 Y164.781 E5.52773
G1 X101.683 Y164.702 E5.59683
G1 X98.98 Y164.7 E5.66426
G1 X96.226 Y164.777 E5.73298
G1 X94.166 Y164.897 E5.78446
G1 X94.033 Y164.895 E5.78777
G1 X92.546 Y164.986 E5.82494
G1 X92.394 Y164.992 E5.82873
G1 X91.689 Y165.004 E5.84632
G1 X91.434 Y165.001 E5.85268
G1 X90.858 Y164.982 E5.86706
G1 X89.996 Y164.918 E5.88862
G1 X89.486 Y164.861 E5.90142
G1 X88.944 Y164.782 E5.91508
G1 X88.633 Y164.727 E5.92296
G1 X87.495 Y164.49 E5.95196
G1 X86.713 Y164.289 E5.9721
G1 X85.907 Y164.045 E5.99311
G1 X85.417 Y163.88 E6.00601
G1 X85.155 Y163.783 E6.01297
G1 X84.496 Y163.521 E6.03066
G1 X84.094 Y163.341 E6.04165
G1 X83.244 Y162.914 E6.06538
G1 X83.039 Y162.802 E6.07121
G1 X82.404 Y162.427 E6.0896
G1 X81.981 Y162.149 E6.10223
G1 X81.713 Y161.957 E6.11045
G1 X81.233 Y161.593 E6.12548
G1 X80.692 Y161.136 E6.14315
G1 X80.54 Y160.994 E6.14834
G1 X80.094 Y160.55 E6.16403
G1 X79.663 Y160.094 E6.17969
G1 X79.48 Y159.881 E6.18669
G1 X79.161 Y159.486 E6.19936
G1 X79.048 Y159.338 E6.204
G1 X78.577 Y158.686 E6.22407
G1 X78.253 Y158.208 E6.23847
G1 X78.188 Y158.108 E6.24145
G1 X77.799 Y157.486 E6.25975
G1 X77.492 Y156.957 E6.275
G1 X77.284 Y156.57 E6.28596
G1 X75.967 Y154.17 E6.35425
G1 X74.598 Y151.836 E6.42175
G1 X73.146 Y149.512 E6.49011
G1 X71.23 Y146.653 E6.57596
G1 X70.603 Y145.75 E6.60338
G1 X70.207 Y145.114 E6.62207
G1 X69.894 Y144.569 E6.63775
G1 X69.807 Y144.408 E6.64232
G1 X69.531 Y143.861 E6.6576
G1 X69.477 Y143.75 E6.66068
G1 X69.088 Y142.905 E6.68388
G1 X68.852 Y142.348 E6.69897
G1 X68.73 Y142.038 E6.70728
G1 X68.479 Y141.349 E6.72558
G1 X68.383 Y141.06 E6.73317
G1 X68.134 Y140.25 E6.75431
G1 X68.092 Y140.099 E6.75822
G1 X67.888 Y139.309 E6.77857
G1 X67.851 Y139.153 E6.78257
G1 X67.674 Y138.308 E6.80411
G1 X67.645 Y138.152 E6.80807
G1 X67.529 Y137.435 E6.82619
G1 X67.505 Y137.258 E6.83064
G1 X67.381 Y136.121 E6.85917
G1 X67.369 Y135.978 E6.86275
G1 X67.306 Y135.038 E6.88625
G1 X67.299 Y134.897 E6.88977
G1 X67.279 Y134.127 E6.90899
G1 X67.278 Y133.996 E6.91226
G1 X67.289 Y133.08 E6.93511
G1 X67.293 Y132.951 E6.93833
G1 X67.334 Y132.121 E6.95906
G1 X67.342 Y132.005 E6.96196
G1 X67.413 Y131.151 E6.98333
G1 X67.424 Y131.04 E6.98612
G1 X67.543 Y130.025 E7.01161
G1 X67.676 Y129.138 E7.03398
G1 X67.841 Y128.218 E7.0573
G1 X67.999 Y127.459 E7.07664
G1 X68.183 Y126.697 E7.09619
G1 X68.213 Y126.58 E7.0992
G1 X68.372 Y126.013 E7.11389
G1 X68.407 Y125.897 E7.11692
G1 X68.632 Y125.191 E7.1354
G1 X68.674 Y125.067 E7.13867
G1 X68.881 Y124.494 E7.15386
G1 X68.932 Y124.362 E7.15739
G1 X69.284 Y123.5 E7.18062
G1 X69.504 Y123.015 E7.19391
G1 X69.805 Y122.417 E7.21061
G1 X69.884 Y122.27 E7.21477
G1 X70.196 Y121.718 E7.23059
G1 X70.28 Y121.577 E7.23468
G1 X70.626 Y121.028 E7.25087
G1 X72.051 Y118.693 E7.3191
G1 X73.403 Y116.327 E7.38708
G1 X74.683 Y113.934 E7.45478
G1 X75.932 Y111.432 E7.52453
G1 X76.332 Y110.583 E7.54795
G1 X76.389 Y110.467 E7.55117
G1 X76.686 Y109.894 E7.56727
G1 X76.766 Y109.749 E7.5714
G1 X77.031 Y109.293 E7.58456
G1 X77.114 Y109.157 E7.58853
G1 X77.413 Y108.693 E7.6023
G1 X77.8 Y108.147 E7.61899
G1 X78.285 Y107.529 E7.63859
G1 X78.373 Y107.422 E7.64205
G1 X78.718 Y107.017 E7.65532
G1 X78.806 Y106.917 E7.65864
G1 X79.179 Y106.512 E7.67238
G1 X79.277 Y106.409 E7.67592
G1 X79.671 Y106.015 E7.68982
G1 X80.077 Y105.635 E7.70369
G1 X80.175 Y105.547 E7.70698
G1 X80.601 Y105.18 E7.72101
G1 X80.703 Y105.096 E7.7243
G1 X81.171 Y104.723 E7.73923
G0 F2160 X81.358 Y104.958
G1 F900 X81.767 Y104.653 E7.75196
G1 X81.86 Y104.587 E7.7548
G1 X83.558 Y103.425 E7.80613
G1 X83.639 Y103.356 E7.80878
G1 X84.929 Y102.471 E7.84781
G1 X87.169 Y100.836 E7.91698
G1 X89.311 Y99.177 E7.98457
G1 X91.43 Y97.44 E8.05292
G1 X93.502 Y95.64 E8.12138
G1 X95.529 Y93.777 E8.19006
G1 X97.479 Y91.878 E8.25796
G1 X99.387 Y89.911 E8.32632
G1 X101.254 Y87.876 E8.39521
G1 X103.023 Y85.836 E8.46256
G1 X104.763 Y83.709 E8.53111
G1 X106.471 Y81.497 E8.60083
G1 X108.05 Y79.329 E8.66773
G1 X109.609 Y77.054 E8.73653
G1 X111.091 Y74.756 E8.80474
G1 X112.507 Y72.414 E8.87301
G1 X113.846 Y70.056 E8.94065
G1 X114.058 Y69.665 E8.95174
G1 X114.715 Y68.46 E8.98598
G1 X114.989 Y68.04 E8.99849
G1 X115.327 Y67.669 E9.01101
G1 X115.719 Y67.356 E9.02352
G1 X116.156 Y67.109 E9.03604
G1 X116.626 Y66.935 E9.04855
G1 X117.118 Y66.838 E9.06106
G1 X117.62 Y66.82 E9.07359
G1 X118.117 Y66.882 E9.08608
G1 X118.599 Y67.022 E9.0986
G1 X119.052 Y67.237 E9.11111
G1 X119.466 Y67.521 E9.12363
G1 X119.829 Y67.867 E9.13614
G1 X120.254 Y68.473 E9.15461
G1 X120.485 Y68.902 E9.16676
G1 X121.298 Y70.466 E9.21073
G1 X122.63 Y72.862 E9.27911
G1 X124.027 Y75.212 E9.34731
G1 X125.488 Y77.521 E9.41547
G1 X127.02 Y79.799 E9.48395
G1 X128.625 Y82.044 E9.55279
G1 X130.272 Y84.214 E9.62075
G1 X131.969 Y86.325 E9.68831
G1 X133.763 Y88.432 E9.75734
G1 X135.608 Y90.475 E9.82601
G1 X137.492 Y92.451 E9.89412
G1 X139.428 Y94.367 E9.96206
G1 X141.416 Y96.228 E10.02999
G1 X143.496 Y98.065 E10.09922
G1 X145.595 Y99.816 E10.1674
G1 X147.745 Y101.512 E10.23571
G1 X149.928 Y103.132 E10.30352
G1 X152.547 Y104.94 E10.38291
G1 X153.2 Y105.404 E10.40289
G1 X153.67 Y105.76 E10.4176
G1 X153.829 Y105.889 E10.42271
G1 X154.43 Y106.41 E10.44255
G1 X154.606 Y106.573 E10.44853
G1 X154.999 Y106.962 E10.46233
G1 X155.131 Y107.101 E10.46711
G1 X155.648 Y107.679 E10.48645
G1 X155.849 Y107.92 E10.49428
G1 X156.175 Y108.335 E10.50745
G1 X156.295 Y108.498 E10.5125
G1 X156.737 Y109.144 E10.53202
G1 X157.137 Y109.788 E10.55093
G1 X157.28 Y110.041 E10.55818
G1 X157.738 Y110.917 E10.58284
G1 X158.686 Y112.808 E10.63561
G1 X159.968 Y115.197 E10.70324
G1 X161.328 Y117.565 E10.77136
G1 X162.776 Y119.931 E10.84055
G1 X163.561 Y121.13 E10.8763
G1 X164.341 Y122.36 E10.91264
G1 X164.531 Y122.679 E10.9219
G1 X164.926 Y123.38 E10.94197
G1 X165.094 Y123.7 E10.95098
G1 X165.429 Y124.376 E10.9698
G1 X165.587 Y124.717 E10.97918
G1 X165.853 Y125.333 E10.99592
G1 X166.014 Y125.735 E11.00672
G1 X166.248 Y126.368 E11.02355
G1 X166.382 Y126.762 E11.03394
G1 X166.587 Y127.417 E11.05106
G1 X166.692 Y127.793 E11.06079
G1 X166.866 Y128.475 E11.07835
G1 X166.943 Y128.817 E11.0871
G1 X167.095 Y129.577 E11.10643
G1 X167.143 Y129.859 E11.11357
G1 X167.257 Y130.632 E11.13306
G1 X167.291 Y130.924 E11.14039
G1 X167.361 Y131.658 E11.15878
G1 X167.387 Y132.018 E11.16779
G1 X167.423 Y132.845 E11.18844
G1 X167.426 Y133.014 E11.19265
G1 X167.423 Y133.943 E11.21583
G1 X167.416 Y134.139 E11.22072
G1 X167.375 Y134.967 E11.2414
G1 X167.365 Y135.106 E11.24487
G1 X167.271 Y136.107 E11.26995
G1 X167.254 Y136.251 E11.27357
G1 X167.139 Y137.068 E11.29415
G1 X167.114 Y137.22 E11.298
G1 X166.894 Y138.371 E11.32723
G1 X166.868 Y138.493 E11.33034
G1 X166.739 Y139.048 E11.34455
G1 X166.708 Y139.172 E11.34774
G1 X166.437 Y140.155 E11.37318
G1 X166.28 Y140.649 E11.38611
G1 X166.053 Y141.278 E11.40279
G1 X166.005 Y141.404 E11.40615
G1 X165.755 Y142.014 E11.4226
G1 X165.697 Y142.145 E11.42617
G1 X165.42 Y142.742 E11.44259
G1 X165.362 Y142.86 E11.44587
G1 X165.07 Y143.426 E11.46175
G1 X164.999 Y143.558 E11.46549
G1 X164.672 Y144.124 E11.4818
G1 X164.599 Y144.243 E11.48528
G1 X164.121 Y144.992 E11.50745
G1 X162.681 Y147.321 E11.57575
G1 X161.299 Y149.701 E11.6444
G1 X160 Y152.094 E11.71232
G1 X158.482 Y155.111 E11.79657
G1 X158.254 Y155.585 E11.80969
G1 X157.995 Y156.084 E11.82372
G1 X157.631 Y156.718 E11.84196
G1 X157.466 Y156.982 E11.84972
G1 X157.167 Y157.424 E11.86303
G1 X157.077 Y157.55 E11.8669
G1 X156.773 Y157.955 E11.87953
G1 X156.354 Y158.463 E11.89595
G1 X156.254 Y158.578 E11.89976
G1 X155.898 Y158.965 E11.91287
G1 X155.794 Y159.072 E11.91659
G1 X155.294 Y159.565 E11.93411
G1 X154.89 Y159.942 E11.94789
G1 X154.806 Y160.018 E11.95072
G1 X154.314 Y160.443 E11.96694
G1 X153.851 Y160.82 E11.98183
G1 X153.283 Y161.244 E11.99951
G1 X153.206 Y161.299 E12.00187
G1 X152.613 Y161.704 E12.01979
G1 X152.15 Y161.991 E12.03338
G1 X151.683 Y162.26 E12.04682
G1 X151.042 Y162.604 E12.06497
G1 X150.573 Y162.829 E12.07794
G1 X150.113 Y163.031 E12.09047
G1 X149.459 Y163.298 E12.1081
G1 X148.986 Y163.466 E12.12062
G1 X148.45 Y163.637 E12.13465
G1 X147.769 Y163.831 E12.15232
G1 X147.206 Y163.965 E12.16675
G1 X146.75 Y164.058 E12.17836
G1 X146.099 Y164.173 E12.19485
G1 X145.947 Y164.196 E12.19869
G1 X145.35 Y164.271 E12.2137
G1 X145.071 Y164.299 E12.22069
G1 X144.377 Y164.352 E12.23805
G1 X144.239 Y164.359 E12.2415
G1 X143.557 Y164.381 E12.25852
G1 X143.409 Y164.383 E12.26221
G1 X142.792 Y164.374 E12.27761
G1 X142.645 Y164.368 E12.28128
G1 X141.847 Y164.319 E12.30122
G1 X139.11 Y164.188 E12.36957
G1 X136.388 Y164.134 E12.43749
G1 X133.633 Y164.159 E12.50621
G1 X130.879 Y164.261 E12.57496
G1 X128.16 Y164.439 E12.64293
G1 X125.454 Y164.693 E12.71073
G1 X122.697 Y165.031 E12.78002
G1 X119.128 Y165.587 E12.87012
G1 X118.498 Y165.697 E12.88607
G1 X118.001 Y165.753 E12.89855
G1 X117.846 Y165.763 E12.90242
G1 X117.222 Y165.789 E12.918
G1 X116.634 Y165.761 E12.93269
G1 X116.156 Y165.698 E12.94471
G1 X115.349 Y165.571 E12.96509
G1 X112.644 Y165.184 E13.03326
G1 X109.905 Y164.871 E13.10202
G1 X107.166 Y164.637 E13.1706
G1 X104.445 Y164.481 E13.23859
G1 X101.693 Y164.402 E13.30726
G1 X98.972 Y164.4 E13.37514
G1 X96.232 Y164.477 E13.44351
G1 X94.148 Y164.598 E13.49559
G1 X94.011 Y164.595 E13.49901
G1 X92.528 Y164.686 E13.53607
G1 X92.389 Y164.692 E13.53954
G1 X91.592 Y164.704 E13.55942
G1 X91.444 Y164.701 E13.56312
G1 X90.777 Y164.678 E13.57976
G1 X90.022 Y164.619 E13.59866
G1 X89.52 Y164.563 E13.61126
G1 X88.994 Y164.486 E13.62452
G1 X88.694 Y164.433 E13.63212
G1 X87.469 Y164.177 E13.66333
G1 X86.792 Y164 E13.68079
G1 X85.994 Y163.758 E13.70159
G1 X85.335 Y163.531 E13.71898
G1 X84.708 Y163.284 E13.73579
G1 X84.229 Y163.073 E13.74884
G1 X83.379 Y162.646 E13.77257
G1 X83.191 Y162.543 E13.77792
G1 X82.556 Y162.168 E13.79632
G1 X81.959 Y161.765 E13.81428
