;FLAVOR:Marlin
;TIME:2453
;Filament used: 1.00495m, 0m
;Layer height: 0.1
;MINX:49.906
;MINY:66.098
;MINZ:0.2
;MAXX:185.075
;MAXY:167.123
;MAXZ:1.8
;Generated with Cura_SteamEngine 4.8.0
T0
M140 S60
M105
M190 S60
M104 S200
M105
M109 S200
M82 ;absolute extrusion mode
M201 X500.00 Y500.00 Z100.00 E5000.00 	;Setup machine max acceleration
M203 X500.00 Y500.00 Z10.00 E50.00 	;Setup machine max feedrate
M204 P500.00 R1000.00 T500.00 		;Setup Print/Retract/Travel acceleration
M205 X8.00 Y8.00 Z0.40 E5.00 		;Setup Jerk
M220 S100 				;Reset Feedrate
M221 S100 				;Reset Flowrate
G28				;Home the Machine
#G29 				;Bed Level
G92 E0
M300 P150 S587
G92 E0
G1 F1500 E-5.5
;LAYER_COUNT:17
;LAYER:0
M107
G0 F2160 X125.905 Y67.977 Z0.2
;TYPE:SKIRT
G1 F1500 E0
G1 F900 X126.179 Y67.529 E0.0131
G1 X126.518 Y67.128 E0.0262
G1 X126.913 Y66.782 E0.0393
G1 X127.356 Y66.501 E0.05238
G1 X127.837 Y66.29 E0.06549
G1 X128.344 Y66.155 E0.07857
G1 X128.866 Y66.098 E0.09167
G1 X129.391 Y66.121 E0.10478
G1 X129.905 Y66.223 E0.11785
G1 X130.399 Y66.402 E0.13096
G1 X130.859 Y66.654 E0.14404
G1 X131.276 Y66.973 E0.15714
G1 X131.64 Y67.352 E0.17025
G1 X131.942 Y67.781 E0.18334
G1 X132.176 Y68.251 E0.19643
G1 X132.311 Y68.657 E0.20711
G1 X132.599 Y69.736 E0.23496
G1 X133.358 Y72.422 E0.30459
G1 X134.169 Y75.012 E0.37229
G1 X135.062 Y77.606 E0.44073
G1 X136.025 Y80.163 E0.50888
G1 X137.058 Y82.689 E0.57696
G1 X138.142 Y85.137 E0.64375
G1 X139.35 Y87.673 E0.71382
G1 X140.579 Y90.073 E0.78108
G1 X141.882 Y92.45 E0.8487
G1 X143.271 Y94.82 E0.91722
G1 X144.718 Y97.139 E0.98541
G1 X146.227 Y99.413 E1.05349
G1 X147.826 Y101.678 E1.12265
G1 X149.422 Y103.809 E1.18906
G1 X151.152 Y105.988 E1.25846
G1 X152.897 Y108.061 E1.32606
G1 X154.731 Y110.12 E1.39484
G1 X156.572 Y112.073 E1.46179
G1 X158.503 Y114.008 E1.52998
G1 X160.519 Y115.918 E1.59926
G1 X162.526 Y117.712 E1.66641
G1 X164.611 Y119.475 E1.73452
G1 X166.765 Y121.193 E1.80325
G1 X168.937 Y122.827 E1.87105
G1 X171.158 Y124.402 E1.93897
G1 X173.438 Y125.923 E2.00734
G1 X175.76 Y127.379 E2.07571
G1 X177.123 Y128.177 E2.11511
G1 X177.901 Y128.644 E2.13774
G1 X178.17 Y128.823 E2.1458
G1 X178.643 Y129.171 E2.16045
G1 X179.279 Y129.737 E2.18169
G1 X179.675 Y130.169 E2.19631
G1 X180.078 Y130.688 E2.2127
G1 X180.44 Y131.24 E2.22916
G1 X180.731 Y131.772 E2.24429
G1 X180.997 Y132.347 E2.26009
G1 X181.241 Y133.003 E2.27755
G1 X181.331 Y133.281 E2.28484
G1 X182.118 Y135.846 E2.35177
G1 X182.999 Y138.448 E2.4203
G1 X183.943 Y141.001 E2.4882
G1 X184.333 Y141.96 E2.51402
G1 X184.845 Y143.265 E2.54899
G1 X184.999 Y143.767 E2.56209
G1 X185.075 Y144.286 E2.57517
G1 X185.052 Y144.986 E2.59264
G1 X185.021 Y145.216 E2.59843
G1 X184.912 Y145.729 E2.61152
G1 X184.725 Y146.22 E2.62462
G1 X184.461 Y146.686 E2.63798
G1 X184.382 Y146.803 E2.6415
G1 X184.056 Y147.214 E2.65459
G1 X183.858 Y147.412 E2.66158
G1 X182.944 Y148.251 E2.69252
G1 X182.476 Y148.669 E2.70818
G1 X180.46 Y150.577 E2.77742
G1 X178.55 Y152.493 E2.84491
G1 X177.659 Y153.429 E2.87714
G1 X177.438 Y153.65 E2.88494
G1 X177.049 Y153.983 E2.89771
G1 X176.426 Y154.42 E2.91669
G1 X175.926 Y154.702 E2.93101
G1 X175.202 Y155.008 E2.95062
G1 X174.517 Y155.203 E2.96839
G1 X173.769 Y155.316 E2.98726
G1 X172.66 Y155.433 E3.01507
G1 X171.71 Y155.519 E3.03887
G1 X169.044 Y155.839 E3.10585
G1 X166.316 Y156.244 E3.17465
G1 X163.639 Y156.72 E3.24247
G1 X160.947 Y157.277 E3.31105
G1 X158.301 Y157.901 E3.37886
G1 X155.666 Y158.604 E3.44689
G1 X153.043 Y159.384 E3.51515
G1 X150.435 Y160.24 E3.58363
G1 X147.895 Y161.155 E3.65097
G1 X145.328 Y162.162 E3.71976
G1 X142.831 Y163.224 E3.78744
G1 X140.336 Y164.368 E3.85591
G1 X137.884 Y165.579 E3.92413
G1 X137.302 Y165.885 E3.94053
G1 X136.469 Y166.305 E3.9638
G1 X135.999 Y166.51 E3.9766
G1 X135.406 Y166.728 E3.99236
G1 X134.73 Y166.912 E4.00983
G1 X134.157 Y167.024 E4.0244
G1 X133.599 Y167.091 E4.03842
G1 X132.836 Y167.123 E4.05747
G1 X132.265 Y167.096 E4.07173
G1 X131.539 Y166.993 E4.09002
G1 X130.968 Y166.86 E4.10464
G1 X130.237 Y166.637 E4.12371
G1 X128.474 Y166.039 E4.17015
G1 X125.873 Y165.237 E4.23804
G1 X123.203 Y164.497 E4.30716
G1 X120.586 Y163.85 E4.3744
G1 X117.868 Y163.257 E4.4438
G1 X115.222 Y162.762 E4.51095
G1 X112.524 Y162.334 E4.57909
G1 X109.815 Y161.982 E4.64724
G1 X107.117 Y161.709 E4.71488
G1 X104.388 Y161.51 E4.78314
G1 X101.652 Y161.389 E4.85145
G1 X98.912 Y161.345 E4.91981
G1 X96.172 Y161.379 E4.98817
G1 X93.474 Y161.487 E5.05552
G1 X90.736 Y161.677 E5.12399
G1 X88.015 Y161.941 E5.19218
G1 X85.29 Y162.285 E5.2607
G1 X82.611 Y162.7 E5.32832
G1 X79.939 Y163.191 E5.39609
G1 X77.26 Y163.763 E5.46443
G1 X74.625 Y164.403 E5.53207
G1 X73.967 Y164.581 E5.54907
G1 X72.617 Y164.934 E5.58388
G1 X72.08 Y165.034 E5.5975
G1 X71.52 Y165.094 E5.61155
G1 X68.229 Y165.273 E5.69377
G1 X65.978 Y165.474 E5.75014
G1 X64.834 Y165.567 E5.77878
G1 X64.32 Y165.57 E5.7916
G1 X63.79 Y165.534 E5.80485
G1 X63.271 Y165.459 E5.81793
G1 X62.726 Y165.289 E5.83217
G1 X62.241 Y165.083 E5.84532
G1 X61.779 Y164.834 E5.85841
G1 X61.264 Y164.447 E5.87448
G1 X60.748 Y163.989 E5.89169
G1 X58.697 Y162.107 E5.96113
G1 X56.636 Y160.319 E6.02919
G1 X54.619 Y158.681 E6.094
G1 X54.539 Y158.605 E6.09676
G1 X53.624 Y157.869 E6.12605
G1 X53.23 Y157.533 E6.13897
G1 X53.063 Y157.38 E6.14461
G1 X52.576 Y156.903 E6.16162
G1 X52.41 Y156.729 E6.16762
G1 X52.061 Y156.336 E6.18073
G1 X51.973 Y156.232 E6.18413
G1 X51.519 Y155.676 E6.20203
G1 X50.992 Y154.865 E6.22616
G1 X50.558 Y154.04 E6.24941
G1 X50.245 Y153.219 E6.27133
G1 X50.128 Y152.826 E6.28156
G1 X50.01 Y152.321 E6.2945
G1 X49.924 Y151.712 E6.30984
G1 X49.906 Y151.255 E6.32125
G1 X49.931 Y150.751 E6.33384
G1 X50.018 Y150.047 E6.35153
G1 X50.063 Y149.755 E6.3589
G1 X50.178 Y149.265 E6.37146
G1 X50.379 Y148.627 E6.38814
G1 X50.667 Y147.934 E6.40686
G1 X50.981 Y147.356 E6.42327
G1 X51.189 Y147.028 E6.43296
G1 X51.957 Y145.957 E6.46583
G1 X53.51 Y143.723 E6.5337
G1 X55.005 Y141.439 E6.6018
G1 X56.455 Y139.079 E6.67089
G1 X57.792 Y136.758 E6.73771
G1 X58.402 Y135.612 E6.77009
G1 X58.465 Y135.512 E6.77304
G1 X59.145 Y134.268 E6.80841
G1 X59.447 Y133.786 E6.8226
G1 X59.888 Y133.238 E6.84014
G1 X60.276 Y132.846 E6.8539
G1 X60.961 Y132.243 E6.87667
G1 X61.369 Y131.962 E6.88902
G1 X61.889 Y131.674 E6.90385
G1 X62.402 Y131.447 E6.91785
G1 X62.886 Y131.255 E6.93083
G1 X63.205 Y131.145 E6.93925
G1 X65.247 Y130.47 E6.9929
G1 X67.797 Y129.548 E7.06054
G1 X70.366 Y128.536 E7.12942
G1 X72.866 Y127.469 E7.19722
G1 X75.335 Y126.329 E7.26506
G1 X77.77 Y125.123 E7.33284
G1 X80.219 Y123.822 E7.40202
G1 X82.565 Y122.488 E7.46934
G1 X84.9 Y121.072 E7.53746
G1 X87.212 Y119.58 E7.6061
G1 X89.45 Y118.042 E7.67384
G1 X91.66 Y116.432 E7.74205
G1 X93.831 Y114.753 E7.81051
G1 X95.927 Y113.036 E7.8781
G1 X97.987 Y111.247 E7.94616
G1 X100.026 Y109.376 E8.01519
G1 X101.956 Y107.5 E8.08233
G1 X103.852 Y105.548 E8.15021
G1 X105.716 Y103.519 E8.21894
G1 X107.514 Y101.446 E8.28739
G1 X109.237 Y99.343 E8.35521
G1 X110.901 Y97.189 E8.42311
G1 X112.506 Y94.986 E8.4911
G1 X114.062 Y92.718 E8.55971
G1 X115.543 Y90.427 E8.62776
G1 X116.949 Y88.104 E8.69549
G1 X118.299 Y85.729 E8.76364
G1 X119.594 Y83.291 E8.8325
G1 X120.791 Y80.876 E8.89974
G1 X121.939 Y78.382 E8.96823
G1 X123.015 Y75.862 E9.03658
G1 X124.017 Y73.319 E9.10476
G1 X124.936 Y70.777 E9.17219
G1 X125.703 Y68.461 E9.23305
G1 X125.905 Y67.977 E9.24613
G0 F2160 X126.183 Y68.094
G1 F900 X126.449 Y67.668 E9.25866
G1 X126.779 Y67.291 E9.27116
G1 X127.165 Y66.97 E9.28368
G1 X127.597 Y66.715 E9.29619
G1 X128.064 Y66.532 E9.30871
G1 X128.554 Y66.425 E9.32122
G1 X129.054 Y66.397 E9.33371
G1 X129.553 Y66.449 E9.34622
G1 X130.038 Y66.58 E9.35876
G1 X130.495 Y66.785 E9.37125
G1 X130.914 Y67.061 E9.38377
G1 X131.284 Y67.4 E9.39628
G1 X131.595 Y67.793 E9.40879
G1 X131.84 Y68.231 E9.4213
G1 X132.022 Y68.734 E9.43465
G1 X132.322 Y69.862 E9.46376
G1 X133.064 Y72.487 E9.53181
G1 X133.89 Y75.126 E9.60079
G1 X134.774 Y77.692 E9.66849
G1 X135.74 Y80.258 E9.73689
G1 X136.782 Y82.806 E9.80556
G1 X137.885 Y85.296 E9.87349
G1 X139.08 Y87.805 E9.94281
G1 X140.31 Y90.205 E10.01009
G1 X141.629 Y92.612 E10.07855
G1 X143.017 Y94.982 E10.14707
G1 X144.458 Y97.29 E10.21494
G1 X145.992 Y99.602 E10.28415
G1 X147.555 Y101.816 E10.35176
G1 X149.205 Y104.018 E10.4204
G1 X150.918 Y106.176 E10.48913
G1 X152.671 Y108.259 E10.55704
G1 X154.485 Y110.295 E10.62506
G1 X156.371 Y112.296 E10.69365
G1 X158.314 Y114.243 E10.76227
G1 X160.289 Y116.114 E10.83013
G1 X162.328 Y117.936 E10.89834
G1 X164.444 Y119.725 E10.96746
G1 X166.572 Y121.423 E11.03537
G1 X168.774 Y123.08 E11.10412
G1 X170.992 Y124.653 E11.17195
G1 X173.27 Y126.173 E11.24026
G1 X175.574 Y127.618 E11.3081
G1 X176.968 Y128.434 E11.3484
G1 X177.746 Y128.901 E11.37103
G1 X177.992 Y129.065 E11.37841
G1 X178.465 Y129.413 E11.39306
G1 X179.073 Y129.955 E11.41337
G1 X179.441 Y130.357 E11.42697
G1 X179.829 Y130.857 E11.44276
G1 X180.186 Y131.4 E11.45897
G1 X180.465 Y131.911 E11.47349
G1 X180.717 Y132.456 E11.48847
G1 X180.958 Y133.103 E11.50569
G1 X181.044 Y133.369 E11.51266
G1 X181.828 Y135.925 E11.57936
G1 X182.715 Y138.543 E11.64831
G1 X183.669 Y141.122 E11.7169
G1 X184.053 Y142.07 E11.74242
G1 X184.565 Y143.375 E11.77739
G1 X184.711 Y143.855 E11.7899
G1 X184.778 Y144.352 E11.80241
G1 X184.755 Y144.946 E11.81724
G1 X184.724 Y145.176 E11.82303
G1 X184.617 Y145.666 E11.83554
G1 X184.435 Y146.133 E11.84804
G1 X184.134 Y146.635 E11.86264
G1 X183.655 Y147.191 E11.88095
G1 X182.745 Y148.027 E11.91178
G1 X182.248 Y148.471 E11.9284
G1 X180.253 Y150.36 E11.99693
G1 X178.351 Y152.268 E12.06414
G1 X177.381 Y153.284 E12.09918
G1 X176.872 Y153.741 E12.11624
G1 X176.258 Y154.172 E12.13496
G1 X175.801 Y154.429 E12.14803
G1 X175.09 Y154.729 E12.16728
G1 X174.465 Y154.908 E12.1835
G1 X173.729 Y155.018 E12.20207
G1 X173.64 Y155.029 E12.2043
G1 X172.633 Y155.134 E12.22956
G1 X171.715 Y155.217 E12.25255
G1 X168.966 Y155.547 E12.32162
G1 X166.252 Y155.95 E12.39006
G1 X163.598 Y156.422 E12.4573
G1 X160.889 Y156.982 E12.52631
G1 X158.219 Y157.612 E12.59474
G1 X155.586 Y158.315 E12.66272
G1 X152.96 Y159.096 E12.73106
G1 X150.356 Y159.951 E12.79943
G1 X147.746 Y160.89 E12.86863
G1 X145.249 Y161.87 E12.93554
G1 X142.68 Y162.962 E13.00517
G1 X140.226 Y164.088 E13.07252
G1 X137.76 Y165.305 E13.14112
G1 X137.167 Y165.617 E13.15784
G1 X136.334 Y166.037 E13.18111
G1 X135.525 Y166.37 E13.20293
G1 X135.009 Y166.531 E13.21641
G1 X134.465 Y166.664 E13.23038
G1 X133.849 Y166.765 E13.24596
G1 X133.11 Y166.819 E13.26444
G1 X132.55 Y166.815 E13.27841
G1 X131.974 Y166.763 E13.29284
G1 X131.15 Y166.596 E13.31381
G1 X130.329 Y166.351 E13.33518
G1 X128.553 Y165.749 E13.38196
G1 X125.935 Y164.942 E13.4503
G1 X123.316 Y164.216 E13.51809
G1 X120.649 Y163.556 E13.58663
G1 X117.922 Y162.962 E13.65625
G1 X115.286 Y162.469 E13.72314
G1 X112.577 Y162.039 E13.79157
G1 X109.843 Y161.683 E13.86034
G1 X107.136 Y161.409 E13.92821
G1 X104.388 Y161.21 E13.99694
G1 X101.67 Y161.089 E14.06481
G1 X98.913 Y161.045 E14.13359
G1 X96.157 Y161.079 E14.20235
G1 X93.475 Y161.187 E14.2693
G1 X90.687 Y161.38 E14.33902
G1 X87.982 Y161.643 E14.40681
G1 X85.279 Y161.984 E14.47477
G1 X82.549 Y162.407 E14.54369
G1 X79.854 Y162.902 E14.61204
G1 X77.199 Y163.469 E14.67976
G1 X74.548 Y164.112 E14.74781
G1 X73.891 Y164.291 E14.76479
G1 X72.541 Y164.644 E14.7996
G1 X72.036 Y164.737 E14.81241
G1 X71.49 Y164.796 E14.82611
G1 X70.946 Y164.823 E14.8397
G1 X68.245 Y164.971 E14.90717
G1 X65.953 Y165.175 E14.96457
G1 X64.809 Y165.268 E14.99321
G1 X64.341 Y165.271 E15.00488
G1 X63.811 Y165.235 E15.01813
G1 X63.314 Y165.161 E15.03067
G1 X62.637 Y164.929 E15.04852
G1 X62.363 Y164.809 E15.05598
G1 X61.922 Y164.569 E15.0685
G1 X61.45 Y164.212 E15.08327
G1 X60.924 Y163.743 E15.10085
G1 X58.902 Y161.887 E15.16931
G1 X56.826 Y160.087 E15.23785
G1 X54.808 Y158.448 E15.3027
G1 X54.729 Y158.373 E15.30542
G1 X53.736 Y157.572 E15.33725
G1 X53.273 Y157.165 E15.35262
G1 X52.786 Y156.688 E15.36963
G1 X52.635 Y156.53 E15.37508
G1 X52.286 Y156.137 E15.38819
G1 X52.205 Y156.042 E15.39131
G1 X51.757 Y155.493 E15.40898
G1 X51.249 Y154.711 E15.43224
G1 X50.836 Y153.927 E15.45435
G1 X50.527 Y153.117 E15.47597
G1 X50.421 Y152.758 E15.48531
G1 X50.303 Y152.253 E15.49825
G1 X50.224 Y151.697 E15.51226
G1 X50.229 Y150.788 E15.53493
G1 X50.316 Y150.084 E15.55263
G1 X50.465 Y149.355 E15.57119
G1 X50.666 Y148.717 E15.58787
G1 X50.933 Y148.073 E15.60526
G1 X51.243 Y147.502 E15.62147
G1 X51.433 Y147.202 E15.63033
G1 X52.192 Y146.143 E15.66283
G1 X53.763 Y143.884 E15.73147
G1 X55.268 Y141.586 E15.79999
G1 X56.711 Y139.237 E15.86876
G1 X58.048 Y136.915 E15.9356
G1 X58.667 Y135.752 E15.96846
G1 X58.731 Y135.653 E15.97141
G1 X59.406 Y134.417 E16.00654
G1 X59.698 Y133.949 E16.0203
G1 X60.101 Y133.449 E16.03632
G1 X60.489 Y133.057 E16.05007
G1 X61.134 Y132.488 E16.07153
G1 X61.537 Y132.211 E16.08373
G1 X62.011 Y131.948 E16.09725
G1 X62.516 Y131.725 E16.11102
G1 X62.983 Y131.539 E16.12356
G1 X63.299 Y131.43 E16.1319
G1 X65.338 Y130.757 E16.18546
G1 X67.904 Y129.828 E16.25354
G1 X70.489 Y128.81 E16.32284
G1 X72.975 Y127.749 E16.39026
G1 X75.46 Y126.601 E16.45855
G1 X77.924 Y125.381 E16.52713
G1 X80.36 Y124.087 E16.59594
G1 X82.719 Y122.745 E16.66364
G1 X85.059 Y121.326 E16.73191
G1 X87.378 Y119.83 E16.80075
G1 X89.622 Y118.288 E16.86867
G1 X91.841 Y116.672 E16.93714
G1 X94.013 Y114.992 E17.00564
G1 X96.14 Y113.25 E17.07422
G1 X98.174 Y111.483 E17.14143
G1 X100.225 Y109.6 E17.21089
G1 X102.168 Y107.712 E17.27847
G1 X104.076 Y105.748 E17.34677
G1 X105.936 Y103.723 E17.41536
G1 X107.742 Y101.64 E17.48413
G1 X109.461 Y99.542 E17.55179
G1 X111.16 Y97.343 E17.62111
G1 X112.768 Y95.135 E17.68925
G1 X114.302 Y92.901 E17.75685
G1 X115.797 Y90.586 E17.82559
G1 X117.207 Y88.259 E17.89346
G1 X118.564 Y85.869 E17.96202
G1 X119.859 Y83.431 E18.03088
G1 X121.064 Y81 E18.09857
G1 X122.213 Y78.506 E18.16707
G1 X123.289 Y75.985 E18.23544
G1 X124.297 Y73.426 E18.30405
G1 X125.226 Y70.857 E18.37219
G1 X125.988 Y68.556 E18.43266
G1 X126.183 Y68.094 E18.44517
G1 F1500 E12.94517
;MESH:Parabens.stl
G0 F2160 X128.07 Y94.749
G0 X129.048 Y94.758
G0 X129.361 Y107.483
;TYPE:WALL-INNER
G1 F1500 E18.44517
G1 F900 X129.586 Y115.044 E18.63386
G1 X130.193 Y135.382 E19.14142
G1 X130.454 Y135.64 E19.15058
G1 X130.554 Y135.867 E19.15676
G1 X130.746 Y136.554 E19.17456
G1 X131.089 Y137.868 E19.20843
G1 X131.33 Y139.11 E19.23999
G1 X131.368 Y139.311 E19.2451
G1 X131.547 Y139.212 E19.24813
G1 X131.788 Y139.079 E19.25499
G1 X131.742 Y139.197 E19.25815
G1 X131.594 Y139.574 E19.26826
G1 X131.571 Y139.632 E19.26981
G1 X131.574 Y140.109 E19.28171
G1 X131.574 Y140.127 E19.28216
G1 X131.629 Y140.389 E19.28884
G1 X131.574 Y140.389
G1 X131.556 Y140.389 E19.28927
G1 X130.184 Y140.389 E19.32349
G1 X130.184 Y146.513 E19.47626
G1 X130.272 Y146.979 E19.48809
G1 X130.367 Y147.115 E19.49223
G1 X130.244 Y147.08 E19.49254
G1 X130.118 Y147.044 E19.49539
G1 X130.127 Y147.138 E19.49591
G1 X130.277 Y148.634 E19.53341
G1 X130.305 Y149.08 E19.54456
G1 X130.302 Y150.021 E19.56803
G1 X130.312 Y150.558 E19.58143
G1 X130.346 Y151.112 E19.59528
G1 X130.42 Y152.129 E19.62071
G1 X130.771 Y154.897 E19.69031
G1 X130.951 Y156.28 E19.7251
G1 X131.16 Y157.657 E19.75985
G1 X131.251 Y158.323 E19.77662
G1 X131.404 Y158.965 E19.79308
G1 X131.599 Y159.634 E19.81046
G1 X131.824 Y160.27 E19.82729
G1 X132.057 Y160.788 E19.84146
G1 X132.363 Y161.296 E19.85625
G1 X133.094 Y162.176 E19.88479
G1 X133.68 Y162.517 E19.9017
G1 X134.094 Y162.427 E19.91227
G1 X134.376 Y162.367 E19.91946
G1 X134.47 Y162.26 E19.92302
G1 X134.7 Y161.997 E19.93173
G1 X134.966 Y161.455 E19.94679
G1 X135.151 Y160.93 E19.96068
G1 X135.312 Y160.006 E19.98407
G1 X135.415 Y159.083 E20.00724
G1 X135.418 Y159.063 E20.00775
G1 X135.402 Y158.115 E20.0314
G1 X135.319 Y157.232 E20.05352
G1 X135.314 Y157.179 E20.05485
G1 X135.264 Y156.782 E20.06483
G1 X135.199 Y156.275 E20.07758
G1 X135.146 Y155.988 E20.08486
G1 X135.066 Y155.554 E20.09587
G1 X134.995 Y155.206 E20.10473
G1 X134.92 Y154.846 E20.1139
G1 X134.818 Y154.419 E20.12485
G1 X134.752 Y154.147 E20.13183
G1 X134.7 Y153.904 E20.13803
G1 X134.776 Y154.139 E20.13827
