;FLAVOR:Marlin
;TIME:7773
;Filament used: 3.50699m, 0m
;Layer height: 0.15
;MINX:69.062
;MINY:72.71
;MINZ:0.2
;MAXX:165.928
;MAXY:215.852
;MAXZ:2.3
;POSTPROCESSED
;Generated with Cura_SteamEngine 4.8.0
T0
M140 S60
M105
M190 S60
M104 S200
M105
M109 S200
M82 ;absolute extrusion mode
M201 X500.00 Y500.00 Z100.00 E5000.00 	;Setup machine max acceleration
M203 X500.00 Y500.00 Z10.00 E50.00 	;Setup machine max feedrate
M204 P500.00 R1000.00 T500.00 		;Setup Print/Retract/Travel acceleration
M205 X8.00 Y8.00 Z0.40 E5.00 		;Setup Jerk
M220 S100 				;Reset Feedrate
M221 S100 				;Reset Flowrate
G28				;Home the Machine
#G29 				;Bed Level
G92 E0
M300 P150 S587
G92 E0
G1 F1500 E-5.5
;LAYER_COUNT:15
;LAYER:0
M107
G0 F2160 X113.12 Y74.18 Z0.2
;TYPE:SKIRT
G1 F1500 E0
G1 F900 X113.453 Y73.774 E0.0131
G1 X113.843 Y73.423 E0.02619
G1 X114.282 Y73.135 E0.03928
G1 X114.76 Y72.917 E0.05239
G1 X115.265 Y72.774 E0.06548
G1 X115.786 Y72.71 E0.07858
G1 X116.311 Y72.725 E0.09168
G1 X116.827 Y72.82 E0.10477
G1 X117.323 Y72.992 E0.11786
G1 X117.787 Y73.237 E0.13095
G1 X118.209 Y73.55 E0.14406
G1 X118.578 Y73.923 E0.15714
G1 X118.886 Y74.348 E0.17024
G1 X119.127 Y74.815 E0.18335
G1 X119.293 Y75.313 E0.19644
G1 X119.383 Y75.834 E0.20963
G1 X119.428 Y76.317 E0.22173
G1 X119.576 Y78.159 E0.26783
G1 X119.872 Y80.882 E0.33615
G1 X120.245 Y83.6 E0.40459
G1 X120.688 Y86.26 E0.47186
G1 X121.217 Y88.966 E0.54064
G1 X121.815 Y91.621 E0.60853
G1 X122.483 Y94.241 E0.67597
G1 X123.24 Y96.897 E0.74486
G1 X124.071 Y99.526 E0.81364
G1 X124.957 Y102.073 E0.88091
G1 X125.922 Y104.615 E0.94874
G1 X126.962 Y107.137 E1.01679
G1 X128.085 Y109.655 E1.08557
G1 X129.266 Y112.116 E1.15366
G1 X130.51 Y114.528 E1.22136
G1 X131.833 Y116.927 E1.2897
G1 X133.228 Y119.293 E1.35821
G1 X134.666 Y121.582 E1.42564
G1 X136.197 Y123.876 E1.49444
G1 X137.77 Y126.089 E1.56217
G1 X139.4 Y128.253 E1.62975
G1 X141.104 Y130.387 E1.69787
G1 X142.908 Y132.519 E1.76754
G1 X144.673 Y134.489 E1.83352
G1 X146.596 Y136.519 E1.90327
G1 X148.511 Y138.426 E1.97069
G1 X149.925 Y139.769 E2.01933
G1 X150.61 Y140.409 E2.04272
G1 X150.986 Y140.777 E2.05584
G1 X151.431 Y141.249 E2.07203
G1 X151.711 Y141.577 E2.08278
G1 X152.215 Y142.216 E2.10308
G1 X152.661 Y142.854 E2.1225
G1 X153.159 Y143.72 E2.14742
G1 X154.54 Y146.043 E2.21484
G1 X156.022 Y148.384 E2.28395
G1 X157.533 Y150.625 E2.35137
G1 X159.14 Y152.871 E2.42026
G1 X160.779 Y155.03 E2.48788
G1 X162.499 Y157.167 E2.55631
G1 X163.317 Y158.131 E2.58785
G1 X163.955 Y158.914 E2.61304
G1 X164.088 Y159.089 E2.61853
G1 X164.519 Y159.693 E2.63704
G1 X164.794 Y160.115 E2.6496
G1 X165.063 Y160.587 E2.66315
G1 X165.163 Y160.781 E2.6686
G1 X165.467 Y161.424 E2.68634
G1 X165.651 Y161.904 E2.69916
G1 X165.832 Y162.602 E2.71715
G1 X165.917 Y163.291 E2.73447
G1 X165.928 Y163.871 E2.74894
G1 X165.927 Y163.932 E2.75046
G1 X165.872 Y164.489 E2.76442
G1 X165.756 Y165.13 E2.78067
G1 X165.308 Y167.814 E2.84855
G1 X164.933 Y170.528 E2.91689
G1 X164.704 Y172.619 E2.96937
G1 X164.492 Y174.519 E3.01706
G1 X164.478 Y174.628 E3.0198
G1 X164.399 Y175.176 E3.03361
G1 X164.044 Y177.896 E3.10203
G1 X163.769 Y180.589 E3.16956
G1 X163.565 Y183.375 E3.23924
G1 X163.49 Y184.852 E3.27614
G1 X163.458 Y185.594 E3.29466
G1 X163.437 Y185.871 E3.30159
G1 X163.353 Y186.663 E3.32146
G1 X163.23 Y187.395 E3.33998
G1 X163.091 Y187.987 E3.35514
G1 X162.866 Y188.694 E3.37365
G1 X162.672 Y189.155 E3.38613
G1 X162.439 Y189.612 E3.39892
G1 X162.081 Y190.217 E3.41646
G1 X161.716 Y190.68 E3.43117
G1 X161.38 Y191.067 E3.44395
G1 X160.041 Y192.559 E3.49396
G1 X158.261 Y194.656 E3.56257
G1 X156.576 Y196.763 E3.62987
G1 X154.911 Y198.967 E3.69878
G1 X153.617 Y200.771 E3.75416
G1 X153.141 Y201.328 E3.77244
G1 X153.022 Y201.449 E3.77667
G1 X152.645 Y201.814 E3.78976
G1 X152.198 Y202.179 E3.80415
G1 X151.695 Y202.522 E3.81934
G1 X151.04 Y202.906 E3.83828
G1 X150.558 Y203.119 E3.85143
G1 X149.988 Y203.348 E3.86675
G1 X147.456 Y204.397 E3.93512
G1 X144.968 Y205.512 E4.00313
G1 X142.522 Y206.69 E4.07085
G1 X140.071 Y207.959 E4.1397
G1 X137.722 Y209.259 E4.20667
G1 X136.304 Y210.086 E4.24762
G1 X135.318 Y210.638 E4.27581
G1 X134.37 Y211.137 E4.30253
G1 X133.331 Y211.649 E4.33142
G1 X132.324 Y212.112 E4.35907
G1 X131.266 Y212.567 E4.3878
G1 X130.173 Y213.003 E4.41716
G1 X129.306 Y213.324 E4.44022
G1 X129.207 Y213.359 E4.44284
G1 X127.795 Y213.831 E4.47998
G1 X127.67 Y213.87 E4.48324
G1 X126.111 Y214.326 E4.52376
G1 X125.981 Y214.361 E4.52712
G1 X124.418 Y214.753 E4.56732
G1 X124.284 Y214.784 E4.57075
G1 X122.718 Y215.111 E4.61065
G1 X122.578 Y215.137 E4.61421
G1 X121.019 Y215.396 E4.65363
G1 X120.882 Y215.416 E4.65708
G1 X119.33 Y215.61 E4.6961
G1 X119.188 Y215.625 E4.69966
G1 X117.422 Y215.772 E4.74386
G1 X117.296 Y215.78 E4.74701
G1 X116.048 Y215.837 E4.77818
G1 X115.318 Y215.852 E4.79639
G1 X114.477 Y215.851 E4.81737
G1 X113.571 Y215.832 E4.83998
G1 X112.705 Y215.796 E4.8616
G1 X111.804 Y215.741 E4.88411
G1 X110.954 Y215.67 E4.90539
G1 X110.081 Y215.581 E4.92728
G1 X109.131 Y215.463 E4.95116
G1 X108.334 Y215.348 E4.97125
G1 X107.487 Y215.207 E4.99267
G1 X106.558 Y215.033 E5.01624
G1 X105.703 Y214.856 E5.03803
G1 X104.867 Y214.662 E5.05943
G1 X104.036 Y214.453 E5.08081
G1 X103.108 Y214.198 E5.10482
G1 X102.3 Y213.958 E5.12584
G1 X101.487 Y213.699 E5.14713
G1 X100.6 Y213.396 E5.17051
G1 X99.596 Y213.029 E5.19717
G1 X98.581 Y212.63 E5.22438
G1 X97.685 Y212.252 E5.24864
G1 X96.308 Y211.631 E5.28632
G1 X96.199 Y211.588 E5.28924
G1 X94.429 Y210.796 E5.33761
G1 X91.864 Y209.735 E5.40685
G1 X89.367 Y208.786 E5.47349
G1 X86.748 Y207.873 E5.54268
G1 X84.168 Y207.054 E5.6102
G1 X82.205 Y206.493 E5.66113
G1 X81.758 Y206.359 E5.67277
G1 X81.107 Y206.088 E5.69036
G1 X80.732 Y205.885 E5.701
G1 X80.118 Y205.461 E5.71961
G1 X79.705 Y205.079 E5.73364
G1 X79.312 Y204.624 E5.74864
G1 X79.062 Y204.278 E5.75929
G1 X78.728 Y203.708 E5.77577
G1 X78.523 Y203.231 E5.78872
G1 X78.382 Y202.869 E5.79841
G1 X78.233 Y202.383 E5.81109
G1 X78.092 Y201.764 E5.82693
G1 X77.815 Y200.337 E5.86319
G1 X77.735 Y199.891 E5.87449
G1 X77.174 Y197.193 E5.94323
G1 X76.53 Y194.483 E6.01272
G1 X75.841 Y191.915 E6.07904
G1 X75.05 Y189.264 E6.14805
G1 X74.311 Y187.034 E6.20665
G1 X73.889 Y185.721 E6.24106
G1 X73.593 Y184.723 E6.26702
G1 X73.311 Y183.682 E6.29393
G1 X73.081 Y182.75 E6.31787
G1 X72.862 Y181.755 E6.34329
G1 X72.689 Y180.891 E6.36527
G1 X72.495 Y179.776 E6.3935
G1 X72.478 Y179.671 E6.39615
G1 X72.264 Y178.161 E6.4342
G1 X72.249 Y178.039 E6.43726
G1 X72.107 Y176.692 E6.47105
G1 X72.096 Y176.568 E6.47416
G1 X71.983 Y174.92 E6.51536
G1 X71.877 Y172.68 E6.5713
G1 X71.673 Y169.975 E6.63897
G1 X71.229 Y165.964 E6.73964
G1 X71.146 Y165.323 E6.75576
G1 X71.105 Y164.776 E6.76944
G1 X71.102 Y164.226 E6.78316
G1 X71.129 Y163.014 E6.8134
G1 X71.152 Y160.22 E6.8831
G1 X71.098 Y157.524 E6.95037
G1 X70.966 Y154.787 E7.01872
G1 X70.755 Y152.051 E7.08717
G1 X70.469 Y149.339 E7.1552
G1 X70.04 Y146.189 E7.2345
G1 X69.859 Y145.009 E7.26428
G1 X69.817 Y144.616 E7.27414
G1 X69.76 Y143.789 E7.29482
G1 X69.681 Y142.376 E7.33012
G1 X69.45 Y139.656 E7.39822
G1 X69.165 Y137.108 E7.46217
G1 X69.101 Y136.51 E7.47718
G1 X69.062 Y135.701 E7.49738
G1 X69.074 Y135.153 E7.51105
G1 X69.109 Y134.632 E7.52408
G1 X69.215 Y133.923 E7.54196
G1 X69.328 Y133.423 E7.55475
G1 X69.493 Y132.877 E7.56898
G1 X69.814 Y132.09 E7.59018
G1 X70.045 Y131.644 E7.60271
G1 X70.261 Y131.282 E7.61322
G1 X70.567 Y130.835 E7.62674
G1 X71.126 Y130.165 E7.6485
G1 X71.644 Y129.652 E7.66669
G1 X72.173 Y129.217 E7.68377
G1 X72.673 Y128.861 E7.69908
G1 X73.585 Y128.254 E7.72641
G1 X75.81 Y126.723 E7.79379
G1 X78.049 Y125.089 E7.86293
G1 X80.212 Y123.414 E7.93117
G1 X82.299 Y121.701 E7.99852
G1 X84.365 Y119.905 E8.06681
G1 X86.376 Y118.054 E8.13499
G1 X88.326 Y116.158 E8.20284
G1 X90.257 Y114.167 E8.27202
G1 X92.069 Y112.191 E8.3389
G1 X93.874 Y110.107 E8.40768
G1 X95.608 Y107.987 E8.476
G1 X97.261 Y105.846 E8.54347
G1 X98.884 Y103.614 E8.61231
G1 X100.427 Y101.362 E8.68041
G1 X101.893 Y99.087 E8.74792
G1 X103.319 Y96.731 E8.81662
G1 X104.654 Y94.377 E8.88413
G1 X105.94 Y91.951 E8.95262
G1 X107.142 Y89.521 E9.02025
G1 X108.295 Y87.014 E9.08908
G1 X109.358 Y84.518 E9.15675
G1 X110.363 Y81.961 E9.22529
G1 X111.283 Y79.409 E9.29296
G1 X112.135 Y76.821 E9.36093
G1 X112.41 Y75.906 E9.38476
G1 X112.658 Y75.119 E9.40534
G1 X112.853 Y74.632 E9.41843
G1 X113.12 Y74.18 E9.43152
G0 F2160 X113.392 Y74.315
G1 F900 X113.716 Y73.933 E9.44402
G1 X114.098 Y73.607 E9.45655
G1 X114.526 Y73.345 E9.46906
G1 X114.99 Y73.155 E9.48157
G1 X115.478 Y73.041 E9.49407
G1 X115.979 Y73.006 E9.5066
G1 X116.478 Y73.051 E9.5191
G1 X116.964 Y73.174 E9.5316
G1 X117.425 Y73.374 E9.54414
G1 X117.848 Y73.643 E9.55664
G1 X118.222 Y73.977 E9.56915
G1 X118.54 Y74.365 E9.58167
G1 X118.791 Y74.799 E9.59417
G1 X118.97 Y75.268 E9.6067
G1 X119.084 Y75.862 E9.62178
G1 X119.129 Y76.341 E9.63378
G1 X119.276 Y78.178 E9.67975
G1 X119.575 Y80.922 E9.74861
G1 X119.95 Y83.652 E9.81735
G1 X120.396 Y86.334 E9.88517
G1 X120.921 Y89.017 E9.95337
G1 X121.522 Y91.689 E10.02169
G1 X122.197 Y94.334 E10.08978
G1 X122.939 Y96.939 E10.15735
G1 X123.786 Y99.62 E10.22748
G1 X124.674 Y102.173 E10.29491
G1 X125.641 Y104.719 E10.36285
G1 X126.692 Y107.268 E10.43163
G1 X127.802 Y109.759 E10.49965
G1 X128.998 Y112.249 E10.56856
G1 X130.264 Y114.704 E10.63746
G1 X131.551 Y117.038 E10.70395
G1 X132.985 Y119.471 E10.7744
G1 X134.407 Y121.734 E10.84107
G1 X135.948 Y124.042 E10.9103
G1 X137.518 Y126.252 E10.97792
G1 X139.19 Y128.471 E11.04723
G1 X140.875 Y130.581 E11.11459
G1 X142.668 Y132.7 E11.18383
G1 X144.486 Y134.728 E11.25177
G1 X146.376 Y136.724 E11.32034
G1 X148.305 Y138.644 E11.38823
G1 X149.696 Y139.966 E11.4361
G1 X150.4 Y140.624 E11.46014
G1 X150.776 Y140.992 E11.47326
G1 X151.212 Y141.454 E11.48911
G1 X151.475 Y141.763 E11.49923
G1 X152.036 Y142.476 E11.52186
G1 X152.401 Y143.004 E11.53787
G1 X152.876 Y143.83 E11.56164
G1 X154.314 Y146.249 E11.63184
G1 X155.764 Y148.538 E11.69943
G1 X157.284 Y150.793 E11.76727
G1 X158.889 Y153.036 E11.83607
G1 X160.551 Y155.225 E11.90463
G1 X162.267 Y157.357 E11.9729
G1 X163.084 Y158.32 E12.0044
G1 X163.722 Y159.103 E12.0296
G1 X163.844 Y159.263 E12.03462
G1 X164.275 Y159.867 E12.05313
G1 X164.646 Y160.455 E12.07047
G1 X164.892 Y160.91 E12.08337
G1 X165.196 Y161.553 E12.10111
G1 X165.417 Y162.167 E12.11739
G1 X165.539 Y162.669 E12.13028
G1 X165.617 Y163.298 E12.14609
G1 X165.628 Y163.866 E12.16026
G1 X165.627 Y163.927 E12.16178
G1 X165.577 Y164.436 E12.17454
G1 X165.461 Y165.077 E12.19079
G1 X165.007 Y167.796 E12.25956
G1 X164.635 Y170.491 E12.32742
G1 X164.406 Y172.585 E12.37997
G1 X164.194 Y174.485 E12.42766
G1 X164.108 Y175.092 E12.44295
G1 X163.747 Y177.86 E12.51258
G1 X163.47 Y180.571 E12.58056
G1 X163.266 Y183.354 E12.65017
G1 X163.189 Y184.864 E12.68789
G1 X163.158 Y185.581 E12.70579
G1 X163.138 Y185.839 E12.71224
G1 X163.042 Y186.731 E12.73462
G1 X162.936 Y187.337 E12.74997
G1 X162.802 Y187.905 E12.76453
G1 X162.581 Y188.598 E12.78267
G1 X162.208 Y189.407 E12.80489
G1 X161.837 Y190.042 E12.82324
G1 X161.485 Y190.489 E12.83743
G1 X161.154 Y190.87 E12.85002
G1 X159.816 Y192.359 E12.89996
G1 X158.043 Y194.45 E12.96834
G1 X156.316 Y196.609 E13.03731
G1 X154.677 Y198.777 E13.10511
G1 X153.484 Y200.439 E13.15614
G1 X153.098 Y200.935 E13.17182
G1 X152.813 Y201.233 E13.18211
G1 X152.436 Y201.598 E13.1952
G1 X152.028 Y201.932 E13.20835
G1 X151.534 Y202.269 E13.22327
G1 X150.912 Y202.635 E13.24127
G1 X150.44 Y202.843 E13.25413
G1 X149.877 Y203.069 E13.26927
G1 X147.354 Y204.115 E13.3374
G1 X144.833 Y205.244 E13.4063
G1 X142.388 Y206.422 E13.474
G1 X139.936 Y207.691 E13.54288
G1 X137.534 Y209.021 E13.61137
G1 X136.158 Y209.825 E13.65112
G1 X135.252 Y210.333 E13.67703
G1 X134.154 Y210.91 E13.70797
G1 X133.12 Y211.418 E13.73671
G1 X132.128 Y211.871 E13.76391
G1 X131.072 Y212.323 E13.79257
G1 X129.986 Y212.754 E13.82171
G1 X129.112 Y213.075 E13.84494
G1 X127.7 Y213.547 E13.88208
G1 X126.026 Y214.038 E13.92559
G1 X125.908 Y214.07 E13.92864
G1 X124.345 Y214.462 E13.96884
G1 X124.223 Y214.49 E13.97196
G1 X122.657 Y214.817 E14.01187
G1 X122.529 Y214.841 E14.01512
G1 X120.97 Y215.1 E14.05454
G1 X120.845 Y215.119 E14.0577
G1 X119.293 Y215.313 E14.09671
G1 X119.163 Y215.326 E14.09997
G1 X117.397 Y215.473 E14.14418
G1 X117.282 Y215.481 E14.14705
G1 X116.121 Y215.535 E14.17604
G1 X115.318 Y215.552 E14.19608
G1 X114.483 Y215.551 E14.21691
G1 X113.583 Y215.532 E14.23936
G1 X112.723 Y215.496 E14.26084
G1 X111.828 Y215.442 E14.2832
G1 X110.984 Y215.372 E14.30433
G1 X110.118 Y215.283 E14.32604
G1 X109.174 Y215.166 E14.34977
G1 X108.383 Y215.052 E14.36971
G1 X107.542 Y214.912 E14.39098
G1 X106.619 Y214.739 E14.4144
G1 X105.77 Y214.563 E14.43603
G1 X104.94 Y214.371 E14.45728
G1 X104.115 Y214.164 E14.4785
G1 X103.193 Y213.91 E14.50235
G1 X102.39 Y213.672 E14.52325
G1 X101.584 Y213.415 E14.54435
G1 X100.702 Y213.114 E14.5676
G1 X99.706 Y212.75 E14.59405
G1 X98.697 Y212.353 E14.6211
G1 X97.809 Y211.979 E14.64513
G1 X96.372 Y211.331 E14.68446
G1 X96.322 Y211.314 E14.68577
G1 X94.574 Y210.532 E14.73354
G1 X91.979 Y209.458 E14.8036
G1 X89.423 Y208.487 E14.8718
G1 X86.865 Y207.595 E14.93938
G1 X84.268 Y206.771 E15.00735
G1 X82.291 Y206.205 E15.05865
G1 X81.844 Y206.071 E15.07029
G1 X81.249 Y205.824 E15.08636
G1 X80.874 Y205.621 E15.09699
G1 X80.314 Y205.234 E15.11397
G1 X79.914 Y204.863 E15.12758
G1 X79.555 Y204.448 E15.14127
G1 X79.305 Y204.102 E15.15192
G1 X79 Y203.581 E15.16698
G1 X78.662 Y202.76 E15.18913
G1 X78.526 Y202.317 E15.20069
G1 X78.363 Y201.595 E15.21915
G1 X78.101 Y200.236 E15.25368
G1 X78.025 Y199.81 E15.26447
G1 X77.467 Y197.128 E15.3328
G1 X76.834 Y194.465 E15.40108
G1 X76.112 Y191.77 E15.47068
G1 X75.341 Y189.189 E15.53788
G1 X74.597 Y186.942 E15.59692
G1 X74.155 Y185.564 E15.63302
G1 X73.882 Y184.644 E15.65696
G1 X73.602 Y183.61 E15.68368
G1 X73.374 Y182.685 E15.70745
G1 X73.156 Y181.696 E15.73271
G1 X72.968 Y180.752 E15.75672
G1 X72.79 Y179.725 E15.78272
G1 X72.561 Y178.119 E15.82319
G1 X72.547 Y178.007 E15.826
G1 X72.405 Y176.66 E15.85979
G1 X72.287 Y174.975 E15.90193
G1 X72.178 Y172.677 E15.95931
G1 X71.972 Y169.949 E16.02756
G1 X71.519 Y165.862 E16.13013
G1 X71.445 Y165.292 E16.14447
G1 X71.405 Y164.774 E16.15743
G1 X71.402 Y164.233 E16.17093
G1 X71.429 Y163.023 E16.20112
G1 X71.452 Y160.22 E16.27104
G1 X71.398 Y157.503 E16.33883
G1 X71.266 Y154.786 E16.40669
G1 X71.054 Y152.034 E16.47554
G1 X70.767 Y149.3 E16.54411
G1 X70.336 Y146.144 E16.62357
G1 X70.155 Y144.964 E16.65335
G1 X70.116 Y144.596 E16.66258
G1 X70.06 Y143.772 E16.68318
G1 X69.981 Y142.367 E16.71829
G1 X69.745 Y139.582 E16.78801
G1 X69.464 Y137.074 E16.85096
G1 X69.399 Y136.481 E16.86584
G1 X69.362 Y135.693 E16.88552
G1 X69.374 Y135.162 E16.89877
G1 X69.426 Y134.505 E16.91521
G1 X69.511 Y133.972 E16.92867
G1 X69.687 Y133.249 E16.94724
G1 X69.927 Y132.573 E16.96513
G1 X70.08 Y132.228 E16.97454
G1 X70.311 Y131.782 E16.98707
G1 X70.509 Y131.452 E16.99667
G1 X70.815 Y131.005 E17.01019
G1 X71.35 Y130.364 E17.03101
G1 X71.839 Y129.88 E17.04818
G1 X72.348 Y129.461 E17.06462
G1 X72.84 Y129.111 E17.07968
G1 X73.752 Y128.503 E17.10703
G1 X76.007 Y126.952 E17.1753
G1 X78.213 Y125.341 E17.24344
G1 X80.394 Y123.652 E17.31225
G1 X82.493 Y121.929 E17.37999
G1 X84.587 Y120.109 E17.4492
G1 X86.577 Y118.278 E17.51666
G1 X88.539 Y116.37 E17.58492
G1 X90.446 Y114.403 E17.65327
G1 X92.32 Y112.36 E17.72242
G1 X94.106 Y110.299 E17.79045
G1 X95.816 Y108.208 E17.85783
G1 X97.526 Y105.992 E17.92766
G1 X99.114 Y103.81 E17.99497
G1 X100.672 Y101.536 E18.06374
G1 X102.157 Y99.23 E18.13216
G1 X103.577 Y96.885 E18.20054
G1 X104.911 Y94.531 E18.26803
G1 X106.213 Y92.076 E18.33735
G1 X107.416 Y89.644 E18.40504
G1 X108.568 Y87.138 E18.47384
G1 X109.632 Y84.64 E18.54157
G1 X110.643 Y82.068 E18.61051
G1 X111.57 Y79.5 E18.67861
G1 X112.427 Y76.895 E18.74702
G1 X112.696 Y75.996 E18.77043
G1 X112.944 Y75.209 E18.79101
G1 X113.132 Y74.744 E18.80352
G1 X113.392 Y74.315 E18.81604
G1 F1500 E13.31604
;MESH:Simao.stl
G0 F2160 X94.305 Y130.601
G0 X93.455 Y131.097
G0 X93.156 Y133.154
;TYPE:WALL-INNER
