;FLAVOR:Marlin
;TIME:7768
;Filament used: 3.50826m, 0m
;Layer height: 0.15
;MINX:69.071
;MINY:44.953
;MINZ:0.2
;MAXX:165.927
;MAXY:188.094
;MAXZ:2.3
;POSTPROCESSED
;Generated with Cura_SteamEngine 4.8.0
T0
M140 S60
M105
M190 S60
M104 S200
M105
M109 S200
M82 ;absolute extrusion mode
M201 X500.00 Y500.00 Z100.00 E5000.00 	;Setup machine max acceleration
M203 X500.00 Y500.00 Z10.00 E50.00 	;Setup machine max feedrate
M204 P500.00 R1000.00 T500.00 		;Setup Print/Retract/Travel acceleration
M205 X8.00 Y8.00 Z0.40 E5.00 		;Setup Jerk
M220 S100 				;Reset Feedrate
M221 S100 				;Reset Flowrate
G28				;Home the Machine
#G29 				;Bed Level
G92 E0
M300 P150 S587
G92 E0
G1 F1500 E-5.5
;LAYER_COUNT:15
;LAYER:0
M107
G0 F2160 X112.852 Y46.876 Z0.2
;TYPE:SKIRT
G1 F1500 E0
G1 F900 X113.119 Y46.424 E0.0131
G1 X113.451 Y46.018 E0.02618
G1 X113.842 Y45.667 E0.03929
G1 X114.28 Y45.379 E0.05236
G1 X114.758 Y45.161 E0.06547
G1 X115.263 Y45.018 E0.07856
G1 X115.784 Y44.953 E0.09166
G1 X116.309 Y44.968 E0.10476
G1 X116.825 Y45.062 E0.11784
G1 X117.321 Y45.234 E0.13094
G1 X117.786 Y45.479 E0.14405
G1 X118.207 Y45.792 E0.15713
G1 X118.577 Y46.165 E0.17024
G1 X118.885 Y46.589 E0.18331
G1 X119.126 Y47.056 E0.19642
G1 X119.293 Y47.554 E0.20952
G1 X119.383 Y48.079 E0.22281
G1 X119.423 Y48.511 E0.23363
G1 X119.567 Y50.322 E0.27895
G1 X119.86 Y53.042 E0.3472
G1 X120.227 Y55.725 E0.41475
G1 X120.674 Y58.428 E0.48309
G1 X121.204 Y61.148 E0.55222
G1 X121.791 Y63.767 E0.61917
G1 X122.459 Y66.396 E0.68683
G1 X123.213 Y69.051 E0.75568
G1 X124.048 Y71.7 E0.82497
G1 X124.929 Y74.238 E0.89198
G1 X125.885 Y76.763 E0.95933
G1 X126.932 Y79.309 E1.028
G1 X128.044 Y81.808 E1.09623
G1 X129.224 Y84.272 E1.16438
G1 X130.487 Y86.725 E1.23321
G1 X131.793 Y89.098 E1.30077
G1 X133.18 Y91.455 E1.369
G1 X134.628 Y93.765 E1.437
G1 X136.131 Y96.018 E1.50456
G1 X137.731 Y98.277 E1.57362
G1 X139.362 Y100.444 E1.64127
G1 X141.06 Y102.575 E1.70924
G1 X142.823 Y104.662 E1.77739
G1 X144.644 Y106.699 E1.84555
G1 X146.539 Y108.701 E1.91431
G1 X148.476 Y110.633 E1.98256
G1 X149.754 Y111.85 E2.02658
G1 X150.6 Y112.642 E2.05549
G1 X151.002 Y113.037 E2.06955
G1 X151.119 Y113.158 E2.07375
G1 X151.478 Y113.547 E2.08695
G1 X151.744 Y113.861 E2.09722
G1 X152.242 Y114.496 E2.11735
G1 X152.681 Y115.128 E2.13654
G1 X153.043 Y115.761 E2.15473
G1 X154.428 Y118.105 E2.22265
G1 X155.894 Y120.431 E2.29123
G1 X157.408 Y122.692 E2.35911
G1 X158.976 Y124.893 E2.42652
G1 X160.64 Y127.096 E2.49539
G1 X162.354 Y129.236 E2.56379
G1 X163.356 Y130.422 E2.60252
G1 X163.926 Y131.121 E2.62501
G1 X164.062 Y131.3 E2.63062
G1 X164.562 Y132.002 E2.65212
G1 X164.845 Y132.441 E2.66515
G1 X165.163 Y133.022 E2.68167
G1 X165.445 Y133.618 E2.69812
G1 X165.674 Y134.228 E2.71437
G1 X165.829 Y134.829 E2.72986
G1 X165.917 Y135.532 E2.74753
G1 X165.927 Y136.118 E2.76215
G1 X165.926 Y136.176 E2.7636
G1 X165.872 Y136.732 E2.77753
G1 X165.757 Y137.367 E2.79363
G1 X165.301 Y140.091 E2.86252
G1 X164.931 Y142.77 E2.92999
G1 X164.636 Y145.454 E2.99734
G1 X164.617 Y145.654 E3.00235
G1 X164.452 Y147.072 E3.03797
G1 X164.117 Y149.516 E3.0995
G1 X163.823 Y152.234 E3.1677
G1 X163.606 Y154.946 E3.23556
G1 X163.491 Y157.053 E3.2882
G1 X163.455 Y157.883 E3.30893
G1 X163.439 Y158.096 E3.31425
G1 X163.348 Y158.953 E3.33575
G1 X163.211 Y159.727 E3.35536
G1 X163.083 Y160.26 E3.36903
G1 X162.851 Y160.979 E3.38788
G1 X162.471 Y161.797 E3.41038
G1 X162.017 Y162.552 E3.43236
G1 X161.515 Y163.218 E3.45316
G1 X159.906 Y165.42 E3.52119
G1 X158.356 Y167.673 E3.58941
G1 X156.875 Y169.961 E3.6574
G1 X155.097 Y172.909 E3.74327
G1 X154.781 Y173.368 E3.75717
G1 X154.448 Y173.784 E3.77047
G1 X154.099 Y174.149 E3.78306
G1 X153.505 Y174.643 E3.80234
G1 X152.923 Y175.013 E3.81954
G1 X152.31 Y175.311 E3.83654
G1 X151.771 Y175.52 E3.85096
G1 X149.746 Y176.227 E3.90447
G1 X147.196 Y177.199 E3.97254
G1 X144.646 Y178.253 E4.04137
G1 X142.158 Y179.367 E4.10937
G1 X139.699 Y180.551 E4.17745
G1 X137.295 Y181.795 E4.24497
G1 X135.619 Y182.712 E4.29263
G1 X135.308 Y182.885 E4.30151
G1 X134.26 Y183.435 E4.33103
G1 X133.258 Y183.927 E4.35888
G1 X132.222 Y184.401 E4.3873
G1 X131.196 Y184.839 E4.41512
G1 X130.114 Y185.269 E4.44417
G1 X129.174 Y185.614 E4.46915
G1 X127.822 Y186.065 E4.5047
G1 X127.701 Y186.103 E4.50786
G1 X126.088 Y186.576 E4.54979
G1 X125.955 Y186.612 E4.55323
G1 X124.43 Y186.994 E4.59245
G1 X124.297 Y187.024 E4.59585
G1 X122.721 Y187.353 E4.63601
G1 X122.582 Y187.379 E4.63954
G1 X120.845 Y187.668 E4.68346
G1 X120.726 Y187.686 E4.68646
G1 X119.625 Y187.829 E4.71416
G1 X119.336 Y187.858 E4.7214
G1 X117.456 Y188.012 E4.76846
G1 X117.332 Y188.02 E4.77156
G1 X115.884 Y188.085 E4.80771
G1 X115.4 Y188.094 E4.81979
G1 X114.321 Y188.093 E4.84671
G1 X113.477 Y188.074 E4.86776
G1 X112.743 Y188.042 E4.88609
G1 X111.768 Y187.981 E4.91046
G1 X110.902 Y187.909 E4.93214
G1 X109.993 Y187.814 E4.95494
G1 X109.168 Y187.711 E4.97568
G1 X108.313 Y187.587 E4.99723
G1 X107.436 Y187.441 E5.01941
G1 X106.607 Y187.286 E5.04044
G1 X105.684 Y187.094 E5.06396
G1 X104.874 Y186.907 E5.0847
G1 X104.035 Y186.696 E5.10628
G1 X103.105 Y186.441 E5.13033
G1 X102.296 Y186.2 E5.15139
G1 X101.506 Y185.948 E5.17208
G1 X100.626 Y185.649 E5.19526
G1 X99.518 Y185.242 E5.2247
G1 X98.569 Y184.868 E5.25015
G1 X97.689 Y184.497 E5.27397
G1 X96.23 Y183.842 E5.31387
G1 X96.131 Y183.803 E5.31652
G1 X94.347 Y183.006 E5.36526
G1 X91.771 Y181.942 E5.43479
G1 X89.274 Y180.997 E5.50139
G1 X86.667 Y180.091 E5.57023
G1 X84.1 Y179.279 E5.63739
G1 X83.109 Y178.998 E5.66309
G1 X81.748 Y178.599 E5.69847
G1 X81.088 Y178.328 E5.71627
G1 X80.606 Y178.053 E5.73011
G1 X80.066 Y177.66 E5.74677
G1 X79.662 Y177.279 E5.76062
G1 X79.228 Y176.762 E5.77746
G1 X79.035 Y176.48 E5.78598
G1 X78.709 Y175.885 E5.80291
G1 X78.433 Y175.238 E5.82045
G1 X78.229 Y174.609 E5.83695
G1 X78.08 Y173.946 E5.8539
G1 X78.055 Y173.825 E5.85698
G1 X77.846 Y172.709 E5.88531
G1 X77.293 Y169.97 E5.95501
G1 X76.678 Y167.314 E6.02302
G1 X75.992 Y164.697 E6.0905
G1 X75.229 Y162.08 E6.1585
G1 X74.379 Y159.493 E6.22643
G1 X74.303 Y159.25 E6.23278
G1 X73.87 Y157.903 E6.26807
G1 X73.578 Y156.915 E6.29377
G1 X73.32 Y155.959 E6.31847
G1 X73.083 Y154.996 E6.34321
G1 X72.858 Y153.98 E6.36917
G1 X72.692 Y153.152 E6.39024
G1 X72.475 Y151.895 E6.42206
G1 X72.262 Y150.392 E6.45992
G1 X72.247 Y150.271 E6.46297
G1 X72.109 Y148.966 E6.4957
G1 X72.098 Y148.841 E6.49883
G1 X71.982 Y147.148 E6.54116
G1 X71.878 Y144.947 E6.59613
G1 X71.674 Y142.241 E6.66382
G1 X71.291 Y138.704 E6.75257
G1 X71.149 Y137.582 E6.78078
G1 X71.104 Y137.007 E6.79517
G1 X71.101 Y136.499 E6.80784
G1 X71.129 Y135.25 E6.839
G1 X71.152 Y132.457 E6.90868
G1 X71.097 Y129.757 E6.97604
G1 X70.966 Y127.025 E7.04427
G1 X70.755 Y124.288 E7.11275
G1 X70.47 Y121.584 E7.18057
G1 X70.03 Y118.363 E7.26167
G1 X69.859 Y117.254 E7.28966
G1 X69.827 Y116.967 E7.29686
G1 X69.759 Y115.98 E7.32154
G1 X69.685 Y114.646 E7.35487
G1 X69.459 Y111.942 E7.42256
G1 X69.216 Y109.72 E7.47831
G1 X69.112 Y108.849 E7.5002
G1 X69.072 Y108.235 E7.51554
G1 X69.071 Y107.438 E7.53543
G1 X69.107 Y106.897 E7.54895
G1 X69.203 Y106.222 E7.56596
G1 X69.329 Y105.666 E7.58018
G1 X69.484 Y105.151 E7.5936
G1 X69.774 Y104.411 E7.61342
G1 X70.008 Y103.942 E7.6265
G1 X70.311 Y103.434 E7.64125
G1 X70.698 Y102.9 E7.6577
G1 X71.192 Y102.345 E7.67624
G1 X71.56 Y101.976 E7.68924
G1 X72.039 Y101.562 E7.70503
G1 X72.546 Y101.184 E7.72081
G1 X73.187 Y100.752 E7.74009
G1 X73.612 Y100.477 E7.75272
G1 X75.863 Y98.927 E7.82089
G1 X78.076 Y97.31 E7.88926
G1 X80.232 Y95.639 E7.9573
G1 X82.348 Y93.901 E8.02561
G1 X84.392 Y92.124 E8.09317
G1 X86.421 Y90.256 E8.16197
G1 X88.341 Y88.384 E8.22886
G1 X90.289 Y86.374 E8.29869
G1 X92.107 Y84.392 E8.36578
G1 X93.885 Y82.336 E8.43358
G1 X95.627 Y80.206 E8.50222
G1 X97.302 Y78.034 E8.57064
G1 X98.892 Y75.845 E8.63813
G1 X100.448 Y73.574 E8.7068
G1 X101.921 Y71.285 E8.7747
G1 X103.319 Y68.973 E8.8421
G1 X104.679 Y66.573 E8.91091
G1 X105.963 Y64.149 E8.97934
G1 X107.165 Y61.717 E9.04701
G1 X108.297 Y59.252 E9.11467
G1 X109.375 Y56.719 E9.18334
G1 X110.386 Y54.149 E9.25223
G1 X111.297 Y51.613 E9.31945
G1 X112.154 Y49.007 E9.38788
G1 X112.417 Y48.127 E9.4108
G1 X112.657 Y47.364 E9.43075
G1 X112.852 Y46.876 E9.44386
G0 F2160 X113.131 Y46.989
G1 F900 X113.391 Y46.56 E9.45637
G1 X113.715 Y46.177 E9.46888
G1 X114.096 Y45.851 E9.48139
G1 X114.524 Y45.589 E9.49391
G1 X114.988 Y45.399 E9.50642
G1 X115.477 Y45.284 E9.51895
G1 X115.977 Y45.249 E9.53145
G1 X116.477 Y45.294 E9.54398
G1 X116.963 Y45.417 E9.55648
G1 X117.423 Y45.616 E9.56898
G1 X117.846 Y45.885 E9.58149
G1 X118.221 Y46.218 E9.594
G1 X118.539 Y46.607 E9.60653
G1 X118.79 Y47.041 E9.61904
G1 X118.97 Y47.509 E9.63155
G1 X119.084 Y48.106 E9.64671
G1 X119.124 Y48.535 E9.65746
G1 X119.268 Y50.345 E9.70275
G1 X119.562 Y53.074 E9.77122
G1 X119.932 Y55.782 E9.8394
G1 X120.383 Y58.503 E9.9082
G1 X120.901 Y61.166 E9.97587
G1 X121.507 Y63.868 E10.04495
G1 X122.17 Y66.479 E10.11215
G1 X122.932 Y69.16 E10.18167
G1 X123.745 Y71.742 E10.2492
G1 X124.646 Y74.337 E10.31772
G1 X125.609 Y76.878 E10.38551
G1 X126.661 Y79.439 E10.45457
G1 X127.781 Y81.954 E10.52325
G1 X128.948 Y84.39 E10.59063
G1 X130.211 Y86.845 E10.6595
G1 X131.532 Y89.246 E10.72786
G1 X132.928 Y91.617 E10.79649
G1 X134.368 Y93.916 E10.86416
G1 X135.908 Y96.225 E10.9334
G1 X137.474 Y98.434 E11.00094
G1 X139.136 Y100.643 E11.0699
G1 X140.824 Y102.76 E11.13744
G1 X142.6 Y104.864 E11.20612
G1 X144.431 Y106.911 E11.27463
G1 X146.304 Y108.89 E11.3426
G1 X148.269 Y110.85 E11.41184
G1 X149.549 Y112.069 E11.45593
G1 X150.39 Y112.856 E11.48466
G1 X150.792 Y113.251 E11.49872
G1 X150.899 Y113.362 E11.50256
G1 X151.258 Y113.751 E11.51577
G1 X151.508 Y114.046 E11.52542
G1 X152.006 Y114.681 E11.54555
G1 X152.42 Y115.277 E11.56365
G1 X152.76 Y115.871 E11.58072
G1 X154.186 Y118.283 E11.65062
G1 X155.635 Y120.584 E11.71845
G1 X157.159 Y122.859 E11.78676
G1 X158.753 Y125.097 E11.8553
G1 X160.394 Y127.269 E11.9232
G1 X162.106 Y129.406 E11.99151
G1 X163.123 Y130.611 E12.03084
G1 X163.693 Y131.31 E12.05334
G1 X163.818 Y131.474 E12.05848
G1 X164.318 Y132.176 E12.07998
G1 X164.589 Y132.597 E12.09247
G1 X164.891 Y133.151 E12.10821
G1 X165.173 Y133.747 E12.12466
G1 X165.389 Y134.323 E12.14
G1 X165.537 Y134.897 E12.15479
G1 X165.617 Y135.538 E12.1709
G1 X165.628 Y136.113 E12.18525
G1 X165.627 Y136.171 E12.1867
G1 X165.577 Y136.678 E12.19941
G1 X165.462 Y137.313 E12.2155
G1 X165.007 Y140.033 E12.2843
G1 X164.633 Y142.733 E12.35229
G1 X164.335 Y145.453 E12.42055
G1 X164.319 Y145.62 E12.42473
G1 X164.155 Y147.031 E12.46017
G1 X163.819 Y149.476 E12.52173
G1 X163.524 Y152.211 E12.59035
G1 X163.305 Y154.95 E12.6589
G1 X163.193 Y157.002 E12.71016
G1 X163.155 Y157.87 E12.73183
G1 X163.14 Y158.065 E12.73671
G1 X163.049 Y158.922 E12.75821
G1 X162.917 Y159.667 E12.77708
G1 X162.795 Y160.177 E12.79016
G1 X162.567 Y160.882 E12.80865
G1 X162.204 Y161.66 E12.83006
G1 X161.777 Y162.371 E12.85075
G1 X161.275 Y163.037 E12.87155
G1 X159.677 Y165.224 E12.93912
G1 X158.101 Y167.514 E13.00847
G1 X156.62 Y169.802 E13.07645
G1 X154.84 Y172.754 E13.16244
G1 X154.537 Y173.193 E13.17575
G1 X154.217 Y173.593 E13.18853
G1 X153.745 Y174.064 E13.20516
G1 X153.32 Y174.407 E13.21878
G1 X152.788 Y174.745 E13.23451
G1 X152.185 Y175.039 E13.25124
G1 X151.668 Y175.238 E13.26506
G1 X149.615 Y175.955 E13.31931
G1 X147.11 Y176.91 E13.38618
G1 X144.527 Y177.978 E13.4559
G1 X142.04 Y179.091 E13.52387
G1 X139.565 Y180.283 E13.5924
G1 X137.114 Y181.551 E13.66124
G1 X135.475 Y182.448 E13.70784
G1 X135.168 Y182.619 E13.71661
G1 X134.127 Y183.166 E13.74594
G1 X133.133 Y183.654 E13.77357
G1 X132.104 Y184.125 E13.8018
G1 X131.085 Y184.56 E13.82943
G1 X130.087 Y184.958 E13.85624
G1 X129.172 Y185.296 E13.88057
G1 X129.079 Y185.329 E13.88303
G1 X127.727 Y185.78 E13.91858
G1 X127.616 Y185.815 E13.92149
G1 X126.003 Y186.288 E13.96342
G1 X125.882 Y186.321 E13.96655
G1 X124.357 Y186.703 E14.00576
G1 X124.236 Y186.731 E14.00886
G1 X122.66 Y187.06 E14.04902
G1 X122.533 Y187.083 E14.05224
G1 X120.796 Y187.372 E14.09617
G1 X120.687 Y187.388 E14.09891
G1 X119.593 Y187.531 E14.12644
G1 X119.311 Y187.559 E14.13351
G1 X117.318 Y187.721 E14.18339
G1 X115.962 Y187.783 E14.21725
G1 X115.4 Y187.794 E14.23127
G1 X114.328 Y187.793 E14.25801
G1 X113.49 Y187.774 E14.27892
G1 X112.761 Y187.743 E14.29712
G1 X111.793 Y187.682 E14.32131
G1 X110.933 Y187.611 E14.34284
G1 X110.03 Y187.516 E14.36549
G1 X109.211 Y187.414 E14.38608
G1 X108.362 Y187.291 E14.40748
G1 X107.491 Y187.146 E14.4295
G1 X106.668 Y186.992 E14.45039
G1 X105.751 Y186.802 E14.47375
G1 X104.947 Y186.616 E14.49434
G1 X104.114 Y186.407 E14.51576
G1 X103.191 Y186.153 E14.53964
G1 X102.388 Y185.914 E14.56054
G1 X101.603 Y185.664 E14.58109
G1 X100.65 Y185.339 E14.60621
G1 X99.627 Y184.962 E14.6334
G1 X98.686 Y184.592 E14.65863
G1 X97.812 Y184.223 E14.68229
G1 X96.307 Y183.548 E14.72344
G1 X96.253 Y183.529 E14.72487
G1 X94.466 Y182.731 E14.77368
G1 X91.898 Y181.67 E14.843
G1 X89.373 Y180.714 E14.91035
G1 X86.75 Y179.803 E14.97961
G1 X84.176 Y178.989 E15.04695
G1 X83.194 Y178.71 E15.07242
G1 X81.833 Y178.311 E15.1078
G1 X81.23 Y178.064 E15.12405
G1 X80.758 Y177.794 E15.13762
G1 X80.265 Y177.435 E15.15283
G1 X79.872 Y177.065 E15.1663
G1 X79.476 Y176.592 E15.18168
G1 X79.283 Y176.31 E15.19021
G1 X78.985 Y175.767 E15.20566
G1 X78.709 Y175.12 E15.22321
G1 X78.522 Y174.544 E15.23831
G1 X78.373 Y173.881 E15.25526
G1 X78.35 Y173.77 E15.25809
G1 X78.14 Y172.65 E15.28652
G1 X77.588 Y169.916 E15.35609
G1 X76.967 Y167.235 E15.42474
G1 X76.279 Y164.61 E15.49243
G1 X75.514 Y161.988 E15.56057
G1 X74.666 Y159.403 E15.62843
G1 X74.59 Y159.16 E15.63478
G1 X74.158 Y157.818 E15.66995
G1 X73.868 Y156.837 E15.69547
G1 X73.611 Y155.887 E15.72002
G1 X73.376 Y154.931 E15.74457
G1 X73.152 Y153.921 E15.77038
G1 X72.971 Y153.011 E15.79353
G1 X72.772 Y151.853 E15.82284
G1 X72.559 Y150.35 E15.8607
G1 X72.545 Y150.239 E15.86349
G1 X72.407 Y148.934 E15.89623
G1 X72.281 Y147.134 E15.94124
G1 X72.176 Y144.909 E15.9968
G1 X71.973 Y142.216 E16.06417
G1 X71.582 Y138.61 E16.15465
G1 X71.438 Y137.468 E16.18336
G1 X71.4 Y136.608 E16.20484
G1 X71.429 Y135.258 E16.23852
G1 X71.452 Y132.457 E16.3084
G1 X71.397 Y129.736 E16.37629
G1 X71.266 Y127.023 E16.44404
G1 X71.054 Y124.271 E16.51289
G1 X70.767 Y121.541 E16.58137
G1 X70.319 Y118.264 E16.66387
G1 X70.156 Y117.208 E16.69053
G1 X70.127 Y116.946 E16.6971
G1 X70.059 Y115.964 E16.72166
G1 X69.986 Y114.639 E16.75476
G1 X69.755 Y111.883 E16.82375
G1 X69.515 Y109.687 E16.87886
G1 X69.411 Y108.821 E16.90061
G1 X69.371 Y108.217 E16.91571
G1 X69.371 Y107.446 E16.93495
G1 X69.405 Y106.932 E16.9478
G1 X69.499 Y106.269 E16.9645
G1 X69.618 Y105.745 E16.9779
G1 X69.765 Y105.255 E16.99066
G1 X70.044 Y104.54 E17.00981
G1 X70.268 Y104.091 E17.02233
G1 X70.558 Y103.604 E17.03647
G1 X70.938 Y103.08 E17.05261
G1 X71.41 Y102.551 E17.0703
G1 X71.771 Y102.189 E17.08305
G1 X72.221 Y101.801 E17.09787
G1 X72.714 Y101.432 E17.11323
G1 X73.35 Y101.004 E17.13236
G1 X73.771 Y100.732 E17.14486
G1 X76.06 Y99.156 E17.21418
G1 X78.223 Y97.575 E17.28102
G1 X80.435 Y95.861 E17.35082
G1 X82.523 Y94.146 E17.41822
G1 X84.599 Y92.341 E17.48685
G1 X86.602 Y90.496 E17.55478
G1 X88.589 Y88.559 E17.624
G1 X90.496 Y86.593 E17.69232
G1 X92.327 Y84.596 E17.75991
G1 X94.113 Y82.53 E17.82803
G1 X95.869 Y80.383 E17.89722
G1 X97.531 Y78.228 E17.96511
G1 X99.139 Y76.016 E18.03332
G1 X100.687 Y73.755 E18.10168
G1 X102.185 Y71.428 E18.17071
G1 X103.576 Y69.127 E18.23778
G1 X104.952 Y66.7 E18.30738
G1 X106.222 Y64.302 E18.37507
G1 X107.446 Y61.825 E18.44399
G1 X108.57 Y59.376 E18.51121
G1 X109.662 Y56.811 E18.58075
G1 X110.663 Y54.266 E18.64897
G1 X111.577 Y51.724 E18.71635
G1 X112.445 Y49.08 E18.78577
G1 X112.703 Y48.217 E18.80824
G1 X112.943 Y47.454 E18.82819
G1 X113.131 Y46.989 E18.84071
G1 F1500 E13.34071
;MESH:Maria.stl
G0 F2160 X94.384 Y103.032
G0 X93.483 Y103.43
G0 X93.135 Y105.404
;TYPE:WALL-INNER
G1 F1500 E18.84071
G1 F900 X93.136 Y105.405 E18.84074
G1 X93.137 Y105.622 E18.84615
G1 X93.339 Y105.542 E18.84934
G1 X94.795 Y104.961 E18.88844
G1 X95.461 Y104.773 E18.90571
