;FLAVOR:Marlin
;TIME:3468
;Filament used: 2.53568m, 0m
;Layer height: 0.15
;MINX:76.82
;MINY:56.676
;MINZ:0.2
;MAXX:158.179
;MAXY:176.358
;MAXZ:2
;POSTPROCESSED
;Generated with Cura_SteamEngine 4.8.0
T0
M140 S60
M105
M190 S60
M104 S200
M105
M109 S200
M82 ;absolute extrusion mode
M201 X500.00 Y500.00 Z100.00 E5000.00 	;Setup machine max acceleration
M203 X500.00 Y500.00 Z10.00 E50.00 	;Setup machine max feedrate
M204 P500.00 R1000.00 T500.00 		;Setup Print/Retract/Travel acceleration
M205 X8.00 Y8.00 Z0.40 E5.00 		;Setup Jerk
M220 S100 				;Reset Feedrate
M221 S100 				;Reset Flowrate
G28				;Home the Machine
#G29 				;Bed Level
G92 E0
M300 P150 S587
G92 E0
G1 F1500 E-5.5
;LAYER_COUNT:13
;LAYER:0
M107
G0 F2160 X113.21 Y58.431 Z0.2
;TYPE:SKIRT
G1 F1500 E0
G1 F900 X113.502 Y57.995 E0.01309
G1 X113.856 Y57.608 E0.02617
G1 X114.266 Y57.279 E0.03929
G1 X114.72 Y57.017 E0.05236
G1 X115.209 Y56.826 E0.06546
G1 X115.722 Y56.711 E0.07857
G1 X116.246 Y56.676 E0.09167
G1 X116.769 Y56.721 E0.10477
G1 X117.279 Y56.844 E0.11785
G1 X117.764 Y57.044 E0.13094
G1 X118.214 Y57.314 E0.14403
G1 X118.618 Y57.65 E0.15714
G1 X118.966 Y58.043 E0.17023
G1 X119.25 Y58.485 E0.18334
G1 X119.464 Y58.964 E0.19643
G1 X119.626 Y59.61 E0.21304
G1 X119.791 Y60.699 E0.24051
G1 X120.249 Y63.465 E0.31045
G1 X120.767 Y66.126 E0.37808
G1 X121.359 Y68.762 E0.44547
G1 X122.038 Y71.431 E0.51417
G1 X122.787 Y74.064 E0.58246
G1 X123.605 Y76.662 E0.6504
G1 X124.506 Y79.253 E0.71883
G1 X125.449 Y81.741 E0.7852
G1 X126.516 Y84.335 E0.85517
G1 X127.618 Y86.811 E0.92277
G1 X128.804 Y89.287 E0.99126
G1 X130.046 Y91.698 E1.05891
G1 X131.377 Y94.115 E1.12774
G1 X132.746 Y96.44 E1.19505
G1 X134.203 Y98.765 E1.26349
G1 X135.723 Y101.043 E1.3318
G1 X137.299 Y103.265 E1.39976
G1 X138.947 Y105.455 E1.46813
G1 X140.625 Y107.56 E1.53528
G1 X142.415 Y109.679 E1.60447
G1 X144.208 Y111.683 E1.67155
G1 X145.286 Y112.817 E1.71058
G1 X145.793 Y113.362 E1.72915
G1 X145.873 Y113.451 E1.73213
G1 X146.424 Y114.088 E1.75314
G1 X146.747 Y114.505 E1.7663
G1 X147.034 Y114.928 E1.77905
G1 X147.425 Y115.562 E1.79763
G1 X148.861 Y117.903 E1.86614
G1 X150.353 Y120.188 E1.93422
G1 X151.899 Y122.414 E2.00182
G1 X153.534 Y124.634 E2.0706
G1 X155.602 Y127.261 E2.154
G1 X156.37 Y128.204 E2.18434
G1 X156.501 Y128.376 E2.18973
G1 X156.94 Y128.99 E2.20856
G1 X157.27 Y129.514 E2.224
G1 X157.589 Y130.116 E2.241
G1 X157.894 Y130.863 E2.26113
G1 X158.094 Y131.616 E2.28056
G1 X158.172 Y132.313 E2.29806
G1 X158.179 Y132.577 E2.30465
G1 X158.152 Y133.11 E2.31796
G1 X158.036 Y133.919 E2.33834
G1 X157.741 Y135.669 E2.38261
G1 X157.354 Y138.427 E2.45209
G1 X157.14 Y140.286 E2.49877
G1 X157.08 Y140.852 E2.51296
G1 X157.005 Y141.396 E2.52666
G1 X156.658 Y144.108 E2.59487
G1 X156.388 Y146.834 E2.6632
G1 X156.198 Y149.522 E2.73042
G1 X156.137 Y150.747 E2.76101
G1 X156.122 Y150.923 E2.76542
G1 X156.037 Y151.73 E2.78566
G1 X155.953 Y152.24 E2.79856
G1 X155.807 Y152.871 E2.81471
G1 X155.598 Y153.518 E2.83167
G1 X155.268 Y154.241 E2.8515
G1 X155.11 Y154.531 E2.85974
G1 X154.661 Y155.168 E2.87918
G1 X154.488 Y155.362 E2.88566
G1 X152.664 Y157.466 E2.95512
G1 X150.929 Y159.585 E3.02344
G1 X149.265 Y161.739 E3.09134
G1 X148.612 Y162.641 E3.11911
G1 X147.834 Y163.688 E3.15165
G1 X147.455 Y164.127 E3.16612
G1 X147.01 Y164.565 E3.1817
G1 X146.56 Y164.934 E3.19621
G1 X145.908 Y165.367 E3.21574
G1 X145.407 Y165.631 E3.22986
G1 X144.15 Y166.165 E3.26393
G1 X143.594 Y166.394 E3.27893
G1 X141.098 Y167.504 E3.34707
G1 X138.679 Y168.663 E3.41398
G1 X136.217 Y169.928 E3.48303
G1 X134.204 Y171.045 E3.54046
G1 X134.084 Y171.1 E3.54375
G1 X132.446 Y172.016 E3.59057
G1 X131.682 Y172.416 E3.61208
G1 X130.794 Y172.853 E3.63677
G1 X130.016 Y173.21 E3.65812
G1 X129.036 Y173.629 E3.68471
G1 X128.107 Y173.997 E3.70963
G1 X127.414 Y174.251 E3.72804
G1 X126.254 Y174.639 E3.75856
G1 X126.13 Y174.678 E3.7618
G1 X124.792 Y175.07 E3.79658
G1 X124.658 Y175.106 E3.80004
G1 X123.353 Y175.432 E3.83359
G1 X123.222 Y175.462 E3.83695
G1 X121.967 Y175.724 E3.86893
G1 X121.831 Y175.75 E3.87238
G1 X120.51 Y175.971 E3.90579
G1 X120.366 Y175.992 E3.90942
G1 X119.046 Y176.156 E3.9426
G1 X118.909 Y176.17 E3.94604
G1 X117.499 Y176.288 E3.98133
G1 X117.371 Y176.296 E3.98453
G1 X116.222 Y176.348 E4.01322
G1 X115.708 Y176.358 E4.02605
G1 X114.952 Y176.358 E4.04491
G1 X114.226 Y176.342 E4.06302
G1 X113.509 Y176.313 E4.08092
G1 X112.756 Y176.266 E4.09974
G1 X111.986 Y176.203 E4.11901
G1 X111.26 Y176.127 E4.13722
G1 X110.669 Y176.055 E4.15207
G1 X109.743 Y175.921 E4.17541
G1 X109.066 Y175.808 E4.19253
G1 X108.397 Y175.683 E4.20951
G1 X107.587 Y175.515 E4.23015
G1 X106.918 Y175.36 E4.24728
G1 X106.149 Y175.166 E4.26706
G1 X105.46 Y174.977 E4.28488
G1 X104.726 Y174.759 E4.30398
G1 X104.028 Y174.536 E4.32226
G1 X103.314 Y174.293 E4.34108
G1 X102.445 Y173.974 E4.36417
G1 X101.658 Y173.664 E4.38527
G1 X100.852 Y173.324 E4.40709
G1 X100.542 Y173.185 E4.41556
G1 X98.015 Y172.092 E4.48424
G1 X95.49 Y171.083 E4.55207
G1 X92.891 Y170.13 E4.62113
G1 X90.322 Y169.269 E4.68871
G1 X89.061 Y168.889 E4.72157
G1 X87.871 Y168.516 E4.75268
G1 X87.323 Y168.31 E4.76728
G1 X86.85 Y168.081 E4.78039
G1 X86.291 Y167.701 E4.79725
G1 X85.888 Y167.365 E4.81034
G1 X85.451 Y166.867 E4.82687
G1 X85.228 Y166.568 E4.83617
G1 X84.841 Y165.905 E4.85532
G1 X84.569 Y165.24 E4.87324
G1 X84.423 Y164.761 E4.88573
G1 X84.275 Y164.103 E4.90256
G1 X84.219 Y163.811 E4.90997
G1 X83.647 Y161.062 E4.98002
G1 X83.025 Y158.444 E5.04714
G1 X82.318 Y155.812 E5.11512
G1 X81.273 Y152.359 E5.20512
G1 X80.814 Y150.935 E5.24244
G1 X80.58 Y150.143 E5.26304
G1 X80.342 Y149.264 E5.28576
G1 X80.147 Y148.473 E5.30608
G1 X79.971 Y147.679 E5.32637
G1 X79.823 Y146.936 E5.34526
G1 X79.667 Y146.04 E5.36795
G1 X79.65 Y145.933 E5.37065
G1 X79.47 Y144.661 E5.4027
G1 X79.455 Y144.538 E5.40579
G1 X79.334 Y143.384 E5.43474
G1 X79.323 Y143.262 E5.43779
G1 X79.222 Y141.785 E5.47472
G1 X79.198 Y141.434 E5.4835
G1 X79.158 Y140.565 E5.5052
G1 X78.957 Y137.864 E5.57276
G1 X78.679 Y135.155 E5.64069
G1 X78.554 Y134.14 E5.6662
G1 X78.508 Y133.544 E5.68111
G1 X78.497 Y132.437 E5.70873
G1 X78.513 Y130.88 E5.74757
G1 X78.463 Y128.18 E5.81493
G1 X78.334 Y125.441 E5.88334
G1 X78.131 Y122.741 E5.95088
G1 X77.849 Y120.009 E6.01939
G1 X77.544 Y117.755 E6.07613
G1 X77.453 Y117.006 E6.09495
G1 X77.435 Y116.811 E6.09983
G1 X77.359 Y115.705 E6.12749
G1 X77.314 Y114.967 E6.14593
G1 X77.082 Y112.277 E6.21328
G1 X76.877 Y110.458 E6.25895
G1 X76.862 Y110.288 E6.2632
G1 X76.82 Y109.617 E6.27997
G1 X76.822 Y109.062 E6.29382
G1 X76.852 Y108.644 E6.30427
G1 X76.912 Y108.087 E6.31825
G1 X77.03 Y107.467 E6.33399
G1 X77.274 Y106.687 E6.35438
G1 X77.625 Y105.921 E6.3754
G1 X77.879 Y105.477 E6.38816
G1 X78.183 Y105.027 E6.4017
G1 X78.615 Y104.499 E6.41872
G1 X79.049 Y104.061 E6.4341
G1 X79.506 Y103.667 E6.44915
G1 X80.592 Y102.842 E6.48317
G1 X82.758 Y101.149 E6.55175
G1 X84.874 Y99.398 E6.62026
G1 X86.92 Y97.602 E6.68818
G1 X88.927 Y95.739 E6.75649
G1 X90.848 Y93.85 E6.82369
G1 X92.787 Y91.838 E6.8934
G1 X94.608 Y89.834 E6.96094
G1 X96.378 Y87.77 E7.02877
G1 X98.091 Y85.659 E7.09658
G1 X99.761 Y83.473 E7.1652
G1 X101.349 Y81.27 E7.23295
G1 X102.893 Y78.995 E7.30153
G1 X104.347 Y76.717 E7.36895
G1 X105.764 Y74.351 E7.43774
G1 X107.098 Y71.972 E7.50578
G1 X108.359 Y69.57 E7.57345
G1 X109.564 Y67.104 E7.64192
G1 X110.694 Y64.619 E7.71001
G1 X111.77 Y62.064 E7.77917
G1 X112.597 Y59.941 E7.83601
G1 X112.988 Y58.907 E7.86358
G1 X113.21 Y58.431 E7.87668
G0 F2160 X113.482 Y58.559
G1 F900 X113.766 Y58.145 E7.88921
G1 X114.111 Y57.782 E7.9017
G1 X114.51 Y57.477 E7.91423
G1 X114.952 Y57.24 E7.92674
G1 X115.426 Y57.076 E7.93925
G1 X115.92 Y56.99 E7.95176
G1 X116.421 Y56.983 E7.96426
G1 X116.918 Y57.055 E7.97678
G1 X117.396 Y57.206 E7.98929
G1 X117.845 Y57.43 E8.0018
G1 X118.252 Y57.723 E8.01431
G1 X118.608 Y58.077 E8.02684
G1 X118.902 Y58.483 E8.03934
G1 X119.129 Y58.93 E8.05185
G1 X119.282 Y59.408 E8.06437
G1 X119.33 Y59.655 E8.07064
G1 X119.495 Y60.748 E8.09822
G1 X119.952 Y63.506 E8.16796
G1 X120.471 Y66.169 E8.23563
G1 X121.076 Y68.87 E8.30468
G1 X121.741 Y71.481 E8.37189
G1 X122.504 Y74.163 E8.44145
G1 X123.327 Y76.776 E8.50979
G1 X124.211 Y79.32 E8.57697
G1 X125.184 Y81.887 E8.64545
G1 X126.233 Y84.436 E8.71421
G1 X127.355 Y86.957 E8.78304
G1 X128.535 Y89.421 E8.85119
G1 X129.777 Y91.832 E8.91884
G1 X131.101 Y94.236 E8.98731
G1 X132.503 Y96.618 E9.05625
G1 X133.96 Y98.941 E9.12466
G1 X135.472 Y101.209 E9.19265
G1 X137.046 Y103.428 E9.26052
G1 X138.7 Y105.626 E9.32913
G1 X140.418 Y107.781 E9.39788
G1 X142.175 Y109.86 E9.46578
G1 X144.012 Y111.913 E9.53451
G1 X145.066 Y113.021 E9.57265
G1 X145.573 Y113.566 E9.59122
G1 X145.646 Y113.647 E9.59394
G1 X146.192 Y114.278 E9.61476
G1 X146.499 Y114.673 E9.62723
G1 X146.786 Y115.096 E9.63999
G1 X147.15 Y115.688 E9.65732
G1 X148.598 Y118.049 E9.72641
G1 X150.111 Y120.366 E9.79544
G1 X151.657 Y122.591 E9.86303
G1 X153.286 Y124.802 E9.93153
G1 X155.403 Y127.492 E10.01692
G1 X156.137 Y128.394 E10.04593
G1 X156.257 Y128.551 E10.05086
G1 X156.696 Y129.165 E10.06969
G1 X157.008 Y129.659 E10.08426
G1 X157.315 Y130.238 E10.10061
G1 X157.615 Y130.972 E10.12039
G1 X157.797 Y131.66 E10.13815
G1 X157.872 Y132.321 E10.15474
G1 X157.854 Y133.071 E10.17345
G1 X157.739 Y133.874 E10.19369
G1 X157.441 Y135.644 E10.23846
G1 X157.062 Y138.341 E10.3064
G1 X156.838 Y140.283 E10.35517
G1 X156.768 Y140.93 E10.3714
G1 X156.714 Y141.311 E10.381
G1 X156.36 Y144.077 E10.45056
G1 X156.09 Y146.801 E10.51884
G1 X155.896 Y149.544 E10.58744
G1 X155.838 Y150.725 E10.61693
G1 X155.824 Y150.892 E10.62111
G1 X155.739 Y151.699 E10.64136
G1 X155.633 Y152.307 E10.65675
G1 X155.481 Y152.92 E10.67251
G1 X155.314 Y153.421 E10.68568
G1 X155 Y154.105 E10.70445
G1 X154.847 Y154.387 E10.71246
G1 X154.437 Y154.968 E10.7302
G1 X154.261 Y155.166 E10.7368
G1 X152.417 Y157.292 E10.80701
G1 X150.729 Y159.354 E10.87348
G1 X149.013 Y161.576 E10.94351
G1 X148.371 Y162.462 E10.97081
G1 X147.593 Y163.509 E11.00335
G1 X147.235 Y163.923 E11.017
G1 X146.801 Y164.35 E11.03219
G1 X146.39 Y164.687 E11.04544
G1 X145.747 Y165.114 E11.0647
G1 X145.289 Y165.355 E11.07761
G1 X144.036 Y165.888 E11.11158
G1 X143.463 Y166.124 E11.12703
G1 X140.994 Y167.222 E11.19444
G1 X138.518 Y168.408 E11.26292
G1 X136.069 Y169.667 E11.33161
G1 X134.059 Y170.782 E11.38895
G1 X133.943 Y170.835 E11.39213
G1 X132.306 Y171.75 E11.43891
G1 X131.549 Y172.147 E11.46024
G1 X130.669 Y172.58 E11.4847
G1 X129.817 Y172.97 E11.50808
G1 X129.002 Y173.319 E11.53019
G1 X128.004 Y173.716 E11.55698
G1 X127.41 Y173.935 E11.57278
G1 X126.159 Y174.354 E11.60569
G1 X126.046 Y174.39 E11.60865
G1 X124.708 Y174.782 E11.64342
G1 X124.585 Y174.815 E11.6466
G1 X123.28 Y175.141 E11.68016
G1 X123.161 Y175.169 E11.6832
G1 X121.906 Y175.431 E11.71519
G1 X121.782 Y175.454 E11.71833
G1 X120.461 Y175.675 E11.75174
G1 X120.329 Y175.694 E11.75507
G1 X119.009 Y175.858 E11.78825
G1 X118.884 Y175.871 E11.79138
G1 X117.474 Y175.989 E11.82668
G1 X117.357 Y175.997 E11.82961
G1 X116.299 Y176.046 E11.85603
G1 X115.708 Y176.058 E11.87077
G1 X114.959 Y176.058 E11.88946
G1 X114.238 Y176.043 E11.90744
G1 X113.528 Y176.014 E11.92517
G1 X112.781 Y175.967 E11.94384
G1 X112.017 Y175.904 E11.96296
G1 X111.296 Y175.829 E11.98105
G1 X110.635 Y175.748 E11.99766
G1 X109.792 Y175.625 E12.01891
G1 X109.121 Y175.513 E12.03588
G1 X108.458 Y175.389 E12.0527
G1 X107.654 Y175.223 E12.07318
G1 X106.991 Y175.069 E12.09016
G1 X106.229 Y174.877 E12.10976
G1 X105.545 Y174.689 E12.12746
G1 X104.817 Y174.473 E12.1464
G1 X104.125 Y174.252 E12.16452
G1 X103.417 Y174.011 E12.18318
G1 X102.554 Y173.695 E12.20611
G1 X101.774 Y173.388 E12.22702
G1 X100.974 Y173.051 E12.24867
G1 X100.64 Y172.901 E12.2578
G1 X98.11 Y171.806 E12.32657
G1 X95.588 Y170.799 E12.39431
G1 X93.027 Y169.859 E12.46236
G1 X90.408 Y168.982 E12.53126
G1 X89.151 Y168.603 E12.56401
G1 X87.961 Y168.23 E12.59512
G1 X87.433 Y168.031 E12.6092
G1 X86.982 Y167.811 E12.62171
G1 X86.465 Y167.457 E12.63734
G1 X85.921 Y166.963 E12.65567
G1 X85.469 Y166.388 E12.67392
G1 X85.115 Y165.783 E12.6914
G1 X84.849 Y165.132 E12.70895
G1 X84.715 Y164.695 E12.72035
G1 X84.591 Y164.15 E12.73429
G1 X84.513 Y163.75 E12.74446
G1 X83.949 Y161.038 E12.81356
G1 X83.307 Y158.337 E12.88281
G1 X82.608 Y155.734 E12.95004
G1 X81.549 Y152.237 E13.04119
G1 X81.101 Y150.85 E13.07755
G1 X80.869 Y150.064 E13.09799
G1 X80.633 Y149.192 E13.12052
G1 X80.44 Y148.408 E13.14066
G1 X80.266 Y147.62 E13.16079
G1 X80.103 Y146.801 E13.18163
G1 X79.962 Y145.989 E13.20218
G1 X79.767 Y144.619 E13.2367
G1 X79.753 Y144.506 E13.23954
G1 X79.632 Y143.352 E13.26849
G1 X79.622 Y143.241 E13.27127
G1 X79.521 Y141.769 E13.30807
G1 X79.497 Y141.42 E13.3168
G1 X79.456 Y140.53 E13.33902
G1 X79.258 Y137.864 E13.40571
G1 X78.969 Y135.05 E13.47628
G1 X78.853 Y134.11 E13.4999
G1 X78.808 Y133.54 E13.51417
G1 X78.797 Y132.44 E13.54161
G1 X78.813 Y130.878 E13.58057
G1 X78.764 Y128.207 E13.64721
G1 X78.632 Y125.403 E13.71724
G1 X78.428 Y122.689 E13.78513
G1 X78.147 Y119.967 E13.85339
G1 X77.841 Y117.718 E13.91001
G1 X77.751 Y116.976 E13.92865
G1 X77.734 Y116.79 E13.93331
G1 X77.659 Y115.687 E13.96089
G1 X77.616 Y114.981 E13.97853
G1 X77.381 Y112.251 E14.04689
G1 X77.175 Y110.424 E14.09275
G1 X77.161 Y110.269 E14.09663
G1 X77.119 Y109.598 E14.1134
G1 X77.121 Y109.071 E14.12655
G1 X77.15 Y108.676 E14.13643
G1 X77.21 Y108.119 E14.1504
G1 X77.32 Y107.545 E14.16498
G1 X77.55 Y106.805 E14.18431
G1 X77.896 Y106.05 E14.20503
G1 X78.128 Y105.645 E14.21667
G1 X78.432 Y105.195 E14.23022
G1 X78.837 Y104.702 E14.24613
G1 X79.261 Y104.273 E14.26118
G1 X79.688 Y103.906 E14.27523
G1 X80.76 Y103.092 E14.3088
G1 X82.96 Y101.372 E14.37846
G1 X85.071 Y99.625 E14.44682
G1 X87.11 Y97.836 E14.51448
G1 X89.129 Y95.961 E14.58321
G1 X91.08 Y94.042 E14.65148
G1 X92.98 Y92.07 E14.71979
G1 X94.827 Y90.038 E14.78829
G1 X96.626 Y87.941 E14.85721
G1 X98.318 Y85.855 E14.92421
G1 X100.011 Y83.64 E14.99375
G1 X101.602 Y81.432 E15.06164
G1 X103.134 Y79.175 E15.12969
G1 X104.613 Y76.858 E15.19826
G1 X106.023 Y74.503 E15.26673
G1 X107.357 Y72.125 E15.33474
G1 X108.633 Y69.693 E15.40325
G1 X109.84 Y67.226 E15.47176
G1 X110.969 Y64.742 E15.53983
G1 X112.046 Y62.185 E15.60904
G1 X112.865 Y60.08 E15.66538
G1 X113.268 Y59.013 E15.69383
G1 X113.482 Y58.559 E15.70635
G1 F1500 E10.20635
;MESH:Maria.stl
G0 F2160 X98.276 Y104.944
G0 X97.517 Y105.571
G0 X97.204 Y107.466
;TYPE:WALL-INNER
G1 F1500 E15.70635
G1 F900 X97.205 Y107.467 E15.70639
G1 X97.206 Y107.683 E15.71178
G1 X97.407 Y107.603 E15.71495
G1 X98.739 Y107.074 E15.7507
G1 X99.28 Y106.92 E15.76473
G1 X99.92 Y106.8 E15.78097
G1 X100.621 Y106.722 E15.79857
G1 X101.21 Y106.688 E15.81328
G1 X101.811 Y106.671 E15.82828
G1 X102.803 Y106.691 E15.85303
G1 X103.336 Y106.715 E15.86634
G1 X104.062 Y106.76 E15.88449
G1 X104.654 Y106.858 E15.89945
G1 X105.016 Y106.984 E15.90902
G1 X105.381 Y107.19 E15.91947
G1 X105.586 Y107.356 E15.92605
G1 X105.693 Y107.542 E15.9314
G1 X105.652 Y107.761 E15.93696
G1 X105.503 Y107.883 E15.94176
G1 X104.952 Y108.044 E15.95608
G1 X104.619 Y108.446 E15.96911
G1 X104.077 Y108.822 E15.98556
G1 X104.644 Y109.978 E16.01768
G1 X105.989 Y109.557 E16.05284
G1 X106.712 Y109.346 E16.07162
G1 X107.435 Y109.151 E16.0903
G1 X108.166 Y108.973 E16.10907
G1 X108.9 Y108.81 E16.12783
G1 X109.621 Y108.671 E16.14614
G1 X110.372 Y108.543 E16.16515
G1 X111.105 Y108.438 E16.18362
G1 X111.966 Y108.34 E16.20523
G1 X112.838 Y108.258 E16.22708
G1 X113.694 Y108.202 E16.24848
G1 X115.264 Y108.135 E16.28768
G1 X115.264 Y108.124 E16.28796
G1 X115.469 Y102.362 E16.43178
G1 X115.469 Y108.131 E16.48116
G1 X117.297 Y108.214 E16.52681
G1 X118.369 Y108.299 E16.55363
G1 X119.459 Y108.419 E16.58099
G1 X120.531 Y108.567 E16.60798
G1 X121.417 Y108.719 E16.63041
G1 X122.256 Y108.89 E16.65177
G1 X123.004 Y109.065 E16.67093
G1 X123.757 Y109.266 E16.69037
G1 X124.056 Y109.349 E16.69811
G1 X124.25 Y109.456 E16.70364
G1 X124.62 Y109.856 E16.71723
G1 X125.817 Y110.239 E16.74858
G1 X126.297 Y110.407 E16.76127
G1 X127.213 Y110.755 E16.78571
G1 X127.401 Y110.583 E16.79207
G1 X127.731 Y110.656 E16.8005
