;FLAVOR:Marlin
;TIME:915
;Filament used: 0.627884m, 0m
;Layer height: 0.18
;MINX:86.497
;MINY:77.283
;MINZ:0.3
;MAXX:149.858
;MAXY:138.074
;MAXZ:1.74
;POSTPROCESSED
;Generated with Cura_SteamEngine 4.8.0
T0
M140 S60
M105
M190 S60
M104 S200
M105
M109 S200
M82 ;absolute extrusion mode
M201 X500.00 Y500.00 Z100.00 E5000.00 	;Setup machine max acceleration
M203 X500.00 Y500.00 Z10.00 E50.00 	;Setup machine max feedrate
M204 P500.00 R1000.00 T500.00 		;Setup Print/Retract/Travel acceleration
M205 X8.00 Y8.00 Z0.40 E5.00 		;Setup Jerk
M220 S100 				;Reset Feedrate
M221 S100 				;Reset Flowrate
G28				;Home the Machine
#G29 				;Bed Level
G92 E0
M300 P150 S587
G92 E0
G1 F1500 E-6.5
;LAYER_COUNT:9
;LAYER:0
M107
G0 F2160 X91.589 Y97.98 Z0.3
;TYPE:SKIRT
G1 F1500 E0
G1 F900 X91.969 Y97.637 E0.02554
G1 X92.219 Y97.432 E0.04167
G1 X92.719 Y97.089 E0.07192
G1 X92.879 Y96.998 E0.0811
G1 X94.849 Y95.919 E0.19316
G1 X97.214 Y94.534 E0.3299
G1 X99.527 Y93.091 E0.46591
G1 X101.801 Y91.581 E0.60209
G1 X104.018 Y90.017 E0.73745
G1 X106.22 Y88.369 E0.87467
G1 X108.328 Y86.695 E1.00897
G1 X110.459 Y84.903 E1.14788
G1 X112.453 Y83.127 E1.2811
G1 X114.452 Y81.244 E1.4181
G1 X116.741 Y78.947 E1.57989
G1 X117.291 Y78.377 E1.61941
G1 X117.691 Y78.02 E1.64615
G1 X118.14 Y77.726 E1.67293
G1 X118.628 Y77.503 E1.6997
G1 X119.143 Y77.354 E1.72644
G1 X119.674 Y77.283 E1.75317
G1 X120.211 Y77.292 E1.77997
G1 X120.739 Y77.381 E1.80668
G1 X121.249 Y77.547 E1.83344
G1 X121.729 Y77.787 E1.86021
G1 X122.188 Y78.113 E1.8883
G1 X123.188 Y78.947 E1.95326
G1 X123.462 Y79.182 E1.97127
G1 X125.606 Y80.919 E2.10894
G1 X127.741 Y82.55 E2.24298
G1 X129.956 Y84.145 E2.37915
G1 X132.226 Y85.685 E2.51601
G1 X134.523 Y87.149 E2.6519
G1 X136.878 Y88.559 E2.78884
G1 X137.372 Y88.84 E2.81719
G1 X137.873 Y89.144 E2.84643
G1 X138.419 Y89.534 E2.87991
G1 X138.806 Y89.865 E2.90531
G1 X139.092 Y90.147 E2.92535
G1 X140.592 Y91.668 E3.03193
G1 X142.56 Y93.552 E3.16785
G1 X144.584 Y95.383 E3.30402
G1 X146.634 Y97.124 E3.4382
G1 X147.1 Y97.537 E3.46926
G1 X147.443 Y97.872 E3.49318
G1 X147.792 Y98.266 E3.51944
G1 X148.138 Y98.753 E3.54925
G1 X148.472 Y99.349 E3.58333
G1 X148.72 Y99.892 E3.61311
G1 X148.935 Y100.457 E3.64327
G1 X148.972 Y100.564 E3.64892
G1 X149.213 Y101.312 E3.68813
G1 X149.427 Y102.042 E3.72608
G1 X149.571 Y102.582 E3.75396
G1 X149.69 Y103.074 E3.77922
G1 X149.796 Y103.65 E3.80844
G1 X149.839 Y103.984 E3.82524
G1 X149.858 Y104.708 E3.86137
G1 X149.827 Y105.129 E3.88243
G1 X149.748 Y105.66 E3.90921
G1 X149.488 Y106.447 E3.95057
G1 X149.224 Y107.002 E3.98123
G1 X149.091 Y107.229 E3.99435
G1 X148.76 Y107.702 E4.02316
G1 X148.337 Y108.176 E4.05485
G1 X148.142 Y108.359 E4.06819
G1 X146.072 Y110.195 E4.20623
G1 X144.087 Y112.06 E4.34212
G1 X142.136 Y114 E4.47938
G1 X140.246 Y115.987 E4.6162
G1 X138.477 Y117.957 E4.74829
G1 X136.653 Y120.107 E4.88896
G1 X134.976 Y122.202 E5.02284
G1 X133.337 Y124.372 E5.15851
G1 X131.754 Y126.594 E5.29462
G1 X130.228 Y128.872 E5.43142
G1 X128.78 Y131.171 E5.56697
G1 X127.444 Y133.427 E5.69778
G1 X126.868 Y134.431 E5.75552
G1 X126.554 Y134.931 E5.78498
G1 X126.115 Y135.541 E5.82247
G1 X125.857 Y135.848 E5.84248
G1 X125.488 Y136.241 E5.86938
G1 X124.933 Y136.738 E5.90655
G1 X124.224 Y137.22 E5.94932
G1 X123.683 Y137.505 E5.97982
G1 X123.307 Y137.667 E6.00025
G1 X122.693 Y137.865 E6.03244
G1 X122.125 Y137.993 E6.06148
G1 X121.595 Y138.072 E6.08822
G1 X120.975 Y138.074 E6.11915
G1 X120.634 Y138.054 E6.13619
G1 X120.103 Y137.983 E6.16292
G1 X119.562 Y137.833 E6.19093
G1 X119.195 Y137.709 E6.21025
G1 X118.582 Y137.436 E6.24373
G1 X117.99 Y137.07 E6.27846
G1 X117.514 Y136.702 E6.30847
G1 X117.161 Y136.375 E6.33248
G1 X116.124 Y135.358 E6.40494
G1 X114.097 Y133.427 E6.54461
G1 X112.08 Y131.612 E6.67999
G1 X110.016 Y129.858 E6.81512
G1 X107.884 Y128.146 E6.95153
G1 X105.712 Y126.502 E7.08744
G1 X103.492 Y124.917 E7.22352
G1 X101.195 Y123.375 E7.36155
G1 X100.501 Y122.921 E7.40292
G1 X100.022 Y122.586 E7.43209
G1 X99.38 Y122.077 E7.47296
G1 X98.965 Y121.687 E7.50137
G1 X98.509 Y121.188 E7.5351
G1 X98.326 Y120.964 E7.54953
G1 X96.569 Y118.881 E7.68548
G1 X94.756 Y116.851 E7.82127
G1 X92.88 Y114.864 E7.9576
G1 X90.949 Y112.932 E8.09388
G1 X89.554 Y111.603 E8.19001
G1 X88.737 Y110.838 E8.24585
G1 X88.299 Y110.391 E8.27707
G1 X87.881 Y109.876 E8.31016
G1 X87.413 Y109.184 E8.35184
G1 X87.082 Y108.548 E8.38761
G1 X86.881 Y108.058 E8.41403
G1 X86.68 Y107.386 E8.44902
G1 X86.577 Y106.895 E8.47405
G1 X86.506 Y106.25 E8.50643
G1 X86.497 Y105.731 E8.53232
G1 X86.54 Y105.047 E8.56652
G1 X86.631 Y104.429 E8.59768
G1 X86.765 Y103.886 E8.62558
G1 X86.928 Y103.41 E8.65069
G1 X87.168 Y102.847 E8.68122
G1 X87.196 Y102.786 E8.68457
G1 X87.512 Y102.233 E8.71634
G1 X87.821 Y101.793 E8.74317
G1 X87.949 Y101.622 E8.75383
G1 X88.338 Y101.182 E8.78313
G1 X89.065 Y100.484 E8.83341
G1 X90.635 Y98.94 E8.94327
G1 X91.589 Y97.98 E9.01079
G0 F2160 X91.873 Y98.262
G1 F900 X92.473 Y97.742 E9.0504
G1 X92.917 Y97.436 E9.0773
G1 X93.071 Y97.349 E9.08613
G1 X95.037 Y96.272 E9.19796
G1 X97.432 Y94.87 E9.33642
G1 X99.746 Y93.427 E9.47247
G1 X102.015 Y91.92 E9.60836
G1 X104.26 Y90.336 E9.74544
G1 X106.463 Y88.686 E9.88276
G1 X108.61 Y86.981 E10.01954
G1 X110.68 Y85.241 E10.15445
G1 X112.748 Y83.399 E10.29262
G1 X114.711 Y81.55 E10.42716
G1 X117.065 Y79.188 E10.59353
G1 X117.579 Y78.655 E10.63047
G1 X117.958 Y78.32 E10.6557
G1 X118.385 Y78.049 E10.68094
G1 X118.849 Y77.848 E10.70616
G1 X119.339 Y77.723 E10.73139
G1 X119.842 Y77.677 E10.75659
G1 X120.347 Y77.711 E10.78184
G1 X120.839 Y77.824 E10.80703
G1 X121.308 Y78.012 E10.83224
G1 X121.932 Y78.42 E10.86943
G1 X122.927 Y79.251 E10.93411
G1 X123.195 Y79.481 E10.95173
G1 X125.335 Y81.214 E11.08911
G1 X127.516 Y82.881 E11.22607
G1 X129.737 Y84.48 E11.3626
G1 X131.992 Y86.01 E11.49855
G1 X134.323 Y87.496 E11.63647
G1 X136.654 Y88.891 E11.772
G1 X137.11 Y89.15 E11.79816
G1 X137.65 Y89.477 E11.82966
G1 X138.181 Y89.856 E11.8622
G1 X138.773 Y90.394 E11.90211
G1 X140.314 Y91.955 E12.01155
G1 X142.279 Y93.837 E12.14729
G1 X144.309 Y95.674 E12.28388
G1 X146.372 Y97.426 E12.41891
G1 X146.821 Y97.823 E12.44881
G1 X147.474 Y98.509 E12.49606
G1 X147.796 Y98.96 E12.52371
G1 X148.108 Y99.516 E12.55552
G1 X148.356 Y100.059 E12.5853
G1 X148.559 Y100.592 E12.61376
G1 X148.832 Y101.435 E12.65796
G1 X149.063 Y102.224 E12.69898
G1 X149.182 Y102.676 E12.7223
G1 X149.301 Y103.168 E12.74755
G1 X149.399 Y103.701 E12.77459
G1 X149.442 Y104.035 E12.79139
G1 X149.459 Y104.679 E12.82353
G1 X149.428 Y105.1 E12.84459
G1 X149.352 Y105.6 E12.86982
G1 X149.114 Y106.307 E12.90704
G1 X148.879 Y106.8 E12.93429
G1 X148.746 Y107.027 E12.94741
G1 X148.452 Y107.447 E12.97299
G1 X148.06 Y107.887 E13.00239
G1 X147.877 Y108.06 E13.01495
G1 X145.779 Y109.921 E13.15487
G1 X143.814 Y111.767 E13.28938
G1 X141.846 Y113.724 E13.42784
G1 X139.974 Y115.691 E13.56332
G1 X138.134 Y117.741 E13.70075
G1 X136.369 Y119.823 E13.83692
G1 X134.662 Y121.955 E13.97318
G1 X133.008 Y124.145 E14.1101
G1 X131.429 Y126.361 E14.24585
G1 X129.885 Y128.666 E14.38426
G1 X128.446 Y130.949 E14.5189
G1 X127.1 Y133.223 E14.65073
G1 X126.521 Y134.231 E14.70873
G1 X126.222 Y134.708 E14.73681
G1 X125.795 Y135.301 E14.77327
G1 X125.566 Y135.574 E14.79105
G1 X125.197 Y135.967 E14.81794
G1 X124.678 Y136.429 E14.85261
G1 X124.011 Y136.882 E14.89283
G1 X123.513 Y137.143 E14.92089
G1 X123.151 Y137.299 E14.94055
G1 X122.605 Y137.475 E14.96917
G1 X122.037 Y137.603 E14.99822
G1 X121.312 Y137.681 E15.0346
G1 X120.658 Y137.655 E15.06725
G1 X119.954 Y137.533 E15.1029
G1 X119.323 Y137.33 E15.13597
G1 X118.778 Y137.087 E15.16574
G1 X118.208 Y136.734 E15.19919
G1 X117.784 Y136.407 E15.2259
G1 X117.441 Y136.089 E15.24924
G1 X116.4 Y135.068 E15.32198
G1 X114.382 Y133.146 E15.46102
G1 X112.363 Y131.328 E15.59657
G1 X110.259 Y129.54 E15.73432
G1 X108.13 Y127.83 E15.87055
G1 X105.94 Y126.173 E16.00756
G1 X103.702 Y124.575 E16.14476
G1 X101.434 Y123.052 E16.28105
G1 X100.721 Y122.588 E16.3235
G1 X100.252 Y122.259 E16.35208
G1 X99.634 Y121.768 E16.39146
G1 X99.247 Y121.404 E16.41796
G1 X98.819 Y120.935 E16.44964
G1 X98.636 Y120.711 E16.46407
G1 X96.873 Y118.62 E16.60052
G1 X95.063 Y116.594 E16.73606
G1 X93.154 Y114.572 E16.87479
G1 X91.246 Y112.663 E17.00945
G1 X89.804 Y111.289 E17.10882
G1 X89.018 Y110.553 E17.16254
G1 X88.589 Y110.115 E17.19313
G1 X88.2 Y109.635 E17.22395
G1 X87.763 Y108.99 E17.26282
G1 X87.44 Y108.369 E17.29774
G1 X87.207 Y107.768 E17.3299
G1 X87.065 Y107.277 E17.3554
G1 X86.949 Y106.666 E17.38643
G1 X86.897 Y105.753 E17.43205
G1 X86.938 Y105.09 E17.46519
G1 X87.021 Y104.517 E17.49408
G1 X87.151 Y103.989 E17.52121
G1 X87.297 Y103.566 E17.54353
G1 X87.532 Y103.014 E17.57347
G1 X87.56 Y102.953 E17.57681
G1 X87.841 Y102.461 E17.60508
G1 X88.141 Y102.032 E17.6312
G1 X88.269 Y101.861 E17.64185
G1 X88.615 Y101.471 E17.66787
G1 X89.318 Y100.796 E17.71649
G1 X90.919 Y99.222 E17.8285
G1 X91.873 Y98.262 E17.89602
G1 F1500 E11.39602
;MESH:SweetMarmitaria.stl
G0 F2160 X94.035 Y99.728
G0 X94.735 Y100.556
G0 X121.936 Y124.208
G0 X122.759 Y125.414
;TYPE:WALL-INNER
G1 F1500 E17.89602
G1 F900 X122.998 Y125.095 E17.91591
G1 X123.158 Y124.882 E17.9292
G1 X123.111 Y125.179 E17.93286
G1 X123.104 Y125.578 E17.94663
G1 X123.096 Y125.995 E17.96744
G1 X123.176 Y126.836 E18.00959
G1 X123.308 Y127.798 E18.05803
G1 X123.359 Y128.403 E18.08832
G1 X123.32 Y129.126 E18.12444
G1 X123.122 Y129.879 E18.16329
G1 X122.739 Y130.731 E18.20989
G1 X122.531 Y131.143 E18.23292
G1 X122.274 Y131.607 E18.25938
G1 X121.823 Y132.28 E18.2998
G1 X121.633 Y132.472 E18.31328
G1 X121.301 Y132.655 E18.33219
G1 X121.165 Y132.669 E18.33901
G1 X121.022 Y132.602 E18.34689
G1 X120.735 Y132.264 E18.36901
G1 X120.442 Y131.647 E18.40309
G1 X120.231 Y130.839 E18.44475
G1 X120.204 Y130.097 E18.48179
G1 X120.348 Y129.338 E18.52034
G1 X120.688 Y128.476 E18.56656
G1 X120.898 Y128.079 E18.58897
G1 X121.229 Y127.531 E18.62091
G1 X121.551 Y127.05 E18.64979
G1 X121.894 Y126.572 E18.67914
G1 X122.422 Y125.861 E18.72332
G1 X122.759 Y125.414 E18.75125
G0 F2160 X121.782 Y125.381
G1 F900 X122.795 Y124.034 E18.83534
G1 X123 Y123.761 E18.85237
G1 X122.661 Y123.717 E18.86205
G1 X120.895 Y123.486 E18.95091
G1 X120.571 Y123.067 E18.97733
G1 X119.924 Y122.738 E19.01354
G1 X119.228 Y122.609 E19.04886
G1 X119.168 Y122.597 E19.05191
G1 X118.352 Y122.692 E19.0929
G1 X117.136 Y123.082 E19.15661
G1 X116.632 Y123.199 E19.18242
G1 X115.878 Y123.342 E19.22071
G1 X115.014 Y123.43 E19.26404
G1 X114.078 Y123.278 E19.31134
G1 X113.574 Y123.166 E19.3371
G1 X113.095 Y123.052 E19.36167
G1 X112.545 Y122.907 E19.39004
G1 X112.035 Y122.763 E19.41648
G1 X111.414 Y122.58 E19.44878
G1 X110.929 Y122.431 E19.47409
G1 X110.35 Y122.245 E19.50444
G1 X109.826 Y122.07 E19.532
G1 X108.89 Y121.745 E19.58143
G1 X108.392 Y121.604 E19.60725
G1 X107.949 Y121.473 E19.6303
G1 X107.404 Y121.194 E19.66084
G1 X106.571 Y120.859 E19.70564
G1 X106.093 Y120.656 E19.73155
G1 X105.634 Y120.454 E19.75657
G1 X105.113 Y120.216 E19.78514
G1 X104.666 Y120.002 E19.80987
G1 X104.085 Y119.705 E19.84242
G1 X103.573 Y119.422 E19.87161
G1 X103.145 Y119.162 E19.89659
G1 X102.74 Y118.888 E19.92099
G1 X102.323 Y118.554 E19.94764
G1 X102.071 Y118.286 E19.96599
G1 X101.863 Y117.962 E19.9852
G1 X101.557 Y117.155 E20.02826
G1 X101.37 Y116.201 E20.07676
G1 X101.308 Y115.631 E20.10537
G1 X101.274 Y115.097 E20.13206
G1 X101.257 Y114.471 E20.16331
G1 X101.255 Y114.012 E20.18621
G1 X101.267 Y113.512 E20.21116
G1 X101.296 Y112.835 E20.24497
G1 X101.339 Y112.174 E20.27801
G1 X101.404 Y111.393 E20.31711
G1 X101.477 Y110.616 E20.35605
G1 X101.508 Y110.3 E20.37189
G1 X101.207 Y110.2 E20.38771
G1 X100.368 Y109.918 E20.43187
G1 X100.133 Y109.763 E20.44592
G1 X99.305 Y108.832 E20.50808
G1 X98.184 Y109.477 E20.5726
G1 X97.864 Y109.59 E20.58953
G1 X97.591 Y109.631 E20.6033
G1 X97.543 Y109.639 E20.60573
G1 X96.955 Y109.595 E20.63515
G1 X96.306 Y110.096 E20.67605
G1 X96.014 Y110.238 E20.69225
G1 X95.737 Y110.295 E20.70636
G1 X95.491 Y110.283 E20.71865
G1 X95.28 Y110.212 E20.72975
G1 X95.094 Y110.085 E20.74099
G1 X94.865 Y109.818 E20.75854
G1 X94.41 Y108.969 E20.8066
G1 X93.572 Y108.586 E20.85256
G1 X93.032 Y108.323 E20.88253
G1 X92.282 Y107.843 E20.92695
G1 X91.671 Y107.273 E20.96864
G1 X91.405 Y106.914 E20.99093
G1 X91.225 Y106.565 E21.01052
G1 X91.117 Y106.207 E21.02918
G1 X91.083 Y105.87 E21.04608
G1 X91.116 Y105.415 E21.06884
G1 X91.195 Y105.093 E21.08538
G1 X91.341 Y104.764 E21.10334
G1 X91.569 Y104.447 E21.12282
G1 X91.855 Y104.189 E21.14203
G1 X92.216 Y103.977 E21.16292
G1 X92.58 Y103.845 E21.18224
G1 X93.02 Y103.746 E21.20474
G1 X94.088 Y103.612 E21.25844
G1 X94.341 Y102.348 E21.32275
G1 X94.513 Y101.782 E21.35226
G1 X94.66 Y101.469 E21.36952
G1 X94.86 Y101.21 E21.38584
G1 X95.055 Y101.045 E21.39859
G1 X95.318 Y100.911 E21.41331
G1 X95.358 Y100.89 E21.41557
G1 X95.404 Y100.879 E21.41793
G1 X95.639 Y100.821 E21.43
G1 X95.891 Y100.814 E21.44258
G1 X96.203 Y100.925 E21.4591
G1 X96.35 Y101.073 E21.46951
G1 X96.431 Y101.233 E21.47845
G1 X96.474 Y101.486 E21.49126
G1 X96.437 Y102.378 E21.5358
G1 X97.495 Y102.983 E21.5966
G1 X98.365 Y102.421 E21.64828
G1 X98.608 Y102.348 E21.66093
G1 X98.84 Y102.345 E21.67251
G1 X99.098 Y102.418 E21.68589
G1 X99.975 Y102.841 E21.73446
G1 X100.683 Y101.609 E21.80535
G1 X100.919 Y101.318 E21.82405
G1 X101.161 Y101.111 E21.83993
G1 X101.444 Y100.951 E21.85615
G1 X101.785 Y100.841 E21.87403
G1 X102.194 Y100.79 E21.89459
G1 X102.766 Y100.821 E21.92317
G1 X103.001 Y100.835 E21.93492
G1 X103.568 Y99.944 E21.98761
G1 X103.887 Y99.551 E22.01286
G1 X104.243 Y99.214 E22.03732
G1 X104.603 Y98.948 E22.05965
G1 X104.628 Y98.929 E22.06121
G1 X105.125 Y98.646 E22.08975
G1 X105.149 Y98.636 E22.09104
G1 X105.596 Y98.436 E22.11548
G1 X106.441 Y98.154 E22.15992
G1 X107.014 Y98.01 E22.1894
G1 X107.632 Y97.882 E22.22088
G1 X108.267 Y97.768 E22.25307
G1 X108.97 Y97.662 E22.28854
G1 X110.929 Y97.392 E22.3872
G1 X111.932 Y97.242 E22.43779
G1 X112.694 Y97.113 E22.47635
G1 X120.038 Y95.787 E22.84867
G1 X127.431 Y94.447 E23.22352
G1 X128.023 Y94.322 E23.2537
G1 X128.624 Y94.171 E23.28462
G1 X129.215 Y94.012 E23.31515
G1 X130.439 Y93.669 E23.37857
G1 X131.124 Y93.485 E23.41396
G1 X131.82 Y93.307 E23.4498
G1 X132.326 Y93.189 E23.47572
G1 X132.847 Y93.08 E23.50227
G1 X133.417 Y92.98 E23.53115
G1 X133.924 Y92.915 E23.55665
G1 X134.408 Y92.881 E23.58085
G1 X135.186 Y92.94 E23.61978
G1 X135.404 Y93.02 E23.63137
G1 X135.617 Y93.172 E23.64442
G1 X135.872 Y93.455 E23.66343
G1 X136.115 Y93.817 E23.68518
G1 X136.345 Y94.256 E23.7099
G1 X136.564 Y94.77 E23.73778
G1 X136.87 Y95.682 E23.78577
G1 X137.005 Y96.175 E23.81127
G1 X137.168 Y96.865 E23.84664
G1 X137.172 Y96.88 E23.84742
G1 X137.28 Y97.425 E23.87514
G1 X137.401 Y98.134 E23.91102
G1 X137.404 Y98.148 E23.91173
G1 X137.483 Y98.723 E23.94069
G1 X137.568 Y99.453 E23.97736
G1 X137.57 Y99.465 E23.97796
G1 X137.676 Y100.682 E24.03891
G1 X138.818 Y101.479 E24.10839
G1 X139.776 Y100.913 E24.1639
G1 X140.065 Y100.811 E24.17919
G1 X140.41 Y100.761 E24.19658
G1 X140.657 Y100.778 E24.20893
G1 X140.899 Y100.858 E24.22165
G1 X141.148 Y101.012 E24.23626
G1 X141.804 Y101.591 E24.27991
G1 X142.829 Y100.927 E24.34084
G1 X142.869 Y100.912 E24.34297
G1 X143.066 Y100.836 E24.35351
G1 X143.422 Y100.781 E24.37148
G1 X143.699 Y100.798 E24.38532
G1 X144.034 Y100.952 E24.40372
G1 X144.197 Y101.117 E24.41529
G1 X144.363 Y101.38 E24.4308
G1 X144.515 Y101.731 E24.44989
G1 X144.721 Y102.338 E24.48187
G1 X144.908 Y102.953 E24.51394
G1 X145.062 Y103.504 E24.54248
G1 X145.213 Y104.088 E24.57257
