;FLAVOR:Marlin
;TIME:911
;Filament used: 0.627736m, 0m
;Layer height: 0.18
;MINX:85.818
;MINY:86.152
;MINZ:0.3
;MAXX:149.18
;MAXY:146.943
;MAXZ:1.74
;POSTPROCESSED
;Generated with Cura_SteamEngine 4.8.0
T0
M140 S60
M105
M190 S60
M104 S200
M105
M109 S200
M82 ;absolute extrusion mode
M201 X500.00 Y500.00 Z100.00 E5000.00 	;Setup machine max acceleration
M203 X500.00 Y500.00 Z10.00 E50.00 	;Setup machine max feedrate
M204 P500.00 R1000.00 T500.00 		;Setup Print/Retract/Travel acceleration
M205 X8.00 Y8.00 Z0.40 E5.00 		;Setup Jerk
M220 S100 				;Reset Feedrate
M221 S100 				;Reset Flowrate
G28				;Home the Machine
#G29 				;Bed Level
G92 E0
M300 P150 S587
G92 E0
G1 F1500 E-6.5
;LAYER_COUNT:9
;LAYER:0
M107
G0 F2160 X91.29 Y106.506 Z0.3
;TYPE:SKIRT
G1 F1500 E0
G1 F900 X91.54 Y106.301 E0.01613
G1 X92.042 Y105.956 E0.04652
G1 X92.217 Y105.858 E0.05653
G1 X94.158 Y104.795 E0.16693
G1 X96.547 Y103.397 E0.30503
G1 X98.839 Y101.966 E0.43983
G1 X101.13 Y100.445 E0.57703
G1 X103.333 Y98.889 E0.71159
G1 X105.542 Y97.236 E0.84923
G1 X107.65 Y95.562 E0.98353
G1 X109.781 Y93.77 E1.12244
G1 X111.775 Y91.994 E1.25566
G1 X113.774 Y90.111 E1.39267
G1 X116.065 Y87.812 E1.55459
G1 X116.614 Y87.244 E1.594
G1 X117.015 Y86.887 E1.62079
G1 X117.464 Y86.594 E1.64754
G1 X117.951 Y86.371 E1.67426
G1 X118.467 Y86.222 E1.70106
G1 X118.998 Y86.152 E1.72778
G1 X119.535 Y86.161 E1.75457
G1 X120.063 Y86.25 E1.78129
G1 X120.573 Y86.417 E1.80806
G1 X121.052 Y86.657 E1.83479
G1 X121.508 Y86.98 E1.86267
G1 X122.424 Y87.744 E1.92218
G1 X122.752 Y88.026 E1.94376
G1 X124.822 Y89.705 E2.07673
G1 X127.013 Y91.382 E2.21438
G1 X129.214 Y92.971 E2.34982
G1 X131.473 Y94.506 E2.48608
G1 X133.782 Y95.98 E2.62274
G1 X136.095 Y97.366 E2.75727
G1 X136.635 Y97.675 E2.78831
G1 X137.173 Y98 E2.81967
G1 X137.734 Y98.399 E2.85402
G1 X138.141 Y98.747 E2.88073
G1 X138.393 Y98.996 E2.89841
G1 X139.891 Y100.515 E3.00484
G1 X141.859 Y102.401 E3.14083
G1 X143.871 Y104.224 E3.27629
G1 X146.264 Y106.26 E3.43304
G1 X146.724 Y106.699 E3.46476
G1 X147.16 Y107.196 E3.49775
G1 X147.451 Y107.608 E3.52291
G1 X147.794 Y108.222 E3.558
G1 X148.055 Y108.795 E3.58941
G1 X148.258 Y109.329 E3.61791
G1 X148.525 Y110.157 E3.66132
G1 X148.753 Y110.933 E3.70167
G1 X148.891 Y111.449 E3.72832
G1 X149.01 Y111.939 E3.75347
G1 X149.114 Y112.501 E3.78199
G1 X149.162 Y112.877 E3.8009
G1 X149.18 Y113.62 E3.83798
G1 X149.114 Y114.247 E3.86943
G1 X149.01 Y114.773 E3.89618
G1 X148.785 Y115.381 E3.92853
G1 X148.586 Y115.802 E3.95176
G1 X148.32 Y116.267 E3.97848
G1 X148.011 Y116.661 E4.00346
G1 X147.606 Y117.087 E4.03279
G1 X147.232 Y117.434 E4.05824
G1 X145.592 Y118.882 E4.16739
G1 X143.584 Y120.758 E4.30449
G1 X141.662 Y122.658 E4.43932
G1 X139.764 Y124.643 E4.57634
G1 X137.955 Y126.646 E4.71099
G1 X136.181 Y128.725 E4.84734
G1 X134.478 Y130.838 E4.98274
G1 X132.823 Y133.017 E5.11925
G1 X131.213 Y135.264 E5.25716
G1 X129.714 Y137.487 E5.39092
G1 X128.245 Y139.805 E5.52784
G1 X126.716 Y142.381 E5.67729
G1 X126.191 Y143.297 E5.72996
G1 X125.878 Y143.794 E5.75926
G1 X125.453 Y144.39 E5.79578
G1 X125.176 Y144.72 E5.81728
G1 X124.778 Y145.141 E5.84618
G1 X124.397 Y145.49 E5.87196
G1 X123.857 Y145.892 E5.90555
G1 X123.15 Y146.305 E5.9464
G1 X122.622 Y146.539 E5.97521
G1 X122.014 Y146.734 E6.00706
G1 X121.446 Y146.862 E6.03611
G1 X120.916 Y146.941 E6.06285
G1 X120.26 Y146.943 E6.09557
G1 X119.969 Y146.926 E6.11012
G1 X119.208 Y146.798 E6.14862
G1 X118.518 Y146.579 E6.18473
G1 X117.888 Y146.296 E6.21919
G1 X117.317 Y145.943 E6.25268
G1 X116.835 Y145.571 E6.28306
G1 X116.482 Y145.244 E6.30706
G1 X115.445 Y144.227 E6.37953
G1 X113.425 Y142.303 E6.5187
G1 X111.401 Y140.481 E6.65457
G1 X109.337 Y138.727 E6.7897
G1 X107.205 Y137.015 E6.92612
G1 X105.033 Y135.371 E7.06202
G1 X102.813 Y133.786 E7.19811
G1 X100.516 Y132.244 E7.33613
G1 X99.822 Y131.79 E7.37751
G1 X99.343 Y131.455 E7.40667
G1 X98.701 Y130.946 E7.44754
G1 X98.286 Y130.556 E7.47596
G1 X97.832 Y130.058 E7.50958
G1 X97.679 Y129.872 E7.52159
G1 X95.886 Y127.746 E7.66034
G1 X94.071 Y125.714 E7.79627
G1 X92.199 Y123.733 E7.93225
G1 X90.262 Y121.795 E8.06895
G1 X88.995 Y120.586 E8.15632
G1 X88.077 Y119.726 E8.21908
G1 X87.659 Y119.302 E8.24879
G1 X87.158 Y118.685 E8.28844
G1 X86.759 Y118.097 E8.32389
G1 X86.402 Y117.416 E8.36225
G1 X86.203 Y116.93 E8.38845
G1 X86.001 Y116.255 E8.4236
G1 X85.875 Y115.6 E8.45688
G1 X85.828 Y115.122 E8.48084
G1 X85.818 Y114.6 E8.50689
G1 X85.861 Y113.916 E8.54108
G1 X85.952 Y113.298 E8.57225
G1 X86.086 Y112.755 E8.60015
G1 X86.249 Y112.279 E8.62525
G1 X86.489 Y111.716 E8.65579
G1 X86.517 Y111.655 E8.65913
G1 X86.833 Y111.102 E8.69091
G1 X87.142 Y110.662 E8.71773
G1 X87.27 Y110.491 E8.72839
G1 X87.659 Y110.051 E8.75769
G1 X88.386 Y109.353 E8.80797
G1 X89.956 Y107.809 E8.91783
G1 X90.91 Y106.849 E8.98535
G1 X91.29 Y106.506 E9.01089
G0 F2160 X91.794 Y106.611
G1 F900 X92.24 Y106.304 E9.0379
G1 X92.409 Y106.208 E9.0476
G1 X94.372 Y105.133 E9.15926
G1 X96.755 Y103.738 E9.29702
G1 X99.067 Y102.295 E9.43299
G1 X101.365 Y100.769 E9.57061
G1 X103.558 Y99.221 E9.70453
G1 X105.785 Y97.553 E9.84335
G1 X107.932 Y95.848 E9.98013
G1 X110.002 Y94.108 E10.11504
G1 X112.07 Y92.266 E10.25321
G1 X114.033 Y90.417 E10.38775
G1 X116.387 Y88.055 E10.55412
G1 X116.902 Y87.522 E10.59109
G1 X117.281 Y87.187 E10.61633
G1 X117.708 Y86.917 E10.64153
G1 X118.172 Y86.717 E10.66674
G1 X118.662 Y86.592 E10.69197
G1 X119.166 Y86.546 E10.71722
G1 X119.67 Y86.58 E10.74242
G1 X120.163 Y86.693 E10.76765
G1 X120.632 Y86.883 E10.7929
G1 X121.252 Y87.288 E10.82985
G1 X122.163 Y88.048 E10.88904
G1 X122.463 Y88.306 E10.90878
G1 X124.594 Y90.035 E11.04569
G1 X126.758 Y91.691 E11.18163
G1 X129.001 Y93.31 E11.31964
G1 X131.238 Y94.83 E11.45457
G1 X133.567 Y96.318 E11.59246
G1 X135.924 Y97.73 E11.72953
G1 X136.432 Y98.019 E11.75869
G1 X136.95 Y98.332 E11.78889
G1 X137.497 Y98.721 E11.82237
G1 X137.88 Y99.051 E11.8476
G1 X138.108 Y99.276 E11.86358
G1 X139.619 Y100.809 E11.97097
G1 X141.596 Y102.704 E12.10759
G1 X143.608 Y104.527 E12.24305
G1 X146.004 Y106.565 E12.39998
G1 X146.445 Y106.985 E12.43036
G1 X146.85 Y107.449 E12.46109
G1 X147.254 Y108.054 E12.49738
G1 X147.43 Y108.388 E12.51622
G1 X147.691 Y108.961 E12.54763
G1 X147.88 Y109.461 E12.5743
G1 X148.144 Y110.279 E12.61718
G1 X148.39 Y111.118 E12.6608
G1 X148.503 Y111.544 E12.68279
G1 X148.622 Y112.034 E12.70795
G1 X148.717 Y112.552 E12.73422
G1 X148.765 Y112.928 E12.75313
G1 X148.781 Y113.588 E12.78607
G1 X148.717 Y114.198 E12.81667
G1 X148.616 Y114.694 E12.84192
G1 X148.417 Y115.222 E12.87007
G1 X148.225 Y115.63 E12.89257
G1 X147.972 Y116.067 E12.91776
G1 X147.613 Y116.505 E12.94601
G1 X147.193 Y116.929 E12.97579
G1 X146.928 Y117.17 E12.99366
G1 X145.318 Y118.59 E13.10076
G1 X143.313 Y120.464 E13.23768
G1 X141.375 Y122.379 E13.37361
G1 X139.495 Y124.345 E13.50932
G1 X137.635 Y126.404 E13.64775
G1 X135.866 Y128.478 E13.78375
G1 X134.163 Y130.59 E13.91911
G1 X132.494 Y132.787 E14.05676
G1 X130.899 Y135.013 E14.19338
G1 X129.377 Y137.272 E14.32927
G1 X127.906 Y139.592 E14.46632
G1 X126.372 Y142.177 E14.61629
G1 X125.844 Y143.098 E14.66925
G1 X125.547 Y143.571 E14.69712
G1 X125.131 Y144.152 E14.73277
G1 X124.885 Y144.445 E14.75185
G1 X124.487 Y144.866 E14.78076
G1 X123.923 Y145.355 E14.818
G1 X123.326 Y145.753 E14.8538
G1 X122.814 Y146.021 E14.88263
G1 X122.467 Y146.171 E14.90149
G1 X121.926 Y146.344 E14.92982
G1 X121.358 Y146.472 E14.95887
G1 X120.638 Y146.55 E14.995
G1 X119.992 Y146.527 E15.02725
G1 X119.315 Y146.413 E15.0615
G1 X118.646 Y146.201 E15.09652
G1 X118.086 Y145.948 E15.12717
G1 X117.534 Y145.607 E15.15954
G1 X117.105 Y145.276 E15.18658
G1 X116.762 Y144.958 E15.20991
G1 X115.721 Y143.937 E15.28266
G1 X113.703 Y142.015 E15.42169
G1 X111.684 Y140.197 E15.55724
G1 X109.58 Y138.409 E15.69499
G1 X107.451 Y136.699 E15.83123
G1 X105.261 Y135.042 E15.96824
G1 X103.023 Y133.444 E16.10543
G1 X100.755 Y131.921 E16.24173
G1 X100.042 Y131.457 E16.28417
G1 X99.573 Y131.128 E16.31275
G1 X98.955 Y130.637 E16.35213
G1 X98.568 Y130.273 E16.37864
G1 X98.141 Y129.804 E16.41028
G1 X97.96 Y129.584 E16.42449
G1 X96.19 Y127.485 E16.56148
G1 X94.379 Y125.458 E16.69709
G1 X92.472 Y123.44 E16.83561
G1 X90.56 Y121.527 E16.97054
G1 X89.247 Y120.274 E17.06109
G1 X88.35 Y119.434 E17.1224
G1 X87.947 Y119.023 E17.15112
G1 X87.477 Y118.443 E17.18836
G1 X87.107 Y117.899 E17.22119
G1 X86.76 Y117.238 E17.25843
G1 X86.528 Y116.638 E17.29052
G1 X86.386 Y116.146 E17.31607
G1 X86.271 Y115.545 E17.3466
G1 X86.218 Y114.622 E17.39272
G1 X86.259 Y113.959 E17.42587
G1 X86.342 Y113.386 E17.45475
G1 X86.472 Y112.858 E17.48188
G1 X86.618 Y112.435 E17.5042
G1 X86.853 Y111.883 E17.53414
G1 X86.881 Y111.822 E17.53748
G1 X87.162 Y111.33 E17.56575
G1 X87.462 Y110.901 E17.59187
G1 X87.59 Y110.73 E17.60253
G1 X87.936 Y110.34 E17.62854
G1 X88.639 Y109.665 E17.67716
G1 X90.24 Y108.091 E17.78917
G1 X91.194 Y107.131 E17.85669
G1 X91.794 Y106.611 E17.8963
G1 F1500 E11.3963
;MESH:SweetMarmitaria.stl
G0 F2160 X93.982 Y108.247
G0 X94.474 Y109.211
G0 X121.089 Y133.055
G0 X122.08 Y134.283
;TYPE:WALL-INNER
G1 F1500 E17.8963
G1 F900 X122.319 Y133.964 E17.91619
G1 X122.479 Y133.751 E17.92948
G1 X122.432 Y134.048 E17.93314
G1 X122.425 Y134.447 E17.94691
G1 X122.417 Y134.864 E17.96772
G1 X122.497 Y135.705 E18.00987
G1 X122.629 Y136.668 E18.05836
G1 X122.68 Y137.27 E18.0885
G1 X122.64 Y137.999 E18.12493
G1 X122.442 Y138.751 E18.16373
G1 X122.06 Y139.6 E18.21017
G1 X121.852 Y140.012 E18.2332
G1 X121.595 Y140.475 E18.25962
G1 X121.144 Y141.148 E18.30003
G1 X120.955 Y141.339 E18.31344
G1 X120.624 Y141.524 E18.33236
G1 X120.485 Y141.539 E18.33933
G1 X120.343 Y141.471 E18.34719
G1 X120.056 Y141.133 E18.36931
G1 X119.763 Y140.516 E18.40339
G1 X119.552 Y139.708 E18.44505
G1 X119.525 Y138.966 E18.48209
G1 X119.669 Y138.207 E18.52064
G1 X119.985 Y137.396 E18.56406
G1 X120.244 Y136.906 E18.59171
G1 X120.55 Y136.4 E18.62121
G1 X120.872 Y135.919 E18.65009
G1 X121.215 Y135.441 E18.67944
G1 X121.743 Y134.73 E18.72362
G1 X122.08 Y134.283 E18.75155
G0 F2160 X121.103 Y134.25
G1 F900 X122.116 Y132.903 E18.83564
G1 X122.321 Y132.63 E18.85267
G1 X121.982 Y132.586 E18.86235
G1 X120.216 Y132.355 E18.95121
G1 X119.891 Y131.936 E18.97766
G1 X119.245 Y131.609 E19.01378
G1 X118.489 Y131.466 E19.05217
G1 X117.673 Y131.561 E19.09315
G1 X116.456 Y131.951 E19.15691
G1 X115.966 Y132.064 E19.182
G1 X115.343 Y132.185 E19.21366
G1 X114.397 Y132.302 E19.26122
G1 X113.994 Y132.264 E19.28141
G1 X113.491 Y132.168 E19.30696
G1 X112.895 Y132.035 E19.33743
G1 X112.416 Y131.921 E19.36199
G1 X111.866 Y131.776 E19.39037
G1 X111.355 Y131.632 E19.41686
G1 X110.735 Y131.449 E19.44911
G1 X110.032 Y131.232 E19.48581
G1 X109.304 Y130.993 E19.52404
G1 X108.7 Y130.788 E19.55586
G1 X107.857 Y130.488 E19.6005
G1 X107.365 Y130.378 E19.62566
G1 X106.714 Y130.058 E19.66185
G1 X105.892 Y129.728 E19.70604
G1 X105.414 Y129.525 E19.73195
G1 X104.955 Y129.323 E19.75696
G1 X104.434 Y129.085 E19.78554
G1 X103.987 Y128.871 E19.81027
G1 X103.406 Y128.574 E19.84282
G1 X102.894 Y128.291 E19.87201
G1 X102.466 Y128.031 E19.89699
G1 X102.061 Y127.757 E19.92139
G1 X101.639 Y127.419 E19.94836
G1 X101.39 Y127.155 E19.96647
G1 X101.184 Y126.834 E19.98549
G1 X100.878 Y126.024 E20.02869
G1 X100.691 Y125.066 E20.07739
G1 X100.629 Y124.5 E20.1058
G1 X100.595 Y123.966 E20.13249
G1 X100.578 Y123.34 E20.16373
G1 X100.576 Y122.881 E20.18663
G1 X100.588 Y122.381 E20.21159
G1 X100.617 Y121.704 E20.24539
G1 X100.66 Y121.043 E20.27844
G1 X100.725 Y120.262 E20.31754
G1 X100.798 Y119.483 E20.35657
G1 X100.829 Y119.166 E20.37246
G1 X99.685 Y118.785 E20.43262
G1 X99.454 Y118.632 E20.44644
G1 X98.626 Y117.701 E20.5086
G1 X97.505 Y118.346 E20.57313
G1 X97.185 Y118.459 E20.59006
G1 X96.912 Y118.5 E20.60383
G1 X96.864 Y118.508 E20.60626
G1 X96.276 Y118.464 E20.63568
G1 X95.627 Y118.965 E20.67658
G1 X95.335 Y119.107 E20.69278
G1 X95.058 Y119.164 E20.70689
G1 X94.812 Y119.152 E20.71918
G1 X94.602 Y119.082 E20.73022
G1 X94.404 Y118.946 E20.7422
G1 X94.237 Y118.76 E20.75468
G1 X93.995 Y118.333 E20.77916
G1 X93.735 Y117.842 E20.80688
G1 X92.884 Y117.451 E20.8536
G1 X92.377 Y117.206 E20.8817
G1 X91.604 Y116.714 E20.92741
G1 X90.985 Y116.136 E20.96966
G1 X90.728 Y115.785 E20.99137
G1 X90.714 Y115.757 E20.99293
G1 X90.546 Y115.434 E21.01109
G1 X90.438 Y115.076 E21.02975
G1 X90.404 Y114.739 E21.04665
G1 X90.437 Y114.284 E21.06941
G1 X90.516 Y113.962 E21.08595
G1 X90.662 Y113.633 E21.1039
G1 X90.89 Y113.315 E21.12343
G1 X91.176 Y113.057 E21.14264
G1 X91.536 Y112.846 E21.16346
G1 X91.9 Y112.714 E21.18278
G1 X92.341 Y112.615 E21.20533
G1 X93.407 Y112.481 E21.25893
G1 X93.663 Y111.214 E21.32342
G1 X93.832 Y110.652 E21.3527
G1 X93.981 Y110.339 E21.36999
G1 X94.181 Y110.079 E21.38636
G1 X94.376 Y109.914 E21.3991
G1 X94.639 Y109.78 E21.41383
G1 X94.679 Y109.759 E21.41608
G1 X94.725 Y109.748 E21.41844
G1 X94.96 Y109.69 E21.43052
G1 X95.212 Y109.683 E21.44309
G1 X95.523 Y109.793 E21.45955
G1 X95.671 Y109.942 E21.47003
G1 X95.752 Y110.102 E21.47897
G1 X95.795 Y110.355 E21.49178
G1 X95.758 Y111.247 E21.53632
G1 X96.816 Y111.852 E21.59712
G1 X97.686 Y111.29 E21.6488
G1 X97.929 Y111.217 E21.66145
G1 X98.161 Y111.214 E21.67303
G1 X98.419 Y111.287 E21.68641
G1 X99.298 Y111.712 E21.73512
G1 X100.005 Y110.475 E21.8062
G1 X100.236 Y110.19 E21.8245
G1 X100.485 Y109.979 E21.84079
G1 X100.765 Y109.82 E21.85685
G1 X101.106 Y109.71 E21.87473
G1 X101.515 Y109.659 E21.89529
G1 X102.086 Y109.69 E21.92382
G1 X102.32 Y109.704 E21.93551
G1 X102.887 Y108.816 E21.98808
G1 X103.208 Y108.42 E22.01351
G1 X103.564 Y108.084 E22.03793
G1 X103.949 Y107.798 E22.06186
G1 X104.446 Y107.515 E22.09039
G1 X104.47 Y107.505 E22.09169
G1 X104.917 Y107.305 E22.11612
G1 X105.762 Y107.023 E22.16056
G1 X106.335 Y106.879 E22.19004
G1 X106.953 Y106.751 E22.22153
G1 X107.588 Y106.637 E22.25371
G1 X108.291 Y106.531 E22.28918
G1 X110.248 Y106.261 E22.38774
G1 X110.994 Y106.15 E22.42537
G1 X111.255 Y106.111 E22.43854
G1 X112.015 Y105.983 E22.47699
G1 X119.359 Y104.656 E22.84931
G1 X126.752 Y103.316 E23.22416
G1 X127.344 Y103.191 E23.25435
G1 X127.945 Y103.04 E23.28526
G1 X128.536 Y102.881 E23.3158
G1 X129.76 Y102.538 E23.37922
G1 X130.443 Y102.354 E23.4145
G1 X131.147 Y102.176 E23.45073
G1 X131.647 Y102.058 E23.47636
G1 X132.168 Y101.949 E23.50292
G1 X132.744 Y101.847 E23.5321
G1 X133.73 Y101.75 E23.58153
G1 X134.507 Y101.809 E23.62041
G1 X134.725 Y101.889 E23.63199
G1 X134.938 Y102.041 E23.64505
G1 X135.193 Y102.324 E23.66405
G1 X135.436 Y102.686 E23.68581
G1 X135.666 Y103.125 E23.71053
G1 X135.885 Y103.639 E23.73841
G1 X136.191 Y104.551 E23.7864
G1 X136.326 Y105.044 E23.8119
G1 X136.489 Y105.734 E23.84727
G1 X136.493 Y105.749 E23.84805
G1 X136.598 Y106.282 E23.87515
G1 X136.601 Y106.293 E23.87572
G1 X136.724 Y107.02 E23.9125
G1 X136.802 Y107.582 E23.94081
G1 X136.804 Y107.592 E23.94132
G1 X136.89 Y108.334 E23.97858
G1 X136.997 Y109.548 E24.03939
G1 X137.149 Y109.654 E24.04863
G1 X138.139 Y110.351 E24.10904
G1 X139.102 Y109.779 E24.16492
G1 X139.382 Y109.681 E24.17972
G1 X139.732 Y109.63 E24.19736
G1 X139.98 Y109.647 E24.20976
G1 X140.222 Y109.728 E24.2225
G1 X140.461 Y109.875 E24.23649
G1 X141.124 Y110.464 E24.28074
G1 X142.14 Y109.8 E24.34129
G1 X142.392 Y109.704 E24.35475
G1 X142.742 Y109.65 E24.37241
G1 X143.02 Y109.667 E24.38631
G1 X143.35 Y109.817 E24.40439
G1 X143.516 Y109.984 E24.41614
G1 X143.667 Y110.225 E24.43033
G1 X143.686 Y110.254 E24.43206
G1 X143.836 Y110.6 E24.45088
G1 X144.046 Y111.22 E24.48353
G1 X144.227 Y111.813 E24.51447
G1 X144.385 Y112.381 E24.54388
