;FLAVOR:Marlin
;TIME:2872
;Filament used: 2.56896m, 0m
;Layer height: 0.2
;MINX:44.121
;MINY:63.049
;MINZ:0.3
;MAXX:190.87
;MAXY:169.952
;MAXZ:1.9
;POSTPROCESSED
;Generated with Cura_SteamEngine 4.7.1
T0
M140 S60
M105
M190 S60
M104 S200
M105
M109 S200
M82 ;absolute extrusion mode
M201 X500.00 Y500.00 Z100.00 E5000.00 	;Setup machine max acceleration
M203 X500.00 Y500.00 Z10.00 E50.00 	;Setup machine max feedrate
M204 P500.00 R1000.00 T500.00 		;Setup Print/Retract/Travel acceleration
M205 X8.00 Y8.00 Z0.40 E5.00 		;Setup Jerk
M220 S100 				;Reset Feedrate
M221 S100 				;Reset Flowrate
G28				;Home the Machine
#G29 				;Bed Level
G92 E0
M300 P150 S587
G92 E0
G1 F1500 E-6.5
;LAYER_COUNT:9
;LAYER:0
M107
G0 F2160 X78.634 Y64.325 Z0.3
;TYPE:SKIRT
G1 F1500 E0
G1 F900 X79.009 Y63.942 E0.02674
G1 X79.438 Y63.619 E0.05353
G1 X79.909 Y63.364 E0.08025
G1 X80.413 Y63.181 E0.10701
G1 X80.939 Y63.076 E0.13377
G1 X81.475 Y63.049 E0.16054
G1 X82.008 Y63.103 E0.18727
G1 X82.695 Y63.295 E0.22286
G1 X83.849 Y63.747 E0.28469
G1 X84.347 Y63.949 E0.3115
G1 X86.9 Y64.903 E0.44747
G1 X89.47 Y65.783 E0.583
G1 X92.082 Y66.594 E0.71945
G1 X94.708 Y67.329 E0.85549
G1 X97.376 Y67.995 E0.99269
G1 X99.978 Y68.569 E1.12562
G1 X102.716 Y69.089 E1.26466
G1 X105.382 Y69.519 E1.39939
G1 X108.091 Y69.877 E1.53572
G1 X110.802 Y70.158 E1.67169
G1 X113.529 Y70.363 E1.80813
G1 X116.256 Y70.49 E1.94433
G1 X118.951 Y70.54 E2.0788
G1 X121.717 Y70.512 E2.21681
G1 X124.411 Y70.409 E2.35131
G1 X127.137 Y70.228 E2.48761
G1 X129.853 Y69.97 E2.62372
G1 X132.564 Y69.635 E2.76
G1 X135.269 Y69.222 E2.89652
G1 X137.954 Y68.735 E3.03266
G1 X140.58 Y68.181 E3.16655
G1 X143.267 Y67.536 E3.30442
G1 X145.866 Y66.831 E3.43877
G1 X148.522 Y66.031 E3.57716
G1 X151.066 Y65.185 E3.71091
G1 X153.663 Y64.239 E3.8488
G1 X154.738 Y63.808 E3.90659
G1 X154.813 Y63.784 E3.91051
G1 X156.073 Y63.294 E3.97796
G1 X156.586 Y63.137 E4.00473
G1 X157.116 Y63.059 E4.03145
G1 X157.652 Y63.059 E4.0582
G1 X158.183 Y63.14 E4.08499
G1 X158.695 Y63.298 E4.11173
G1 X159.178 Y63.531 E4.13848
G1 X159.621 Y63.833 E4.16523
G1 X160.015 Y64.198 E4.19202
G1 X160.349 Y64.617 E4.21876
G1 X160.618 Y65.081 E4.24552
G1 X160.815 Y65.579 E4.27223
G1 X160.946 Y66.167 E4.30229
G1 X161.113 Y67.407 E4.36471
G1 X161.158 Y67.785 E4.3837
G1 X161.551 Y70.444 E4.5178
G1 X162.031 Y73.147 E4.65476
G1 X162.585 Y75.831 E4.79149
G1 X163.202 Y78.446 E4.92554
G1 X163.911 Y81.112 E5.06317
G1 X164.686 Y83.721 E5.19895
G1 X165.536 Y86.314 E5.33509
G1 X166.456 Y88.876 E5.4709
G1 X167.444 Y91.398 E5.60604
G1 X168.517 Y93.926 E5.74305
G1 X169.657 Y96.412 E5.87949
G1 X170.859 Y98.849 E6.01506
G1 X172.132 Y101.256 E6.15091
G1 X173.48 Y103.639 E6.2875
G1 X174.888 Y105.973 E6.42349
G1 X176.364 Y108.269 E6.55967
G1 X177.891 Y110.502 E6.69463
G1 X179.499 Y112.718 E6.83122
G1 X181.16 Y114.875 E6.96705
G1 X182.895 Y117.001 E7.10395
G1 X184.637 Y119.017 E7.23688
G1 X186.553 Y121.112 E7.37852
G1 X187.083 Y121.675 E7.41709
G1 X187.622 Y122.316 E7.45887
G1 X187.981 Y122.787 E7.48842
G1 X188.418 Y123.396 E7.52582
G1 X188.714 Y123.831 E7.55207
G1 X189.302 Y124.747 E7.60637
G1 X189.616 Y125.268 E7.63672
G1 X189.85 Y125.728 E7.66247
G1 X190.089 Y126.296 E7.69321
G1 X190.321 Y126.914 E7.72614
G1 X190.478 Y127.455 E7.75425
G1 X190.609 Y127.992 E7.78183
G1 X190.669 Y128.304 E7.79768
G1 X190.766 Y128.958 E7.83066
G1 X190.841 Y129.666 E7.86618
G1 X190.87 Y130.268 E7.89625
G1 X190.869 Y130.584 E7.91202
G1 X190.838 Y131.249 E7.94523
G1 X190.8 Y131.673 E7.96647
G1 X190.695 Y132.445 E8.00534
G1 X190.566 Y133.1 E8.03864
G1 X190.325 Y133.89 E8.07985
G1 X190.115 Y134.452 E8.10978
G1 X189.798 Y135.145 E8.1478
G1 X189.387 Y135.852 E8.1886
G1 X189.062 Y136.332 E8.21752
G1 X188.703 Y136.809 E8.2473
G1 X188.153 Y137.499 E8.29133
G1 X186.441 Y139.71 E8.43084
G1 X184.841 Y141.9 E8.56615
G1 X183.328 Y144.102 E8.69944
G1 X181.801 Y146.462 E8.83968
G1 X180.405 Y148.762 E8.97391
G1 X180.155 Y149.199 E8.99903
G1 X179.74 Y149.901 E9.03971
G1 X179.621 Y150.089 E9.05081
G1 X179.257 Y150.626 E9.08318
G1 X178.808 Y151.166 E9.11821
G1 X178.212 Y151.73 E9.15915
G1 X177.814 Y152.047 E9.18454
G1 X177.486 Y152.268 E9.20427
G1 X177.026 Y152.555 E9.23132
G1 X176.555 Y152.813 E9.25811
G1 X175.946 Y153.096 E9.29161
G1 X175.803 Y153.155 E9.29933
G1 X175.018 Y153.465 E9.34144
G1 X174.863 Y153.523 E9.3497
G1 X174.297 Y153.717 E9.37955
G1 X173.778 Y153.852 E9.4063
G1 X173.179 Y153.913 E9.43634
G1 X172.618 Y153.927 E9.46434
G1 X169.986 Y153.953 E9.59565
G1 X168.32 Y153.972 E9.67878
G1 X167.315 Y153.98 E9.72892
G1 X166.395 Y153.981 E9.77482
G1 X165.206 Y153.967 E9.83414
G1 X164.53 Y153.951 E9.86788
G1 X163.337 Y153.909 E9.92743
G1 X162.344 Y153.852 E9.97705
G1 X161.91 Y153.825 E9.99875
G1 X159.838 Y153.689 E10.10234
G1 X157.143 Y153.588 E10.23689
G1 X154.377 Y153.562 E10.37489
G1 X151.695 Y153.614 E10.50873
G1 X150.122 Y153.691 E10.5873
G1 X148.341 Y153.745 E10.67619
G1 X147.622 Y153.732 E10.71207
G1 X146.968 Y153.661 E10.74489
G1 X144.203 Y153.346 E10.88373
G1 X141.486 Y153.115 E11.01977
G1 X138.792 Y152.962 E11.15439
G1 X136.028 Y152.884 E11.29234
G1 X133.335 Y152.884 E11.42669
G1 X130.565 Y152.962 E11.56495
G1 X127.89 Y153.113 E11.69861
G1 X124.963 Y153.364 E11.84518
G1 X123.928 Y153.469 E11.89708
G1 X123.683 Y153.486 E11.90933
G1 X122.677 Y153.531 E11.95957
G1 X121.235 Y153.58 E12.03156
G1 X118.512 Y153.75 E12.16767
G1 X115.794 Y153.997 E12.30383
G1 X113.111 Y154.318 E12.43864
G1 X110.414 Y154.718 E12.57467
G1 X107.688 Y155.202 E12.71279
G1 X105.058 Y155.746 E12.84678
G1 X102.425 Y156.366 E12.98174
G1 X99.754 Y157.079 E13.11966
G1 X97.132 Y157.858 E13.25612
G1 X94.542 Y158.707 E13.3921
G1 X91.997 Y159.623 E13.52705
G1 X89.441 Y160.625 E13.66402
G1 X86.939 Y161.688 E13.79964
G1 X84.454 Y162.828 E13.93604
G1 X82.029 Y164.024 E14.07094
G1 X79.613 Y165.303 E14.20732
G1 X77.213 Y166.662 E14.34492
G1 X75.702 Y167.563 E14.43269
G1 X74.551 Y168.264 E14.49993
G1 X74.463 Y168.316 E14.50502
G1 X73.895 Y168.639 E14.53762
G1 X73.193 Y168.996 E14.57692
G1 X72.584 Y169.252 E14.60987
G1 X72.105 Y169.432 E14.6354
G1 X71.389 Y169.652 E14.67277
G1 X70.988 Y169.744 E14.6933
G1 X70.331 Y169.856 E14.72655
G1 X69.702 Y169.93 E14.75815
G1 X68.908 Y169.952 E14.79777
G1 X68.156 Y169.907 E14.83536
G1 X67.932 Y169.883 E14.8466
G1 X67.231 Y169.784 E14.88192
G1 X66.729 Y169.697 E14.90734
G1 X65.858 Y169.486 E14.95205
G1 X65.204 Y169.263 E14.98652
G1 X62.585 Y168.408 E15.12397
G1 X59.952 Y167.631 E15.26093
G1 X57.346 Y166.942 E15.39541
G1 X54.715 Y166.322 E15.53027
G1 X54.011 Y166.183 E15.56607
G1 X53.876 Y166.146 E15.57305
G1 X52.684 Y165.89 E15.63388
G1 X52.284 Y165.78 E15.65457
G1 X51.673 Y165.573 E15.68676
G1 X51.529 Y165.52 E15.69442
G1 X51.056 Y165.337 E15.71972
G1 X50.861 Y165.255 E15.73027
G1 X50.267 Y164.984 E15.76284
G1 X49.969 Y164.831 E15.77956
G1 X49.375 Y164.49 E15.81373
G1 X48.799 Y164.092 E15.84866
G1 X48.243 Y163.638 E15.88447
G1 X47.846 Y163.275 E15.91131
G1 X47.344 Y162.761 E15.94715
G1 X47.265 Y162.675 E15.95298
G1 X46.797 Y162.151 E15.98803
G1 X46.598 Y161.915 E16.00343
G1 X46.303 Y161.508 E16.02851
G1 X46.004 Y161.027 E16.05676
G1 X45.947 Y160.932 E16.06229
G1 X45.645 Y160.41 E16.09238
G1 X45.441 Y160.022 E16.11425
G1 X45.087 Y159.26 E16.15617
G1 X44.869 Y158.692 E16.18652
G1 X44.813 Y158.516 E16.19573
G1 X44.612 Y157.836 E16.23111
G1 X44.436 Y157.12 E16.2679
G1 X44.416 Y157.03 E16.2725
G1 X44.301 Y156.468 E16.30111
G1 X44.242 Y156.063 E16.32153
G1 X44.178 Y155.329 E16.35829
G1 X44.136 Y154.629 E16.39328
G1 X44.121 Y154.121 E16.41863
G1 X44.124 Y153.588 E16.44522
G1 X44.156 Y153.031 E16.47306
G1 X44.208 Y152.512 E16.49908
G1 X44.305 Y151.813 E16.53429
G1 X44.332 Y151.657 E16.54219
G1 X44.507 Y150.778 E16.5869
G1 X44.531 Y150.667 E16.59257
G1 X44.665 Y150.09 E16.62212
G1 X44.825 Y149.578 E16.64888
G1 X44.938 Y149.322 E16.66284
G1 X45.301 Y148.582 E16.70396
G1 X45.625 Y147.946 E16.73958
G1 X46.072 Y147.091 E16.78771
G1 X46.121 Y147 E16.79287
G1 X46.583 Y146.175 E16.84004
G1 X46.646 Y146.066 E16.84632
G1 X47.35 Y144.906 E16.91402
G1 X47.648 Y144.446 E16.94136
G1 X48.123 Y143.774 E16.98242
G1 X48.194 Y143.68 E16.98829
G1 X48.674 Y143.063 E17.02729
G1 X48.915 Y142.771 E17.04618
G1 X50.578 Y140.845 E17.17313
G1 X52.273 Y138.763 E17.30708
G1 X53.962 Y136.567 E17.44529
G1 X55.558 Y134.365 E17.58097
G1 X57.098 Y132.107 E17.71733
G1 X58.567 Y129.818 E17.85302
G1 X59.976 Y127.478 E17.9893
G1 X61.31 Y125.117 E18.12459
G1 X62.585 Y122.702 E18.26083
G1 X63.783 Y120.268 E18.39618
G1 X65.061 Y117.464 E18.54992
G1 X65.284 Y116.952 E18.57778
G1 X65.555 Y116.373 E18.60967
G1 X65.651 Y116.176 E18.6206
G1 X66.625 Y114.247 E18.72841
G1 X67.817 Y111.804 E18.86403
G1 X68.947 Y109.307 E19.00077
G1 X69.999 Y106.8 E19.13641
G1 X70.982 Y104.26 E19.27229
G1 X71.888 Y101.701 E19.40772
G1 X72.732 Y99.085 E19.54486
G1 X73.493 Y96.478 E19.68035
G1 X74.19 Y93.813 E19.81778
G1 X74.798 Y91.183 E19.95245
G1 X75.334 Y88.533 E20.08734
G1 X75.807 Y85.791 E20.22616
G1 X76.189 Y83.129 E20.36033
G1 X76.589 Y79.493 E20.54282
G1 X77.279 Y71.912 E20.9226
G1 X77.737 Y66.907 E21.17335
G1 X77.804 Y66.271 E21.20525
G1 X77.9 Y65.743 E21.23203
G1 X78.073 Y65.236 E21.25875
G1 X78.319 Y64.759 E21.28553
G1 X78.634 Y64.325 E21.31228
G0 F2160 X79.016 Y64.496
G1 F900 X79.384 Y64.15 E21.33748
G1 X79.803 Y63.866 E21.36274
G1 X80.26 Y63.652 E21.38791
G1 X80.746 Y63.512 E21.41315
G1 X81.248 Y63.451 E21.43838
G1 X81.753 Y63.469 E21.46359
G1 X82.249 Y63.567 E21.48881
G1 X82.549 Y63.668 E21.5046
G1 X83.698 Y64.117 E21.56615
G1 X84.193 Y64.318 E21.5928
G1 X86.767 Y65.28 E21.72989
G1 X89.369 Y66.17 E21.86709
G1 X91.96 Y66.975 E22.00245
G1 X94.609 Y67.716 E22.13969
G1 X97.264 Y68.379 E22.27621
G1 X99.917 Y68.964 E22.41175
G1 X102.648 Y69.484 E22.55045
G1 X105.333 Y69.916 E22.68613
G1 X108.034 Y70.274 E22.82206
G1 X110.767 Y70.556 E22.95913
G1 X113.481 Y70.76 E23.09492
G1 X116.265 Y70.89 E23.23396
G1 X118.948 Y70.94 E23.36784
G1 X121.7 Y70.913 E23.50514
G1 X124.452 Y70.807 E23.64254
G1 X127.168 Y70.626 E23.77835
G1 X129.904 Y70.367 E23.91546
G1 X132.636 Y70.029 E24.0528
G1 X135.294 Y69.623 E24.18694
G1 X138.036 Y69.126 E24.32597
G1 X140.685 Y68.567 E24.46104
G1 X143.359 Y67.925 E24.59824
G1 X145.99 Y67.212 E24.73423
G1 X148.616 Y66.42 E24.87107
G1 X151.223 Y65.554 E25.00812
G1 X153.795 Y64.617 E25.14469
G1 X154.887 Y64.179 E25.20339
G1 X154.963 Y64.155 E25.20737
G1 X156.218 Y63.667 E25.27455
G1 X156.702 Y63.521 E25.29977
G1 X157.203 Y63.454 E25.32499
G1 X157.708 Y63.466 E25.35019
G1 X158.206 Y63.558 E25.37545
G1 X158.682 Y63.727 E25.40065
G1 X159.126 Y63.969 E25.42588
G1 X159.526 Y64.277 E25.45107
G1 X159.873 Y64.645 E25.4763
G1 X160.157 Y65.063 E25.50151
G1 X160.373 Y65.521 E25.52678
G1 X160.549 Y66.22 E25.56274
G1 X160.715 Y67.454 E25.62486
G1 X160.753 Y67.776 E25.64103
G1 X161.161 Y70.535 E25.78018
G1 X161.634 Y73.202 E25.91531
G1 X162.19 Y75.899 E26.0527
G1 X162.82 Y78.568 E26.18951
G1 X163.518 Y81.191 E26.32493
G1 X164.306 Y83.844 E26.463
G1 X165.155 Y86.436 E26.59908
G1 X166.095 Y89.052 E26.73776
G1 X167.077 Y91.559 E26.87209
G1 X168.149 Y94.083 E27.0089
G1 X169.292 Y96.577 E27.14577
G1 X170.504 Y99.034 E27.28245
G1 X171.773 Y101.433 E27.41785
G1 X173.138 Y103.847 E27.55621
G1 X174.551 Y106.19 E27.69271
G1 X176.014 Y108.464 E27.82761
G1 X177.576 Y110.75 E27.96574
G1 X179.174 Y112.951 E28.10144
G1 X180.858 Y115.138 E28.23915
G1 X182.567 Y117.232 E28.374
G1 X184.379 Y119.329 E28.51226
G1 X186.226 Y121.348 E28.64878
G1 X186.792 Y121.949 E28.68997
G1 X187.311 Y122.567 E28.73023
G1 X187.662 Y123.028 E28.75914
G1 X188.14 Y123.696 E28.80012
G1 X188.377 Y124.047 E28.82125
G1 X188.965 Y124.963 E28.87555
G1 X189.014 Y125.042 E28.88019
G1 X189.274 Y125.474 E28.90535
G1 X189.482 Y125.883 E28.92824
G1 X189.721 Y126.451 E28.95898
G1 X189.939 Y127.034 E28.99003
G1 X190.092 Y127.561 E29.01741
G1 X190.22 Y128.085 E29.04432
G1 X190.273 Y128.363 E29.05844
G1 X190.37 Y129.017 E29.09143
G1 X190.443 Y129.701 E29.12575
G1 X190.47 Y130.285 E29.15491
G1 X190.47 Y130.565 E29.16888
G1 X190.439 Y131.23 E29.2021
G1 X190.404 Y131.619 E29.22158
G1 X190.299 Y132.391 E29.26045
G1 X190.18 Y132.994 E29.29112
G1 X189.944 Y133.766 E29.33139
G1 X189.746 Y134.298 E29.35971
G1 X189.45 Y134.948 E29.39534
G1 X189.045 Y135.645 E29.43556
G1 X188.736 Y136.099 E29.46296
G1 X188.39 Y136.56 E29.49172
G1 X187.837 Y137.254 E29.53599
G1 X186.117 Y139.474 E29.6761
G1 X184.533 Y141.644 E29.81013
G1 X182.965 Y143.926 E29.94827
G1 X181.476 Y146.227 E30.085
G1 X180.065 Y148.551 E30.22065
G1 X179.811 Y148.995 E30.24617
G1 X179.396 Y149.697 E30.28685
G1 X179.29 Y149.864 E30.29672
G1 X178.926 Y150.401 E30.32908
G1 X178.527 Y150.881 E30.36023
G1 X177.941 Y151.435 E30.40046
G1 X177.392 Y151.851 E30.43482
G1 X177.274 Y151.929 E30.44188
G1 X176.814 Y152.216 E30.46893
G1 X176.101 Y152.587 E30.50903
G1 X175.656 Y152.783 E30.53329
G1 X174.871 Y153.093 E30.57539
G1 X174.734 Y153.144 E30.58269
G1 X174.168 Y153.338 E30.61254
G1 X173.678 Y153.464 E30.63778
G1 X173.158 Y153.514 E30.66384
G1 X172.615 Y153.527 E30.69094
G1 X169.982 Y153.553 E30.82231
G1 X168.317 Y153.572 E30.90538
G1 X167.315 Y153.58 E30.95537
G1 X166.4 Y153.581 E31.00102
G1 X165.215 Y153.567 E31.06015
G1 X164.544 Y153.551 E31.09363
G1 X163.281 Y153.506 E31.15668
G1 X162.372 Y153.453 E31.20211
G1 X161.936 Y153.426 E31.2239
G1 X159.879 Y153.291 E31.32675
G1 X157.126 Y153.188 E31.46419
G1 X154.372 Y153.162 E31.6016
G1 X151.667 Y153.214 E31.73657
G1 X150.042 Y153.294 E31.81774
G1 X148.329 Y153.346 E31.90325
G1 X147.657 Y153.333 E31.93678
G1 X146.987 Y153.26 E31.9704
G1 X144.249 Y152.948 E32.10789
G1 X141.539 Y152.718 E32.24357
G1 X138.791 Y152.562 E32.38089
G1 X136.039 Y152.484 E32.51825
G1 X133.323 Y152.484 E32.65375
G1 X130.568 Y152.562 E32.79125
G1 X127.833 Y152.716 E32.92792
G1 X124.947 Y152.964 E33.07243
G1 X123.888 Y153.071 E33.12553
G1 X123.665 Y153.087 E33.13669
G1 X122.664 Y153.131 E33.18668
G1 X121.231 Y153.18 E33.25821
G1 X118.487 Y153.351 E33.39537
G1 X115.743 Y153.601 E33.53284
G1 X113.041 Y153.924 E33.6686
G1 X110.357 Y154.322 E33.80397
G1 X107.643 Y154.804 E33.94149
G1 X104.957 Y155.359 E34.07833
G1 X102.303 Y155.984 E34.21436
G1 X99.642 Y156.694 E34.35176
G1 X97.042 Y157.467 E34.48709
G1 X94.419 Y158.327 E34.6248
G1 X91.82 Y159.262 E34.7626
G1 X89.317 Y160.243 E34.89673
G1 X86.782 Y161.321 E35.03416
G1 X84.289 Y162.464 E35.17099
G1 X81.816 Y163.684 E35.30856
G1 X79.435 Y164.944 E35.44296
G1 X76.991 Y166.328 E35.58308
G1 X75.497 Y167.219 E35.66987
G1 X74.343 Y167.922 E35.73728
G1 X74.265 Y167.968 E35.7418
G1 X73.706 Y168.286 E35.77388
G1 X73.038 Y168.628 E35.81132
G1 X72.516 Y168.848 E35.83959
G1 X71.982 Y169.051 E35.86809
G1 X71.277 Y169.268 E35.90489
G1 X70.921 Y169.349 E35.9231
G1 X70.264 Y169.461 E35.95635
G1 X69.679 Y169.531 E35.98575
G1 X68.904 Y169.552 E36.02443
G1 X68.187 Y169.508 E36.06027
G1 X67.988 Y169.487 E36.07025
G1 X67.287 Y169.388 E36.10557
G1 X66.667 Y169.277 E36.13699
G1 X65.987 Y169.107 E36.17196
G1 X65.311 Y168.876 E36.2076
G1 X62.717 Y168.03 E36.34373
G1 X60.094 Y167.256 E36.48017
G1 X57.426 Y166.55 E36.61786
G1 X54.806 Y165.933 E36.75214
G1 X54.088 Y165.791 E36.78866
G1 X53.956 Y165.754 E36.7955
G1 X52.768 Y165.499 E36.85612
G1 X52.412 Y165.401 E36.87454
G1 X51.801 Y165.194 E36.90672
G1 X51.673 Y165.147 E36.91353
G1 X51.2 Y164.964 E36.93883
G1 X51.027 Y164.891 E36.9482
G1 X50.433 Y164.62 E36.98077
G1 X50.168 Y164.484 E36.99563
G1 X49.574 Y164.143 E37.0298
G1 X49.039 Y163.772 E37.06228
G1 X48.513 Y163.343 E37.09615
G1 X48.116 Y162.98 E37.12298
G1 X47.634 Y162.485 E37.15745
