;FLAVOR:Marlin
;TIME:3226
;Filament used: 4.6941m, 0m
;Layer height: 0.2
;MINX:76.886
;MINY:78.404
;MINZ:0.2
;MAXX:158.114
;MAXY:156.597
;MAXZ:6
;Generated with Cura_SteamEngine 4.8.0
T0
M140 S60
M105
M190 S60
M104 S200
M105
M109 S200
M82 ;absolute extrusion mode
M201 X500.00 Y500.00 Z100.00 E5000.00 	;Setup machine max acceleration
M203 X500.00 Y500.00 Z10.00 E50.00 	;Setup machine max feedrate
M204 P500.00 R1000.00 T500.00 		;Setup Print/Retract/Travel acceleration
M205 X8.00 Y8.00 Z0.40 E5.00 		;Setup Jerk
M220 S100 				;Reset Feedrate
M221 S100 				;Reset Flowrate
G28				;Home the Machine
#G29 				;Bed Level
G92 E0
M300 P150 S587
G92 E0
G1 F1500 E-5.5
;LAYER_COUNT:30
;LAYER:0
M107
G0 F2618.2 X91.036 Y81.776 Z0.2
;TYPE:SKIRT
G1 F1500 E0
G1 F1200 X91.42 Y81.355 E0.01895
G1 X91.981 Y80.818 E0.04478
G1 X92.598 Y80.324 E0.07107
G1 X93.062 Y79.994 E0.09001
G1 X93.642 Y79.646 E0.11251
G1 X93.746 Y79.59 E0.11643
G1 X94.229 Y79.339 E0.13454
G1 X94.887 Y79.058 E0.15834
G1 X95.456 Y78.854 E0.17844
G1 X95.994 Y78.699 E0.19706
G1 X96.514 Y78.581 E0.2148
G1 X96.937 Y78.511 E0.22906
G1 X97.484 Y78.442 E0.24739
G1 X98.179 Y78.405 E0.27054
G1 X98.279 Y78.404 E0.27387
G1 X98.8 Y78.408 E0.2912
G1 X99.584 Y78.479 E0.31738
G1 X100.175 Y78.566 E0.33725
G1 X100.566 Y78.634 E0.35045
G1 X103.321 Y79.085 E0.4433
G1 X106.003 Y79.445 E0.5333
G1 X108.731 Y79.734 E0.62455
G1 X111.415 Y79.941 E0.71408
G1 X114.18 Y80.076 E0.80615
G1 X116.876 Y80.132 E0.89584
G1 X119.605 Y80.11 E0.98661
G1 X122.333 Y80.012 E1.07741
G1 X125.064 Y79.836 E1.16843
G1 X127.777 Y79.584 E1.25905
G1 X130.475 Y79.257 E1.34944
G1 X134.548 Y78.614 E1.48659
G1 X135.162 Y78.514 E1.50728
G1 X135.26 Y78.5 E1.51057
G1 X135.762 Y78.438 E1.5274
G1 X136.523 Y78.405 E1.55273
G1 X137.062 Y78.411 E1.57066
G1 X137.589 Y78.452 E1.58824
G1 X138.383 Y78.564 E1.61491
G1 X138.906 Y78.675 E1.63269
G1 X139.461 Y78.828 E1.65184
G1 X139.846 Y78.958 E1.66536
G1 X140.363 Y79.154 E1.68375
G1 X141.071 Y79.491 E1.70983
G1 X141.555 Y79.756 E1.72818
G1 X141.994 Y80.033 E1.74544
G1 X142.263 Y80.224 E1.75642
G1 X142.67 Y80.526 E1.77327
G1 X143.18 Y80.967 E1.7957
G1 X143.628 Y81.404 E1.81651
G1 X143.963 Y81.777 E1.83319
G1 X144.467 Y82.416 E1.86026
G1 X144.819 Y82.94 E1.88125
G1 X145.091 Y83.401 E1.89906
G1 X145.273 Y83.754 E1.91226
G1 X145.502 Y84.235 E1.92998
G1 X145.697 Y84.717 E1.94728
G1 X145.946 Y85.482 E1.97403
G1 X146.128 Y86.284 E2.00139
G1 X146.224 Y86.859 E2.02078
G1 X146.28 Y87.261 E2.03428
G1 X146.703 Y90.012 E2.12685
G1 X147.187 Y92.663 E2.21648
G1 X147.761 Y95.366 E2.30839
G1 X148.398 Y97.999 E2.39849
G1 X149.116 Y100.641 E2.48955
G1 X149.909 Y103.262 E2.58063
G1 X150.765 Y105.824 E2.67047
G1 X151.705 Y108.398 E2.76161
G1 X152.702 Y110.904 E2.85131
G1 X153.798 Y113.446 E2.94339
G1 X154.935 Y115.892 E3.0331
G1 X156.785 Y119.531 E3.16888
G1 X157.082 Y120.101 E3.19025
G1 X157.326 Y120.617 E3.20924
G1 X157.516 Y121.094 E3.22632
G1 X157.622 Y121.409 E3.23737
G1 X157.772 Y121.892 E3.25419
G1 X157.936 Y122.616 E3.27888
G1 X158.032 Y123.184 E3.29804
G1 X158.092 Y123.772 E3.3177
G1 X158.114 Y124.293 E3.33504
G1 X158.108 Y124.72 E3.34925
G1 X158.08 Y125.263 E3.36733
G1 X157.988 Y125.982 E3.39144
G1 X157.877 Y126.574 E3.41147
G1 X157.679 Y127.302 E3.43657
G1 X157.502 Y127.835 E3.45525
G1 X157.207 Y128.528 E3.4803
G1 X156.936 Y129.073 E3.50054
G1 X156.559 Y129.701 E3.5249
G1 X156.217 Y130.202 E3.54508
G1 X155.898 Y130.61 E3.5623
G1 X155.513 Y131.05 E3.58175
G1 X155.223 Y131.345 E3.59551
G1 X154.849 Y131.699 E3.61264
G1 X154.212 Y132.208 E3.63976
G1 X153.758 Y132.533 E3.65833
G1 X153.124 Y132.913 E3.68291
G1 X152.601 Y133.187 E3.70255
G1 X152.106 Y133.43 E3.72089
G1 X149.6 Y134.695 E3.81426
G1 X147.249 Y135.967 E3.90316
G1 X144.865 Y137.345 E3.99475
G1 X142.53 Y138.785 E4.08599
G1 X140.264 Y140.272 E4.17614
G1 X138.03 Y141.831 E4.26674
G1 X135.853 Y143.443 E4.35684
G1 X133.698 Y145.136 E4.44799
G1 X131.596 Y146.884 E4.53892
G1 X129.551 Y148.685 E4.62955
G1 X127.559 Y150.542 E4.72013
G1 X125.625 Y152.452 E4.81054
G1 X124.493 Y153.618 E4.86459
G1 X124.259 Y153.847 E4.87548
G1 X123.885 Y154.199 E4.89256
G1 X123.287 Y154.677 E4.91802
G1 X123.211 Y154.733 E4.92116
G1 X122.798 Y155.024 E4.93797
G1 X122.211 Y155.373 E4.96068
G1 X122.124 Y155.421 E4.96399
G1 X121.673 Y155.656 E4.9809
G1 X121.184 Y155.874 E4.99871
G1 X120.597 Y156.094 E5.01956
G1 X120.242 Y156.203 E5.03191
G1 X119.685 Y156.352 E5.05109
G1 X118.974 Y156.485 E5.07514
G1 X118.391 Y156.56 E5.09469
G1 X117.636 Y156.597 E5.11984
G1 X117.048 Y156.591 E5.13939
G1 X116.336 Y156.528 E5.16317
G1 X115.736 Y156.439 E5.18334
G1 X114.988 Y156.265 E5.20888
G1 X114.462 Y156.111 E5.22711
G1 X113.866 Y155.894 E5.24821
G1 X113.211 Y155.599 E5.2721
G1 X113.054 Y155.518 E5.27798
G1 X112.566 Y155.251 E5.29648
G1 X111.994 Y154.881 E5.31914
G1 X111.891 Y154.808 E5.32334
G1 X111.478 Y154.503 E5.34041
G1 X111.077 Y154.166 E5.35784
G1 X110.477 Y153.588 E5.38554
G1 X110.071 Y153.169 E5.40495
G1 X108.106 Y151.191 E5.49768
G1 X106.148 Y149.329 E5.58755
G1 X104.108 Y147.494 E5.67881
G1 X102.042 Y145.741 E5.76893
G1 X99.902 Y144.026 E5.86015
G1 X97.708 Y142.368 E5.95161
G1 X95.523 Y140.812 E6.04083
G1 X93.236 Y139.279 E6.1324
G1 X90.944 Y137.834 E6.22252
G1 X88.61 Y136.453 E6.31272
G1 X86.204 Y135.119 E6.40422
G1 X82.626 Y133.297 E6.53777
G1 X82.122 Y133.044 E6.55652
G1 X81.61 Y132.763 E6.57595
G1 X81.185 Y132.494 E6.59268
G1 X80.521 Y132.009 E6.62003
G1 X79.938 Y131.497 E6.64583
G1 X79.538 Y131.103 E6.66451
G1 X79.133 Y130.648 E6.68477
G1 X78.811 Y130.239 E6.70208
G1 X78.587 Y129.923 E6.71496
G1 X78.288 Y129.467 E6.7331
G1 X77.905 Y128.763 E6.75976
G1 X77.668 Y128.26 E6.77825
G1 X77.4 Y127.547 E6.80359
G1 X77.233 Y127.015 E6.82213
G1 X77.11 Y126.513 E6.83932
G1 X76.969 Y125.712 E6.86637
G1 X76.916 Y125.2 E6.88349
G1 X76.9 Y124.883 E6.89405
G1 X76.886 Y124.383 E6.91069
G1 X76.9 Y123.881 E6.92739
G1 X76.954 Y123.282 E6.94739
G1 X77.11 Y122.369 E6.9782
G1 X77.248 Y121.821 E6.99699
G1 X77.5 Y121.047 E7.02407
G1 X77.81 Y120.323 E7.05026
G1 X78.041 Y119.856 E7.06759
G1 X78.282 Y119.401 E7.08472
G1 X79.544 Y116.953 E7.17632
G1 X80.707 Y114.529 E7.26574
G1 X81.819 Y112.035 E7.35656
G1 X82.881 Y109.469 E7.44893
G1 X83.831 Y106.957 E7.53826
G1 X84.725 Y104.387 E7.62876
G1 X85.546 Y101.787 E7.71944
G1 X86.302 Y99.143 E7.81091
G1 X86.968 Y96.533 E7.9005
G1 X87.575 Y93.84 E7.99231
G1 X88.095 Y91.172 E8.08272
G1 X88.54 Y88.501 E8.17278
G1 X88.786 Y86.79 E8.23028
G1 X88.944 Y85.92 E8.25969
G1 X89.142 Y85.202 E8.28446
G1 X89.318 Y84.678 E8.30285
G1 X89.508 Y84.213 E8.31955
G1 X89.894 Y83.424 E8.34877
G1 X90.171 Y82.951 E8.367
G1 X90.467 Y82.506 E8.38477
G1 X90.708 Y82.184 E8.39815
G1 X91.036 Y81.776 E8.41556
G0 F2618.2 X91.348 Y82.027
G1 F1200 X91.701 Y81.64 E8.43298
G1 X92.256 Y81.109 E8.45853
G1 X92.838 Y80.644 E8.48331
G1 X93.293 Y80.321 E8.50187
G1 X93.838 Y79.995 E8.52299
G1 X93.93 Y79.945 E8.52647
G1 X94.413 Y79.694 E8.54458
G1 X95.031 Y79.431 E8.56692
G1 X95.59 Y79.231 E8.58666
G1 X96.097 Y79.086 E8.6042
G1 X96.833 Y78.931 E8.62922
G1 X96.988 Y78.908 E8.63443
G1 X97.535 Y78.839 E8.65277
G1 X98.187 Y78.805 E8.67448
G1 X98.276 Y78.804 E8.67744
G1 X98.797 Y78.808 E8.69477
G1 X99.537 Y78.876 E8.71949
G1 X100.116 Y78.961 E8.73895
G1 X100.501 Y79.029 E8.75195
G1 X103.236 Y79.477 E8.84413
G1 X105.98 Y79.845 E8.93622
G1 X108.692 Y80.132 E9.02692
G1 X111.403 Y80.342 E9.11736
G1 X114.151 Y80.476 E9.20887
G1 X116.871 Y80.532 E9.29935
G1 X119.623 Y80.51 E9.39089
G1 X122.373 Y80.411 E9.48241
G1 X125.091 Y80.236 E9.573
G1 X127.791 Y79.986 E9.66319
G1 X130.533 Y79.653 E9.75506
G1 X134.623 Y79.008 E9.89277
G1 X135.222 Y78.909 E9.91297
G1 X135.811 Y78.835 E9.93271
G1 X136.528 Y78.805 E9.95658
G1 X137.057 Y78.811 E9.97417
G1 X137.757 Y78.875 E9.99755
G1 X138.323 Y78.959 E10.01659
G1 X138.813 Y79.064 E10.03325
G1 X139.338 Y79.208 E10.05136
G1 X139.704 Y79.332 E10.06421
G1 X140.221 Y79.528 E10.0826
G1 X140.889 Y79.847 E10.10722
G1 X141.362 Y80.106 E10.12516
G1 X141.964 Y80.501 E10.14911
G1 X142.432 Y80.847 E10.16846
G1 X142.909 Y81.262 E10.18949
G1 X142.986 Y81.334 E10.193
G1 X143.348 Y81.689 E10.20986
G1 X143.84 Y82.259 E10.23491
G1 X144.151 Y82.66 E10.25179
G1 X144.482 Y83.155 E10.27159
G1 X144.737 Y83.587 E10.28828
G1 X144.912 Y83.925 E10.30094
G1 X145.141 Y84.406 E10.31865
G1 X145.393 Y85.065 E10.34212
G1 X145.564 Y85.602 E10.36086
G1 X145.736 Y86.36 E10.38672
G1 X145.828 Y86.914 E10.4054
G1 X145.885 Y87.321 E10.41906
G1 X146.309 Y90.079 E10.51187
G1 X146.803 Y92.78 E10.6032
G1 X147.366 Y95.438 E10.69357
G1 X148.009 Y98.093 E10.78442
G1 X148.733 Y100.757 E10.87624
G1 X149.523 Y103.368 E10.96697
G1 X150.386 Y105.952 E11.05758
G1 X151.33 Y108.535 E11.14905
G1 X152.351 Y111.103 E11.24097
G1 X153.416 Y113.572 E11.3304
G1 X154.574 Y116.063 E11.42177
G1 X156.424 Y119.702 E11.55754
G1 X156.724 Y120.28 E11.5792
G1 X156.965 Y120.788 E11.5979
G1 X157.214 Y121.449 E11.6214
G1 X157.39 Y122.011 E11.64098
G1 X157.543 Y122.693 E11.66423
G1 X157.637 Y123.25 E11.68302
G1 X157.693 Y123.803 E11.70151
G1 X157.713 Y124.547 E11.72626
G1 X157.709 Y124.7 E11.73135
G1 X157.681 Y125.243 E11.74944
G1 X157.593 Y125.918 E11.77208
G1 X157.484 Y126.5 E11.79177
G1 X157.296 Y127.185 E11.8154
G1 X157.123 Y127.709 E11.83375
G1 X156.844 Y128.361 E11.85734
G1 X156.579 Y128.894 E11.87714
G1 X156.222 Y129.486 E11.90013
G1 X155.888 Y129.975 E11.91982
G1 X155.543 Y130.411 E11.93832
G1 X155.048 Y130.955 E11.96278
G1 X154.948 Y131.054 E11.96746
G1 X154.574 Y131.408 E11.98459
G1 X153.972 Y131.889 E12.01022
G1 X153.526 Y132.207 E12.02844
G1 X152.93 Y132.563 E12.05153
G1 X152.337 Y132.872 E12.07377
G1 X151.886 Y133.092 E12.09046
G1 X149.481 Y134.306 E12.18006
G1 X147.011 Y135.642 E12.27346
G1 X144.661 Y137.001 E12.36375
G1 X142.331 Y138.437 E12.45478
G1 X140.037 Y139.943 E12.54605
G1 X137.809 Y141.497 E12.6364
G1 X135.591 Y143.14 E12.72821
G1 X133.44 Y144.829 E12.81917
G1 X131.339 Y146.577 E12.91007
G1 X129.299 Y148.374 E13.00049
G1 X127.27 Y150.265 E13.09274
G1 X125.339 Y152.172 E13.18301
G1 X124.212 Y153.333 E13.23682
G1 X123.985 Y153.555 E13.24738
G1 X123.611 Y153.907 E13.26447
G1 X123.048 Y154.356 E13.28842
G1 X122.98 Y154.406 E13.29123
G1 X122.567 Y154.697 E13.30803
G1 X122.017 Y155.024 E13.32931
G1 X121.488 Y155.301 E13.34917
G1 X121.029 Y155.505 E13.36588
G1 X120.477 Y155.713 E13.3855
G1 X120.139 Y155.816 E13.39725
G1 X119.582 Y155.965 E13.41643
G1 X118.914 Y156.089 E13.43903
G1 X118.341 Y156.163 E13.45824
G1 X117.63 Y156.197 E13.48192
G1 X117.053 Y156.191 E13.50111
G1 X116.385 Y156.131 E13.52342
G1 X115.795 Y156.044 E13.54325
G1 X115.092 Y155.879 E13.56727
G1 X114.574 Y155.727 E13.58522
G1 X114.022 Y155.526 E13.60476
G1 X113.386 Y155.239 E13.62797
G1 X113.246 Y155.167 E13.63321
G1 X112.758 Y154.9 E13.65171
G1 X112.221 Y154.551 E13.67301
G1 X112.129 Y154.486 E13.67676
G1 X111.716 Y154.181 E13.69383
G1 X111.175 Y153.712 E13.71765
G1 X110.758 Y153.303 E13.73707
G1 X110.324 Y152.856 E13.7578
G1 X108.401 Y150.921 E13.84853
G1 X106.407 Y149.023 E13.94009
G1 X104.371 Y147.193 E14.03114
G1 X102.288 Y145.426 E14.12199
G1 X100.149 Y143.711 E14.21318
G1 X97.953 Y142.051 E14.30474
G1 X95.756 Y140.487 E14.39444
G1 X93.467 Y138.952 E14.4861
G1 X91.129 Y137.478 E14.57803
G1 X88.813 Y136.108 E14.66753
G1 X86.4 Y134.771 E14.75928
G1 X82.76 Y132.917 E14.89515
G1 X82.306 Y132.689 E14.91204
G1 X81.803 Y132.413 E14.93113
G1 X81.221 Y132.03 E14.9543
G1 X80.76 Y131.688 E14.97339
G1 X80.211 Y131.205 E14.99771
G1 X79.82 Y130.819 E15.01599
G1 X79.445 Y130.398 E15.03474
G1 X79.002 Y129.82 E15.05896
G1 X78.922 Y129.704 E15.06365
G1 X78.623 Y129.248 E15.08178
G1 X78.262 Y128.583 E15.10695
G1 X78.03 Y128.091 E15.12504
G1 X77.779 Y127.419 E15.1489
G1 X77.615 Y126.896 E15.16713
G1 X77.46 Y126.22 E15.1902
G1 X77.364 Y125.646 E15.20956
G1 X77.303 Y124.947 E15.23289
G1 X77.286 Y124.372 E15.25203
G1 X77.308 Y123.783 E15.27163
G1 X77.387 Y123.076 E15.29529
G1 X77.503 Y122.443 E15.31669
G1 X77.631 Y121.939 E15.33399
G1 X77.879 Y121.173 E15.36077
G1 X78.173 Y120.491 E15.38547
G1 X78.399 Y120.035 E15.4024
G1 X78.635 Y119.589 E15.41918
G1 X79.881 Y117.173 E15.50959
G1 X81.075 Y114.686 E15.60135
G1 X82.196 Y112.171 E15.69293
G1 X83.244 Y109.637 E15.78414
G1 X84.222 Y107.054 E15.876
G1 X85.105 Y104.513 E15.96547
G1 X85.927 Y101.912 E16.0562
G1 X86.681 Y99.27 E16.14758
G1 X87.359 Y96.614 E16.23875
G1 X87.97 Y93.907 E16.33105
G1 X88.49 Y91.236 E16.42156
G1 X88.933 Y88.579 E16.51115
G1 X89.181 Y86.855 E16.56908
G1 X89.337 Y85.996 E16.59812
G1 X89.525 Y85.319 E16.62149
G1 X89.697 Y84.806 E16.63948
G1 X89.992 Y84.123 E16.66423
G1 X90.252 Y83.604 E16.68354
G1 X90.507 Y83.168 E16.70034
G1 X90.788 Y82.744 E16.71725
G1 X91.02 Y82.435 E16.73011
G1 X91.348 Y82.027 E16.74752
G1 F1500 E11.24752
;MESH:star_x3.stl
G0 F2618.2 X103.162 Y95.199
G0 X103.965 Y96.201
G0 X104.824 Y97.035
;TYPE:WALL-INNER
G1 F1500 E16.74752
G1 F1200 X104.937 Y96.964 E16.75196
G1 X105.058 Y96.951 E16.756
G1 X105.087 Y96.96 E16.75701
G1 X105.283 Y97.023 E16.76386
G1 X105.467 Y97.12 E16.77078
G1 X105.75 Y97.269 E16.78142
G1 X105.492 Y97.457 E16.78752
G1 X105.102 Y97.741 E16.80357
G1 X104.843 Y97.93 E16.81423
G1 X104.79 Y97.614 E16.82035
G1 X104.752 Y97.396 E16.82771
G1 X104.761 Y97.172 E16.83517
G1 X104.762 Y97.141 E16.8362
G1 X104.824 Y97.035 E16.84029
G0 F2618.2 X105.61 Y109.382
G0 X105.41 Y110.643
G0 X97.578 Y120.276
G1 F1200 X97.677 Y120.58 E16.85092
G1 X97.829 Y121.041 E16.86707
G1 X97.929 Y121.346 E16.87774
G1 X97.612 Y121.3 E16.88386
G1 X97.404 Y121.27 E16.89085
G1 X97.186 Y121.19 E16.89857
G1 X97.159 Y121.181 E16.89952
G1 X97.071 Y121.084 E16.90387
G1 X97.038 Y120.957 E16.90824
G1 X97.063 Y120.84 E16.91222
G1 X97.079 Y120.817 E16.91315
G1 X97.213 Y120.632 E16.92075
G1 X97.349 Y120.499 E16.92707
G1 X97.578 Y120.276 E16.93319
G0 F2618.2 X106.573 Y123.782
G0 X109.055 Y124.154
G0 X110.195 Y124.734
G0 X116.941 Y135.157
G1 F1200 X117.26 Y135.157 E16.9438
G1 X117.261 Y135.157 E16.94383
G1 X117.74 Y135.157 E16.95976
G1 X117.741 Y135.157 E16.9598
G1 X118.061 Y135.157 E16.97044
G1 X117.919 Y135.444 E16.97657
G1 X117.82 Y135.645 E16.98403
G1 X117.688 Y135.813 E16.99113
G1 X117.667 Y135.839 E16.99224
G1 X117.547 Y135.891 E16.99659
G1 X117.418 Y135.884 E17.00089
G1 X117.32 Y135.829 E17.00463
G1 X117.3 Y135.802 E17.00575
G1 X117.172 Y135.626 E17.01298
G1 X117.082 Y135.444 E17.01974
G1 X116.941 Y135.157 E17.02585
G0 F2618.2 X123.082 Y127.619
G0 X124.172 Y125.442
G0 X125.075 Y124.537
G0 X126.255 Y124.09
G0 X128.342 Y123.793
G0 X137.422 Y120.278
G1 F1200 X137.65 Y120.501 E17.03646
G1 X137.794 Y120.641 E17.04314
G1 X137.928 Y120.838 E17.05107
G1 X137.944 Y120.862 E17.05203
G1 X137.958 Y120.991 E17.05634
G1 X137.909 Y121.114 E17.06075
G1 X137.821 Y121.194 E17.0647
G1 X137.794 Y121.203 E17.06565
G1 X137.597 Y121.267 E17.07254
G1 X137.389 Y121.297 E17.07953
G1 X137.072 Y121.343 E17.09018
G1 X137.172 Y121.039 E17.0963
G1 X137.323 Y120.581 E17.11234
G1 X137.422 Y120.278 E17.11843
G0 F2618.2 X130.067 Y111.463
G0 X129.486 Y110.323
G0 X129.425 Y109.068
G0 X129.799 Y106.918
G0 X129.25 Y97.269
G1 F1200 X129.533 Y97.121 E17.12906
G1 X129.739 Y97.013 E17.13679
G1 X129.938 Y96.957 E17.14367
G1 X129.967 Y96.949 E17.14467
G1 X130.094 Y96.976 E17.14899
G1 X130.194 Y97.058 E17.15329
G1 X130.243 Y97.167 E17.15726
G1 X130.243 Y97.198 E17.15829
G1 X130.245 Y97.425 E17.16584
G1 X130.212 Y97.615 E17.17226
G1 X130.158 Y97.931 E17.18292
G1 X129.899 Y97.742 E17.18904
G1 X129.508 Y97.457 E17.20514
G1 X129.25 Y97.269 E17.21124
G0 F2618.2 X129.336 Y98.774
G0 X127.2 Y111.245
G0 X136.259 Y120.077
G0 X123.495 Y122.647
G0 X117.894 Y133.99
G0 X116.711 Y134.757
G1 F1200 X118.371 Y134.757 E17.26646
G1 X123.068 Y125.242 E17.61939
G1 X123.252 Y124.87 E17.63319
G1 X123.405 Y124.559 E17.64472
G1 X124.004 Y123.347 E17.68968
G1 X125.277 Y123.162 E17.73247
G1 X125.347 Y123.152 E17.73482
G1 X126.061 Y123.048 E17.75882
G1 X136.595 Y121.515 E18.11287
G1 X136.62 Y121.439 E18.11553
G1 X137.113 Y119.937 E18.16811
G1 X137.137 Y119.862 E18.17073
G1 X129.538 Y112.456 E18.52365
G1 X129.238 Y112.164 E18.53758
G1 X128.998 Y111.93 E18.54873
