;FLAVOR:Marlin
;TIME:8373
;Filament used: 4.78789m, 0m
;Layer height: 0.2
;MINX:15.243
;MINY:31.72
;MINZ:0.3
;MAXX:219.757
;MAXY:203.28
;MAXZ:1.5
;POSTPROCESSED
;Generated with Cura_SteamEngine 4.8.0
T0
M140 S60
M105
M190 S60
M104 S200
M105
M109 S200
M82 ;absolute extrusion mode
M201 X500.00 Y500.00 Z100.00 E5000.00 	;Setup machine max acceleration
M203 X500.00 Y500.00 Z10.00 E50.00 	;Setup machine max feedrate
M204 P500.00 R1000.00 T500.00 		;Setup Print/Retract/Travel acceleration
M205 X8.00 Y8.00 Z0.40 E5.00 		;Setup Jerk
M220 S100 				;Reset Feedrate
M221 S100 				;Reset Flowrate
G28				;Home the Machine
#G29 				;Bed Level
G92 E0
M300 P150 S587
G92 E0
G1 F1500 E-5.5
;LAYER_COUNT:7
;LAYER:0
M107
G0 F2618.2 X78.439 Y80.714 Z0.3
;TYPE:SKIRT
G1 F1500 E0
G1 F1200 X78.952 Y80.271 E0.03382
G1 X80.144 Y79.267 E0.11157
G1 X82.192 Y77.439 E0.24853
G1 X84.159 Y75.583 E0.38345
G1 X86.118 Y73.624 E0.52167
G1 X87.973 Y71.662 E0.65637
G1 X89.787 Y69.63 E0.79227
G1 X91.54 Y67.552 E0.9279
G1 X94.064 Y64.339 E1.13175
G1 X94.423 Y63.871 E1.16117
G1 X94.833 Y63.4 E1.19233
G1 X95.232 Y62.995 E1.22069
G1 X95.769 Y62.519 E1.25649
G1 X96.376 Y62.064 E1.29434
G1 X96.847 Y61.763 E1.32223
G1 X97.474 Y61.417 E1.35796
G1 X98.164 Y61.107 E1.39569
G1 X98.653 Y60.93 E1.42164
G1 X99.367 Y60.721 E1.45876
G1 X100.123 Y60.57 E1.49722
G1 X100.683 Y60.499 E1.52538
G1 X101.343 Y60.457 E1.55837
G1 X101.695 Y60.457 E1.57594
G1 X103.102 Y60.499 E1.64616
G1 X105.887 Y60.545 E1.78513
G1 X108.616 Y60.512 E1.92129
G1 X111.311 Y60.404 E2.05585
G1 X114.072 Y60.215 E2.19392
G1 X116.751 Y59.955 E2.3282
G1 X119.463 Y59.614 E2.46457
G1 X122.165 Y59.196 E2.60098
G1 X124.859 Y58.702 E2.73762
G1 X127.479 Y58.145 E2.87125
G1 X130.158 Y57.493 E3.00881
G1 X132.792 Y56.774 E3.14503
G1 X135.391 Y55.985 E3.28054
G1 X138.007 Y55.109 E3.41817
G1 X140.542 Y54.181 E3.55285
G1 X143.071 Y53.171 E3.68872
G1 X145.575 Y52.09 E3.82478
G1 X148.037 Y50.942 E3.96031
G1 X150.497 Y49.709 E4.09759
G1 X152.907 Y48.416 E4.23404
G1 X155.253 Y47.069 E4.369
G1 X155.824 Y46.718 E4.40244
G1 X157.053 Y45.983 E4.47389
G1 X158.257 Y45.307 E4.54278
G1 X158.341 Y45.253 E4.54776
G1 X160.166 Y44.214 E4.65253
G1 X162.516 Y42.784 E4.78977
G1 X164.788 Y41.313 E4.92481
G1 X167.048 Y39.756 E5.06172
G1 X169.508 Y37.94 E5.21427
G1 X170.211 Y37.46 E5.25674
G1 X170.681 Y37.203 E5.28347
G1 X171.368 Y36.925 E5.32044
G1 X171.934 Y36.765 E5.34979
G1 X172.752 Y36.612 E5.3913
G1 X173.185 Y36.552 E5.41311
G1 X173.866 Y36.481 E5.44727
G1 X173.983 Y36.471 E5.45313
G1 X175.354 Y36.373 E5.5217
G1 X175.476 Y36.356 E5.52785
G1 X177.07 Y36.24 E5.60759
G1 X179.787 Y35.965 E5.74383
G1 X182.495 Y35.613 E5.88007
G1 X185.168 Y35.188 E6.0151
G1 X187.839 Y34.686 E6.15069
G1 X190.503 Y34.107 E6.2867
G1 X193.157 Y33.451 E6.42309
G1 X195.818 Y32.712 E6.56088
G1 X196.657 Y32.47 E6.60444
G1 X197.463 Y32.26 E6.64599
G1 X197.627 Y32.222 E6.65439
G1 X198.411 Y32.058 E6.69435
G1 X198.66 Y32.014 E6.70697
G1 X199.344 Y31.907 E6.74151
G1 X199.514 Y31.885 E6.75006
G1 X200.291 Y31.802 E6.78905
G1 X200.478 Y31.787 E6.79841
G1 X201.305 Y31.739 E6.83973
G1 X201.503 Y31.733 E6.84962
G1 X202.584 Y31.72 E6.90355
G1 X203.315 Y31.72 E6.94002
G1 X204.233 Y31.733 E6.98583
G1 X204.485 Y31.743 E6.99841
G1 X205.04 Y31.778 E7.02615
G1 X205.669 Y31.851 E7.05774
G1 X206.247 Y31.945 E7.08696
G1 X206.87 Y32.08 E7.11876
G1 X207.449 Y32.235 E7.14867
G1 X208.032 Y32.426 E7.17927
G1 X208.618 Y32.656 E7.21068
G1 X209.412 Y33.017 E7.25419
G1 X209.726 Y33.179 E7.27182
G1 X210.453 Y33.6 E7.31373
G1 X210.74 Y33.784 E7.33074
G1 X211.333 Y34.207 E7.36708
G1 X211.678 Y34.478 E7.38897
G1 X212.258 Y34.982 E7.42731
G1 X212.558 Y35.268 E7.44798
G1 X213.07 Y35.807 E7.48507
G1 X213.372 Y36.154 E7.50802
G1 X213.777 Y36.669 E7.54071
G1 X214.03 Y37.022 E7.56238
G1 X214.487 Y37.735 E7.60463
G1 X214.68 Y38.07 E7.62392
G1 X215.026 Y38.745 E7.66176
G1 X215.169 Y39.061 E7.67906
G1 X215.488 Y39.866 E7.72226
G1 X215.657 Y40.348 E7.74775
G1 X215.777 Y40.773 E7.76978
G1 X215.919 Y41.352 E7.79952
G1 X216.032 Y41.933 E7.82905
G1 X216.118 Y42.526 E7.85895
G1 X216.175 Y43.168 E7.8911
G1 X216.197 Y43.721 E7.91871
G1 X216.168 Y44.345 E7.94988
G1 X216.085 Y44.941 E7.9799
G1 X215.97 Y45.618 E8.01416
G1 X215.738 Y46.86 E8.07719
G1 X215.32 Y49.522 E8.21163
G1 X214.968 Y52.267 E8.3497
G1 X214.702 Y54.944 E8.48391
G1 X214.507 Y57.675 E8.62051
G1 X214.391 Y60.399 E8.75653
G1 X214.352 Y63.123 E8.89245
G1 X214.389 Y65.859 E9.02896
G1 X214.505 Y68.592 E9.16543
G1 X214.697 Y71.311 E9.30142
G1 X214.963 Y73.998 E9.43613
G1 X215.31 Y76.711 E9.57259
G1 X215.735 Y79.43 E9.70989
G1 X216.231 Y82.097 E9.84522
G1 X216.801 Y84.75 E9.9806
G1 X217.441 Y87.367 E10.11501
G1 X218.174 Y90.028 E10.25272
G1 X218.978 Y92.66 E10.39002
G1 X219.266 Y93.515 E10.43503
G1 X219.486 Y94.207 E10.47126
G1 X219.568 Y94.511 E10.48696
G1 X219.678 Y95.002 E10.51207
G1 X219.756 Y95.533 E10.53884
G1 X219.757 Y96.152 E10.56973
G1 X219.736 Y96.513 E10.58777
G1 X219.619 Y97.238 E10.6244
G1 X219.508 Y97.651 E10.64574
G1 X219.246 Y98.336 E10.68233
G1 X219.024 Y98.77 E10.70665
G1 X218.68 Y99.293 E10.73788
G1 X218.321 Y99.735 E10.76629
G1 X217.977 Y100.108 E10.7916
G1 X214.194 Y103.894 E11.05862
G1 X213.004 Y105.093 E11.1429
G1 X212.228 Y105.865 E11.19751
G1 X211.211 Y106.864 E11.26863
G1 X210.603 Y107.447 E11.31066
G1 X209.958 Y108.056 E11.35491
G1 X209.276 Y108.682 E11.4011
G1 X208.641 Y109.25 E11.4436
G1 X208.007 Y109.795 E11.48532
G1 X207.312 Y110.372 E11.53038
G1 X206.62 Y110.921 E11.57445
G1 X205.954 Y111.425 E11.61612
G1 X205.279 Y111.908 E11.65753
G1 X204.527 Y112.416 E11.7028
G1 X204.434 Y112.477 E11.70835
G1 X203.681 Y112.949 E11.75269
G1 X202.984 Y113.357 E11.79298
G1 X202.874 Y113.419 E11.79928
G1 X202.199 Y113.783 E11.83754
G1 X202.088 Y113.84 E11.84377
G1 X201.323 Y114.219 E11.88636
G1 X201.206 Y114.274 E11.89281
G1 X200.739 Y114.485 E11.91838
G1 X198.2 Y115.673 E12.05823
G1 X195.815 Y116.874 E12.19145
G1 X193.379 Y118.188 E12.32954
G1 X191.012 Y119.552 E12.46583
G1 X188.73 Y120.956 E12.59951
G1 X186.408 Y122.475 E12.73794
G1 X184.203 Y124.009 E12.87195
G1 X181.977 Y125.652 E13.00998
G1 X179.86 Y127.31 E13.14413
G1 X177.739 Y129.07 E13.28163
G1 X175.696 Y130.865 E13.41731
G1 X173.696 Y132.724 E13.55354
G1 X171.766 Y134.624 E13.68866
G1 X169.869 Y136.6 E13.82532
G1 X168.038 Y138.617 E13.96122
G1 X166.276 Y140.674 E14.09635
G1 X164.544 Y142.813 E14.23366
G1 X162.89 Y144.982 E14.36975
G1 X161.291 Y147.205 E14.50637
G1 X159.785 Y149.428 E14.64033
G1 X157.889 Y152.431 E14.81751
G1 X157.284 Y153.429 E14.87573
G1 X156.973 Y153.866 E14.90249
G1 X156.562 Y154.285 E14.93177
G1 X156.048 Y154.729 E14.96566
G1 X154.856 Y155.733 E15.04341
G1 X152.808 Y157.561 E15.18037
G1 X150.841 Y159.417 E15.31529
G1 X148.882 Y161.376 E15.45351
G1 X147.027 Y163.338 E15.58822
G1 X145.213 Y165.37 E15.72412
G1 X143.46 Y167.448 E15.85975
G1 X140.936 Y170.661 E16.06359
G1 X140.577 Y171.129 E16.09302
G1 X140.167 Y171.6 E16.12417
G1 X139.772 Y172.002 E16.15229
G1 X139.241 Y172.474 E16.18774
G1 X138.657 Y172.914 E16.22422
G1 X138.164 Y173.23 E16.25343
G1 X137.526 Y173.583 E16.28981
G1 X136.836 Y173.893 E16.32755
G1 X136.347 Y174.07 E16.35349
G1 X135.633 Y174.279 E16.39061
G1 X134.877 Y174.43 E16.42907
G1 X134.317 Y174.501 E16.45723
G1 X133.657 Y174.543 E16.49023
G1 X133.305 Y174.543 E16.50779
G1 X131.898 Y174.501 E16.57801
G1 X129.113 Y174.455 E16.71698
G1 X126.384 Y174.488 E16.85314
G1 X123.689 Y174.596 E16.9877
G1 X120.928 Y174.785 E17.12577
G1 X118.249 Y175.045 E17.26005
G1 X115.537 Y175.386 E17.39642
G1 X112.835 Y175.804 E17.53283
G1 X110.141 Y176.298 E17.66947
G1 X107.521 Y176.855 E17.80311
G1 X104.842 Y177.507 E17.94066
G1 X102.208 Y178.226 E18.07688
G1 X99.609 Y179.015 E18.21239
G1 X96.993 Y179.891 E18.35003
G1 X94.458 Y180.819 E18.48471
G1 X91.929 Y181.829 E18.62057
G1 X89.425 Y182.91 E18.75664
G1 X86.963 Y184.058 E18.89216
G1 X84.503 Y185.291 E19.02945
G1 X82.093 Y186.584 E19.16589
G1 X79.747 Y187.931 E19.30086
G1 X79.176 Y188.282 E19.3343
G1 X77.947 Y189.017 E19.40574
G1 X76.743 Y189.693 E19.47463
G1 X76.659 Y189.747 E19.47961
G1 X74.834 Y190.786 E19.58438
G1 X72.484 Y192.216 E19.72162
G1 X70.212 Y193.687 E19.85666
G1 X67.952 Y195.244 E19.99358
G1 X65.492 Y197.06 E20.14613
G1 X64.785 Y197.542 E20.18882
G1 X64.325 Y197.794 E20.21498
G1 X63.632 Y198.075 E20.25229
G1 X63.066 Y198.235 E20.28164
G1 X62.248 Y198.388 E20.32315
G1 X61.815 Y198.448 E20.34496
G1 X61.134 Y198.519 E20.37912
G1 X61.017 Y198.529 E20.38498
G1 X59.646 Y198.627 E20.45355
G1 X59.524 Y198.644 E20.4597
G1 X57.93 Y198.76 E20.53943
G1 X55.213 Y199.035 E20.67568
G1 X52.505 Y199.387 E20.81192
G1 X49.832 Y199.812 E20.94695
G1 X47.161 Y200.314 E21.08254
G1 X44.497 Y200.893 E21.21855
G1 X41.843 Y201.549 E21.35494
G1 X39.182 Y202.288 E21.49273
G1 X38.343 Y202.53 E21.53629
G1 X37.537 Y202.74 E21.57784
G1 X37.373 Y202.778 E21.58624
G1 X36.589 Y202.942 E21.6262
G1 X36.34 Y202.986 E21.63882
G1 X35.656 Y203.093 E21.67336
G1 X35.486 Y203.115 E21.68191
G1 X34.709 Y203.198 E21.7209
G1 X34.522 Y203.213 E21.73025
G1 X33.695 Y203.261 E21.77158
G1 X33.497 Y203.267 E21.78147
G1 X32.416 Y203.28 E21.8354
G1 X31.685 Y203.28 E21.87187
G1 X30.768 Y203.267 E21.91763
G1 X30.516 Y203.257 E21.93021
G1 X29.96 Y203.222 E21.958
G1 X29.331 Y203.149 E21.98959
G1 X28.753 Y203.055 E22.01881
G1 X28.124 Y202.918 E22.05092
G1 X27.545 Y202.762 E22.08084
G1 X26.967 Y202.574 E22.11116
G1 X26.379 Y202.343 E22.14268
G1 X25.584 Y201.981 E22.18626
G1 X25.271 Y201.82 E22.20382
G1 X24.546 Y201.4 E22.24563
G1 X24.26 Y201.216 E22.26259
G1 X23.667 Y200.793 E22.29893
G1 X23.321 Y200.522 E22.32086
G1 X22.742 Y200.019 E22.35912
G1 X22.442 Y199.732 E22.37984
G1 X21.93 Y199.193 E22.41693
G1 X21.628 Y198.846 E22.43988
G1 X21.223 Y198.331 E22.47256
G1 X20.968 Y197.976 E22.49437
G1 X20.512 Y197.264 E22.53655
G1 X20.319 Y196.928 E22.55588
G1 X19.973 Y196.253 E22.59373
G1 X19.83 Y195.936 E22.61108
G1 X19.512 Y195.133 E22.65416
G1 X19.343 Y194.647 E22.67984
G1 X19.22 Y194.216 E22.7022
G1 X19.077 Y193.63 E22.73229
G1 X18.968 Y193.064 E22.76105
G1 X18.882 Y192.468 E22.79109
G1 X18.825 Y191.832 E22.82295
G1 X18.803 Y191.279 E22.85056
G1 X18.832 Y190.655 E22.88172
G1 X18.915 Y190.059 E22.91174
G1 X19.03 Y189.382 E22.946
G1 X19.262 Y188.14 E23.00904
G1 X19.68 Y185.478 E23.14347
G1 X20.032 Y182.733 E23.28154
G1 X20.298 Y180.056 E23.41576
G1 X20.493 Y177.325 E23.55236
G1 X20.609 Y174.594 E23.68873
G1 X20.648 Y171.869 E23.82469
G1 X20.611 Y169.141 E23.96081
G1 X20.495 Y166.408 E24.09728
G1 X20.303 Y163.688 E24.23332
G1 X20.037 Y161.002 E24.36798
G1 X19.69 Y158.288 E24.50448
G1 X19.265 Y155.569 E24.64178
G1 X18.771 Y152.909 E24.77676
G1 X18.197 Y150.243 E24.91281
G1 X17.559 Y147.633 E25.04686
G1 X16.823 Y144.962 E25.18508
G1 X16.028 Y142.361 E25.32077
G1 X15.734 Y141.485 E25.36687
G1 X15.514 Y140.793 E25.4031
G1 X15.432 Y140.489 E25.41881
G1 X15.322 Y139.998 E25.44391
G1 X15.244 Y139.467 E25.47069
G1 X15.243 Y138.842 E25.50187
G1 X15.264 Y138.484 E25.51976
G1 X15.382 Y137.758 E25.55646
G1 X15.493 Y137.346 E25.57774
G1 X15.754 Y136.664 E25.61418
G1 X15.976 Y136.23 E25.6385
G1 X16.322 Y135.705 E25.66987
G1 X16.68 Y135.263 E25.69824
G1 X17.023 Y134.892 E25.72345
G1 X20.806 Y131.106 E25.99047
G1 X21.997 Y129.907 E26.07478
G1 X22.828 Y129.079 E26.13331
G1 X23.789 Y128.136 E26.20048
G1 X24.397 Y127.553 E26.2425
G1 X25.042 Y126.944 E26.28676
G1 X25.724 Y126.318 E26.33295
G1 X26.359 Y125.75 E26.37545
G1 X26.993 Y125.205 E26.41716
G1 X27.688 Y124.628 E26.46223
G1 X28.38 Y124.079 E26.5063
G1 X29.046 Y123.575 E26.54797
G1 X29.721 Y123.092 E26.58938
G1 X30.473 Y122.584 E26.63465
G1 X30.566 Y122.523 E26.6402
G1 X31.319 Y122.051 E26.68454
G1 X32.016 Y121.643 E26.72483
G1 X32.126 Y121.581 E26.73113
G1 X32.801 Y121.217 E26.76939
G1 X32.912 Y121.16 E26.77562
G1 X33.677 Y120.781 E26.81821
G1 X33.794 Y120.726 E26.82466
G1 X34.261 Y120.515 E26.85023
G1 X36.8 Y119.327 E26.99008
G1 X39.185 Y118.126 E27.1233
G1 X41.621 Y116.812 E27.26139
G1 X43.988 Y115.448 E27.39768
G1 X46.27 Y114.044 E27.53135
G1 X48.592 Y112.525 E27.66978
G1 X50.797 Y110.991 E27.80379
G1 X53.023 Y109.348 E27.94182
G1 X55.14 Y107.69 E28.07598
G1 X57.261 Y105.93 E28.21348
G1 X59.304 Y104.135 E28.34916
G1 X61.304 Y102.276 E28.48539
G1 X63.234 Y100.376 E28.6205
G1 X65.131 Y98.4 E28.75716
G1 X66.962 Y96.383 E28.89307
G1 X68.724 Y94.326 E29.0282
G1 X70.456 Y92.187 E29.16551
G1 X72.11 Y90.018 E29.3016
G1 X73.709 Y87.795 E29.43821
G1 X75.22 Y85.565 E29.5726
G1 X77.095 Y82.595 E29.74783
G1 X77.717 Y81.569 E29.80769
G1 X78.029 Y81.132 E29.83448
G1 X78.439 Y80.714 E29.86369
G0 F2618.2 X78.701 Y81.016
G1 F1200 X79.209 Y80.577 E29.89719
G1 X80.401 Y79.572 E29.97497
G1 X82.494 Y77.705 E30.1149
G1 X84.434 Y75.874 E30.24799
G1 X86.392 Y73.916 E30.38614
G1 X88.278 Y71.921 E30.5231
G1 X90.092 Y69.889 E30.659
G1 X91.852 Y67.804 E30.79512
G1 X94.373 Y64.594 E30.99876
G1 X94.736 Y64.121 E31.0285
G1 X95.133 Y63.664 E31.0587
G1 X95.501 Y63.291 E31.08485
G1 X96.016 Y62.833 E31.11923
G1 X96.611 Y62.388 E31.1563
G1 X97.055 Y62.105 E31.18257
G1 X97.642 Y61.78 E31.21604
G1 X98.322 Y61.474 E31.25324
G1 X98.865 Y61.282 E31.28198
G1 X99.456 Y61.111 E31.31267
G1 X100.195 Y60.963 E31.35027
G1 X100.713 Y60.898 E31.37632
G1 X101.347 Y60.857 E31.40802
G1 X101.683 Y60.856 E31.42478
G1 X103.119 Y60.899 E31.49645
G1 X105.885 Y60.945 E31.63447
G1 X108.636 Y60.912 E31.77173
G1 X111.321 Y60.804 E31.90579
G1 X114.099 Y60.614 E32.04471
G1 X116.806 Y60.351 E32.1804
G1 X119.537 Y60.008 E32.31772
G1 X122.227 Y59.592 E32.45352
G1 X124.908 Y59.1 E32.58951
G1 X127.592 Y58.529 E32.72641
G1 X130.244 Y57.884 E32.86257
G1 X132.908 Y57.157 E33.00034
G1 X135.529 Y56.362 E33.13699
G1 X138.103 Y55.5 E33.27241
G1 X140.679 Y54.556 E33.40929
G1 X143.229 Y53.538 E33.54627
G1 X145.766 Y52.443 E33.68413
G1 X148.221 Y51.298 E33.81928
G1 X150.673 Y50.07 E33.95609
G1 X153.089 Y48.772 E34.09292
G1 X155.456 Y47.414 E34.22907
G1 X156.03 Y47.062 E34.26266
G1 X157.335 Y46.282 E34.33851
G1 X158.485 Y45.636 E34.40431
G1 X158.538 Y45.6 E34.40751
G1 X160.406 Y44.536 E34.51476
G1 X162.693 Y43.144 E34.64834
G1 X165.051 Y41.618 E34.78846
G1 X167.263 Y40.095 E34.92245
G1 X169.743 Y38.264 E35.07624
G1 X170.407 Y37.809 E35.1164
G1 X170.868 Y37.556 E35.14264
G1 X171.479 Y37.309 E35.17552
G1 X172.028 Y37.153 E35.20399
G1 X172.817 Y37.006 E35.24403
G1 X173.226 Y36.95 E35.26463
G1 X173.907 Y36.879 E35.29879
G1 X174.011 Y36.87 E35.30399
G1 X175.423 Y36.769 E35.37462
G1 X175.505 Y36.755 E35.37877
G1 X177.103 Y36.639 E35.4587
G1 X179.842 Y36.361 E35.59605
G1 X182.538 Y36.011 E35.73169
G1 X185.239 Y35.581 E35.86814
G1 X187.926 Y35.077 E36.00453
G1 X190.578 Y34.5 E36.13994
G1 X193.288 Y33.831 E36.2792
G1 X195.914 Y33.102 E36.41516
G1 X196.07 Y33.054 E36.42331
G1 X196.848 Y32.832 E36.46367
G1 X197.563 Y32.647 E36.50052
G1 X197.709 Y32.613 E36.50799
G1 X198.483 Y32.452 E36.54744
G1 X198.721 Y32.409 E36.5595
G1 X199.405 Y32.302 E36.59404
G1 X199.557 Y32.282 E36.60169
G1 X200.253 Y32.207 E36.63662
G1 X200.502 Y32.187 E36.64908
G1 X201.32 Y32.139 E36.68996
G1 X201.508 Y32.133 E36.69934
G1 X202.589 Y32.12 E36.75328
G1 X203.309 Y32.12 E36.7892
G1 X204.308 Y32.135 E36.83904
G1 X204.459 Y32.142 E36.84659
G1 X205.014 Y32.177 E36.87433
G1 X205.605 Y32.245 E36.90401
G1 X206.183 Y32.339 E36.93323
G1 X206.767 Y32.467 E36.96305
G1 X207.346 Y32.622 E36.99296
G1 X207.89 Y32.8 E37.02151
G1 X208.452 Y33.02 E37.05162
G1 X209.246 Y33.381 E37.09514
G1 X209.526 Y33.525 E37.11085
G1 X210.253 Y33.946 E37.15276
G1 X210.507 Y34.11 E37.16784
G1 X211.178 Y34.59 E37.209
G1 X211.416 Y34.78 E37.2242
G1 X211.996 Y35.284 E37.26253
G1 X212.268 Y35.543 E37.28127
G1 X212.78 Y36.082 E37.31836
G1 X213.057 Y36.401 E37.33944
G1 X213.529 Y37.003 E37.3776
G1 X213.693 Y37.238 E37.3919
G1 X214.15 Y37.951 E37.43415
G1 X214.324 Y38.252 E37.45149
G1 X214.67 Y38.927 E37.48934
G1 X214.797 Y39.208 E37.50472
G1 X215.116 Y40.013 E37.54792
G1 X215.351 Y40.726 E37.58538
G1 X215.389 Y40.868 E37.59271
G1 X215.531 Y41.447 E37.62245
G1 X215.636 Y41.991 E37.65009
G1 X215.722 Y42.584 E37.67999
G1 X215.775 Y43.184 E37.71004
