;FLAVOR:Marlin
;TIME:8316
;Filament used: 4.47858m, 0m
;Layer height: 0.2
;MINX:22.446
;MINY:22.525
;MINZ:0.3
;MAXX:212.554
;MAXY:212.475
;MAXZ:1.5
;POSTPROCESSED
;Generated with Cura_SteamEngine 4.8.0
T0
M140 S60
M105
M190 S60
M104 S200
M105
M109 S200
M82 ;absolute extrusion mode
M201 X500.00 Y500.00 Z100.00 E5000.00 	;Setup machine max acceleration
M203 X500.00 Y500.00 Z10.00 E50.00 	;Setup machine max feedrate
M204 P500.00 R1000.00 T500.00 		;Setup Print/Retract/Travel acceleration
M205 X8.00 Y8.00 Z0.40 E5.00 		;Setup Jerk
M220 S100 				;Reset Feedrate
M221 S100 				;Reset Flowrate
G28				;Home the Machine
#G29 				;Bed Level
G92 E0
M300 P150 S587
G92 E0
G1 F1500 E-5.5
;LAYER_COUNT:7
;LAYER:0
M107
G0 F2618.2 X91.55 Y26.206 Z0.3
;TYPE:SKIRT
G1 F1500 E0
G1 F1200 X91.733 Y25.701 E0.0268
G1 X91.909 Y25.315 E0.04796
G1 X92.3 Y24.667 E0.08572
G1 X92.679 Y24.204 E0.11557
G1 X93.267 Y23.657 E0.15564
G1 X93.603 Y23.408 E0.1765
G1 X94.056 Y23.121 E0.20326
G1 X94.527 Y22.913 E0.22894
G1 X94.877 Y22.787 E0.2475
G1 X95.622 Y22.605 E0.28576
G1 X96.3 Y22.539 E0.31975
G1 X96.951 Y22.527 E0.35223
G1 X97.769 Y22.525 E0.39304
G1 X99.042 Y22.537 E0.45656
G1 X99.887 Y22.556 E0.49873
G1 X101.105 Y22.597 E0.55953
G1 X101.929 Y22.636 E0.60068
G1 X103.16 Y22.706 E0.6622
G1 X104.039 Y22.768 E0.70616
G1 X105.223 Y22.865 E0.76543
G1 X106.039 Y22.942 E0.80632
G1 X107.323 Y23.077 E0.87073
G1 X108.125 Y23.171 E0.91102
G1 X109.359 Y23.33 E0.97309
G1 X110.187 Y23.448 E1.01482
G1 X111.4 Y23.635 E1.07605
G1 X112.238 Y23.774 E1.11843
G1 X113.478 Y23.995 E1.18126
G1 X114.272 Y24.145 E1.22158
G1 X115.45 Y24.381 E1.28152
G1 X116.345 Y24.573 E1.32718
G1 X117.481 Y24.83 E1.38529
G1 X118.308 Y25.027 E1.42771
G1 X119.549 Y25.339 E1.49155
G1 X120.353 Y25.55 E1.53302
G1 X121.458 Y25.853 E1.59018
G1 X122.371 Y26.117 E1.6376
G1 X123.48 Y26.45 E1.69536
G1 X124.27 Y26.697 E1.73666
G1 X125.477 Y27.089 E1.79997
G1 X126.331 Y27.379 E1.84497
G1 X127.361 Y27.74 E1.89942
G1 X128.292 Y28.079 E1.94885
G1 X129.297 Y28.459 E2.00246
G1 X130.141 Y28.789 E2.04767
G1 X131.326 Y29.267 E2.11142
G1 X132.024 Y29.559 E2.14916
G1 X133.198 Y30.065 E2.21294
G1 X134.006 Y30.424 E2.25705
G1 X135.05 Y30.903 E2.31436
G1 X135.752 Y31.235 E2.3531
G1 X138.284 Y32.387 E2.49188
G1 X140.79 Y33.442 E2.62754
G1 X143.359 Y34.443 E2.76509
G1 X145.92 Y35.351 E2.90065
G1 X148.486 Y36.184 E3.03525
G1 X151.131 Y36.961 E3.17278
G1 X153.727 Y37.644 E3.3067
G1 X156.426 Y38.274 E3.44498
G1 X159.086 Y38.816 E3.58041
G1 X161.741 Y39.276 E3.71484
G1 X164.507 Y39.678 E3.85429
G1 X166.034 Y39.865 E3.93104
G1 X166.932 Y39.967 E3.97613
G1 X167.459 Y40.067 E4.00289
G1 X168.103 Y40.297 E4.03701
G1 X168.59 Y40.525 E4.06384
G1 X168.899 Y40.691 E4.08134
G1 X171.374 Y41.984 E4.22065
G1 X173.806 Y43.169 E4.35562
G1 X176.285 Y44.291 E4.49138
G1 X178.831 Y45.358 E4.6291
G1 X181.352 Y46.328 E4.76386
G1 X183.918 Y47.236 E4.89966
G1 X186.544 Y48.082 E5.0373
G1 X189.139 Y48.838 E5.17215
G1 X191.78 Y49.527 E5.30832
G1 X194.437 Y50.142 E5.44438
G1 X197.105 Y50.677 E5.58014
G1 X199.807 Y51.141 E5.71692
G1 X201.555 Y51.4 E5.80508
G1 X202.041 Y51.468 E5.82956
G1 X202.546 Y51.576 E5.85532
G1 X202.963 Y51.697 E5.87698
G1 X203.466 Y51.884 E5.90376
G1 X203.956 Y52.153 E5.93165
G1 X204.131 Y52.263 E5.94196
G1 X204.562 Y52.582 E5.96871
G1 X205.066 Y53.077 E6.00395
G1 X205.411 Y53.487 E6.03069
G1 X205.702 Y53.962 E6.05848
G1 X205.901 Y54.376 E6.08139
G1 X206.09 Y54.878 E6.10816
G1 X206.201 Y55.38 E6.13381
G1 X206.259 Y55.833 E6.15659
G1 X206.281 Y56.355 E6.18266
G1 X206.244 Y57.62 E6.24579
G1 X206.202 Y60.393 E6.38416
G1 X206.237 Y63.132 E6.52082
G1 X206.35 Y65.862 E6.65713
G1 X206.537 Y68.544 E6.79126
G1 X206.806 Y71.276 E6.92822
G1 X207.151 Y74.007 E7.06556
G1 X207.567 Y76.679 E7.20047
G1 X208.062 Y79.355 E7.33624
G1 X208.635 Y82.029 E7.47267
G1 X209.27 Y84.64 E7.60673
G1 X210.004 Y87.312 E7.74498
G1 X210.802 Y89.933 E7.88167
G1 X211.656 Y92.473 E8.01536
G1 X212.016 Y93.455 E8.06754
G1 X212.247 Y94.113 E8.10233
G1 X212.449 Y94.855 E8.1407
G1 X212.541 Y95.383 E8.16744
G1 X212.554 Y95.897 E8.19309
G1 X212.536 Y96.295 E8.21297
G1 X212.472 Y96.827 E8.2397
G1 X212.333 Y97.338 E8.26612
G1 X212.217 Y97.665 E8.28343
G1 X211.996 Y98.154 E8.3102
G1 X211.629 Y98.733 E8.3444
G1 X211.302 Y99.157 E8.37112
G1 X210.921 Y99.523 E8.39747
G1 X210.287 Y100.01 E8.43736
G1 X209.965 Y100.196 E8.45591
G1 X208.832 Y100.773 E8.51934
G1 X206.362 Y102.075 E8.65864
G1 X203.996 Y103.41 E8.79418
G1 X201.684 Y104.802 E8.92882
G1 X199.363 Y106.288 E9.06631
G1 X197.098 Y107.832 E9.20307
G1 X194.905 Y109.419 E9.33812
G1 X192.742 Y111.081 E9.47421
G1 X190.626 Y112.802 E9.61029
G1 X188.59 Y114.559 E9.74446
G1 X186.555 Y116.414 E9.88184
G1 X184.562 Y118.339 E10.02007
G1 X182.69 Y120.252 E10.15361
G1 X180.828 Y122.264 E10.29038
G1 X179.049 Y124.302 E10.42534
G1 X177.294 Y126.431 E10.56299
G1 X175.627 Y128.572 E10.69837
G1 X174.012 Y130.773 E10.83457
G1 X172.475 Y132.996 E10.9694
G1 X170.98 Y135.295 E11.10622
G1 X169.541 Y137.651 E11.24395
G1 X168.206 Y139.984 E11.37805
G1 X166.913 Y142.398 E11.51467
G1 X165.705 Y144.815 E11.64948
G1 X164.547 Y147.307 E11.78657
G1 X163.473 Y149.8 E11.922
G1 X162.46 Y152.345 E12.05866
G1 X161.519 Y154.921 E12.19548
G1 X160.664 Y157.486 E12.33037
G1 X159.871 Y160.106 E12.46694
G1 X159.568 Y161.237 E12.52536
G1 X159.515 Y161.389 E12.53339
G1 X159.184 Y162.591 E12.59559
G1 X159.003 Y163.096 E12.62235
G1 X158.778 Y163.523 E12.64643
G1 X158.435 Y164.079 E12.67903
G1 X157.648 Y165.317 E12.75221
G1 X156.244 Y167.67 E12.88891
G1 X154.933 Y170.014 E13.02291
G1 X153.651 Y172.468 E13.16104
G1 X152.473 Y174.886 E13.29522
G1 X151.344 Y177.38 E13.43181
G1 X150.267 Y179.95 E13.57083
G1 X149.303 Y182.452 E13.7046
G1 X148.393 Y185.023 E13.84066
G1 X147.564 Y187.595 E13.97548
G1 X146.871 Y189.96 E14.09843
G1 X146.836 Y190.085 E14.10491
G1 X146.136 Y192.731 E14.24146
G1 X145.508 Y195.4 E14.37825
G1 X144.973 Y198.023 E14.51181
G1 X144.497 Y200.737 E14.64928
G1 X144.104 Y203.421 E14.78461
G1 X143.704 Y206.936 E14.96111
G1 X143.638 Y207.629 E14.99584
G1 X143.625 Y207.745 E15.00166
G1 X143.558 Y208.268 E15.02797
G1 X143.45 Y208.794 E15.05476
G1 X143.28 Y209.269 E15.07993
G1 X143.088 Y209.69 E15.10301
G1 X142.7 Y210.333 E15.14048
G1 X142.321 Y210.796 E15.17033
G1 X141.733 Y211.343 E15.2104
G1 X141.397 Y211.592 E15.23126
G1 X140.944 Y211.879 E15.25801
G1 X140.473 Y212.087 E15.2837
G1 X140.123 Y212.213 E15.30226
G1 X139.378 Y212.395 E15.34052
G1 X138.7 Y212.461 E15.37451
G1 X138.049 Y212.473 E15.40699
G1 X137.231 Y212.475 E15.4478
G1 X135.958 Y212.463 E15.51131
G1 X135.113 Y212.444 E15.55348
G1 X133.896 Y212.403 E15.61423
G1 X133.072 Y212.364 E15.65539
G1 X131.842 Y212.294 E15.71685
G1 X130.962 Y212.232 E15.76087
G1 X129.776 Y212.135 E15.82023
G1 X128.961 Y212.058 E15.86107
G1 X127.677 Y211.923 E15.92549
G1 X126.873 Y211.829 E15.96587
G1 X125.642 Y211.67 E16.0278
G1 X124.812 Y211.552 E16.06962
G1 X123.6 Y211.365 E16.1308
G1 X122.762 Y211.226 E16.17318
G1 X121.52 Y211.005 E16.23612
G1 X120.728 Y210.855 E16.27634
G1 X119.548 Y210.618 E16.33638
G1 X118.655 Y210.427 E16.38194
G1 X117.516 Y210.169 E16.44021
G1 X116.683 Y209.97 E16.48293
G1 X115.45 Y209.66 E16.54636
G1 X114.646 Y209.449 E16.58783
G1 X113.543 Y209.146 E16.6449
G1 X112.631 Y208.884 E16.69224
G1 X111.52 Y208.55 E16.75012
G1 X110.73 Y208.303 E16.79141
G1 X109.522 Y207.91 E16.85479
G1 X108.67 Y207.621 E16.89968
G1 X107.64 Y207.26 E16.95413
G1 X106.71 Y206.921 E17.00351
G1 X105.703 Y206.541 E17.05721
G1 X104.861 Y206.212 E17.10231
G1 X103.672 Y205.733 E17.16626
G1 X102.976 Y205.442 E17.2039
G1 X101.803 Y204.936 E17.26763
G1 X100.994 Y204.576 E17.31181
G1 X99.95 Y204.097 E17.36912
G1 X99.248 Y203.765 E17.40786
G1 X96.698 Y202.605 E17.54762
G1 X94.186 Y201.546 E17.68363
G1 X91.668 Y200.57 E17.81836
G1 X89.097 Y199.654 E17.95452
G1 X86.505 Y198.813 E18.09048
G1 X83.878 Y198.042 E18.22706
G1 X81.281 Y197.358 E18.36105
G1 X78.551 Y196.72 E18.50092
G1 X75.945 Y196.192 E18.63357
G1 X73.244 Y195.722 E18.77035
G1 X70.493 Y195.322 E18.90904
G1 X68.966 Y195.135 E18.9858
G1 X68.067 Y195.033 E19.03093
G1 X67.54 Y194.933 E19.0577
G1 X66.897 Y194.703 E19.09177
G1 X66.41 Y194.475 E19.11859
G1 X66.101 Y194.309 E19.13609
G1 X63.626 Y193.016 E19.27541
G1 X61.194 Y191.831 E19.41038
G1 X58.715 Y190.709 E19.54613
G1 X56.169 Y189.642 E19.68386
G1 X53.648 Y188.672 E19.81862
G1 X51.082 Y187.764 E19.95441
G1 X48.456 Y186.918 E20.09206
G1 X45.861 Y186.162 E20.2269
G1 X43.22 Y185.473 E20.36307
G1 X40.563 Y184.858 E20.49914
G1 X37.895 Y184.323 E20.63489
G1 X35.193 Y183.859 E20.77167
G1 X33.445 Y183.6 E20.85983
G1 X32.959 Y183.532 E20.88431
G1 X32.454 Y183.424 E20.91008
G1 X32.037 Y183.303 E20.93174
G1 X31.534 Y183.116 E20.95851
G1 X31.044 Y182.847 E20.9864
G1 X30.869 Y182.737 E20.99671
G1 X30.438 Y182.418 E21.02346
G1 X29.935 Y181.924 E21.05864
G1 X29.59 Y181.514 E21.08537
G1 X29.306 Y181.053 E21.11238
G1 X29.103 Y180.635 E21.13557
G1 X28.912 Y180.134 E21.16232
G1 X28.791 Y179.567 E21.19124
G1 X28.741 Y179.162 E21.2116
G1 X28.719 Y178.643 E21.23752
G1 X28.756 Y177.38 E21.30056
G1 X28.798 Y174.599 E21.43932
G1 X28.763 Y171.868 E21.57558
G1 X28.649 Y169.136 E21.712
G1 X28.463 Y166.457 E21.84597
G1 X28.194 Y163.724 E21.98298
G1 X27.849 Y160.992 E22.12037
G1 X27.433 Y158.321 E22.25523
G1 X26.938 Y155.644 E22.39105
G1 X26.365 Y152.971 E22.52743
G1 X25.73 Y150.36 E22.6615
G1 X24.993 Y147.678 E22.80026
G1 X24.201 Y145.075 E22.936
G1 X23.345 Y142.527 E23.07011
G1 X22.984 Y141.544 E23.12235
G1 X22.753 Y140.885 E23.15719
G1 X22.551 Y140.144 E23.19551
G1 X22.459 Y139.616 E23.22225
G1 X22.446 Y139.102 E23.2479
G1 X22.464 Y138.705 E23.26772
G1 X22.528 Y138.173 E23.29446
G1 X22.663 Y137.671 E23.32039
G1 X22.785 Y137.329 E23.33851
G1 X23.007 Y136.841 E23.36525
G1 X23.371 Y136.267 E23.39916
G1 X23.698 Y135.843 E23.42588
G1 X24.079 Y135.477 E23.45224
G1 X24.713 Y134.99 E23.49212
G1 X25.035 Y134.804 E23.51067
G1 X26.172 Y134.225 E23.57433
G1 X28.638 Y132.925 E23.71341
G1 X31.004 Y131.59 E23.84894
G1 X33.316 Y130.198 E23.98358
G1 X35.637 Y128.712 E24.12107
G1 X37.902 Y127.168 E24.25783
G1 X40.095 Y125.581 E24.39289
G1 X42.258 Y123.919 E24.52898
G1 X44.374 Y122.198 E24.66505
G1 X46.41 Y120.441 E24.79922
G1 X48.445 Y118.586 E24.9366
G1 X50.438 Y116.661 E25.07484
G1 X52.31 Y114.748 E25.20837
G1 X54.172 Y112.736 E25.34514
G1 X55.951 Y110.698 E25.4801
G1 X57.706 Y108.569 E25.61776
G1 X59.373 Y106.428 E25.75313
G1 X60.988 Y104.227 E25.88933
G1 X62.525 Y102.004 E26.02416
G1 X64.02 Y99.705 E26.16098
G1 X65.465 Y97.338 E26.29933
G1 X66.794 Y95.016 E26.43281
G1 X68.087 Y92.602 E26.56944
G1 X69.295 Y90.185 E26.70424
G1 X70.453 Y87.693 E26.84134
G1 X71.527 Y85.2 E26.97676
G1 X72.54 Y82.655 E27.11342
G1 X73.481 Y80.079 E27.25025
G1 X74.336 Y77.514 E27.38514
G1 X75.129 Y74.894 E27.5217
G1 X75.432 Y73.763 E27.58012
G1 X75.485 Y73.611 E27.58815
G1 X75.816 Y72.409 E27.65035
G1 X75.997 Y71.904 E27.67712
G1 X76.222 Y71.477 E27.70119
G1 X76.565 Y70.921 E27.73379
G1 X77.352 Y69.683 E27.80698
G1 X78.756 Y67.33 E27.94368
G1 X80.067 Y64.986 E28.07767
G1 X81.349 Y62.532 E28.2158
G1 X82.527 Y60.114 E28.34999
G1 X83.66 Y57.61 E28.4871
G1 X84.733 Y55.05 E28.62559
G1 X85.697 Y52.548 E28.75936
G1 X86.607 Y49.977 E28.89542
G1 X87.436 Y47.405 E29.03024
G1 X88.129 Y45.04 E29.15319
G1 X88.164 Y44.915 E29.15967
G1 X88.864 Y42.269 E29.29622
G1 X89.492 Y39.6 E29.43301
G1 X90.028 Y36.97 E29.56692
G1 X90.503 Y34.263 E29.70404
G1 X90.896 Y31.579 E29.83937
G1 X91.297 Y28.059 E30.01612
G1 X91.362 Y27.371 E30.0506
G1 X91.375 Y27.255 E30.05642
G1 X91.442 Y26.731 E30.08278
G1 X91.55 Y26.206 E30.10952
G0 F2618.2 X91.942 Y26.287
G1 F1200 X92.154 Y25.737 E30.13893
G1 X92.272 Y25.484 E30.15285
G1 X92.619 Y24.908 E30.1864
G1 X92.982 Y24.464 E30.21501
G1 X93.505 Y23.978 E30.25063
G1 X93.841 Y23.729 E30.2715
G1 X94.269 Y23.461 E30.29669
G1 X95.012 Y23.163 E30.33663
G1 X95.675 Y23.002 E30.37067
G1 X96.308 Y22.939 E30.40241
G1 X96.952 Y22.927 E30.43454
G1 X97.766 Y22.925 E30.47515
G1 X99.034 Y22.937 E30.53841
G1 X99.874 Y22.956 E30.58033
G1 X101.086 Y22.997 E30.64083
G1 X101.906 Y23.035 E30.68179
G1 X103.131 Y23.105 E30.743
G1 X104.006 Y23.167 E30.78677
G1 X105.185 Y23.263 E30.84578
G1 X105.997 Y23.339 E30.88647
G1 X107.276 Y23.474 E30.95063
G1 X108.074 Y23.568 E30.99072
G1 X109.303 Y23.727 E31.05255
G1 X110.126 Y23.843 E31.09401
G1 X111.335 Y24.029 E31.15504
G1 X112.168 Y24.168 E31.19717
G1 X113.404 Y24.388 E31.25981
G1 X114.194 Y24.537 E31.29991
G1 X115.366 Y24.773 E31.35956
G1 X116.256 Y24.963 E31.40496
G1 X117.388 Y25.219 E31.46286
G1 X118.21 Y25.415 E31.50502
G1 X119.447 Y25.726 E31.56866
G1 X120.247 Y25.936 E31.60992
G1 X121.347 Y26.238 E31.66683
G1 X122.256 Y26.5 E31.71403
G1 X123.361 Y26.832 E31.77159
G1 X124.146 Y27.077 E31.81262
G1 X125.348 Y27.468 E31.87568
G1 X126.198 Y27.756 E31.92046
G1 X127.225 Y28.116 E31.97475
G1 X128.151 Y28.453 E32.02391
G1 X129.152 Y28.832 E32.07731
G1 X129.991 Y29.159 E32.12224
G1 X131.172 Y29.636 E32.18578
G1 X131.866 Y29.926 E32.22331
G1 X133.036 Y30.43 E32.28686
G1 X133.839 Y30.788 E32.33073
G1 X134.879 Y31.265 E32.38781
G1 X135.586 Y31.599 E32.42682
G1 X138.129 Y32.756 E32.5662
G1 X140.638 Y33.813 E32.70203
G1 X143.217 Y34.817 E32.84011
G1 X145.778 Y35.725 E32.97567
G1 X148.387 Y36.572 E33.11252
G1 X150.989 Y37.336 E33.24781
G1 X153.673 Y38.043 E33.38629
G1 X156.327 Y38.662 E33.52225
G1 X159.003 Y39.207 E33.6585
G1 X161.693 Y39.674 E33.79471
G1 X164.439 Y40.073 E33.93314
G1 X165.989 Y40.262 E34.01105
G1 X166.887 Y40.364 E34.05614
G1 X167.383 Y40.461 E34.08135
G1 X167.941 Y40.662 E34.11094
G1 X168.401 Y40.877 E34.13627
G1 X168.738 Y41.059 E34.15538
G1 X171.164 Y42.326 E34.29193
G1 X173.631 Y43.529 E34.42886
G1 X176.158 Y44.671 E34.56721
G1 X178.698 Y45.736 E34.70462
G1 X181.173 Y46.689 E34.83693
G1 X183.809 Y47.622 E34.97644
G1 X186.414 Y48.461 E35.11298
G1 X189.031 Y49.224 E35.24898
G1 X191.661 Y49.909 E35.38457
G1 X194.366 Y50.535 E35.52308
G1 X197.037 Y51.071 E35.659
G1 X199.768 Y51.54 E35.79724
G1 X201.469 Y51.792 E35.88303
G1 X201.985 Y51.864 E35.90903
G1 X202.852 Y52.081 E35.95361
G1 X203.325 Y52.26 E35.97885
G1 X203.918 Y52.602 E36.013
G1 X204.502 Y53.073 E36.05043
G1 X204.78 Y53.357 E36.07026
G1 X205.104 Y53.745 E36.09547
G1 X205.438 Y54.326 E36.12891
G1 X205.539 Y54.544 E36.1409
G1 X205.714 Y55.018 E36.1661
G1 X205.833 Y55.629 E36.19716
G1 X205.882 Y56.343 E36.23287
G1 X205.843 Y57.66 E36.2986
G1 X205.802 Y60.393 E36.43496
G1 X205.838 Y63.154 E36.57272
G1 X205.95 Y65.87 E36.70834
G1 X206.138 Y68.578 E36.84377
G1 X206.409 Y71.325 E36.98148
G1 X206.754 Y74.052 E37.11862
G1 X207.171 Y76.736 E37.25413
G1 X207.672 Y79.446 E37.39162
G1 X208.247 Y82.128 E37.52847
G1 X208.884 Y84.743 E37.66275
G1 X209.621 Y87.43 E37.80175
G1 X210.416 Y90.041 E37.93792
G1 X211.284 Y92.622 E38.07377
G1 X211.638 Y93.587 E38.12505
G1 X211.869 Y94.245 E38.15985
G1 X212.061 Y94.953 E38.19644
G1 X212.145 Y95.451 E38.22164
G1 X212.137 Y96.277 E38.26285
G1 X212.074 Y96.778 E38.28804
G1 X211.914 Y97.328 E38.31662
G1 X211.841 Y97.528 E38.32724
G1 X211.507 Y98.193 E38.36437
G1 X211.296 Y98.513 E38.38349
G1 X210.985 Y98.911 E38.40869
G1 X210.403 Y99.433 E38.4477
G1 X209.783 Y99.839 E38.48467
G1 X208.645 Y100.419 E38.54839
G1 X206.173 Y101.722 E38.68781
G1 X203.799 Y103.061 E38.82379
G1 X201.467 Y104.465 E38.95959
G1 X199.128 Y105.963 E39.09816
G1 X196.884 Y107.493 E39.23366
G1 X194.672 Y109.094 E39.36989
G1 X192.509 Y110.756 E39.50598
G1 X190.379 Y112.488 E39.64295
G1 X188.303 Y114.28 E39.77977
G1 X186.273 Y116.129 E39.91676
G1 X184.316 Y118.019 E40.05249
G1 X182.377 Y120.002 E40.19086
G1 X180.532 Y121.995 E40.32636
G1 X178.738 Y124.051 E40.46249
G1 X176.989 Y126.172 E40.59964
G1 X175.305 Y128.335 E40.73641
G1 X173.689 Y130.538 E40.87271
G1 X172.127 Y132.797 E41.00973
G1 X170.635 Y135.089 E41.14617
G1 X169.211 Y137.423 E41.28258
G1 X167.874 Y139.759 E41.41686
G1 X166.553 Y142.224 E41.55639
G1 X165.335 Y144.661 E41.69231
G1 X164.174 Y147.16 E41.82978
G1 X163.105 Y149.643 E41.96465
G1 X162.088 Y152.197 E42.1018
G1 X161.151 Y154.763 E42.23809
G1 X160.274 Y157.391 E42.37631
