;FLAVOR:Marlin
;TIME:7740
;Filament used: 4.12817m, 0m
;Layer height: 0.2
;MINX:43.471
;MINY:57.949
;MINZ:0.3
;MAXX:182.738
;MAXY:188.838
;MAXZ:1.5
;POSTPROCESSED
;Generated with Cura_SteamEngine 4.8.0
T0
M140 S60
M105
M190 S60
M104 S200
M105
M109 S200
M82 ;absolute extrusion mode
M201 X500.00 Y500.00 Z100.00 E5000.00 	;Setup machine max acceleration
M203 X500.00 Y500.00 Z10.00 E50.00 	;Setup machine max feedrate
M204 P500.00 R1000.00 T500.00 		;Setup Print/Retract/Travel acceleration
M205 X8.00 Y8.00 Z0.40 E5.00 		;Setup Jerk
M220 S100 				;Reset Feedrate
M221 S100 				;Reset Flowrate
G28				;Home the Machine
#G29 				;Bed Level
G92 E0
M300 P150 S587
G92 E0
G1 F1500 E-5.5
;LAYER_COUNT:7
;LAYER:0
M107
G0 F2618.2 X61.471 Y64.712 Z0.3
;TYPE:SKIRT
G1 F1500 E0
G1 F1200 X61.847 Y64.356 E0.02583
G1 X62.476 Y63.831 E0.06671
G1 X62.935 Y63.492 E0.09518
G1 X63.362 Y63.201 E0.12096
G1 X63.839 Y62.91 E0.14883
G1 X64.368 Y62.613 E0.1791
G1 X64.875 Y62.362 E0.20732
G1 X64.999 Y62.306 E0.21411
G1 X65.928 Y61.911 E0.26448
G1 X66.047 Y61.863 E0.27088
G1 X67.483 Y61.312 E0.34761
G1 X67.712 Y61.215 E0.36002
G1 X68.648 Y60.862 E0.40993
G1 X70.241 Y60.233 E0.49537
G1 X71.04 Y59.926 E0.53808
G1 X71.763 Y59.66 E0.57651
G1 X72.7 Y59.338 E0.62594
G1 X73.631 Y59.046 E0.67462
G1 X73.752 Y59.01 E0.68092
G1 X74.943 Y58.683 E0.74254
G1 X75.402 Y58.573 E0.76609
G1 X76.487 Y58.348 E0.82137
G1 X76.611 Y58.325 E0.82766
G1 X77.293 Y58.21 E0.86217
G1 X78.135 Y58.094 E0.90457
G1 X78.447 Y58.06 E0.92023
G1 X79.028 Y58.01 E0.94932
G1 X79.645 Y57.974 E0.98016
G1 X80.354 Y57.952 E1.01554
G1 X80.937 Y57.949 E1.04463
G1 X81.5 Y57.961 E1.07273
G1 X81.608 Y57.965 E1.07812
G1 X82.265 Y58 E1.11094
G1 X82.957 Y58.055 E1.14557
G1 X83.059 Y58.064 E1.15068
G1 X83.607 Y58.124 E1.17819
G1 X84.301 Y58.218 E1.21313
G1 X84.869 Y58.311 E1.24184
G1 X85.605 Y58.45 E1.27921
G1 X86.086 Y58.554 E1.30376
G1 X86.728 Y58.707 E1.33669
G1 X87.265 Y58.852 E1.36444
G1 X87.955 Y59.055 E1.40032
G1 X88.281 Y59.16 E1.41741
G1 X89.803 Y59.687 E1.49776
G1 X92.445 Y60.562 E1.63662
G1 X95.063 Y61.346 E1.77296
G1 X97.691 Y62.054 E1.90874
G1 X100.354 Y62.692 E2.04536
G1 X103.005 Y63.245 E2.18047
G1 X105.677 Y63.726 E2.31592
G1 X108.41 Y64.139 E2.45382
G1 X111.084 Y64.465 E2.58821
G1 X113.809 Y64.721 E2.72476
G1 X116.498 Y64.896 E2.8592
G1 X119.259 Y64.998 E2.99704
G1 X121.991 Y65.02 E3.13334
G1 X124.687 Y64.966 E3.26787
G1 X127.447 Y64.833 E3.40573
G1 X130.139 Y64.627 E3.54043
G1 X132.854 Y64.342 E3.67662
G1 X135.553 Y63.981 E3.81248
G1 X138.229 Y63.545 E3.94774
G1 X140.973 Y63.02 E4.08713
G1 X141.601 Y62.913 E4.11891
G1 X142.445 Y62.794 E4.16143
G1 X142.849 Y62.749 E4.18171
G1 X143.513 Y62.693 E4.21496
G1 X144.05 Y62.662 E4.24179
G1 X144.687 Y62.641 E4.27359
G1 X144.786 Y62.639 E4.27853
G1 X145.487 Y62.638 E4.3135
G1 X146.02 Y62.652 E4.3401
G1 X146.751 Y62.692 E4.37663
G1 X147.571 Y62.761 E4.41768
G1 X148.013 Y62.811 E4.43987
G1 X148.684 Y62.902 E4.47366
G1 X149.445 Y63.026 E4.51212
G1 X149.891 Y63.111 E4.53478
G1 X150.611 Y63.266 E4.57152
G1 X151.08 Y63.379 E4.59559
G1 X151.753 Y63.56 E4.63036
G1 X152.363 Y63.74 E4.66209
G1 X152.694 Y63.847 E4.67944
G1 X153.491 Y64.124 E4.72154
G1 X154.616 Y64.558 E4.7817
G1 X154.737 Y64.607 E4.78821
G1 X155.758 Y65.044 E4.84362
G1 X155.861 Y65.09 E4.84924
G1 X156.72 Y65.49 E4.89652
G1 X157.621 Y65.935 E4.94665
G1 X158.412 Y66.342 E4.99103
G1 X159.225 Y66.772 E5.03692
G1 X161.403 Y67.944 E5.16031
G1 X162.205 Y68.371 E5.20564
G1 X163.143 Y68.861 E5.25844
G1 X163.926 Y69.265 E5.3024
G1 X164.487 Y69.571 E5.33428
G1 X164.623 Y69.649 E5.3421
G1 X165.102 Y69.938 E5.37001
G1 X165.332 Y70.089 E5.38374
G1 X166.137 Y70.663 E5.43306
G1 X166.628 Y71.045 E5.4641
G1 X167.158 Y71.518 E5.49954
G1 X167.783 Y72.155 E5.54406
G1 X168.18 Y72.619 E5.57453
G1 X168.531 Y73.071 E5.60308
G1 X168.839 Y73.513 E5.62996
G1 X169.165 Y74.041 E5.66092
G1 X169.478 Y74.621 E5.6938
G1 X169.703 Y75.11 E5.72065
G1 X170.008 Y75.871 E5.76155
G1 X170.117 Y76.185 E5.77814
G1 X170.298 Y76.8 E5.81012
G1 X170.441 Y77.37 E5.83944
G1 X170.477 Y77.541 E5.84816
G1 X170.578 Y78.094 E5.8762
G1 X171.111 Y80.795 E6.01355
G1 X171.846 Y83.989 E6.17707
G1 X172.065 Y84.872 E6.22246
G1 X172.155 Y85.401 E6.24923
G1 X172.171 Y85.699 E6.26412
G1 X172.177 Y86.236 E6.29091
G1 X172.143 Y86.768 E6.3175
G1 X172.001 Y87.797 E6.36933
G1 X171.982 Y87.923 E6.37568
G1 X171.733 Y89.356 E6.44825
G1 X171.723 Y89.454 E6.45316
G1 X171.497 Y90.735 E6.51806
G1 X171.096 Y93.466 E6.65577
G1 X170.779 Y96.155 E6.79085
G1 X170.501 Y99.34 E6.95036
G1 X170.427 Y100.392 E7.00297
G1 X170.276 Y103.085 E7.13754
G1 X170.199 Y105.854 E7.27574
G1 X170.201 Y108.549 E7.41019
G1 X170.28 Y111.315 E7.54824
G1 X170.434 Y114.005 E7.68267
G1 X170.666 Y116.723 E7.81876
G1 X170.977 Y119.444 E7.9554
G1 X171.362 Y122.142 E8.09137
G1 X171.822 Y124.817 E8.22678
G1 X172.356 Y127.475 E8.36204
G1 X172.974 Y130.152 E8.49911
G1 X173.668 Y132.815 E8.6364
G1 X174.417 Y135.386 E8.77
G1 X175.266 Y138.024 E8.90826
G1 X176.164 Y140.562 E9.04257
G1 X177.147 Y143.11 E9.17883
G1 X178.185 Y145.596 E9.31323
G1 X178.638 Y146.64 E9.37001
G1 X178.698 Y146.785 E9.37784
G1 X179.436 Y148.712 E9.48079
G1 X179.853 Y149.785 E9.53822
G1 X180.452 Y151.304 E9.61968
G1 X180.749 Y152.078 E9.66104
G1 X180.998 Y152.755 E9.69703
G1 X181.398 Y153.918 E9.75839
G1 X181.63 Y154.662 E9.79727
G1 X182.013 Y156.05 E9.8691
G1 X182.112 Y156.455 E9.8899
G1 X182.342 Y157.562 E9.94631
G1 X182.366 Y157.688 E9.95271
G1 X182.468 Y158.285 E9.98293
G1 X182.485 Y158.395 E9.98848
G1 X182.589 Y159.152 E10.0266
G1 X182.627 Y159.509 E10.04451
G1 X182.69 Y160.27 E10.08261
G1 X182.719 Y160.807 E10.10944
G1 X182.737 Y161.444 E10.14123
G1 X182.738 Y162.129 E10.17541
G1 X182.724 Y162.681 E10.20296
G1 X182.681 Y163.47 E10.24238
G1 X182.631 Y164.08 E10.27291
G1 X182.564 Y164.691 E10.30358
G1 X182.488 Y165.255 E10.33197
G1 X182.38 Y165.927 E10.36593
G1 X182.276 Y166.492 E10.39459
G1 X182.258 Y166.585 E10.39931
G1 X182.129 Y167.189 E10.43013
G1 X182.006 Y167.701 E10.4564
G1 X181.847 Y168.302 E10.48741
G1 X181.653 Y168.969 E10.52207
G1 X181.531 Y169.351 E10.54208
G1 X181.287 Y170.054 E10.5792
G1 X181.246 Y170.166 E10.58515
G1 X180.817 Y171.282 E10.6448
G1 X180.765 Y171.41 E10.65169
G1 X180.338 Y172.405 E10.70571
G1 X179.894 Y173.365 E10.75848
G1 X179.347 Y174.47 E10.82
G1 X178.887 Y175.354 E10.86971
G1 X178.579 Y175.934 E10.90248
G1 X177.426 Y178.075 E11.02379
G1 X176.76 Y179.335 E11.0949
G1 X176.281 Y180.261 E11.14691
G1 X175.612 Y181.472 E11.21593
G1 X175.278 Y182.006 E11.24736
G1 X174.719 Y182.79 E11.2954
G1 X174.331 Y183.289 E11.32693
G1 X173.961 Y183.711 E11.35493
G1 X173.605 Y184.076 E11.38037
G1 X173.219 Y184.447 E11.40708
G1 X172.838 Y184.776 E11.43219
G1 X172.729 Y184.864 E11.43918
G1 X172.301 Y185.195 E11.46618
G1 X171.876 Y185.491 E11.49201
G1 X171.34 Y185.823 E11.52347
G1 X170.9 Y186.065 E11.54852
G1 X170.27 Y186.362 E11.58327
G1 X169.541 Y186.655 E11.62247
G1 X169.174 Y186.783 E11.64186
G1 X168.663 Y186.934 E11.66844
G1 X168.169 Y187.064 E11.69393
G1 X167.835 Y187.138 E11.711
G1 X167.282 Y187.239 E11.73904
G1 X164.581 Y187.772 E11.87639
G1 X161.362 Y188.513 E12.04119
G1 X160.502 Y188.726 E12.08539
G1 X159.973 Y188.816 E12.11216
G1 X159.676 Y188.832 E12.127
G1 X159.141 Y188.838 E12.1537
G1 X158.609 Y188.804 E12.18029
G1 X157.579 Y188.662 E12.23216
G1 X157.451 Y188.642 E12.23863
G1 X156.062 Y188.399 E12.30898
G1 X155.934 Y188.384 E12.31541
G1 X154.319 Y188.104 E12.39718
G1 X151.602 Y187.711 E12.53414
G1 X148.908 Y187.399 E12.66945
G1 X144.439 Y187.039 E12.89313
G1 X144.006 Y186.978 E12.91494
G1 X143.469 Y186.868 E12.94229
G1 X142.854 Y186.686 E12.97429
G1 X142.241 Y186.444 E13.00717
G1 X140.886 Y185.889 E13.08022
G1 X138.368 Y184.939 E13.21449
G1 X135.748 Y184.034 E13.35278
G1 X133.182 Y183.228 E13.48696
G1 X130.536 Y182.48 E13.62415
G1 X127.897 Y181.812 E13.75996
G1 X125.234 Y181.218 E13.89608
G1 X122.575 Y180.705 E14.03119
G1 X119.872 Y180.261 E14.16785
G1 X117.162 Y179.895 E14.30428
G1 X114.443 Y179.605 E14.4407
G1 X111.758 Y179.395 E14.57506
G1 X108.995 Y179.258 E14.71308
G1 X106.302 Y179.201 E14.84746
G1 X103.571 Y179.22 E14.98372
G1 X100.84 Y179.316 E15.12005
G1 X98.121 Y179.489 E15.25598
G1 X95.397 Y179.74 E15.39245
G1 X92.717 Y180.064 E15.52713
G1 X89.985 Y180.472 E15.66494
G1 X87.32 Y180.947 E15.8
G1 X84.647 Y181.503 E15.93621
G1 X81.993 Y182.132 E16.07228
G1 X79.375 Y182.833 E16.2075
G1 X78.027 Y183.234 E16.27766
G1 X76.175 Y183.742 E16.37347
G1 X75.84 Y183.82 E16.39063
G1 X74.754 Y184.046 E16.44597
G1 X74.622 Y184.071 E16.45268
G1 X73.946 Y184.184 E16.48687
G1 X73.123 Y184.298 E16.52832
G1 X72.804 Y184.332 E16.54433
G1 X72.03 Y184.396 E16.58307
G1 X71.508 Y184.424 E16.60915
G1 X70.871 Y184.442 E16.64095
G1 X70.159 Y184.443 E16.67647
G1 X69.625 Y184.429 E16.70312
G1 X68.932 Y184.391 E16.73774
G1 X68.066 Y184.319 E16.7811
G1 X67.641 Y184.27 E16.80244
G1 X66.972 Y184.179 E16.83613
G1 X66.238 Y184.06 E16.87322
G1 X65.761 Y183.968 E16.89746
G1 X65.042 Y183.814 E16.93414
G1 X64.534 Y183.691 E16.96022
G1 X63.911 Y183.524 E16.9924
G1 X63.318 Y183.349 E17.02325
G1 X62.931 Y183.224 E17.04354
G1 X62.262 Y182.992 E17.07886
G1 X62.15 Y182.951 E17.08481
G1 X61.034 Y182.522 E17.14446
G1 X60.906 Y182.47 E17.15135
G1 X59.939 Y182.055 E17.20385
G1 X58.927 Y181.586 E17.2595
G1 X57.88 Y181.069 E17.31776
G1 X57.207 Y180.721 E17.35556
G1 X56.457 Y180.323 E17.39792
G1 X54.2 Y179.109 E17.52577
G1 X52.513 Y178.22 E17.62091
G1 X51.734 Y177.819 E17.66462
G1 X51.17 Y177.512 E17.69666
G1 X51.037 Y177.436 E17.7043
G1 X50.576 Y177.159 E17.73113
G1 X50.341 Y177.005 E17.74515
G1 X49.524 Y176.423 E17.79519
G1 X49.02 Y176.03 E17.82708
G1 X48.614 Y175.674 E17.85402
G1 X48.225 Y175.294 E17.88115
G1 X47.877 Y174.932 E17.9062
G1 X47.474 Y174.461 E17.93713
G1 X47.125 Y174.011 E17.96554
G1 X46.823 Y173.578 E17.99188
G1 X46.492 Y173.043 E18.02326
G1 X46.223 Y172.551 E18.05124
G1 X45.965 Y171.998 E18.08168
G1 X45.653 Y171.222 E18.12341
G1 X45.389 Y170.398 E18.16658
G1 X45.246 Y169.851 E18.19478
G1 X45.089 Y169.058 E18.23511
G1 X44.563 Y166.375 E18.37152
G1 X43.71 Y162.689 E18.56027
G1 X43.582 Y162.178 E18.58656
G1 X43.491 Y161.649 E18.61333
G1 X43.471 Y161.039 E18.64378
G1 X43.498 Y160.41 E18.67519
G1 X43.521 Y160.218 E18.68484
G1 X43.648 Y159.318 E18.73019
G1 X43.666 Y159.203 E18.73599
G1 X43.918 Y157.756 E18.80927
G1 X43.932 Y157.639 E18.81515
G1 X44.212 Y156.024 E18.89693
G1 X44.605 Y153.307 E19.03389
G1 X44.917 Y150.613 E19.16919
G1 X45.277 Y146.144 E19.39287
G1 X45.337 Y145.716 E19.41443
G1 X45.446 Y145.18 E19.44172
G1 X45.587 Y144.676 E19.46783
G1 X45.957 Y143.652 E19.52215
G1 X46.261 Y142.842 E19.56532
G1 X47.138 Y140.293 E19.6998
G1 X47.961 Y137.664 E19.83724
G1 X48.702 Y135.037 E19.97342
G1 X49.373 Y132.371 E20.11057
G1 X49.956 Y129.736 E20.24521
G1 X50.47 Y127.061 E20.38111
G1 X50.909 Y124.368 E20.51724
G1 X51.271 Y121.666 E20.65324
G1 X51.559 Y118.943 E20.78985
G1 X51.765 Y116.257 E20.92425
G1 X51.899 Y113.495 E21.06221
G1 X51.954 Y110.799 E21.19674
G1 X51.931 Y108.067 E21.33305
G1 X51.832 Y105.306 E21.47088
G1 X51.657 Y102.617 E21.60532
G1 X51.407 Y99.929 E21.74001
G1 X51.071 Y97.18 E21.87817
G1 X50.666 Y94.484 E22.01419
G1 X50.187 Y91.82 E22.14923
G1 X49.631 Y89.156 E22.285
G1 X49 Y86.516 E22.42042
G1 X48.003 Y82.878 E22.60861
G1 X47.685 Y81.802 E22.66459
G1 X47.573 Y81.289 E22.69078
G1 X47.501 Y80.778 E22.71653
G1 X47.484 Y80.635 E22.72371
G1 X47.461 Y80.091 E22.75088
G1 X47.522 Y79.143 E22.79827
G1 X47.64 Y78.54 E22.82893
G1 X47.742 Y78.156 E22.84875
G1 X47.951 Y77.574 E22.8796
G1 X48.229 Y76.984 E22.91214
G1 X48.501 Y76.521 E22.93893
G1 X48.766 Y76.138 E22.96217
G1 X49.088 Y75.736 E22.98786
G1 X49.478 Y75.334 E23.01581
G1 X49.983 Y74.889 E23.04939
G1 X50.85 Y74.221 E23.10399
G1 X53.028 Y72.491 E23.24276
G1 X55.093 Y70.755 E23.37735
G1 X57.148 Y68.925 E23.51463
G1 X59.131 Y67.057 E23.65055
G1 X61.104 Y65.088 E23.78961
G1 X61.471 Y64.712 E23.81583
G0 F2618.2 X61.75 Y64.999
G1 F1200 X62.399 Y64.41 E23.85955
G1 X62.864 Y64.037 E23.88929
G1 X63.586 Y63.532 E23.93325
G1 X64.036 Y63.258 E23.95954
G1 X64.552 Y62.968 E23.98907
G1 X65.045 Y62.724 E24.01651
G1 X65.156 Y62.674 E24.02258
G1 X66.085 Y62.279 E24.07295
G1 X66.19 Y62.237 E24.07859
G1 X67.732 Y61.645 E24.16099
G1 X67.853 Y61.589 E24.16765
G1 X68.82 Y61.224 E24.21921
G1 X70.384 Y60.606 E24.30311
G1 X71.178 Y60.301 E24.34555
G1 X71.893 Y60.039 E24.38354
G1 X72.915 Y59.689 E24.43743
G1 X73.75 Y59.428 E24.48108
G1 X73.858 Y59.396 E24.4867
G1 X75.049 Y59.069 E24.54832
G1 X75.483 Y58.965 E24.57058
G1 X76.568 Y58.74 E24.62586
G1 X76.679 Y58.719 E24.6315
G1 X77.349 Y58.606 E24.6654
G1 X78.179 Y58.491 E24.7072
G1 X78.482 Y58.459 E24.7224
G1 X79.156 Y58.402 E24.75615
G1 X79.755 Y58.369 E24.78608
G1 X80.453 Y58.35 E24.82091
G1 X80.937 Y58.349 E24.84506
G1 X81.491 Y58.361 E24.87271
G1 X82.331 Y58.405 E24.91467
G1 X82.925 Y58.453 E24.9444
G1 X83.563 Y58.522 E24.97642
G1 X84.161 Y58.602 E25.00652
G1 X84.712 Y58.689 E25.03435
G1 X85.521 Y58.841 E25.07542
G1 X85.993 Y58.943 E25.09951
G1 X86.635 Y59.096 E25.13244
G1 X87.153 Y59.236 E25.15921
G1 X87.833 Y59.436 E25.19457
G1 X88.15 Y59.538 E25.21118
G1 X89.69 Y60.071 E25.29248
G1 X92.342 Y60.949 E25.43186
G1 X94.915 Y61.72 E25.56586
G1 X97.599 Y62.444 E25.70455
G1 X100.279 Y63.085 E25.84203
G1 X102.924 Y63.637 E25.97683
G1 X105.617 Y64.122 E26.11335
G1 X108.334 Y64.532 E26.25044
G1 X111.035 Y64.862 E26.38619
G1 X113.782 Y65.119 E26.52384
G1 X116.492 Y65.296 E26.65933
G1 X119.242 Y65.397 E26.79662
G1 X121.996 Y65.42 E26.93402
G1 X124.713 Y65.366 E27.0696
G1 X127.428 Y65.235 E27.20521
G1 X130.175 Y65.025 E27.34266
G1 X132.912 Y64.738 E27.47996
G1 X135.633 Y64.374 E27.61692
G1 X138.297 Y63.94 E27.75158
G1 X141.041 Y63.414 E27.89097
G1 X141.669 Y63.307 E27.92275
G1 X142.5 Y63.19 E27.96462
G1 X142.883 Y63.147 E27.98385
G1 X143.547 Y63.091 E28.01709
G1 X144.072 Y63.061 E28.04333
G1 X144.787 Y63.039 E28.07901
G1 X145.478 Y63.038 E28.11349
G1 X145.999 Y63.051 E28.13949
G1 X146.623 Y63.084 E28.17066
G1 X147.443 Y63.151 E28.21171
G1 X147.96 Y63.207 E28.23765
G1 X148.62 Y63.297 E28.27089
G1 X149.371 Y63.419 E28.30884
G1 X149.807 Y63.502 E28.33099
G1 X150.518 Y63.655 E28.36727
G1 X150.977 Y63.765 E28.39082
G1 X151.641 Y63.944 E28.42513
G1 X152.241 Y64.121 E28.45634
G1 X152.563 Y64.225 E28.47322
G1 X153.347 Y64.497 E28.51462
G1 X154.472 Y64.931 E28.57478
G1 X154.579 Y64.975 E28.58055
G1 X155.692 Y65.453 E28.64098
G1 X156.616 Y65.884 E28.69185
G1 X157.438 Y66.291 E28.73761
G1 X158.225 Y66.696 E28.78177
G1 X159.036 Y67.124 E28.82752
G1 X161.215 Y68.297 E28.95098
G1 X162.017 Y68.724 E28.99631
G1 X162.958 Y69.216 E29.04929
G1 X163.734 Y69.616 E29.09284
G1 X164.295 Y69.922 E29.12472
G1 X164.416 Y69.991 E29.13167
G1 X164.895 Y70.28 E29.15958
G1 X165.1 Y70.415 E29.17183
G1 X165.905 Y70.989 E29.22115
G1 X166.376 Y71.356 E29.25094
G1 X166.876 Y71.801 E29.28434
G1 X167.494 Y72.431 E29.32837
G1 X167.864 Y72.864 E29.35678
G1 X168.215 Y73.316 E29.38533
G1 X168.506 Y73.736 E29.41083
G1 X168.824 Y74.25 E29.44098
G1 X169.117 Y74.793 E29.47176
G1 X169.331 Y75.259 E29.49735
G1 X169.636 Y76.02 E29.53825
G1 X169.734 Y76.299 E29.553
G1 X169.884 Y76.804 E29.57928
G1 X170.015 Y77.302 E29.60497
G1 X170.083 Y77.613 E29.62086
G1 X170.178 Y78.137 E29.64742
G1 X170.717 Y80.864 E29.78611
G1 X171.458 Y84.086 E29.95105
G1 X171.677 Y84.969 E29.99644
G1 X171.771 Y85.703 E30.03336
G1 X171.777 Y86.24 E30.06015
G1 X171.747 Y86.713 E30.08379
G1 X171.588 Y87.854 E30.14127
G1 X171.333 Y89.32 E30.21551
G1 X171.329 Y89.385 E30.21876
G1 X171.101 Y90.679 E30.28431
G1 X170.701 Y93.398 E30.42142
G1 X170.382 Y96.107 E30.55751
G1 X170.098 Y99.365 E30.72066
G1 X170.028 Y100.364 E30.77063
G1 X169.876 Y103.089 E30.90679
G1 X169.799 Y105.842 E31.04419
G1 X169.801 Y108.561 E31.17984
G1 X169.88 Y111.315 E31.3173
G1 X170.036 Y114.061 E31.45452
G1 X170.268 Y116.77 E31.59016
G1 X170.577 Y119.47 E31.72575
G1 X170.967 Y122.2 E31.86333
G1 X171.434 Y124.92 E32.00102
G1 X171.961 Y127.546 E32.13464
G1 X172.583 Y130.237 E32.27243
G1 X173.283 Y132.922 E32.41087
G1 X174.038 Y135.516 E32.54565
