;FLAVOR:Marlin
;TIME:6033
;Filament used: 2.9114m, 0m
;Layer height: 0.2
;MINX:33.38
;MINY:51.675
;MINZ:0.3
;MAXX:183.179
;MAXY:198.293
;MAXZ:1.5
;POSTPROCESSED
;Generated with Cura_SteamEngine 4.8.0
T0
M140 S60
M105
M190 S60
M104 S200
M105
M109 S200
M82 ;absolute extrusion mode
M201 X500.00 Y500.00 Z100.00 E5000.00 	;Setup machine max acceleration
M203 X500.00 Y500.00 Z10.00 E50.00 	;Setup machine max feedrate
M204 P500.00 R1000.00 T500.00 		;Setup Print/Retract/Travel acceleration
M205 X8.00 Y8.00 Z0.40 E5.00 		;Setup Jerk
M220 S100 				;Reset Feedrate
M221 S100 				;Reset Flowrate
G28				;Home the Machine
#G29 				;Bed Level
G92 E0
M300 P150 S587
G92 E0
G1 F1500 E-5.5
;LAYER_COUNT:7
;LAYER:0
M107
G0 F2618.2 X53.257 Y62.453 Z0.3
;TYPE:SKIRT
G1 F1500 E0
G1 F1200 X53.678 Y62.122 E0.02672
G1 X54.229 Y61.807 E0.05838
G1 X54.717 Y61.592 E0.08499
G1 X55.418 Y61.38 E0.12152
G1 X56.831 Y61.091 E0.19348
G1 X57.006 Y61.057 E0.20237
G1 X59.634 Y60.477 E0.33664
G1 X62.279 Y59.816 E0.47266
G1 X64.93 Y59.072 E0.61003
G1 X67.523 Y58.265 E0.74551
G1 X70.1 Y57.381 E0.88143
G1 X72.671 Y56.418 E1.0184
G1 X73.436 Y56.112 E1.05951
G1 X73.709 Y56.01 E1.07405
G1 X74.395 Y55.828 E1.10946
G1 X75.054 Y55.73 E1.1427
G1 X75.266 Y55.714 E1.1533
G1 X75.893 Y55.687 E1.18461
G1 X80.067 Y55.418 E1.39329
G1 X80.555 Y55.376 E1.41772
G1 X83.256 Y55.105 E1.55315
G1 X85.997 Y54.752 E1.69103
G1 X88.658 Y54.332 E1.82543
G1 X91.362 Y53.827 E1.96267
G1 X94.009 Y53.255 E2.09778
G1 X97.554 Y52.365 E2.28013
G1 X99.681 Y51.788 E2.39008
G1 X100.208 Y51.686 E2.41686
G1 X100.934 Y51.675 E2.45308
G1 X101.246 Y51.702 E2.46871
G1 X101.776 Y51.788 E2.49549
G1 X102.268 Y51.944 E2.52124
G1 X102.893 Y52.209 E2.55511
G1 X103.134 Y52.331 E2.56859
G1 X105.625 Y53.545 E2.70684
G1 X108.103 Y54.668 E2.84257
G1 X110.633 Y55.73 E2.97946
G1 X113.206 Y56.725 E3.11709
G1 X115.734 Y57.619 E3.25087
G1 X118.341 Y58.46 E3.38753
G1 X120.948 Y59.221 E3.52302
G1 X123.614 Y59.918 E3.6605
G1 X126.25 Y60.528 E3.79549
G1 X128.926 Y61.07 E3.93171
G1 X131.623 Y61.533 E4.06823
G1 X134.277 Y61.915 E4.202
G1 X137.019 Y62.229 E4.33969
G1 X139.743 Y62.464 E4.4761
G1 X142.468 Y62.621 E4.61228
G1 X145.164 Y62.7 E4.74684
G1 X147.894 Y62.704 E4.88304
G1 X150.658 Y62.629 E5.02099
G1 X153.355 Y62.479 E5.15575
G1 X156.066 Y62.252 E5.29147
G1 X158.756 Y61.948 E5.42653
G1 X161.489 Y61.563 E5.56423
G1 X164.171 Y61.106 E5.69996
G1 X165.981 Y60.754 E5.79196
G1 X166.968 Y60.552 E5.84222
G1 X167.5 Y60.484 E5.86897
G1 X168.004 Y60.493 E5.89412
G1 X168.312 Y60.52 E5.90955
G1 X168.842 Y60.606 E5.93634
G1 X169.359 Y60.772 E5.96343
G1 X169.733 Y60.93 E5.98368
G1 X170.207 Y61.182 E6.01046
G1 X170.652 Y61.5 E6.03775
G1 X171.053 Y61.841 E6.06401
G1 X171.304 Y62.088 E6.08158
G1 X173.071 Y64.01 E6.21184
G1 X174.16 Y65.118 E6.28934
G1 X175.11 Y66.11 E6.35787
G1 X175.451 Y66.524 E6.38463
G1 X175.836 Y67.223 E6.42444
G1 X175.949 Y67.496 E6.43918
G1 X176.117 Y68.006 E6.46597
G1 X176.207 Y68.534 E6.49269
G1 X176.222 Y69.115 E6.52169
G1 X176.22 Y69.225 E6.52718
G1 X176.127 Y71.901 E6.66076
G1 X176.109 Y74.63 E6.79692
G1 X176.168 Y77.328 E6.93155
G1 X176.306 Y80.082 E7.06912
G1 X176.518 Y82.78 E7.20414
G1 X176.813 Y85.532 E7.34223
G1 X177.172 Y88.183 E7.47569
G1 X177.745 Y91.584 E7.64776
G1 X178.06 Y93.271 E7.73338
G1 X178.154 Y93.862 E7.76324
G1 X178.223 Y94.57 E7.79873
G1 X178.255 Y95.389 E7.83962
G1 X178.243 Y96.036 E7.8719
G1 X178.176 Y96.953 E7.91777
G1 X178.155 Y97.132 E7.92676
G1 X178.081 Y97.66 E7.95336
G1 X178.057 Y97.812 E7.96104
G1 X177.953 Y98.377 E7.9897
G1 X177.825 Y98.928 E8.01792
G1 X177.787 Y99.075 E8.0255
G1 X177.207 Y101.107 E8.13092
G1 X177.006 Y101.77 E8.16549
G1 X176.292 Y104.396 E8.30126
G1 X175.645 Y107.066 E8.43832
G1 X175.08 Y109.716 E8.5735
G1 X174.589 Y112.412 E8.71022
G1 X174.175 Y115.095 E8.84566
G1 X173.836 Y117.803 E8.98181
G1 X173.577 Y120.489 E9.11644
G1 X173.389 Y123.246 E9.25431
G1 X173.283 Y125.941 E9.38886
G1 X173.25 Y128.691 E9.52607
G1 X173.296 Y131.401 E9.66129
G1 X173.42 Y134.131 E9.79763
G1 X173.619 Y136.85 E9.93365
G1 X173.895 Y139.54 E10.06856
G1 X174.251 Y142.273 E10.20606
G1 X174.683 Y144.978 E10.34272
G1 X175.183 Y147.626 E10.47717
G1 X175.769 Y150.308 E10.61413
G1 X176.416 Y152.923 E10.74853
G1 X177.147 Y155.55 E10.88457
G1 X177.965 Y158.195 E11.02269
G1 X178.58 Y160.027 E11.1191
G1 X178.872 Y160.87 E11.16361
G1 X179.025 Y161.48 E11.19499
G1 X179.136 Y162.325 E11.23751
G1 X179.164 Y162.949 E11.26867
G1 X179.43 Y167.085 E11.47544
G1 X179.471 Y167.574 E11.49993
G1 X179.738 Y170.269 E11.63504
G1 X180.088 Y172.994 E11.77211
G1 X180.515 Y175.716 E11.90957
G1 X181.007 Y178.363 E12.04389
G1 X181.583 Y181.034 E12.18021
G1 X182.483 Y184.631 E12.3652
G1 X183.066 Y186.778 E12.47619
G1 X183.168 Y187.305 E12.50297
G1 X183.179 Y188.021 E12.53869
G1 X183.152 Y188.344 E12.55486
G1 X183.068 Y188.873 E12.58159
G1 X182.893 Y189.42 E12.61024
G1 X182.743 Y189.77 E12.62924
G1 X182.492 Y190.244 E12.656
G1 X182.154 Y190.712 E12.6848
G1 X182.028 Y190.874 E12.69504
G1 X181.684 Y191.248 E12.72039
G1 X181.494 Y191.428 E12.73345
G1 X179.766 Y193.012 E12.8504
G1 X178.582 Y194.17 E12.93302
G1 X177.543 Y195.166 E13.00483
G1 X177.13 Y195.507 E13.03155
G1 X176.67 Y195.783 E13.05831
G1 X176.029 Y196.043 E13.09282
G1 X175.513 Y196.19 E13.11959
G1 X174.763 Y196.263 E13.15718
G1 X174.532 Y196.26 E13.16871
G1 X171.754 Y196.165 E13.30739
G1 X169.022 Y196.147 E13.44369
G1 X166.291 Y196.208 E13.57997
G1 X163.599 Y196.344 E13.71445
G1 X160.847 Y196.56 E13.85217
G1 X158.163 Y196.848 E13.98684
G1 X155.462 Y197.216 E14.12284
G1 X152.079 Y197.787 E14.29401
G1 X150.332 Y198.112 E14.38266
G1 X149.684 Y198.21 E14.41536
G1 X149.055 Y198.264 E14.44685
G1 X148.247 Y198.293 E14.48719
G1 X147.704 Y198.284 E14.51428
G1 X147.093 Y198.249 E14.54482
G1 X146.571 Y198.198 E14.57098
G1 X146.023 Y198.122 E14.59859
G1 X145.865 Y198.096 E14.60657
G1 X145.296 Y197.991 E14.63544
G1 X144.771 Y197.87 E14.66232
G1 X144.623 Y197.831 E14.66996
G1 X143.755 Y197.583 E14.71499
G1 X143.623 Y197.543 E14.72187
G1 X143.138 Y197.384 E14.74734
G1 X142.559 Y197.174 E14.77807
G1 X141.913 Y196.914 E14.81281
G1 X141.807 Y196.87 E14.81853
G1 X141.265 Y196.63 E14.84811
G1 X140.664 Y196.343 E14.88133
G1 X140.132 Y196.069 E14.91119
G1 X139.748 Y195.858 E14.93305
G1 X138.618 Y195.19 E14.99854
G1 X137.61 Y194.549 E15.05813
G1 X135.989 Y193.524 E15.15382
G1 X133.646 Y192.129 E15.28986
G1 X131.27 Y190.802 E15.42563
G1 X128.857 Y189.543 E15.56142
G1 X126.401 Y188.348 E15.69768
G1 X123.917 Y187.227 E15.83365
G1 X121.42 Y186.182 E15.96869
G1 X118.824 Y185.181 E16.1075
G1 X116.278 Y184.285 E16.24216
G1 X113.71 Y183.459 E16.37674
G1 X111.055 Y182.686 E16.5147
G1 X108.433 Y182.004 E16.64986
G1 X105.764 Y181.39 E16.7865
G1 X103.11 Y180.856 E16.92156
G1 X100.406 Y180.394 E17.05842
G1 X97.716 Y180.011 E17.19398
G1 X95.007 Y179.704 E17.33
G1 X92.286 Y179.472 E17.46624
G1 X89.593 Y179.319 E17.60081
G1 X86.828 Y179.241 E17.73881
G1 X84.134 Y179.241 E17.87322
G1 X81.369 Y179.319 E18.01122
G1 X78.673 Y179.472 E18.14594
G1 X75.96 Y179.702 E18.28178
G1 X73.246 Y180.011 E18.41805
G1 X70.05 Y180.473 E18.57916
G1 X69.294 Y180.565 E18.61715
G1 X68.615 Y180.595 E18.65106
G1 X64.64 Y180.848 E18.84978
G1 X64.232 Y180.883 E18.87021
G1 X61.441 Y181.158 E19.01012
G1 X58.771 Y181.498 E19.14441
G1 X56.075 Y181.919 E19.28054
G1 X53.379 Y182.418 E19.41733
G1 X50.712 Y182.99 E19.55341
G1 X47.032 Y183.91 E19.74266
G1 X44.904 Y184.488 E19.85267
G1 X44.378 Y184.59 E19.8794
G1 X43.663 Y184.602 E19.91508
G1 X43.362 Y184.577 E19.93015
G1 X42.832 Y184.493 E19.95692
G1 X42.334 Y184.336 E19.98297
G1 X42.006 Y184.206 E20.00057
G1 X41.523 Y183.972 E20.02735
G1 X40.981 Y183.595 E20.06029
G1 X40.411 Y183.083 E20.09851
G1 X40.264 Y182.933 E20.10899
G1 X38.362 Y180.876 E20.24876
G1 X37.388 Y179.885 E20.31809
G1 X36.508 Y178.966 E20.38157
G1 X36.167 Y178.552 E20.40832
G1 X35.81 Y177.919 E20.44458
G1 X35.615 Y177.41 E20.47178
G1 X35.474 Y176.892 E20.49856
G1 X35.41 Y176.125 E20.53696
G1 X35.416 Y175.879 E20.54923
G1 X35.509 Y173.157 E20.68511
G1 X35.526 Y170.426 E20.82137
G1 X35.465 Y167.695 E20.95765
G1 X35.329 Y165.005 E21.09203
G1 X35.11 Y162.244 E21.23021
G1 X34.823 Y159.565 E21.36463
G1 X34.455 Y156.865 E21.50058
G1 X33.886 Y153.498 E21.67094
G1 X33.561 Y151.747 E21.75979
G1 X33.479 Y151.216 E21.78659
G1 X33.412 Y150.528 E21.82108
G1 X33.38 Y149.701 E21.86237
G1 X33.393 Y149.026 E21.89605
G1 X33.46 Y148.138 E21.94048
G1 X33.48 Y147.965 E21.94917
G1 X33.554 Y147.437 E21.97577
G1 X33.578 Y147.285 E21.98345
G1 X33.682 Y146.72 E22.01211
G1 X33.81 Y146.169 E22.04033
G1 X33.848 Y146.024 E22.04781
G1 X34.072 Y145.237 E22.08863
G1 X34.113 Y145.103 E22.09562
G1 X34.297 Y144.541 E22.12513
G1 X34.485 Y144.024 E22.15257
G1 X34.526 Y143.915 E22.15838
G1 X34.808 Y143.219 E22.19585
G1 X35.01 Y142.761 E22.22082
G1 X35.048 Y142.677 E22.22542
G1 X35.267 Y142.216 E22.25088
G1 X35.621 Y141.522 E22.28975
G1 X35.902 Y141.005 E22.31911
G1 X36.298 Y140.321 E22.35854
G1 X37.649 Y138.067 E22.48964
G1 X38.959 Y135.739 E22.62291
G1 X40.245 Y133.292 E22.76083
G1 X41.442 Y130.849 E22.89655
G1 X42.578 Y128.355 E23.03328
G1 X43.639 Y125.844 E23.16928
G1 X44.622 Y123.308 E23.30497
G1 X45.533 Y120.755 E23.44021
G1 X46.378 Y118.153 E23.5767
G1 X47.151 Y115.526 E23.71331
G1 X47.846 Y112.887 E23.84946
G1 X48.466 Y110.238 E23.98519
G1 X49.005 Y107.587 E24.12016
G1 X49.481 Y104.858 E24.25836
G1 X49.867 Y102.211 E24.39182
G1 X50.186 Y99.47 E24.52949
G1 X50.423 Y96.785 E24.66397
G1 X50.588 Y94.02 E24.80216
G1 X50.673 Y91.328 E24.93653
G1 X50.682 Y88.595 E25.07288
G1 X50.613 Y85.867 E25.20903
G1 X50.468 Y83.141 E25.34522
G1 X50.245 Y80.421 E25.48138
G1 X49.947 Y77.734 E25.61625
G1 X49.566 Y74.993 E25.75432
G1 X49.124 Y72.358 E25.88761
G1 X49.004 Y71.702 E25.92088
G1 X48.941 Y70.922 E25.95993
G1 X48.955 Y70.386 E25.98668
G1 X49.096 Y69.685 E26.02235
G1 X49.188 Y69.386 E26.03796
G1 X49.469 Y68.72 E26.07402
G1 X49.963 Y67.817 E26.12537
G1 X50.408 Y67.029 E26.17052
G1 X51.395 Y65.174 E26.27535
G1 X51.881 Y64.237 E26.32801
G1 X51.991 Y64.041 E26.33923
G1 X52.295 Y63.535 E26.36868
G1 X52.605 Y63.097 E26.39545
G1 X52.951 Y62.733 E26.4205
G1 X53.257 Y62.453 E26.4412
G0 F2618.2 X53.527 Y62.748
G1 F1200 X53.926 Y62.437 E26.46643
G1 X54.417 Y62.16 E26.49456
G1 X55.071 Y61.891 E26.52984
G1 X55.498 Y61.772 E26.55196
G1 X56.906 Y61.484 E26.62366
G1 X57.068 Y61.453 E26.63188
G1 X59.738 Y60.864 E26.76829
G1 X62.379 Y60.203 E26.90412
G1 X65.052 Y59.453 E27.04262
G1 X67.635 Y58.649 E27.17759
G1 X70.222 Y57.762 E27.31403
G1 X72.835 Y56.783 E27.45324
G1 X73.576 Y56.486 E27.49307
G1 X73.849 Y56.384 E27.50761
G1 X74.459 Y56.223 E27.53909
G1 X75.091 Y56.128 E27.57097
G1 X75.284 Y56.114 E27.58062
G1 X75.936 Y56.086 E27.61318
G1 X80.079 Y55.819 E27.82031
G1 X80.561 Y55.777 E27.84445
G1 X83.31 Y55.502 E27.98228
G1 X86.039 Y55.15 E28.11956
G1 X88.763 Y54.72 E28.25714
G1 X91.414 Y54.225 E28.39168
G1 X94.094 Y53.646 E28.52848
G1 X97.66 Y52.751 E28.7119
G1 X99.786 Y52.174 E28.8218
G1 X100.283 Y52.08 E28.84704
G1 X100.9 Y52.074 E28.87782
G1 X101.212 Y52.101 E28.89345
G1 X101.711 Y52.184 E28.91868
G1 X102.454 Y52.449 E28.95804
G1 X102.959 Y52.69 E28.98596
G1 X105.463 Y53.911 E29.12494
G1 X107.962 Y55.043 E29.26181
G1 X110.475 Y56.098 E29.39779
G1 X113.066 Y57.1 E29.53638
G1 X115.626 Y58.005 E29.67185
G1 X118.211 Y58.839 E29.80736
G1 X120.84 Y59.606 E29.94399
G1 X123.495 Y60.301 E30.08091
G1 X126.187 Y60.923 E30.21875
G1 X128.851 Y61.463 E30.35436
G1 X131.57 Y61.93 E30.492
G1 X134.246 Y62.314 E30.62687
G1 X136.972 Y62.627 E30.76377
G1 X139.687 Y62.861 E30.89972
G1 X142.433 Y63.019 E31.03695
G1 X145.187 Y63.1 E31.17441
G1 X147.904 Y63.104 E31.30996
G1 X150.656 Y63.029 E31.44731
G1 X153.374 Y62.878 E31.58312
G1 X156.108 Y62.649 E31.71999
G1 X158.824 Y62.343 E31.85635
G1 X161.541 Y61.959 E31.99325
G1 X164.269 Y61.495 E32.13131
G1 X166.042 Y61.15 E32.22142
G1 X167.048 Y60.944 E32.27265
G1 X167.55 Y60.882 E32.29789
G1 X168.277 Y60.918 E32.3342
G1 X168.776 Y61.002 E32.35945
G1 X169.377 Y61.211 E32.39119
G1 X169.573 Y61.297 E32.40187
G1 X170.205 Y61.666 E32.43838
G1 X170.626 Y61.996 E32.46507
G1 X171.01 Y62.359 E32.49143
G1 X172.789 Y64.294 E32.62257
G1 X173.871 Y65.395 E32.69958
G1 X174.821 Y66.387 E32.76811
G1 X175.141 Y66.778 E32.79332
G1 X175.467 Y67.376 E32.8273
G1 X175.58 Y67.649 E32.84204
G1 X175.736 Y68.13 E32.86726
G1 X175.814 Y68.63 E32.89251
G1 X175.82 Y69.211 E32.9215
G1 X175.727 Y71.884 E33.05494
G1 X175.709 Y74.637 E33.19229
G1 X175.769 Y77.356 E33.32797
G1 X175.906 Y80.102 E33.46514
G1 X176.119 Y82.814 E33.60086
G1 X176.413 Y85.556 E33.73844
G1 X176.777 Y88.242 E33.87367
G1 X177.36 Y91.698 E34.04853
G1 X177.681 Y93.428 E34.13631
G1 X177.779 Y94.084 E34.1694
G1 X177.824 Y94.602 E34.19534
G1 X177.855 Y95.399 E34.23514
G1 X177.844 Y96.025 E34.26637
G1 X177.777 Y96.918 E34.31105
G1 X177.759 Y97.076 E34.31898
G1 X177.685 Y97.604 E34.34558
G1 X177.663 Y97.739 E34.35241
G1 X177.559 Y98.304 E34.38107
G1 X177.436 Y98.835 E34.40826
G1 X177.402 Y98.965 E34.41497
G1 X176.824 Y100.991 E34.52008
G1 X176.623 Y101.655 E34.55469
G1 X175.903 Y104.302 E34.69155
G1 X175.258 Y106.96 E34.828
G1 X174.683 Y109.666 E34.96602
G1 X174.2 Y112.31 E35.10011
G1 X173.776 Y115.061 E35.23898
G1 X173.44 Y117.748 E35.37408
G1 X173.178 Y120.46 E35.51001
G1 X172.988 Y123.254 E35.64973
G1 X172.883 Y125.92 E35.78284
G1 X172.851 Y128.674 E35.92024
G1 X172.897 Y131.425 E36.05751
G1 X173.022 Y134.18 E36.1951
G1 X173.22 Y136.881 E36.33021
G1 X173.499 Y139.6 E36.46658
G1 X173.851 Y142.301 E36.60247
G1 X174.289 Y145.043 E36.741
G1 X174.794 Y147.721 E36.87697
G1 X175.376 Y150.384 E37.01296
G1 X176.027 Y153.013 E37.14808
G1 X176.775 Y155.702 E37.28733
G1 X177.582 Y158.314 E37.42372
G1 X178.202 Y160.158 E37.52078
G1 X178.494 Y161.001 E37.56529
G1 X178.63 Y161.543 E37.59317
G1 X178.737 Y162.343 E37.63343
G1 X178.768 Y163.037 E37.66809
G1 X179.029 Y167.096 E37.87102
G1 X179.071 Y167.588 E37.89565
G1 X179.342 Y170.326 E38.03292
G1 X179.694 Y173.07 E38.17094
G1 X180.114 Y175.746 E38.30608
G1 X180.616 Y178.449 E38.44324
G1 X181.193 Y181.126 E38.57986
G1 X182.097 Y184.737 E38.76557
G1 X182.68 Y186.883 E38.87652
G1 X182.774 Y187.38 E38.90175
G1 X182.781 Y187.988 E38.93209
G1 X182.754 Y188.311 E38.94826
G1 X182.672 Y188.809 E38.97344
G1 X182.461 Y189.418 E39.0056
G1 X182.377 Y189.609 E39.016
G1 X182.007 Y190.243 E39.05263
G1 X181.409 Y190.957 E39.09909
G1 X181.223 Y191.133 E39.11187
G1 X179.498 Y192.714 E39.22861
G1 X178.305 Y193.881 E39.31187
G1 X177.266 Y194.877 E39.38367
G1 X176.875 Y195.197 E39.40888
G1 X176.438 Y195.451 E39.4341
G1 X175.891 Y195.668 E39.46346
G1 X175.404 Y195.804 E39.48868
G1 X174.766 Y195.863 E39.52065
G1 X174.545 Y195.86 E39.53168
G1 X171.769 Y195.765 E39.67025
G1 X169.016 Y195.747 E39.8076
G1 X166.297 Y195.808 E39.94329
G1 X163.548 Y195.946 E40.08061
G1 X160.841 Y196.159 E40.21608
G1 X158.103 Y196.453 E40.35346
G1 X155.372 Y196.825 E40.49097
G1 X152.026 Y197.39 E40.66027
G1 X150.269 Y197.717 E40.74943
G1 X149.63 Y197.814 E40.78167
G1 X149.024 Y197.866 E40.81202
G1 X148.238 Y197.893 E40.85126
G1 X147.716 Y197.885 E40.8773
G1 X147.128 Y197.85 E40.90669
G1 X146.626 Y197.802 E40.93185
G1 X146.078 Y197.726 E40.95945
G1 X145.937 Y197.703 E40.96658
G1 X145.368 Y197.598 E40.99544
G1 X144.864 Y197.481 E41.02126
G1 X144.733 Y197.447 E41.02801
G1 X143.865 Y197.199 E41.07305
G1 X143.747 Y197.163 E41.0792
G1 X143.262 Y197.004 E41.10467
G1 X142.697 Y196.798 E41.13467
G1 X142.596 Y196.76 E41.14005
G1 X142.063 Y196.544 E41.16875
G1 X141.427 Y196.264 E41.20341
G1 X140.929 Y196.028 E41.23091
G1 X140.322 Y195.718 E41.26491
G1 X139.951 Y195.514 E41.28604
G1 X138.924 Y194.908 E41.34553
G1 X136.202 Y193.185 E41.50625
G1 X133.851 Y191.785 E41.64276
G1 X131.471 Y190.456 E41.77876
G1 X129.038 Y189.187 E41.91566
G1 X126.562 Y187.982 E42.05304
G1 X124.07 Y186.857 E42.18945
G1 X121.539 Y185.799 E42.32631
G1 X118.994 Y184.816 E42.46242
G1 X116.396 Y183.902 E42.59982
G1 X113.829 Y183.077 E42.73434
G1 X111.163 Y182.301 E42.87287
G1 X108.518 Y181.613 E43.00922
G1 X105.868 Y181.003 E43.14489
