;FLAVOR:Marlin
;TIME:7881
;Filament used: 8.01781m, 0m
;Layer height: 0.2
;MINX:2.597
;MINY:4.548
;MINZ:0.3
;MAXX:219.06
;MAXY:201.292
;MAXZ:1.5
;POSTPROCESSED
;Generated with Cura_SteamEngine 4.8.0
T0
M140 S60
M105
M190 S60
M104 S200
M105
M109 S200
M82 ;absolute extrusion mode
M201 X500.00 Y500.00 Z100.00 E5000.00 	;Setup machine max acceleration
M203 X500.00 Y500.00 Z10.00 E50.00 	;Setup machine max feedrate
M204 P500.00 R1000.00 T500.00 		;Setup Print/Retract/Travel acceleration
M205 X8.00 Y8.00 Z0.40 E5.00 		;Setup Jerk
M220 S100 				;Reset Feedrate
M221 S100 				;Reset Flowrate
G28				;Home the Machine
#G29 				;Bed Level
G92 E0
M300 P150 S587
G92 E0
G1 F1500 E-5.5
;LAYER_COUNT:7
;LAYER:0
M107
G0 F2618.2 X15.863 Y16.476 Z0.3
;TYPE:SKIRT
G1 F1500 E0
G1 F1200 X17.879 Y14.633 E0.13627
G1 X19.86 Y12.717 E0.27377
G1 X21.753 Y10.78 E0.40889
G1 X22.812 Y9.648 E0.48623
G1 X23.797 Y8.581 E0.55868
G1 X24.348 Y8.063 E0.59641
G1 X24.762 Y7.715 E0.62339
G1 X25.24 Y7.356 E0.65321
G1 X25.918 Y6.913 E0.69362
G1 X26.39 Y6.642 E0.72077
G1 X26.856 Y6.406 E0.74683
G1 X27.612 Y6.082 E0.78787
G1 X28.176 Y5.878 E0.81779
G1 X28.85 Y5.683 E0.85279
G1 X29.468 Y5.544 E0.8844
G1 X29.975 Y5.456 E0.91007
G1 X30.509 Y5.391 E0.93691
G1 X31.286 Y5.343 E0.97575
G1 X31.851 Y5.342 E1.00393
G1 X32.437 Y5.373 E1.03321
G1 X33.271 Y5.472 E1.07511
G1 X33.81 Y5.568 E1.10242
G1 X34.356 Y5.697 E1.13041
G1 X34.714 Y5.798 E1.14897
G1 X35.938 Y6.2 E1.21325
G1 X36.966 Y6.557 E1.26754
G1 X39.596 Y7.388 E1.40514
G1 X42.212 Y8.135 E1.54087
G1 X44.857 Y8.808 E1.67704
G1 X47.54 Y9.414 E1.81427
G1 X50.206 Y9.932 E1.94976
G1 X52.858 Y10.373 E2.08389
G1 X55.595 Y10.748 E2.22171
G1 X58.309 Y11.042 E2.35791
G1 X61.004 Y11.258 E2.49279
G1 X63.724 Y11.398 E2.62867
G1 X66.457 Y11.462 E2.76506
G1 X69.184 Y11.448 E2.90111
G1 X71.916 Y11.356 E3.03749
G1 X74.642 Y11.188 E3.17375
G1 X77.329 Y10.946 E3.30834
G1 X80.074 Y10.621 E3.44625
G1 X82.74 Y10.227 E3.5807
G1 X85.439 Y9.75 E3.71744
G1 X88.114 Y9.2 E3.85369
G1 X90.728 Y8.585 E3.98766
G1 X93.388 Y7.878 E4.12498
G1 X96.031 Y7.095 E4.2625
G1 X98.769 Y6.215 E4.40599
G1 X99.424 Y6.018 E4.44011
G1 X100.275 Y5.774 E4.48428
G1 X101.088 Y5.555 E4.52628
G1 X101.86 Y5.363 E4.56597
G1 X102.693 Y5.175 E4.60858
G1 X103.445 Y5.024 E4.64684
G1 X104.293 Y4.877 E4.68978
G1 X105.154 Y4.754 E4.73317
G1 X105.27 Y4.739 E4.73901
G1 X106.091 Y4.65 E4.78021
G1 X106.213 Y4.639 E4.78632
G1 X106.929 Y4.586 E4.82214
G1 X107.059 Y4.579 E4.82863
G1 X107.799 Y4.551 E4.86558
G1 X107.935 Y4.548 E4.87236
G1 X108.806 Y4.548 E4.91582
G1 X108.951 Y4.551 E4.92305
G1 X109.62 Y4.578 E4.95646
G1 X109.762 Y4.586 E4.96355
G1 X110.65 Y4.657 E5.008
G1 X110.794 Y4.672 E5.01522
G1 X111.798 Y4.793 E5.06567
G1 X112.346 Y4.877 E5.09333
G1 X112.498 Y4.904 E5.10103
G1 X113.267 Y5.059 E5.14017
G1 X113.43 Y5.096 E5.14851
G1 X114.221 Y5.294 E5.18919
G1 X114.384 Y5.339 E5.19763
G1 X115.125 Y5.562 E5.23623
G1 X115.277 Y5.611 E5.2442
G1 X116 Y5.864 E5.28242
G1 X116.157 Y5.923 E5.29078
G1 X116.901 Y6.223 E5.33081
G1 X117.058 Y6.291 E5.33934
G1 X117.774 Y6.62 E5.37865
G1 X117.921 Y6.691 E5.3868
G1 X118.621 Y7.052 E5.42609
G1 X118.767 Y7.132 E5.4344
G1 X119.493 Y7.55 E5.47619
G1 X119.587 Y7.606 E5.48165
G1 X121.811 Y8.978 E5.61202
G1 X124.181 Y10.349 E5.74862
G1 X126.544 Y11.628 E5.88267
G1 X129.026 Y12.881 E6.02138
G1 X131.46 Y14.025 E6.15556
G1 X133.982 Y15.124 E6.29281
G1 X136.49 Y16.134 E6.4277
G1 X139.057 Y17.084 E6.56426
G1 X141.648 Y17.962 E6.70074
G1 X144.222 Y18.752 E6.83507
G1 X146.894 Y19.491 E6.97338
G1 X149.55 Y20.146 E7.10986
G1 X152.316 Y20.741 E7.25102
G1 X153.526 Y20.975 E7.3125
G1 X154.814 Y21.216 E7.37788
G1 X155.489 Y21.363 E7.41234
G1 X156.051 Y21.509 E7.44131
G1 X156.819 Y21.753 E7.48151
G1 X157.326 Y21.946 E7.50858
G1 X158.135 Y22.336 E7.55338
G1 X158.51 Y22.553 E7.575
G1 X158.993 Y22.873 E7.6039
G1 X159.581 Y23.338 E7.6413
G1 X160.073 Y23.816 E7.67553
G1 X160.516 Y24.35 E7.71014
G1 X160.739 Y24.66 E7.7292
G1 X162.389 Y26.891 E7.86763
G1 X164.079 Y29.047 E8.0043
G1 X165.805 Y31.128 E8.13919
G1 X167.618 Y33.187 E8.27606
G1 X169.475 Y35.183 E8.41207
G1 X171.387 Y37.124 E8.548
G1 X173.354 Y39.01 E8.68396
G1 X175.368 Y40.836 E8.81959
G1 X177.457 Y42.622 E8.9567
G1 X179.58 Y44.338 E9.09289
G1 X181.719 Y45.968 E9.22706
G1 X183.965 Y47.583 E9.36508
G1 X186.188 Y49.088 E9.49901
G1 X188.521 Y50.572 E9.63695
G1 X190.143 Y51.55 E9.73145
G1 X190.624 Y51.835 E9.75934
G1 X191.064 Y52.141 E9.78608
G1 X191.454 Y52.51 E9.81287
G1 X191.784 Y52.933 E9.83963
G1 X192.048 Y53.399 E9.86635
G1 X192.256 Y53.957 E9.89606
G1 X192.569 Y55.068 E9.95365
G1 X193.362 Y57.745 E10.09294
G1 X194.202 Y60.312 E10.22769
G1 X195.131 Y62.898 E10.36478
G1 X196.117 Y65.417 E10.49974
G1 X197.186 Y67.937 E10.63631
G1 X198.325 Y70.424 E10.77278
G1 X199.525 Y72.861 E10.9083
G1 X200.792 Y75.256 E11.04348
G1 X202.142 Y77.647 E11.18046
G1 X203.55 Y79.981 E11.31645
G1 X205.022 Y82.275 E11.45244
G1 X206.549 Y84.508 E11.5874
G1 X208.161 Y86.733 E11.72448
G1 X209.82 Y88.888 E11.86016
G1 X211.539 Y90.997 E11.9959
G1 X213.328 Y93.069 E12.13247
G1 X215.17 Y95.083 E12.26864
G1 X216.336 Y96.302 E12.3528
G1 X216.698 Y96.675 E12.37873
G1 X216.907 Y96.909 E12.39438
G1 X217.273 Y97.358 E12.42328
G1 X217.712 Y97.98 E12.46127
G1 X217.999 Y98.482 E12.49012
G1 X218.266 Y99.052 E12.52152
G1 X218.543 Y99.821 E12.5623
G1 X218.689 Y100.351 E12.58972
G1 X218.794 Y100.809 E12.61317
G1 X218.909 Y101.454 E12.64585
G1 X218.984 Y102.027 E12.67468
G1 X219.024 Y102.529 E12.69981
G1 X219.031 Y102.649 E12.7058
G1 X219.06 Y103.416 E12.7441
G1 X219.058 Y104.065 E12.77648
G1 X219.034 Y104.632 E12.80479
G1 X219 Y105.114 E12.8289
G1 X218.95 Y105.615 E12.85402
G1 X218.927 Y105.797 E12.86317
G1 X218.744 Y107.004 E12.92407
G1 X218.683 Y107.335 E12.94087
G1 X218.543 Y107.979 E12.97374
G1 X218.404 Y108.511 E13.00118
G1 X218.176 Y109.228 E13.03871
G1 X217.97 Y109.775 E13.06787
G1 X217.58 Y110.582 E13.11259
G1 X217.367 Y110.95 E13.1338
G1 X217.032 Y111.456 E13.16408
G1 X216.659 Y111.943 E13.19468
G1 X216.267 Y112.38 E13.22397
G1 X214.47 Y114.439 E13.36032
G1 X212.753 Y116.522 E13.49499
G1 X211.067 Y118.69 E13.63201
G1 X209.448 Y120.899 E13.76865
G1 X207.899 Y123.142 E13.90464
G1 X206.427 Y125.406 E14.03937
G1 X204.993 Y127.758 E14.1768
G1 X203.65 Y130.107 E14.3118
G1 X202.357 Y132.521 E14.44842
G1 X201.136 Y134.967 E14.58481
G1 X199.992 Y137.431 E14.72034
G1 X198.923 Y139.918 E14.8554
G1 X197.902 Y142.487 E14.99332
G1 X196.973 Y145.035 E15.12862
G1 X196.114 Y147.611 E15.2641
G1 X195.323 Y150.231 E15.40064
G1 X194.608 Y152.865 E15.5368
G1 X193.969 Y155.51 E15.67256
G1 X193.407 Y158.177 E15.80854
G1 X192.918 Y160.862 E15.9447
G1 X192.508 Y163.544 E16.08006
G1 X192.17 Y166.266 E16.2169
G1 X191.91 Y168.987 E16.35327
G1 X191.728 Y171.707 E16.48927
G1 X191.623 Y174.403 E16.62388
G1 X191.601 Y177.158 E16.76133
G1 X191.588 Y177.825 E16.79461
G1 X191.56 Y178.43 E16.82483
G1 X191.536 Y178.745 E16.84059
G1 X191.487 Y179.246 E16.86571
G1 X191.463 Y179.44 E16.87546
G1 X191.267 Y180.722 E16.94016
G1 X191.208 Y181.038 E16.9562
G1 X191.061 Y181.701 E16.99008
G1 X190.939 Y182.165 E17.01401
G1 X190.731 Y182.823 E17.04844
G1 X190.502 Y183.439 E17.08123
G1 X190.111 Y184.249 E17.1261
G1 X189.894 Y184.624 E17.14772
G1 X189.574 Y185.107 E17.17663
G1 X189.109 Y185.695 E17.21403
G1 X188.631 Y186.187 E17.24825
G1 X188.14 Y186.598 E17.28019
G1 X187.692 Y186.908 E17.30737
G1 X187.146 Y187.215 E17.33862
G1 X186.659 Y187.435 E17.36528
G1 X186.19 Y187.616 E17.39037
G1 X186.008 Y187.676 E17.39993
G1 X183.35 Y188.477 E17.53842
G1 X180.731 Y189.346 E17.67609
G1 X178.21 Y190.265 E17.80996
G1 X175.657 Y191.277 E17.94697
G1 X173.171 Y192.344 E18.08194
G1 X170.68 Y193.5 E18.21895
G1 X168.255 Y194.707 E18.35409
G1 X165.329 Y196.281 E18.51985
G1 X164.998 Y196.465 E18.53874
G1 X164.195 Y196.897 E18.58423
G1 X163.458 Y197.277 E18.6256
G1 X162.68 Y197.658 E18.66882
G1 X161.886 Y198.028 E18.71252
G1 X161.07 Y198.385 E18.75696
G1 X160.279 Y198.71 E18.79963
G1 X159.427 Y199.032 E18.84507
G1 X158.53 Y199.344 E18.89245
G1 X157.624 Y199.635 E18.93992
G1 X156.996 Y199.824 E18.97264
G1 X156.145 Y200.068 E19.01681
G1 X155.411 Y200.266 E19.05474
G1 X154.511 Y200.488 E19.10098
G1 X153.707 Y200.669 E19.1421
G1 X152.957 Y200.82 E19.18027
G1 X152.146 Y200.96 E19.22133
G1 X152.042 Y200.977 E19.22659
G1 X151.206 Y201.095 E19.26871
G1 X151.094 Y201.109 E19.27434
G1 X150.426 Y201.182 E19.30786
G1 X150.3 Y201.193 E19.31417
G1 X149.515 Y201.251 E19.35344
G1 X149.385 Y201.258 E19.35994
G1 X148.557 Y201.289 E19.40128
G1 X148.422 Y201.292 E19.40801
G1 X147.716 Y201.292 E19.44324
G1 X147.574 Y201.289 E19.45032
G1 X146.714 Y201.255 E19.49326
G1 X146.567 Y201.246 E19.50061
G1 X145.611 Y201.169 E19.54846
G1 X145.015 Y201.099 E19.5784
G1 X143.653 Y200.875 E19.64726
G1 X143.001 Y200.742 E19.68046
G1 X142.214 Y200.545 E19.72093
G1 X142.054 Y200.501 E19.72921
G1 X141.3 Y200.275 E19.76848
G1 X141.142 Y200.224 E19.77677
G1 X140.427 Y199.973 E19.81457
G1 X140.276 Y199.916 E19.82262
G1 X139.547 Y199.623 E19.86182
G1 X139.387 Y199.554 E19.87051
G1 X138.077 Y198.952 E19.94244
G1 X135.525 Y197.824 E20.08164
G1 X132.986 Y196.784 E20.21853
G1 X130.472 Y195.841 E20.35249
G1 X127.877 Y194.948 E20.4894
G1 X125.286 Y194.138 E20.62484
G1 X122.65 Y193.394 E20.76149
G1 X120.01 Y192.73 E20.8973
G1 X117.335 Y192.135 E21.03402
G1 X114.667 Y191.624 E21.16954
G1 X111.98 Y191.185 E21.30538
G1 X109.276 Y190.822 E21.44149
G1 X106.556 Y190.535 E21.57794
G1 X103.874 Y190.329 E21.71214
G1 X101.105 Y190.194 E21.85045
G1 X98.414 Y190.139 E21.98474
G1 X95.684 Y190.161 E22.12094
G1 X92.953 Y190.26 E22.25728
G1 X90.227 Y190.436 E22.39356
G1 X87.512 Y190.688 E22.5296
G1 X84.799 Y191.019 E22.66595
G1 X82.094 Y191.426 E22.80243
G1 X79.441 Y191.902 E22.9369
G1 X76.762 Y192.462 E23.07344
G1 X74.133 Y193.088 E23.20827
G1 X71.629 Y193.766 E23.3377
G1 X71.055 Y193.899 E23.36709
G1 X70.477 Y193.994 E23.39631
G1 X69.849 Y194.052 E23.42778
G1 X69.729 Y194.058 E23.43377
G1 X66.976 Y194.145 E23.57119
G1 X64.213 Y194.31 E23.70928
G1 X61.53 Y194.546 E23.84365
G1 X58.782 Y194.867 E23.98168
G1 X56.109 Y195.257 E24.11645
G1 X53.44 Y195.722 E24.25162
G1 X50.767 Y196.266 E24.38771
G1 X47.558 Y197.025 E24.55222
G1 X47.223 Y197.11 E24.56946
G1 X46.314 Y197.325 E24.61606
G1 X45.56 Y197.488 E24.65455
G1 X44.677 Y197.662 E24.69945
G1 X43.813 Y197.814 E24.74322
G1 X42.996 Y197.939 E24.78445
G1 X42.128 Y198.05 E24.82811
G1 X41.131 Y198.151 E24.87811
G1 X40.266 Y198.215 E24.92138
G1 X39.257 Y198.263 E24.97177
G1 X38.564 Y198.284 E25.00636
G1 X37.765 Y198.299 E25.04623
G1 X36.928 Y198.299 E25.08799
G1 X36.203 Y198.287 E25.12417
G1 X35.265 Y198.25 E25.171
G1 X34.563 Y198.205 E25.2061
G1 X33.516 Y198.111 E25.25854
G1 X33.4 Y198.099 E25.26436
G1 X32.702 Y198.011 E25.29946
G1 X31.842 Y197.878 E25.34287
G1 X31.094 Y197.738 E25.38084
G1 X30.963 Y197.711 E25.38751
G1 X30.081 Y197.51 E25.43264
G1 X29.943 Y197.476 E25.43973
G1 X29.246 Y197.288 E25.47575
G1 X29.119 Y197.251 E25.48235
G1 X28.36 Y197.016 E25.52199
G1 X28.221 Y196.97 E25.52929
G1 X27.505 Y196.716 E25.5672
G1 X27.365 Y196.663 E25.57467
G1 X26.349 Y196.254 E25.62931
G1 X25.847 Y196.033 E25.65667
G1 X25.71 Y195.968 E25.66424
G1 X25.001 Y195.616 E25.70373
G1 X24.857 Y195.541 E25.71183
G1 X24.2 Y195.177 E25.7493
G1 X24.054 Y195.091 E25.75775
G1 X23.356 Y194.66 E25.79868
G1 X23.217 Y194.57 E25.80694
G1 X22.561 Y194.122 E25.84657
G1 X22.423 Y194.023 E25.85505
G1 X21.82 Y193.568 E25.89274
G1 X21.692 Y193.467 E25.90087
G1 X21.076 Y192.957 E25.94077
G1 X20.952 Y192.849 E25.94897
G1 X20.386 Y192.335 E25.98712
G1 X20.258 Y192.213 E25.99594
G1 X19.677 Y191.631 E26.03697
G1 X19.572 Y191.521 E26.04455
G1 X19.051 Y190.953 E26.08301
G1 X18.943 Y190.83 E26.09117
G1 X18.416 Y190.2 E26.13215
G1 X18.317 Y190.076 E26.14007
G1 X17.947 Y189.592 E26.17046
G1 X17.837 Y189.44 E26.17982
G1 X17.04 Y188.276 E26.2502
G1 X16.768 Y187.853 E26.27529
G1 X16.688 Y187.72 E26.28304
G1 X16.338 Y187.114 E26.31795
G1 X16.252 Y186.958 E26.32684
G1 X15.651 Y185.787 E26.3925
G1 X15.425 Y185.311 E26.41879
G1 X15.101 Y184.583 E26.45855
G1 X14.2 Y182.581 E26.56808
G1 X12.993 Y180.081 E26.70658
G1 X11.762 Y177.707 E26.83999
G1 X10.423 Y175.291 E26.9778
G1 X9.041 Y172.958 E27.11308
G1 X8.19 Y171.591 E27.19342
G1 X7.473 Y170.458 E27.26031
G1 X7.268 Y170.101 E27.28085
G1 X7.034 Y169.645 E27.30642
G1 X6.821 Y169.185 E27.33171
G1 X6.561 Y168.526 E27.36706
G1 X6.348 Y167.858 E27.40204
G1 X6.127 Y166.929 E27.44968
G1 X6.037 Y166.411 E27.47591
G1 X5.955 Y165.669 E27.51315
G1 X5.93 Y165.162 E27.53848
G1 X5.929 Y164.586 E27.56721
G1 X5.955 Y164.061 E27.59344
G1 X6.053 Y163.189 E27.63722
G1 X6.152 Y162.62 E27.66603
G1 X6.652 Y159.896 E27.8042
G1 X7.069 Y157.196 E27.9405
G1 X7.411 Y154.483 E28.07692
G1 X7.672 Y151.798 E28.21151
G1 X7.862 Y149.039 E28.34948
G1 X7.97 Y146.347 E28.4839
G1 X8.003 Y143.601 E28.6209
G1 X7.958 Y140.85 E28.75817
G1 X7.838 Y138.158 E28.89261
G1 X7.642 Y135.467 E29.02722
G1 X7.363 Y132.719 E29.16502
G1 X7.01 Y130.003 E29.30166
G1 X6.588 Y127.348 E29.43579
G1 X6.076 Y124.626 E29.57397
G1 X5.505 Y122.004 E29.70785
G1 X4.85 Y119.354 E29.84403
G1 X4.122 Y116.745 E29.97917
G1 X3.835 Y115.74 E30.03131
G1 X3.596 Y114.847 E30.07743
G1 X3.417 Y114.12 E30.11479
G1 X3.222 Y113.258 E30.15888
G1 X3.041 Y112.345 E30.20531
G1 X2.914 Y111.594 E30.24331
G1 X2.789 Y110.7 E30.28835
G1 X2.7 Y109.879 E30.32955
G1 X2.689 Y109.756 E30.33571
G1 X2.636 Y109.039 E30.37158
G1 X2.629 Y108.912 E30.37793
G1 X2.6 Y108.154 E30.41577
G1 X2.597 Y108.016 E30.42266
G1 X2.597 Y107.229 E30.46192
G1 X2.6 Y107.085 E30.46911
G1 X2.632 Y106.288 E30.5089
G1 X2.641 Y106.143 E30.51615
G1 X2.706 Y105.335 E30.55659
G1 X2.72 Y105.193 E30.56371
G1 X2.843 Y104.172 E30.61501
G1 X2.927 Y103.624 E30.64267
G1 X2.954 Y103.472 E30.65038
G1 X3.109 Y102.703 E30.68951
G1 X3.145 Y102.541 E30.69779
G1 X3.337 Y101.773 E30.73729
G1 X3.382 Y101.612 E30.74563
G1 X3.779 Y100.286 E30.81468
G1 X4.37 Y98.373 E30.91457
G1 X5.1 Y95.753 E31.05027
G1 X5.75 Y93.131 E31.18504
G1 X6.339 Y90.433 E31.32281
G1 X6.838 Y87.793 E31.45685
G1 X7.269 Y85.093 E31.59326
G1 X7.628 Y82.348 E31.73138
G1 X7.901 Y79.674 E31.86548
G1 X8.102 Y76.943 E32.0021
G1 X8.226 Y74.216 E32.13829
G1 X8.272 Y71.505 E32.27356
G1 X8.24 Y68.758 E32.41062
G1 X8.132 Y66.056 E32.54553
G1 X7.946 Y63.306 E32.68304
G1 X7.687 Y60.617 E32.81781
G1 X7.348 Y57.91 E32.95392
G1 X6.931 Y55.205 E33.09047
G1 X6.445 Y52.548 E33.22523
G1 X5.879 Y49.884 E33.3611
G1 X5.229 Y47.2 E33.49888
G1 X4.741 Y45.376 E33.59308
G1 X4.667 Y45.111 E33.6068
G1 X4.468 Y44.369 E33.64513
G1 X4.244 Y43.461 E33.69179
G1 X4.064 Y42.662 E33.73265
G1 X3.893 Y41.808 E33.7761
G1 X3.756 Y40.997 E33.81714
G1 X3.638 Y40.161 E33.85926
G1 X3.624 Y40.049 E33.86489
G1 X3.551 Y39.381 E33.89841
G1 X3.54 Y39.256 E33.90467
G1 X3.482 Y38.472 E33.9439
G1 X3.475 Y38.341 E33.95044
G1 X3.444 Y37.512 E33.99183
G1 X3.441 Y37.377 E33.99857
G1 X3.441 Y36.671 E34.03379
G1 X3.444 Y36.529 E34.04087
G1 X3.478 Y35.67 E34.08376
G1 X3.487 Y35.523 E34.09111
G1 X3.564 Y34.566 E34.13901
G1 X3.634 Y33.97 E34.16895
G1 X3.858 Y32.608 E34.23781
G1 X3.989 Y31.962 E34.2707
G1 X4.187 Y31.171 E34.31138
G1 X4.231 Y31.01 E34.3197
G1 X4.458 Y30.254 E34.35909
G1 X4.509 Y30.098 E34.36727
G1 X4.759 Y29.385 E34.40497
G1 X4.817 Y29.23 E34.41323
G1 X5.117 Y28.486 E34.45325
G1 X5.185 Y28.328 E34.46183
G1 X5.511 Y27.619 E34.50076
G1 X5.582 Y27.473 E34.50886
G1 X5.943 Y26.773 E34.54815
G1 X6.024 Y26.626 E34.55653
G1 X6.432 Y25.918 E34.5973
G1 X6.516 Y25.779 E34.6054
G1 X6.921 Y25.144 E34.64297
G1 X7.01 Y25.01 E34.651
G1 X7.473 Y24.351 E34.69118
G1 X7.565 Y24.227 E34.69888
G1 X7.957 Y23.717 E34.73097
G1 X8.078 Y23.568 E34.74055
G1 X8.95 Y22.551 E34.80739
G1 X9.361 Y22.106 E34.83761
G1 X10.311 Y21.17 E34.90414
G1 X10.725 Y20.786 E34.93232
G1 X10.84 Y20.685 E34.93995
G1 X11.541 Y20.095 E34.98566
G1 X12.042 Y19.692 E35.01774
G1 X13.805 Y18.251 E35.13134
G1 X15.863 Y16.476 E35.26693
G0 F2618.2 X16.129 Y16.775
G1 F1200 X18.162 Y14.916 E35.40437
G1 X20.121 Y13.022 E35.54031
G1 X22.077 Y11.02 E35.67995
G1 X23.104 Y9.922 E35.75495
