;FLAVOR:Marlin
;TIME:2173
;Filament used: 2.13552m, 0m
;Layer height: 0.2
;MINX:55.27
;MINY:45.379
;MINZ:0.3
;MAXX:179.742
;MAXY:188.056
;MAXZ:1.5
;POSTPROCESSED
;Generated with Cura_SteamEngine 4.8.0
T0
M140 S60
M105
M190 S60
M104 S200
M105
M109 S200
M82 ;absolute extrusion mode
M201 X500.00 Y500.00 Z100.00 E5000.00 	;Setup machine max acceleration
M203 X500.00 Y500.00 Z10.00 E50.00 	;Setup machine max feedrate
M204 P500.00 R1000.00 T500.00 		;Setup Print/Retract/Travel acceleration
M205 X8.00 Y8.00 Z0.40 E5.00 		;Setup Jerk
M220 S100 				;Reset Feedrate
M221 S100 				;Reset Flowrate
G28				;Home the Machine
#G29 				;Bed Level
G92 E0
M300 P150 S587
G92 E0
G1 F1500 E-5.5
;LAYER_COUNT:7
;LAYER:0
M107
G0 F2618.2 X108.813 Y47.517 Z0.3
;TYPE:SKIRT
G1 F1500 E0
G1 F1200 X109.066 Y47.044 E0.02676
G1 X109.387 Y46.615 E0.05349
G1 X109.768 Y46.237 E0.08027
G1 X110.2 Y45.92 E0.107
G1 X110.676 Y45.672 E0.13378
G1 X111.182 Y45.496 E0.16051
G1 X111.709 Y45.398 E0.18725
G1 X112.245 Y45.379 E0.21401
G1 X112.778 Y45.44 E0.24077
G1 X113.296 Y45.579 E0.26753
G1 X113.787 Y45.794 E0.29427
G1 X114.242 Y46.079 E0.32106
G1 X114.648 Y46.429 E0.3478
G1 X114.998 Y46.835 E0.37454
G1 X115.284 Y47.289 E0.40131
G1 X115.478 Y47.721 E0.42494
G1 X115.718 Y48.366 E0.45927
G1 X116.222 Y49.783 E0.53431
G1 X117.196 Y52.292 E0.66858
G1 X118.263 Y54.827 E0.8058
G1 X119.382 Y57.287 E0.94063
G1 X120.591 Y59.76 E1.07796
G1 X121.854 Y62.168 E1.21362
G1 X123.177 Y64.524 E1.34843
G1 X124.6 Y66.899 E1.48656
G1 X126.039 Y69.153 E1.61997
G1 X127.586 Y71.432 E1.75739
G1 X129.186 Y73.653 E1.89396
G1 X130.848 Y75.823 E2.03033
G1 X132.555 Y77.931 E2.16565
G1 X134.312 Y79.976 E2.30016
G1 X136.177 Y82.028 E2.4385
G1 X138.05 Y83.975 E2.57329
G1 X140.021 Y85.91 E2.71109
G1 X141.991 Y87.738 E2.84517
G1 X144.062 Y89.554 E2.98259
G1 X146.118 Y91.257 E3.11578
G1 X148.308 Y92.968 E3.25443
G1 X150.493 Y94.578 E3.38984
G1 X152.729 Y96.129 E3.5256
G1 X155.015 Y97.623 E3.66185
G1 X157.331 Y99.043 E3.79738
G1 X158.981 Y99.992 E3.89234
G1 X159.046 Y100.036 E3.89626
G1 X160.181 Y100.683 E3.96144
G1 X160.64 Y100.974 E3.98855
G1 X161.071 Y101.277 E4.01484
G1 X161.59 Y101.705 E4.0484
G1 X162.041 Y102.133 E4.07942
G1 X162.546 Y102.665 E4.11602
G1 X162.825 Y102.999 E4.13773
G1 X163.319 Y103.631 E4.17775
G1 X163.785 Y104.288 E4.21793
G1 X164.187 Y104.907 E4.25476
G1 X164.315 Y105.117 E4.26703
G1 X164.787 Y105.932 E4.31401
G1 X165.23 Y106.751 E4.36047
G1 X165.587 Y107.456 E4.39989
G1 X165.851 Y108.001 E4.4301
G1 X166.078 Y108.488 E4.45691
G1 X166.35 Y109.087 E4.48973
G1 X166.646 Y109.763 E4.52655
G1 X166.839 Y110.219 E4.55125
G1 X167.133 Y110.926 E4.58945
G1 X167.471 Y111.771 E4.63486
G1 X167.73 Y112.456 E4.67139
G1 X167.882 Y112.97 E4.69814
G1 X167.962 Y113.645 E4.73205
G1 X167.974 Y114.167 E4.7581
G1 X167.989 Y115.956 E4.84735
G1 X168.092 Y118.721 E4.9854
G1 X168.269 Y121.413 E5.11999
G1 X168.523 Y124.127 E5.25598
G1 X168.852 Y126.81 E5.39084
G1 X169.265 Y129.539 E5.52854
G1 X169.749 Y132.223 E5.66461
G1 X170.308 Y134.89 E5.80056
G1 X170.932 Y137.495 E5.9342
G1 X171.652 Y140.169 E6.07235
G1 X172.436 Y142.781 E6.20841
G1 X172.901 Y144.191 E6.28248
G1 X173.051 Y144.671 E6.30757
G1 X173.143 Y144.997 E6.32447
G1 X173.346 Y145.803 E6.36594
G1 X174.069 Y148.505 E6.50548
G1 X174.839 Y151.087 E6.63991
G1 X175.701 Y153.707 E6.77751
G1 X176.615 Y156.242 E6.91195
G1 X177.625 Y158.813 E7.04976
G1 X178.682 Y161.292 E7.18422
G1 X178.891 Y161.748 E7.20924
G1 X179.369 Y162.826 E7.26807
G1 X179.586 Y163.476 E7.30226
G1 X179.692 Y164.032 E7.3305
G1 X179.742 Y164.566 E7.35726
G1 X179.717 Y165.108 E7.38433
G1 X179.69 Y165.366 E7.39727
G1 X179.6 Y165.876 E7.42311
G1 X179.441 Y166.5 E7.45523
G1 X179.039 Y167.999 E7.53266
G1 X178.409 Y170.645 E7.66836
G1 X177.845 Y173.345 E7.80597
G1 X177.37 Y176.008 E7.94092
G1 X176.97 Y178.682 E8.07582
G1 X176.64 Y181.405 E8.21266
G1 X176.427 Y183.562 E8.3208
G1 X176.347 Y184.049 E8.34542
G1 X176.229 Y184.494 E8.36839
G1 X176.047 Y184.998 E8.39512
G1 X175.633 Y185.739 E8.43747
G1 X175.325 Y186.178 E8.46422
G1 X174.763 Y186.754 E8.50437
G1 X174.215 Y187.188 E8.53925
G1 X173.733 Y187.47 E8.56711
G1 X173.479 Y187.595 E8.58123
G1 X172.77 Y187.856 E8.61892
G1 X172.018 Y187.999 E8.65711
G1 X171.429 Y188.046 E8.68659
G1 X170.898 Y188.053 E8.71309
G1 X170.034 Y188.056 E8.75619
G1 X168.807 Y188.043 E8.81741
G1 X167.956 Y188.025 E8.85988
G1 X166.707 Y187.983 E8.92223
G1 X165.896 Y187.945 E8.96273
G1 X164.665 Y187.875 E9.02424
G1 X163.786 Y187.813 E9.06821
G1 X162.602 Y187.716 E9.12747
G1 X161.786 Y187.639 E9.16837
G1 X160.503 Y187.504 E9.23273
G1 X159.676 Y187.407 E9.27427
G1 X158.481 Y187.252 E9.33439
G1 X157.625 Y187.13 E9.37753
G1 X156.432 Y186.947 E9.43774
G1 X155.594 Y186.808 E9.48012
G1 X154.344 Y186.586 E9.54346
G1 X153.581 Y186.441 E9.58221
G1 X152.315 Y186.186 E9.64664
G1 X151.477 Y186.006 E9.6894
G1 X150.358 Y185.755 E9.74661
G1 X149.537 Y185.558 E9.78873
G1 X148.264 Y185.239 E9.85421
G1 X147.472 Y185.031 E9.89506
G1 X146.366 Y184.727 E9.95229
G1 X145.457 Y184.465 E9.99948
G1 X144.343 Y184.131 E10.05751
G1 X143.558 Y183.886 E10.09853
G1 X142.39 Y183.504 E10.15984
G1 X141.593 Y183.236 E10.20179
G1 X140.421 Y182.825 E10.26375
G1 X139.585 Y182.52 E10.30815
G1 X138.5 Y182.111 E10.366
G1 X137.649 Y181.779 E10.41157
G1 X136.529 Y181.325 E10.47187
G1 X135.75 Y181.001 E10.51396
G1 X134.671 Y180.536 E10.57258
G1 X133.82 Y180.157 E10.61905
G1 X132.774 Y179.677 E10.67647
G1 X132.076 Y179.347 E10.71499
G1 X129.588 Y178.213 E10.8514
G1 X127.072 Y177.152 E10.98763
G1 X124.526 Y176.16 E11.12395
G1 X121.964 Y175.249 E11.25961
G1 X119.401 Y174.415 E11.39408
G1 X116.754 Y173.636 E11.53174
G1 X114.115 Y172.941 E11.66789
G1 X111.483 Y172.325 E11.80275
G1 X108.791 Y171.775 E11.93983
G1 X106.094 Y171.305 E12.07641
G1 X103.419 Y170.915 E12.21127
G1 X101.761 Y170.712 E12.29461
G1 X100.873 Y170.609 E12.33921
G1 X100.346 Y170.508 E12.36598
G1 X99.75 Y170.295 E12.39756
G1 X99.233 Y170.054 E12.42601
G1 X99.095 Y169.979 E12.43385
G1 X96.69 Y168.714 E12.56942
G1 X94.232 Y167.511 E12.70595
G1 X91.755 Y166.383 E12.84174
G1 X89.242 Y165.323 E12.97781
G1 X86.66 Y164.32 E13.11601
G1 X84.139 Y163.422 E13.24952
G1 X81.544 Y162.579 E13.38564
G1 X78.9 Y161.801 E13.52315
G1 X76.296 Y161.115 E13.65749
G1 X73.62 Y160.491 E13.79458
G1 X70.944 Y159.944 E13.93085
G1 X68.238 Y159.473 E14.06788
G1 X65.686 Y159.096 E14.19658
G1 X65.218 Y158.998 E14.22044
G1 X64.726 Y158.842 E14.24619
G1 X64.006 Y158.509 E14.28576
G1 X63.753 Y158.356 E14.30052
G1 X63.316 Y158.045 E14.32727
G1 X62.754 Y157.497 E14.36644
G1 X62.409 Y157.086 E14.39321
G1 X62.133 Y156.639 E14.41942
G1 X61.925 Y156.21 E14.4432
G1 X61.735 Y155.708 E14.46998
G1 X61.618 Y155.168 E14.49755
G1 X61.565 Y154.737 E14.51921
G1 X61.544 Y154.226 E14.54473
G1 X61.581 Y152.968 E14.60752
G1 X61.623 Y150.187 E14.74628
G1 X61.588 Y147.454 E14.88264
G1 X61.476 Y144.73 E15.01865
G1 X61.287 Y142.035 E15.15344
G1 X61.018 Y139.289 E15.29109
G1 X60.679 Y136.611 E15.42576
G1 X60.257 Y133.902 E15.56255
G1 X59.766 Y131.237 E15.69774
G1 X59.193 Y128.568 E15.83393
G1 X58.551 Y125.932 E15.96929
G1 X57.822 Y123.275 E16.10675
G1 X57.027 Y120.663 E16.24296
G1 X56.168 Y118.108 E16.37744
G1 X55.891 Y117.354 E16.41752
G1 X55.582 Y116.475 E16.464
G1 X55.375 Y115.718 E16.50315
G1 X55.283 Y115.189 E16.52994
G1 X55.27 Y114.669 E16.55589
G1 X55.288 Y114.283 E16.57517
G1 X55.353 Y113.751 E16.60191
G1 X55.485 Y113.266 E16.62699
G1 X55.583 Y112.985 E16.64184
G1 X55.797 Y112.493 E16.6686
G1 X56.222 Y111.819 E16.70836
G1 X56.551 Y111.396 E16.73509
G1 X57.027 Y110.952 E16.76757
G1 X57.239 Y110.783 E16.78109
G1 X57.837 Y110.396 E16.81663
G1 X58.803 Y109.9 E16.8708
G1 X59.316 Y109.646 E16.89936
G1 X61.719 Y108.369 E17.03513
G1 X64.081 Y107.028 E17.17063
G1 X66.404 Y105.619 E17.30618
G1 X68.736 Y104.116 E17.4446
G1 X70.927 Y102.611 E17.57721
G1 X73.178 Y100.972 E17.71613
G1 X75.322 Y99.315 E17.85131
G1 X77.42 Y97.596 E17.98663
G1 X79.486 Y95.803 E18.12311
G1 X81.5 Y93.955 E18.25948
G1 X83.441 Y92.066 E18.3946
G1 X85.352 Y90.104 E18.53125
G1 X87.21 Y88.081 E18.66828
G1 X88.983 Y86.039 E18.8032
G1 X90.708 Y83.933 E18.93902
G1 X92.377 Y81.775 E19.07512
G1 X93.981 Y79.574 E19.211
G1 X95.546 Y77.295 E19.34892
G1 X97.006 Y75.037 E19.48307
G1 X98.414 Y72.713 E19.61864
G1 X99.777 Y70.316 E19.7562
G1 X101.045 Y67.929 E19.89105
G1 X102.268 Y65.463 E20.02838
G1 X103.399 Y63.011 E20.1631
G1 X104.475 Y60.491 E20.2998
G1 X105.472 Y57.96 E20.43552
G1 X106.403 Y55.387 E20.57203
G1 X107.254 Y52.811 E20.70738
G1 X108.03 Y50.214 E20.8426
G1 X108.256 Y49.358 E20.88677
G1 X108.305 Y49.217 E20.89422
G1 X108.633 Y48.022 E20.95604
G1 X108.813 Y47.517 E20.98279
G0 F2618.2 X109.19 Y47.653
G1 F1200 X109.435 Y47.21 E21.00805
G1 X109.747 Y46.812 E21.03328
G1 X110.117 Y46.468 E21.05848
G1 X110.537 Y46.186 E21.08372
G1 X110.996 Y45.974 E21.10895
G1 X111.482 Y45.837 E21.13414
G1 X111.984 Y45.778 E21.15935
G1 X112.489 Y45.799 E21.18457
G1 X112.985 Y45.9 E21.20982
G1 X113.458 Y46.077 E21.23502
G1 X113.898 Y46.326 E21.26024
G1 X114.293 Y46.642 E21.28548
G1 X114.633 Y47.016 E21.3107
G1 X114.911 Y47.439 E21.33595
G1 X115.103 Y47.861 E21.35908
G1 X115.341 Y48.5 E21.3931
G1 X115.848 Y49.926 E21.46861
G1 X116.825 Y52.443 E21.60331
G1 X117.888 Y54.968 E21.73999
G1 X119.023 Y57.463 E21.87674
G1 X120.236 Y59.943 E22.01447
G1 X121.495 Y62.343 E22.14969
G1 X122.843 Y64.746 E22.28715
G1 X124.253 Y67.098 E22.42396
G1 X125.715 Y69.388 E22.5595
G1 X127.263 Y71.668 E22.69699
G1 X128.86 Y73.884 E22.83327
G1 X130.535 Y76.073 E22.97078
G1 X132.217 Y78.15 E23.10412
G1 X134.029 Y80.26 E23.24288
G1 X135.876 Y82.292 E23.37988
G1 X137.782 Y84.272 E23.51699
G1 X139.734 Y86.189 E23.65349
G1 X141.721 Y88.033 E23.78873
G1 X143.807 Y89.862 E23.92714
G1 X145.901 Y91.596 E24.06278
G1 X148.046 Y93.273 E24.19862
G1 X150.256 Y94.902 E24.33559
G1 X152.504 Y96.461 E24.47207
G1 X154.795 Y97.957 E24.60858
G1 X157.144 Y99.398 E24.74607
G1 X158.781 Y100.339 E24.84027
G1 X158.841 Y100.38 E24.8439
G1 X159.983 Y101.031 E24.90948
G1 X160.423 Y101.309 E24.93544
G1 X160.966 Y101.702 E24.96889
G1 X161.468 Y102.136 E25.00199
G1 X161.83 Y102.487 E25.02715
G1 X162.249 Y102.933 E25.05768
G1 X162.51 Y103.245 E25.07797
G1 X163.004 Y103.877 E25.11799
G1 X163.455 Y104.514 E25.15693
G1 X163.847 Y105.118 E25.19286
G1 X163.969 Y105.318 E25.20454
G1 X164.435 Y106.123 E25.25095
G1 X164.873 Y106.932 E25.29685
G1 X165.227 Y107.63 E25.33589
G1 X165.488 Y108.17 E25.36581
G1 X165.714 Y108.653 E25.39242
G1 X165.984 Y109.247 E25.42497
G1 X166.277 Y109.919 E25.46155
G1 X166.47 Y110.372 E25.48611
G1 X166.762 Y111.075 E25.52409
G1 X167.097 Y111.912 E25.56907
G1 X167.356 Y112.597 E25.6056
G1 X167.497 Y113.083 E25.63085
G1 X167.562 Y113.654 E25.65952
G1 X167.574 Y114.17 E25.68527
G1 X167.59 Y115.975 E25.77533
G1 X167.692 Y118.726 E25.91267
G1 X167.87 Y121.44 E26.04836
G1 X168.127 Y124.18 E26.18566
G1 X168.457 Y126.877 E26.32122
G1 X168.87 Y129.604 E26.45882
G1 X169.352 Y132.278 E26.59438
G1 X169.92 Y134.986 E26.73242
G1 X170.542 Y137.587 E26.86584
G1 X171.269 Y140.283 E27.00515
G1 X172.056 Y142.906 E27.14178
G1 X172.504 Y144.263 E27.21307
G1 X172.696 Y144.881 E27.24536
G1 X172.755 Y145.095 E27.25643
G1 X172.97 Y145.949 E27.30037
G1 X173.673 Y148.576 E27.43604
G1 X174.462 Y151.221 E27.57375
G1 X175.32 Y153.831 E27.71082
G1 X176.238 Y156.376 E27.84579
G1 X177.249 Y158.95 E27.98376
G1 X178.323 Y161.467 E28.12029
G1 X178.525 Y161.91 E28.14458
G1 X179.003 Y162.988 E28.20341
G1 X179.196 Y163.565 E28.23377
G1 X179.298 Y164.099 E28.26089
G1 X179.337 Y164.831 E28.29746
G1 X179.212 Y165.777 E28.34507
G1 X179.055 Y166.397 E28.37698
G1 X178.647 Y167.916 E28.45544
G1 X178.014 Y170.576 E28.59186
G1 X177.454 Y173.258 E28.72855
G1 X176.98 Y175.915 E28.8632
G1 X176.571 Y178.646 E29.00097
G1 X176.242 Y181.362 E29.13746
G1 X176.074 Y183.073 E29.22324
G1 X175.959 Y183.954 E29.26756
G1 X175.843 Y184.386 E29.28988
G1 X175.67 Y184.861 E29.3151
G1 X175.29 Y185.534 E29.35366
G1 X174.997 Y185.946 E29.37888
G1 X174.485 Y186.466 E29.41529
G1 X173.998 Y186.852 E29.44629
G1 X173.556 Y187.111 E29.47185
G1 X173.302 Y187.236 E29.48597
G1 X172.672 Y187.468 E29.51947
G1 X171.956 Y187.604 E29.55583
G1 X171.423 Y187.646 E29.5825
G1 X170.897 Y187.653 E29.60874
G1 X170.038 Y187.656 E29.6516
G1 X168.816 Y187.643 E29.71257
G1 X167.97 Y187.625 E29.75479
G1 X166.725 Y187.584 E29.81693
G1 X165.919 Y187.546 E29.85719
G1 X164.694 Y187.476 E29.91841
G1 X163.819 Y187.414 E29.96217
G1 X162.64 Y187.318 E30.02118
G1 X161.828 Y187.242 E30.06187
G1 X160.55 Y187.107 E30.12599
G1 X159.728 Y187.01 E30.16728
G1 X158.537 Y186.856 E30.22719
G1 X157.685 Y186.735 E30.27013
G1 X156.497 Y186.552 E30.3301
G1 X155.664 Y186.415 E30.37221
G1 X154.418 Y186.193 E30.43535
G1 X153.659 Y186.049 E30.4739
G1 X152.399 Y185.795 E30.53802
G1 X151.564 Y185.616 E30.58063
G1 X150.452 Y185.366 E30.63749
G1 X149.634 Y185.169 E30.67947
G1 X148.365 Y184.852 E30.74472
G1 X147.578 Y184.645 E30.78532
G1 X146.477 Y184.343 E30.84228
G1 X145.572 Y184.082 E30.88927
G1 X144.463 Y183.749 E30.94704
G1 X143.639 Y183.491 E30.99012
G1 X142.482 Y183.114 E31.05083
G1 X141.686 Y182.845 E31.09275
G1 X140.558 Y182.449 E31.15239
G1 X139.726 Y182.146 E31.19657
G1 X138.646 Y181.738 E31.25416
G1 X137.799 Y181.408 E31.29951
G1 X136.683 Y180.956 E31.35959
G1 X135.909 Y180.634 E31.40141
G1 X134.833 Y180.17 E31.45987
G1 X133.987 Y179.794 E31.50606
G1 X132.945 Y179.315 E31.56327
G1 X132.266 Y178.994 E31.60074
G1 X129.76 Y177.852 E31.73814
G1 X127.237 Y176.788 E31.87475
G1 X124.639 Y175.775 E32.01386
G1 X122.107 Y174.875 E32.14793
G1 X119.5 Y174.027 E32.2847
G1 X116.864 Y173.251 E32.42179
G1 X114.237 Y172.559 E32.55732
G1 X111.548 Y171.93 E32.6951
G1 X108.874 Y171.383 E32.83127
G1 X106.184 Y170.915 E32.96749
G1 X103.432 Y170.514 E33.10624
G1 X101.817 Y170.316 E33.18741
G1 X100.919 Y170.212 E33.23251
G1 X100.423 Y170.114 E33.25774
G1 X99.911 Y169.929 E33.2849
G1 X99.424 Y169.703 E33.31168
G1 X99.286 Y169.628 E33.31952
G1 X96.873 Y168.359 E33.45554
G1 X94.409 Y167.152 E33.59242
G1 X91.897 Y166.008 E33.73013
G1 X89.394 Y164.952 E33.86567
G1 X86.802 Y163.946 E34.00438
G1 X84.259 Y163.04 E34.13906
G1 X81.665 Y162.197 E34.27514
G1 X79.009 Y161.416 E34.41326
G1 X76.384 Y160.724 E34.54869
G1 X73.719 Y160.103 E34.68521
G1 X71.027 Y159.552 E34.8223
G1 X68.324 Y159.082 E34.95918
G1 X66.04 Y158.745 E35.07436
G1 X65.329 Y158.614 E35.11043
G1 X64.853 Y158.462 E35.13536
G1 X64.213 Y158.166 E35.17054
G1 X63.96 Y158.013 E35.18529
G1 X63.549 Y157.718 E35.21053
G1 X63.04 Y157.217 E35.24616
G1 X62.717 Y156.829 E35.27135
G1 X62.389 Y156.26 E35.30411
G1 X62.287 Y156.041 E35.31617
G1 X62.111 Y155.567 E35.34139
G1 X61.99 Y154.94 E35.37325
G1 X61.943 Y154.238 E35.40835
G1 X61.982 Y152.928 E35.47374
G1 X62.023 Y150.188 E35.61045
G1 X61.987 Y147.431 E35.74801
G1 X61.876 Y144.722 E35.88328
G1 X61.686 Y142.004 E36.01921
G1 X61.418 Y139.271 E36.15621
G1 X61.071 Y136.531 E36.294
G1 X60.652 Y133.839 E36.42993
G1 X60.156 Y131.152 E36.56625
G1 X59.579 Y128.46 E36.7036
G1 X58.942 Y125.846 E36.83783
G1 X58.205 Y123.158 E36.97688
G1 X57.413 Y120.557 E37.11253
G1 X56.536 Y117.948 E37.24985
G1 X56.268 Y117.221 E37.28851
G1 X55.959 Y116.342 E37.33499
G1 X55.763 Y115.62 E37.37232
G1 X55.679 Y115.121 E37.39756
G1 X55.687 Y114.302 E37.43842
G1 X55.751 Y113.8 E37.46367
G1 X55.96 Y113.116 E37.49935
G1 X56.164 Y112.654 E37.52455
G1 X56.555 Y112.04 E37.56087
G1 X56.867 Y111.643 E37.58606
G1 X57.276 Y111.265 E37.61384
G1 X57.488 Y111.096 E37.62737
G1 X58.02 Y110.752 E37.65898
G1 X58.98 Y110.259 E37.71282
G1 X59.489 Y110.007 E37.74115
G1 X61.898 Y108.727 E37.87725
G1 X64.291 Y107.368 E38.01455
G1 X66.622 Y105.954 E38.15056
G1 X68.934 Y104.464 E38.28779
G1 X71.208 Y102.901 E38.42545
G1 X73.396 Y101.309 E38.56045
G1 X75.557 Y99.638 E38.69674
G1 X77.685 Y97.895 E38.83397
G1 X79.773 Y96.083 E38.9719
G1 X81.767 Y94.253 E39.10692
G1 X83.724 Y92.349 E39.24314
G1 X85.65 Y90.372 E39.38084
G1 X87.5 Y88.358 E39.51728
G1 X89.293 Y86.291 E39.65379
G1 X91.021 Y84.182 E39.78982
G1 X92.697 Y82.015 E39.92649
G1 X94.319 Y79.791 E40.06382
