;FLAVOR:Marlin
;TIME:7803
;Filament used: 7.75959m, 0m
;Layer height: 0.2
;MINX:2.097
;MINY:2.918
;MINZ:0.3
;MAXX:201.599
;MAXY:201.696
;MAXZ:1.5
;POSTPROCESSED
;Generated with Cura_SteamEngine 4.8.0
T0
M140 S60
M105
M190 S60
M104 S200
M105
M109 S200
M82 ;absolute extrusion mode
M201 X500.00 Y500.00 Z100.00 E5000.00 	;Setup machine max acceleration
M203 X500.00 Y500.00 Z10.00 E50.00 	;Setup machine max feedrate
M204 P500.00 R1000.00 T500.00 		;Setup Print/Retract/Travel acceleration
M205 X8.00 Y8.00 Z0.40 E5.00 		;Setup Jerk
M220 S100 				;Reset Feedrate
M221 S100 				;Reset Flowrate
G28				;Home the Machine
#G29 				;Bed Level
G92 E0
M300 P150 S587
G92 E0
G1 F1500 E-5.5
;LAYER_COUNT:7
;LAYER:0
M107
G0 F2618.2 X10.497 Y8.478 Z0.3
;TYPE:SKIRT
G1 F1500 E0
G1 F1200 X10.87 Y8.053 E0.02821
G1 X11.226 Y7.687 E0.05368
G1 X11.605 Y7.322 E0.07994
G1 X12.081 Y6.914 E0.11121
G1 X12.526 Y6.569 E0.1393
G1 X12.99 Y6.25 E0.1674
G1 X13.089 Y6.186 E0.17328
G1 X13.519 Y5.921 E0.19848
G1 X14.066 Y5.627 E0.22946
G1 X14.566 Y5.396 E0.25694
G1 X15.295 Y5.103 E0.29614
G1 X15.662 Y4.975 E0.31553
G1 X16.173 Y4.824 E0.34211
G1 X16.694 Y4.688 E0.36897
G1 X17.019 Y4.617 E0.38557
G1 X17.525 Y4.524 E0.41124
G1 X20.238 Y3.988 E0.54921
G1 X23.273 Y3.293 E0.70454
G1 X24.347 Y3.028 E0.75973
G1 X24.876 Y2.938 E0.7865
G1 X25.641 Y2.918 E0.82468
G1 X26.254 Y2.956 E0.85532
G1 X27.261 Y3.097 E0.90605
G1 X27.381 Y3.116 E0.91211
G1 X28.81 Y3.365 E0.98448
G1 X28.935 Y3.379 E0.99076
G1 X30.341 Y3.624 E1.06196
G1 X33.01 Y4.013 E1.19652
G1 X35.776 Y4.337 E1.33546
G1 X38.751 Y4.596 E1.48445
G1 X40.048 Y4.688 E1.54932
G1 X40.728 Y4.762 E1.58344
G1 X41.25 Y4.869 E1.61003
G1 X41.772 Y5.017 E1.6371
G1 X42.451 Y5.286 E1.67353
G1 X43.24 Y5.697 E1.71792
G1 X44.216 Y6.223 E1.77323
G1 X46.645 Y7.445 E1.90889
G1 X49.152 Y8.618 E2.04698
G1 X51.62 Y9.69 E2.18122
G1 X54.173 Y10.713 E2.31843
G1 X56.717 Y11.649 E2.45367
G1 X59.304 Y12.519 E2.58984
G1 X61.888 Y13.308 E2.72463
G1 X64.551 Y14.039 E2.86241
G1 X67.168 Y14.679 E2.99682
G1 X69.894 Y15.265 E3.13592
G1 X72.526 Y15.751 E3.26945
G1 X75.232 Y16.173 E3.40609
G1 X77.91 Y16.514 E3.54077
G1 X80.667 Y16.786 E3.67899
G1 X83.353 Y16.975 E3.81332
G1 X86.08 Y17.089 E3.94949
G1 X88.811 Y17.125 E4.08576
G1 X91.54 Y17.085 E4.22192
G1 X94.269 Y16.967 E4.3582
G1 X96.995 Y16.772 E4.49455
G1 X99.678 Y16.504 E4.62907
G1 X102.421 Y16.151 E4.76705
G1 X105.081 Y15.732 E4.90139
G1 X107.777 Y15.229 E5.03821
G1 X110.444 Y14.653 E5.17434
G1 X113.06 Y14.01 E5.30874
G1 X115.716 Y13.276 E5.44621
G1 X118.335 Y12.473 E5.58288
G1 X120.906 Y11.604 E5.71828
G1 X123.44 Y10.666 E5.85308
G1 X126.009 Y9.633 E5.99122
G1 X128.473 Y8.559 E6.12532
G1 X130.963 Y7.39 E6.26256
G1 X133.411 Y6.155 E6.39935
G1 X135.757 Y4.889 E6.53235
G1 X136.405 Y4.61 E6.56755
G1 X136.862 Y4.456 E6.59161
G1 X137.481 Y4.312 E6.62331
G1 X137.994 Y4.24 E6.64916
G1 X138.14 Y4.223 E6.65649
G1 X138.675 Y4.201 E6.6832
G1 X139.62 Y4.262 E6.73045
G1 X140.216 Y4.378 E6.76074
G1 X140.605 Y4.481 E6.78082
G1 X141.189 Y4.691 E6.81178
G1 X141.788 Y4.973 E6.84481
G1 X142.242 Y5.241 E6.87111
G1 X143.013 Y5.816 E6.9191
G1 X143.42 Y6.207 E6.94725
G1 X143.87 Y6.718 E6.98122
G1 X144.253 Y7.215 E7.01253
G1 X145.946 Y9.348 E7.14839
G1 X147.718 Y11.455 E7.28574
G1 X149.528 Y13.488 E7.42154
G1 X151.398 Y15.474 E7.55763
G1 X153.322 Y17.403 E7.69356
G1 X155.297 Y19.276 E7.82935
G1 X157.314 Y21.082 E7.96443
G1 X159.422 Y22.866 E8.1022
G1 X161.189 Y24.284 E8.21523
G1 X162.16 Y25.044 E8.27675
G1 X162.556 Y25.405 E8.30349
G1 X162.895 Y25.821 E8.33026
G1 X163.168 Y26.283 E8.35703
G1 X163.367 Y26.772 E8.38337
G1 X163.612 Y27.534 E8.4233
G1 X163.964 Y28.679 E8.48307
G1 X164.839 Y31.268 E8.61941
G1 X165.777 Y33.797 E8.75398
G1 X166.805 Y36.35 E8.89129
G1 X167.891 Y38.84 E9.02682
G1 X169.048 Y41.301 E9.16249
G1 X170.281 Y43.744 E9.29901
G1 X171.588 Y46.16 E9.43605
G1 X172.953 Y48.52 E9.57207
G1 X174.368 Y50.815 E9.70658
G1 X175.873 Y53.107 E9.84338
G1 X177.416 Y55.318 E9.97789
G1 X179.062 Y57.542 E10.11593
G1 X180.747 Y59.688 E10.25206
G1 X181.745 Y60.902 E10.33046
G1 X182.067 Y61.287 E10.3555
G1 X182.254 Y61.531 E10.37084
G1 X182.67 Y62.126 E10.40706
G1 X183.407 Y63.212 E10.47254
G1 X185.028 Y65.461 E10.61085
G1 X186.684 Y67.627 E10.74687
G1 X187.92 Y69.136 E10.84419
G1 X188.047 Y69.317 E10.85522
G1 X189.246 Y70.779 E10.94955
G1 X191.011 Y72.87 E11.08607
G1 X192.81 Y74.881 E11.22068
G1 X193.452 Y75.555 E11.26712
G1 X193.517 Y75.634 E11.27223
G1 X194.532 Y76.72 E11.34639
G1 X194.937 Y77.195 E11.37753
G1 X195.233 Y77.601 E11.4026
G1 X195.609 Y78.25 E11.44002
G1 X195.839 Y78.749 E11.46743
G1 X196.066 Y79.404 E11.50202
G1 X196.207 Y80.008 E11.53296
G1 X196.28 Y80.523 E11.55891
G1 X196.295 Y80.65 E11.56529
G1 X196.318 Y81.202 E11.59285
G1 X196.297 Y81.785 E11.62196
G1 X196.227 Y82.373 E11.6515
G1 X196.033 Y83.164 E11.69213
G1 X195.907 Y83.599 E11.71473
G1 X195.182 Y86.206 E11.84973
G1 X194.519 Y88.887 E11.98751
G1 X193.941 Y91.531 E12.12254
G1 X193.431 Y94.237 E12.25992
G1 X193.008 Y96.892 E12.39405
G1 X192.649 Y99.64 E12.53231
G1 X192.375 Y102.324 E12.66691
G1 X192.176 Y105.046 E12.80307
G1 X192.053 Y107.774 E12.93931
G1 X192.007 Y110.471 E13.07389
G1 X192.04 Y113.234 E13.21174
G1 X192.147 Y115.933 E13.3465
G1 X192.335 Y118.684 E13.48407
G1 X192.595 Y121.371 E13.61875
G1 X192.935 Y124.081 E13.75501
G1 X193.352 Y126.783 E13.89141
G1 X193.841 Y129.45 E14.02669
G1 X194.405 Y132.108 E14.16225
G1 X195.056 Y134.795 E14.30018
G1 X195.769 Y137.411 E14.43546
G1 X196.558 Y140.011 E14.57101
G1 X197.425 Y142.602 E14.70732
G1 X198.779 Y146.236 E14.9008
G1 X199.29 Y147.533 E14.97035
G1 X199.611 Y148.37 E15.01507
G1 X199.894 Y149.14 E15.056
G1 X200.21 Y150.058 E15.10443
G1 X200.503 Y150.991 E15.15322
G1 X200.538 Y151.111 E15.15946
G1 X200.865 Y152.301 E15.22103
G1 X200.976 Y152.762 E15.24469
G1 X201.201 Y153.847 E15.29997
G1 X201.224 Y153.971 E15.30626
G1 X201.339 Y154.653 E15.34077
G1 X201.455 Y155.494 E15.38312
G1 X201.487 Y155.795 E15.39822
G1 X201.552 Y156.58 E15.43752
G1 X201.575 Y157.009 E15.45895
G1 X201.599 Y157.833 E15.50008
G1 X201.599 Y158.37 E15.52687
G1 X201.584 Y158.967 E15.55667
G1 X201.549 Y159.625 E15.58954
G1 X201.494 Y160.317 E15.62417
G1 X201.485 Y160.418 E15.62923
G1 X201.425 Y160.967 E15.65679
G1 X201.331 Y161.661 E15.69173
G1 X201.238 Y162.229 E15.72044
G1 X201.101 Y162.956 E15.75735
G1 X200.992 Y163.463 E15.78322
G1 X200.828 Y164.136 E15.81778
G1 X200.686 Y164.662 E15.84496
G1 X200.499 Y165.3 E15.87813
G1 X200.389 Y165.643 E15.8961
G1 X200.155 Y166.319 E15.93179
G1 X200.112 Y166.437 E15.93806
G1 X199.676 Y167.567 E15.99848
G1 X199.626 Y167.689 E16.00506
G1 X199.188 Y168.711 E16.06053
G1 X198.753 Y169.651 E16.11221
G1 X198.32 Y170.532 E16.16118
G1 X197.88 Y171.387 E16.20916
G1 X197.441 Y172.215 E16.25591
G1 X196.27 Y174.39 E16.37915
G1 X195.424 Y176.02 E16.47077
G1 X195.359 Y176.125 E16.47693
G1 X194.999 Y176.82 E16.51598
G1 X194.666 Y177.431 E16.5507
G1 X194.595 Y177.555 E16.55783
G1 X194.32 Y178.015 E16.58457
G1 X194.164 Y178.254 E16.59881
G1 X193.593 Y179.057 E16.64796
G1 X193.191 Y179.574 E16.68064
G1 X192.823 Y179.993 E16.70846
G1 X192.422 Y180.403 E16.73707
G1 X191.928 Y180.867 E16.77088
G1 X191.619 Y181.125 E16.79097
G1 X191.166 Y181.476 E16.81956
G1 X190.72 Y181.785 E16.84663
G1 X190.205 Y182.105 E16.87688
G1 X189.649 Y182.406 E16.90842
G1 X189.148 Y182.638 E16.93596
G1 X188.358 Y182.956 E16.97845
G1 X188.034 Y183.068 E16.99555
G1 X187.523 Y183.219 E17.02214
G1 X187.029 Y183.349 E17.04762
G1 X186.695 Y183.423 E17.06469
G1 X186.142 Y183.524 E17.09273
G1 X183.441 Y184.057 E17.23009
G1 X180.222 Y184.798 E17.39488
G1 X179.362 Y185.011 E17.43908
G1 X178.833 Y185.101 E17.46586
G1 X178.536 Y185.117 E17.48069
G1 X177.994 Y185.123 E17.50774
G1 X177.456 Y185.088 E17.53463
G1 X176.561 Y184.963 E17.57972
G1 X173.808 Y184.618 E17.71814
G1 X171.125 Y184.359 E17.85262
G1 X168.36 Y184.17 E17.99089
G1 X165.669 Y184.064 E18.12525
G1 X162.903 Y184.031 E18.26325
G1 X160.208 Y184.077 E18.39773
G1 X157.483 Y184.2 E18.53382
G1 X154.753 Y184.401 E18.67038
G1 X152.072 Y184.674 E18.80483
G1 X149.337 Y185.031 E18.94244
G1 X146.66 Y185.459 E19.07769
G1 X143.956 Y185.968 E19.21496
G1 X141.302 Y186.548 E19.3505
G1 X138.687 Y187.195 E19.48489
G1 X136.06 Y187.926 E19.62093
G1 X133.403 Y188.747 E19.75968
G1 X130.866 Y189.611 E19.89339
G1 X128.266 Y190.578 E20.03178
G1 X125.78 Y191.584 E20.16558
G1 X123.253 Y192.692 E20.30324
G1 X120.816 Y193.841 E20.43766
G1 X118.366 Y195.084 E20.57472
G1 X115.988 Y196.376 E20.70974
G1 X112.559 Y198.395 E20.90826
G1 X112.1 Y198.678 E20.93517
G1 X111.527 Y198.987 E20.96765
G1 X111.009 Y199.226 E20.99611
G1 X110.237 Y199.535 E21.03759
G1 X109.936 Y199.638 E21.05346
G1 X109.387 Y199.801 E21.08204
G1 X108.754 Y199.961 E21.11461
G1 X108.585 Y199.996 E21.12322
G1 X108.038 Y200.096 E21.15096
G1 X105.318 Y200.633 E21.28928
G1 X101.733 Y201.464 E21.47288
G1 X101.255 Y201.586 E21.49749
G1 X100.474 Y201.696 E21.53684
G1 X99.775 Y201.696 E21.57172
G1 X99.266 Y201.653 E21.5972
G1 X98.366 Y201.526 E21.64255
G1 X98.251 Y201.508 E21.64835
G1 X96.802 Y201.255 E21.72174
G1 X96.68 Y201.241 E21.72786
G1 X95.251 Y200.99 E21.80025
G1 X92.543 Y200.594 E21.93679
G1 X89.864 Y200.278 E22.07137
G1 X87.109 Y200.032 E22.20936
G1 X85.707 Y199.939 E22.27946
G1 X85.181 Y199.896 E22.30579
G1 X84.755 Y199.835 E22.32726
G1 X84.235 Y199.729 E22.35374
G1 X83.719 Y199.583 E22.38049
G1 X83.165 Y199.334 E22.4108
G1 X82.951 Y199.221 E22.42287
G1 X82.45 Y198.895 E22.45269
G1 X81.708 Y198.318 E22.49959
G1 X79.555 Y196.695 E22.6341
G1 X77.302 Y195.096 E22.77193
G1 X75.022 Y193.571 E22.90878
G1 X72.759 Y192.149 E23.04212
G1 X70.364 Y190.738 E23.18081
G1 X68.006 Y189.435 E23.31521
G1 X65.563 Y188.176 E23.45233
G1 X63.113 Y186.998 E23.58795
G1 X60.609 Y185.882 E23.72472
G1 X58.126 Y184.856 E23.85876
G1 X55.509 Y183.861 E23.99844
G1 X52.998 Y182.991 E24.13102
G1 X50.4 Y182.168 E24.26699
G1 X47.408 Y181.327 E24.42204
G1 X47.024 Y181.216 E24.44198
G1 X46.522 Y181.03 E24.46869
G1 X46.052 Y180.77 E24.49549
G1 X45.627 Y180.444 E24.52221
G1 X45.254 Y180.058 E24.54899
G1 X44.943 Y179.621 E24.57575
G1 X44.701 Y179.143 E24.60248
G1 X44.532 Y178.634 E24.62924
G1 X44.433 Y178.014 E24.66056
G1 X44.369 Y177.108 E24.70588
G1 X44.308 Y176.035 E24.75949
G1 X44.073 Y173.306 E24.89615
G1 X43.763 Y170.59 E25.03253
G1 X43.379 Y167.901 E25.16805
G1 X42.912 Y165.194 E25.30509
G1 X42.379 Y162.542 E25.44005
G1 X41.772 Y159.907 E25.57495
G1 X41.081 Y157.262 E25.71134
G1 X40.146 Y154.084 E25.87661
G1 X39.829 Y153.068 E25.92971
G1 X38.986 Y150.5 E26.06455
G1 X38.056 Y147.914 E26.20166
G1 X37.064 Y145.382 E26.33733
G1 X35.982 Y142.841 E26.47512
G1 X34.854 Y140.381 E26.61013
G1 X33.658 Y137.957 E26.74499
G1 X32.371 Y135.526 E26.88222
G1 X31.038 Y133.17 E27.01727
G1 X29.616 Y130.815 E27.15452
G1 X28.149 Y128.534 E27.28982
G1 X26.605 Y126.278 E27.42621
G1 X25.011 Y124.082 E27.56159
G1 X23.333 Y121.905 E27.69872
G1 X21.625 Y119.813 E27.83345
G1 X20.327 Y118.323 E27.93204
G1 X19.547 Y117.407 E27.99206
G1 X19.443 Y117.279 E28.00029
G1 X19.094 Y116.829 E28.0287
G1 X18.772 Y116.364 E28.05692
G1 X18.451 Y115.843 E28.08745
G1 X18.147 Y115.278 E28.11946
G1 X17.929 Y114.804 E28.14549
G1 X17.613 Y114.017 E28.1878
G1 X17.502 Y113.698 E28.20465
G1 X17.341 Y113.154 E28.23296
G1 X17.188 Y112.552 E28.26394
G1 X17.063 Y111.889 E28.2976
G1 X16.538 Y109.221 E28.43326
G1 X15.816 Y106.068 E28.59464
G1 X15.555 Y105.01 E28.64901
G1 X15.465 Y104.482 E28.67573
G1 X15.445 Y103.717 E28.71391
G1 X15.484 Y103.102 E28.74465
G1 X15.623 Y102.105 E28.79487
G1 X15.971 Y99.337 E28.93406
G1 X16.231 Y96.66 E29.06824
G1 X16.421 Y93.894 E29.20656
G1 X16.528 Y91.205 E29.34082
G1 X16.561 Y88.455 E29.47803
G1 X16.515 Y85.688 E29.6161
G1 X16.395 Y83.013 E29.74969
G1 X16.199 Y80.327 E29.88405
G1 X15.919 Y77.571 E30.02225
G1 X15.565 Y74.852 E30.15905
G1 X15.142 Y72.199 E30.29308
G1 X14.631 Y69.484 E30.43091
G1 X14.072 Y66.916 E30.56203
G1 X13.399 Y64.196 E30.70182
G1 X12.661 Y61.54 E30.83935
G1 X11.874 Y58.987 E30.97263
G1 X10.984 Y56.368 E31.11064
G1 X10.035 Y53.816 E31.24647
G1 X9.028 Y51.32 E31.38075
G1 X7.923 Y48.795 E31.51826
G1 X6.943 Y46.738 E31.63193
G1 X6.694 Y46.198 E31.6616
G1 X6.313 Y45.386 E31.70635
G1 X6.139 Y44.975 E31.72862
G1 X5.423 Y43.109 E31.82833
G1 X5.379 Y43.015 E31.83351
G1 X5.013 Y42.044 E31.88528
G1 X4.385 Y40.455 E31.97052
G1 X4.097 Y39.708 E32.01046
G1 X3.796 Y38.886 E32.05414
G1 X3.46 Y37.904 E32.10592
G1 X3.184 Y37.022 E32.15202
G1 X3.149 Y36.904 E32.15816
G1 X2.848 Y35.812 E32.21468
G1 X2.713 Y35.255 E32.24327
G1 X2.688 Y35.143 E32.24899
G1 X2.49 Y34.178 E32.29814
G1 X2.353 Y33.375 E32.33878
G1 X2.274 Y32.819 E32.3668
G1 X2.26 Y32.712 E32.37218
G1 X2.195 Y32.106 E32.40259
G1 X2.153 Y31.594 E32.42822
G1 X2.115 Y30.902 E32.4628
G1 X2.098 Y30.315 E32.49209
G1 X2.097 Y29.648 E32.52537
G1 X2.116 Y28.976 E32.55891
G1 X2.151 Y28.343 E32.59054
G1 X2.215 Y27.586 E32.62844
G1 X2.273 Y27.059 E32.65489
G1 X2.379 Y26.286 E32.69382
G1 X2.452 Y25.84 E32.71636
G1 X2.583 Y25.15 E32.7514
G1 X2.722 Y24.507 E32.78422
G1 X2.871 Y23.887 E32.81604
G1 X3.004 Y23.396 E32.84142
G1 X3.183 Y22.789 E32.87299
G1 X3.305 Y22.408 E32.89295
G1 X3.558 Y21.678 E32.93149
G1 X3.603 Y21.556 E32.93798
G1 X4.071 Y20.349 E33.00257
G1 X4.119 Y20.231 E33.00892
G1 X4.48 Y19.389 E33.05463
G1 X4.943 Y18.391 E33.10951
G1 X5.382 Y17.5 E33.15907
G1 X5.797 Y16.692 E33.20439
G1 X6.014 Y16.28 E33.22762
G1 X7.396 Y13.71 E33.3732
G1 X8.695 Y11.227 E33.513
G1 X9.032 Y10.606 E33.54825
G1 X9.111 Y10.468 E33.55619
G1 X9.375 Y10.029 E33.58174
G1 X9.556 Y9.752 E33.59825
G1 X10.116 Y8.967 E33.64636
G1 X10.497 Y8.478 E33.67729
G0 F2618.2 X10.809 Y8.729
G1 F1200 X11.169 Y8.319 E33.70451
G1 X11.569 Y7.911 E33.73301
G1 X12.026 Y7.481 E33.76432
G1 X12.326 Y7.23 E33.78384
G1 X12.771 Y6.885 E33.81193
G1 X13.21 Y6.583 E33.83851
G1 X13.729 Y6.262 E33.86896
G1 X14.239 Y5.987 E33.89786
G1 X14.716 Y5.767 E33.92407
G1 X15.445 Y5.474 E33.96327
G1 X15.775 Y5.358 E33.98072
G1 X16.286 Y5.207 E34.0073
G1 X16.783 Y5.078 E34.03292
G1 X17.091 Y5.01 E34.04866
G1 X17.631 Y4.911 E34.07605
G1 X20.307 Y4.383 E34.21213
G1 X23.346 Y3.687 E34.36767
G1 X24.443 Y3.416 E34.42404
G1 X25.175 Y3.323 E34.46086
G1 X25.805 Y3.32 E34.49229
G1 X26.199 Y3.352 E34.51201
G1 X27.206 Y3.493 E34.56274
G1 X28.784 Y3.767 E34.64264
G1 X28.866 Y3.773 E34.64674
G1 X30.246 Y4.014 E34.71663
G1 X33.017 Y4.418 E34.85634
G1 X35.694 Y4.731 E34.99081
G1 X38.749 Y4.997 E35.1438
G1 X40.019 Y5.087 E35.20732
G1 X40.677 Y5.158 E35.24034
G1 X41.141 Y5.253 E35.26397
G1 X41.663 Y5.401 E35.29104
G1 X42.267 Y5.641 E35.32346
G1 X43.05 Y6.049 E35.36751
G1 X44.025 Y6.575 E35.42278
G1 X46.503 Y7.821 E35.56116
G1 X48.96 Y8.971 E35.6965
G1 X51.461 Y10.056 E35.83251
G1 X54.053 Y11.096 E35.97185
G1 X56.567 Y12.021 E36.10549
G1 X59.186 Y12.902 E36.24335
G1 X61.78 Y13.694 E36.37866
G1 X64.422 Y14.419 E36.51534
G1 X67.129 Y15.081 E36.65438
G1 X69.776 Y15.65 E36.78945
G1 X72.463 Y16.146 E36.92577
G1 X75.191 Y16.571 E37.06352
G1 X77.856 Y16.911 E37.19755
G1 X80.632 Y17.185 E37.33672
G1 X83.342 Y17.375 E37.47225
G1 X86.059 Y17.488 E37.60792
G1 X88.811 Y17.525 E37.74523
G1 X91.564 Y17.484 E37.88259
G1 X94.279 Y17.367 E38.01817
G1 X97.03 Y17.17 E38.15577
G1 X99.732 Y16.9 E38.29125
G1 X102.462 Y16.549 E38.42857
G1 X105.152 Y16.126 E38.56442
G1 X107.856 Y15.621 E38.70166
G1 X110.527 Y15.044 E38.83799
G1 X113.19 Y14.39 E38.97479
G1 X115.825 Y13.661 E39.11119
G1 X118.443 Y12.859 E39.2478
G1 X121.036 Y11.982 E39.38436
G1 X123.58 Y11.041 E39.51969
G1 X126.152 Y10.006 E39.658
G1 X128.654 Y8.916 E39.79416
G1 X131.135 Y7.752 E39.93088
G1 X133.602 Y6.506 E40.06877
G1 X135.947 Y5.241 E40.2017
G1 X136.546 Y4.984 E40.23422
G1 X136.987 Y4.836 E40.25742
G1 X137.538 Y4.708 E40.28565
G1 X138.04 Y4.637 E40.31094
G1 X138.662 Y4.601 E40.34202
G1 X139.555 Y4.657 E40.38666
G1 X140.114 Y4.765 E40.41507
G1 X140.503 Y4.868 E40.43514
G1 X141.022 Y5.054 E40.46265
G1 X141.611 Y5.332 E40.49514
G1 X142.398 Y5.834 E40.54171
G1 X142.929 Y6.281 E40.57634
G1 X143.381 Y6.758 E40.60913
G1 X143.553 Y6.963 E40.62248
G1 X143.942 Y7.467 E40.65424
