;FLAVOR:Marlin
;TIME:4374
;Filament used: 4.5441m, 0m
;Layer height: 0.2
;MINX:7.866
;MINY:15.018
;MINZ:0.3
;MAXX:209.589
;MAXY:186.097
;MAXZ:1.5
;POSTPROCESSED
;Generated with Cura_SteamEngine 4.8.0
T0
M140 S60
M105
M190 S60
M104 S200
M105
M109 S200
M82 ;absolute extrusion mode
M201 X500.00 Y500.00 Z100.00 E5000.00 	;Setup machine max acceleration
M203 X500.00 Y500.00 Z10.00 E50.00 	;Setup machine max feedrate
M204 P500.00 R1000.00 T500.00 		;Setup Print/Retract/Travel acceleration
M205 X8.00 Y8.00 Z0.40 E5.00 		;Setup Jerk
M220 S100 				;Reset Feedrate
M221 S100 				;Reset Flowrate
G28				;Home the Machine
#G29 				;Bed Level
G92 E0
M300 P150 S587
G92 E0
G1 F1500 E-5.5
;LAYER_COUNT:7
;LAYER:0
M107
G0 F2618.2 X70.844 Y63.743 Z0.3
;TYPE:SKIRT
G1 F1500 E0
G1 F1200 X71.834 Y62.725 E0.07084
G1 X72.181 Y62.375 E0.09543
G1 X74.064 Y60.371 E0.23262
G1 X75.872 Y58.332 E0.36858
G1 X77.609 Y56.26 E0.50347
G1 X79.309 Y54.111 E0.64018
G1 X80.933 Y51.934 E0.77568
G1 X82.516 Y49.683 E0.91297
G1 X82.941 Y49.043 E0.9513
G1 X83.784 Y47.798 E1.02631
G1 X84.142 Y47.303 E1.05679
G1 X84.664 Y46.692 E1.09688
G1 X85.059 Y46.29 E1.125
G1 X85.544 Y45.857 E1.15744
G1 X86.179 Y45.376 E1.19718
G1 X86.611 Y45.096 E1.22287
G1 X87.047 Y44.845 E1.24796
G1 X87.643 Y44.555 E1.28103
G1 X88.261 Y44.301 E1.31437
G1 X88.952 Y44.083 E1.35052
G1 X89.491 Y43.953 E1.37818
G1 X90.164 Y43.835 E1.41227
G1 X90.933 Y43.765 E1.45079
G1 X91.52 Y43.755 E1.48008
G1 X92.927 Y43.797 E1.55031
G1 X95.712 Y43.843 E1.68927
G1 X98.441 Y43.81 E1.82543
G1 X101.136 Y43.702 E1.95999
G1 X103.897 Y43.513 E2.09806
G1 X106.576 Y43.253 E2.23235
G1 X109.288 Y42.912 E2.36871
G1 X111.99 Y42.494 E2.50512
G1 X114.684 Y42 E2.64176
G1 X117.304 Y41.443 E2.7754
G1 X119.983 Y40.791 E2.91296
G1 X122.617 Y40.072 E3.04917
G1 X125.216 Y39.283 E3.18468
G1 X127.832 Y38.407 E3.32232
G1 X130.367 Y37.479 E3.457
G1 X132.896 Y36.469 E3.59286
G1 X135.4 Y35.388 E3.72893
G1 X137.862 Y34.24 E3.86446
G1 X140.322 Y33.007 E4.00174
G1 X142.732 Y31.714 E4.13819
G1 X145.078 Y30.367 E4.27315
G1 X145.649 Y30.016 E4.30659
G1 X146.878 Y29.281 E4.37803
G1 X148.186 Y28.545 E4.45291
G1 X150.207 Y27.383 E4.56922
G1 X152.537 Y25.957 E4.7055
G1 X154.851 Y24.45 E4.84327
G1 X157.053 Y22.925 E4.9769
G1 X159.252 Y21.296 E5.11344
G1 X159.662 Y20.998 E5.13872
G1 X160.337 Y20.591 E5.17805
G1 X160.536 Y20.485 E5.1893
G1 X161.214 Y20.213 E5.22574
G1 X161.774 Y20.058 E5.25473
G1 X162.088 Y19.991 E5.27075
G1 X162.594 Y19.906 E5.29635
G1 X162.966 Y19.856 E5.31507
G1 X163.754 Y19.775 E5.35459
G1 X163.874 Y19.765 E5.3606
G1 X165.096 Y19.68 E5.42171
G1 X167.866 Y19.45 E5.56039
G1 X170.588 Y19.146 E5.69703
G1 X173.281 Y18.768 E5.8327
G1 X175.961 Y18.313 E5.96832
G1 X178.596 Y17.792 E6.10233
G1 X181.292 Y17.176 E6.2403
G1 X183.937 Y16.493 E6.37659
G1 X185.263 Y16.106 E6.4455
G1 X185.407 Y16.076 E6.45284
G1 X186.57 Y15.743 E6.51319
G1 X187.311 Y15.55 E6.55139
G1 X187.524 Y15.502 E6.56229
G1 X188.239 Y15.355 E6.5987
G1 X188.403 Y15.325 E6.60702
G1 X189.168 Y15.205 E6.64566
G1 X189.391 Y15.177 E6.65687
G1 X190.062 Y15.105 E6.69054
G1 X190.23 Y15.09 E6.69895
G1 X191.129 Y15.037 E6.74388
G1 X191.327 Y15.031 E6.75376
G1 X192.409 Y15.018 E6.80775
G1 X193.14 Y15.018 E6.84422
G1 X194.058 Y15.031 E6.89002
G1 X194.676 Y15.064 E6.9209
G1 X194.901 Y15.085 E6.93217
G1 X195.766 Y15.194 E6.97567
G1 X196.27 Y15.28 E7.00118
G1 X196.693 Y15.377 E7.02283
G1 X197.274 Y15.534 E7.05285
G1 X197.871 Y15.728 E7.08417
G1 X198.452 Y15.956 E7.11531
G1 X199.192 Y16.291 E7.15584
G1 X199.505 Y16.452 E7.1734
G1 X200.27 Y16.893 E7.21745
G1 X200.56 Y17.079 E7.23464
G1 X201.164 Y17.509 E7.27163
G1 X201.513 Y17.783 E7.29376
G1 X202.067 Y18.263 E7.33033
G1 X202.365 Y18.547 E7.35087
G1 X202.905 Y19.114 E7.38994
G1 X203.19 Y19.443 E7.41165
G1 X203.611 Y19.978 E7.44562
G1 X203.869 Y20.34 E7.46779
G1 X204.319 Y21.044 E7.50948
G1 X204.49 Y21.341 E7.52658
G1 X204.86 Y22.063 E7.56705
G1 X205.004 Y22.381 E7.58447
G1 X205.314 Y23.165 E7.62653
G1 X205.483 Y23.65 E7.65215
G1 X205.6 Y24.062 E7.67352
G1 X205.747 Y24.657 E7.7041
G1 X205.857 Y25.23 E7.73321
G1 X205.943 Y25.824 E7.76315
G1 X205.999 Y26.455 E7.79475
G1 X206.022 Y27.018 E7.82287
G1 X205.993 Y27.641 E7.85398
G1 X205.911 Y28.24 E7.88414
G1 X205.78 Y29 E7.92262
G1 X205.54 Y30.298 E7.98848
G1 X205.121 Y32.989 E8.12435
G1 X204.781 Y35.674 E8.25937
G1 X204.512 Y38.42 E8.39703
G1 X204.323 Y41.115 E8.53181
G1 X204.212 Y43.835 E8.66763
G1 X204.176 Y46.572 E8.80419
G1 X204.217 Y49.3 E8.9403
G1 X204.337 Y52.033 E9.07678
G1 X204.533 Y54.752 E9.21279
G1 X204.806 Y57.473 E9.34922
G1 X205.151 Y60.14 E9.48339
G1 X205.58 Y62.852 E9.62037
G1 X206.087 Y65.563 E9.75797
G1 X206.653 Y68.178 E9.89145
G1 X207.304 Y70.819 E10.02716
G1 X208.042 Y73.487 E10.16526
G1 X208.843 Y76.094 E10.30133
G1 X209.242 Y77.298 E10.36461
G1 X209.406 Y77.868 E10.3942
G1 X209.485 Y78.206 E10.41151
G1 X209.578 Y78.935 E10.44818
G1 X209.589 Y79.376 E10.47019
G1 X209.562 Y79.912 E10.49696
G1 X209.444 Y80.523 E10.52801
G1 X209.348 Y80.9 E10.54742
G1 X209.107 Y81.564 E10.58266
G1 X208.863 Y82.042 E10.60943
G1 X208.514 Y82.575 E10.64122
G1 X208.178 Y82.996 E10.66809
G1 X207.762 Y83.447 E10.6987
G1 X204.032 Y87.18 E10.96198
G1 X202.916 Y88.302 E11.04093
G1 X202.117 Y89.099 E11.09723
G1 X201.037 Y90.16 E11.17277
G1 X200.428 Y90.745 E11.2149
G1 X199.786 Y91.351 E11.25894
G1 X199.196 Y91.894 E11.29895
G1 X198.444 Y92.565 E11.34923
G1 X197.842 Y93.085 E11.38891
G1 X197.12 Y93.684 E11.43572
G1 X196.445 Y94.219 E11.47869
G1 X195.779 Y94.723 E11.52036
G1 X195.104 Y95.206 E11.56177
G1 X194.352 Y95.714 E11.60704
G1 X194.258 Y95.776 E11.61266
G1 X193.612 Y96.182 E11.65073
G1 X193.513 Y96.242 E11.6565
G1 X192.74 Y96.694 E11.70118
G1 X192.633 Y96.754 E11.7073
G1 X191.998 Y97.095 E11.74326
G1 X191.168 Y97.507 E11.78949
G1 X190.6 Y97.765 E11.82061
G1 X188.116 Y98.926 E11.9574
G1 X185.686 Y100.147 E12.09308
G1 X183.248 Y101.46 E12.23123
G1 X180.936 Y102.79 E12.3643
G1 X178.569 Y104.244 E12.50289
G1 X176.304 Y105.723 E12.63785
G1 X174.083 Y107.266 E12.77277
G1 X171.861 Y108.904 E12.9105
G1 X169.715 Y110.582 E13.0464
G1 X167.633 Y112.307 E13.18129
G1 X165.574 Y114.115 E13.318
G1 X163.587 Y115.957 E13.45318
G1 X161.639 Y117.872 E13.58946
G1 X159.74 Y119.848 E13.72619
G1 X157.924 Y121.846 E13.86089
G1 X156.115 Y123.954 E13.99947
G1 X154.424 Y126.039 E14.13341
G1 X152.774 Y128.2 E14.26905
G1 X151.155 Y130.446 E14.40718
G1 X149.648 Y132.668 E14.54113
G1 X147.71 Y135.734 E14.72209
G1 X147.106 Y136.73 E14.7802
G1 X146.795 Y137.167 E14.80696
G1 X146.609 Y137.374 E14.82085
G1 X145.683 Y138.326 E14.8871
G1 X145.46 Y138.549 E14.90284
G1 X143.607 Y140.508 E15.03737
G1 X141.791 Y142.541 E15.17337
G1 X140.036 Y144.621 E15.30914
G1 X138.317 Y146.781 E15.44687
G1 X136.715 Y148.913 E15.57991
G1 X135.116 Y151.172 E15.71799
G1 X134.506 Y152.098 E15.77331
G1 X134.392 Y152.246 E15.78263
G1 X133.733 Y153.228 E15.84164
G1 X133.421 Y153.668 E15.86855
G1 X133.094 Y154.08 E15.89479
G1 X132.651 Y154.573 E15.92785
G1 X132.049 Y155.14 E15.96911
G1 X131.642 Y155.47 E15.99525
G1 X131.116 Y155.847 E16.02754
G1 X130.467 Y156.237 E16.06532
G1 X129.74 Y156.59 E16.10564
G1 X128.997 Y156.881 E16.14545
G1 X128.514 Y157.029 E16.17065
G1 X127.899 Y157.176 E16.2022
G1 X127.289 Y157.28 E16.23307
G1 X126.529 Y157.35 E16.27114
G1 X125.916 Y157.36 E16.30173
G1 X124.615 Y157.318 E16.36667
G1 X121.907 Y157.27 E16.5018
G1 X119.14 Y157.3 E16.63985
G1 X116.449 Y157.403 E16.7742
G1 X113.723 Y157.587 E16.91051
G1 X110.968 Y157.851 E17.04859
G1 X108.329 Y158.179 E17.18126
G1 X105.59 Y158.599 E17.31951
G1 X102.912 Y159.086 E17.45531
G1 X100.255 Y159.649 E17.59081
G1 X97.61 Y160.287 E17.72655
G1 X94.961 Y161.006 E17.86349
G1 X92.383 Y161.785 E17.99785
G1 X89.765 Y162.657 E18.13552
G1 X87.204 Y163.593 E18.27156
G1 X84.667 Y164.6 E18.40773
G1 X82.161 Y165.68 E18.54388
G1 X79.692 Y166.826 E18.67968
G1 X77.275 Y168.034 E18.81448
G1 X74.862 Y169.325 E18.95101
G1 X72.498 Y170.677 E19.08688
G1 X71.802 Y171.104 E19.12762
G1 X70.572 Y171.837 E19.19905
G1 X69.302 Y172.55 E19.27172
G1 X67.13 Y173.802 E19.39679
G1 X64.821 Y175.219 E19.53195
G1 X62.523 Y176.719 E19.66886
G1 X60.297 Y178.266 E19.8041
G1 X58.493 Y179.607 E19.91625
G1 X57.791 Y180.117 E19.95954
G1 X57.159 Y180.501 E19.99643
G1 X56.931 Y180.623 E20.00933
G1 X56.26 Y180.893 E20.04542
G1 X55.74 Y181.042 E20.0724
G1 X54.878 Y181.206 E20.11618
G1 X54.49 Y181.258 E20.13571
G1 X53.701 Y181.339 E20.17528
G1 X53.582 Y181.349 E20.18124
G1 X52.375 Y181.433 E20.2416
G1 X49.605 Y181.663 E20.38027
G1 X46.883 Y181.967 E20.51692
G1 X44.191 Y182.345 E20.65254
G1 X41.51 Y182.8 E20.78821
G1 X38.875 Y183.321 E20.92221
G1 X36.179 Y183.937 E21.06018
G1 X33.521 Y184.624 E21.19715
G1 X32.361 Y184.958 E21.25737
G1 X32.223 Y184.987 E21.26441
G1 X30.855 Y185.379 E21.33541
G1 X30.161 Y185.559 E21.37118
G1 X29.99 Y185.599 E21.37994
G1 X29.235 Y185.756 E21.41841
G1 X29.058 Y185.788 E21.42738
G1 X28.277 Y185.91 E21.46682
G1 X28.104 Y185.933 E21.47553
G1 X27.318 Y186.017 E21.51496
G1 X27.148 Y186.031 E21.52347
G1 X26.44 Y186.073 E21.55886
G1 X26.119 Y186.084 E21.57488
G1 X25.044 Y186.097 E21.62852
G1 X24.316 Y186.097 E21.66484
G1 X23.399 Y186.084 E21.71059
G1 X23.147 Y186.074 E21.72318
G1 X22.591 Y186.039 E21.75097
G1 X21.962 Y185.966 E21.78256
G1 X21.384 Y185.872 E21.81178
G1 X20.761 Y185.737 E21.84358
G1 X20.182 Y185.582 E21.87348
G1 X19.598 Y185.391 E21.90414
G1 X19.007 Y185.16 E21.93579
G1 X18.268 Y184.826 E21.97625
G1 X17.945 Y184.659 E21.9944
G1 X17.152 Y184.199 E22.04013
G1 X16.867 Y184.015 E22.05706
G1 X16.221 Y183.553 E22.09668
G1 X15.973 Y183.355 E22.11251
G1 X15.349 Y182.813 E22.15375
G1 X15.069 Y182.545 E22.17308
G1 X14.482 Y181.926 E22.21564
G1 X14.278 Y181.686 E22.23136
G1 X13.815 Y181.096 E22.26878
G1 X13.588 Y180.777 E22.28831
G1 X13.146 Y180.088 E22.32915
G1 X12.97 Y179.781 E22.3468
G1 X12.584 Y179.025 E22.38915
G1 X12.443 Y178.713 E22.40623
G1 X12.145 Y177.96 E22.44664
G1 X11.96 Y177.423 E22.47497
G1 X11.759 Y176.663 E22.51419
G1 X11.71 Y176.434 E22.52588
G1 X11.558 Y175.583 E22.569
G1 X11.489 Y175.079 E22.59438
G1 X11.454 Y174.631 E22.6168
G1 X11.43 Y174.058 E22.64541
G1 X11.452 Y173.48 E22.67427
G1 X11.496 Y173.156 E22.69058
G1 X11.708 Y171.941 E22.75212
G1 X11.845 Y171.213 E22.78907
G1 X12.273 Y168.533 E22.92448
G1 X12.631 Y165.795 E23.06224
G1 X12.907 Y163.106 E23.1971
G1 X13.107 Y160.383 E23.33331
G1 X13.231 Y157.657 E23.46945
G1 X13.277 Y154.946 E23.60473
G1 X13.245 Y152.195 E23.74198
G1 X13.139 Y149.504 E23.87634
G1 X12.949 Y146.721 E24.01551
G1 X12.692 Y144.057 E24.14903
G1 X12.352 Y141.344 E24.28545
G1 X11.938 Y138.65 E24.42143
G1 X11.451 Y135.988 E24.55644
G1 X10.885 Y133.325 E24.69226
G1 X10.24 Y130.66 E24.82906
G1 X9.514 Y127.995 E24.96686
G1 X8.734 Y125.42 E25.1011
G1 X8.546 Y124.857 E25.13071
G1 X8.113 Y123.511 E25.20125
G1 X7.974 Y122.949 E25.23013
G1 X7.925 Y122.681 E25.24372
G1 X7.866 Y121.994 E25.27813
G1 X7.893 Y121.32 E25.31178
G1 X8.009 Y120.602 E25.34806
G1 X8.13 Y120.15 E25.37141
G1 X8.391 Y119.465 E25.40798
G1 X8.61 Y119.041 E25.43179
G1 X8.952 Y118.522 E25.4628
G1 X9.312 Y118.078 E25.49132
G1 X9.678 Y117.683 E25.51818
G1 X13.428 Y113.93 E25.78287
G1 X14.715 Y112.636 E25.87392
G1 X15.729 Y111.628 E25.94525
G1 X16.477 Y110.897 E25.99743
G1 X16.998 Y110.397 E26.03346
G1 X17.624 Y109.806 E26.07641
G1 X18.29 Y109.192 E26.1216
G1 X18.952 Y108.599 E26.16594
G1 X19.655 Y107.994 E26.21222
G1 X20.317 Y107.445 E26.25512
G1 X21.001 Y106.902 E26.29869
G1 X21.729 Y106.354 E26.34415
G1 X22.4 Y105.875 E26.38528
G1 X23.088 Y105.411 E26.42669
G1 X23.178 Y105.352 E26.43205
G1 X23.866 Y104.919 E26.47261
G1 X24.619 Y104.477 E26.51617
G1 X24.726 Y104.416 E26.52232
G1 X25.453 Y104.023 E26.56355
G1 X25.568 Y103.964 E26.57
G1 X26.289 Y103.607 E26.61013
G1 X26.405 Y103.552 E26.61654
G1 X26.961 Y103.301 E26.64697
G1 X29.45 Y102.134 E26.78412
G1 X31.906 Y100.896 E26.92134
G1 X34.271 Y99.619 E27.05543
G1 X36.665 Y98.237 E27.19334
G1 X38.963 Y96.821 E27.32801
G1 X41.252 Y95.322 E27.46451
G1 X43.495 Y93.759 E27.60091
G1 X45.691 Y92.136 E27.73714
G1 X47.814 Y90.472 E27.87171
G1 X49.936 Y88.71 E28.00932
G1 X51.973 Y86.917 E28.14471
G1 X53.972 Y85.056 E28.28097
G1 X55.904 Y83.153 E28.41626
G1 X57.798 Y81.179 E28.55274
G1 X59.63 Y79.157 E28.68887
G1 X61.401 Y77.087 E28.82478
G1 X63.127 Y74.952 E28.96175
G1 X64.764 Y72.804 E29.09649
G1 X66.357 Y70.585 E29.23277
G1 X67.88 Y68.334 E29.36836
G1 X69.705 Y65.442 E29.53897
G1 X70.349 Y64.382 E29.60085
G1 X70.661 Y63.946 E29.62759
G1 X70.844 Y63.743 E29.64123
G0 F2618.2 X71.131 Y64.022
G1 F1200 X72.118 Y63.007 E29.71186
G1 X72.474 Y62.648 E29.73709
G1 X74.354 Y60.647 E29.87407
G1 X76.162 Y58.609 E30.00999
G1 X77.931 Y56.498 E30.14739
G1 X79.628 Y54.353 E30.28385
G1 X81.249 Y52.181 E30.41906
G1 X82.864 Y49.883 E30.55919
G1 X83.273 Y49.267 E30.59608
G1 X84.11 Y48.03 E30.6706
G1 X84.455 Y47.552 E30.70001
G1 X84.963 Y46.957 E30.73904
G1 X85.33 Y46.585 E30.76511
G1 X85.794 Y46.17 E30.79617
G1 X86.414 Y45.7 E30.83498
G1 X86.929 Y45.372 E30.86544
G1 X87.484 Y45.07 E30.89697
G1 X88.137 Y44.776 E30.93269
G1 X88.645 Y44.594 E30.95962
G1 X89.254 Y44.416 E30.99127
G1 X90.011 Y44.263 E31.0298
G1 X90.538 Y44.196 E31.0563
G1 X91.172 Y44.155 E31.088
G1 X91.508 Y44.154 E31.10476
G1 X92.944 Y44.197 E31.17644
G1 X95.71 Y44.243 E31.31445
G1 X98.461 Y44.21 E31.45171
G1 X101.146 Y44.102 E31.58578
G1 X103.924 Y43.912 E31.72469
G1 X106.631 Y43.649 E31.86038
G1 X109.362 Y43.306 E31.9977
G1 X112.052 Y42.89 E32.1335
G1 X114.733 Y42.398 E32.26949
G1 X117.417 Y41.827 E32.40639
G1 X120.069 Y41.182 E32.54256
G1 X122.733 Y40.455 E32.68033
G1 X125.354 Y39.66 E32.81697
G1 X127.928 Y38.798 E32.9524
G1 X130.504 Y37.854 E33.08927
G1 X133.054 Y36.836 E33.22626
G1 X135.591 Y35.741 E33.36412
G1 X138.046 Y34.596 E33.49926
G1 X140.498 Y33.368 E33.63608
G1 X142.914 Y32.07 E33.77291
G1 X145.281 Y30.712 E33.90905
G1 X145.855 Y30.36 E33.94264
G1 X147.158 Y29.581 E34.01838
G1 X148.382 Y28.893 E34.08843
G1 X150.436 Y27.713 E34.20661
G1 X152.734 Y26.307 E34.34102
G1 X155.06 Y24.792 E34.47951
G1 X157.304 Y23.237 E34.61571
G1 X159.488 Y21.619 E34.75132
G1 X159.898 Y21.321 E34.77661
G1 X160.533 Y20.939 E34.81358
G1 X160.721 Y20.839 E34.8242
G1 X161.324 Y20.598 E34.8566
G1 X161.875 Y20.445 E34.88513
G1 X162.154 Y20.385 E34.89936
G1 X162.771 Y20.283 E34.93056
G1 X163.007 Y20.254 E34.94243
G1 X163.795 Y20.173 E34.98195
G1 X163.901 Y20.164 E34.98726
G1 X165.129 Y20.079 E35.04867
G1 X167.911 Y19.848 E35.18794
G1 X170.612 Y19.546 E35.32353
G1 X173.337 Y19.164 E35.46081
G1 X176.035 Y18.706 E35.59734
G1 X178.691 Y18.18 E35.73242
G1 X181.409 Y17.56 E35.87151
G1 X184.022 Y16.884 E36.00616
G1 X185.375 Y16.49 E36.07647
G1 X185.509 Y16.462 E36.0833
G1 X186.671 Y16.13 E36.14359
G1 X187.403 Y15.94 E36.18132
G1 X187.605 Y15.894 E36.19166
G1 X188.32 Y15.747 E36.22807
G1 X188.466 Y15.72 E36.23548
G1 X189.221 Y15.602 E36.27361
G1 X189.434 Y15.574 E36.28432
G1 X190.105 Y15.502 E36.31799
G1 X190.254 Y15.49 E36.32545
G1 X191.144 Y15.437 E36.36993
G1 X191.332 Y15.431 E36.37932
G1 X192.414 Y15.418 E36.4333
G1 X193.134 Y15.418 E36.46922
G1 X194.133 Y15.433 E36.51907
G1 X194.651 Y15.463 E36.54495
G1 X194.851 Y15.482 E36.55498
G1 X195.716 Y15.591 E36.59847
G1 X196.431 Y15.724 E36.63476
G1 X196.589 Y15.763 E36.64288
G1 X197.17 Y15.92 E36.6729
G1 X197.729 Y16.102 E36.70223
G1 X198.287 Y16.321 E36.73214
G1 X199.027 Y16.656 E36.77266
G1 X199.305 Y16.799 E36.78826
G1 X200.07 Y17.24 E36.83231
G1 X200.328 Y17.405 E36.84759
G1 X200.932 Y17.835 E36.88458
G1 X201.251 Y18.086 E36.90483
G1 X201.805 Y18.566 E36.9414
G1 X202.075 Y18.823 E36.96
G1 X202.615 Y19.39 E36.99906
G1 X202.876 Y19.69 E37.0189
G1 X203.297 Y20.225 E37.05287
G1 X203.532 Y20.556 E37.07312
G1 X203.982 Y21.26 E37.1148
G1 X204.134 Y21.524 E37.13
G1 X204.504 Y22.246 E37.17048
G1 X204.632 Y22.528 E37.18593
G1 X204.942 Y23.312 E37.22799
G1 X205.176 Y24.026 E37.26547
G1 X205.212 Y24.157 E37.27225
G1 X205.359 Y24.752 E37.30283
G1 X205.461 Y25.287 E37.33
G1 X205.547 Y25.881 E37.35995
G1 X205.599 Y26.471 E37.3895
G1 X205.622 Y27.034 E37.41761
G1 X205.597 Y27.588 E37.44527
