;FLAVOR:Marlin
;TIME:781
;Filament used: 0.287813m, 0m
;Layer height: 0.1
;MINX:85.794
;MINY:96.327
;MINZ:0.26
;MAXX:129.127
;MAXY:138.67
;MAXZ:1.06
;Generated with Cura_SteamEngine 4.8.0
T0
M140 S60
M105
M190 S60
M104 S200
M105
M109 S200
M82 ;absolute extrusion mode
M201 X500.00 Y500.00 Z100.00 E5000.00 	;Setup machine max acceleration
M203 X500.00 Y500.00 Z10.00 E50.00 	;Setup machine max feedrate
M204 P500.00 R1000.00 T500.00 		;Setup Print/Retract/Travel acceleration
M205 X8.00 Y8.00 Z0.40 E5.00 		;Setup Jerk
M220 S100 				;Reset Feedrate
M221 S100 				;Reset Flowrate
G28				;Home the Machine
#G29 				;Bed Level
G92 E0
M300 P150 S587
G92 E0
G1 F1500 E-5.5
;LAYER_COUNT:9
;LAYER:0
M107
G0 F2160 X86.792 Y97.378 Z0.26
;TYPE:SKIRT
G1 F1500 E0
G1 F900 X87.187 Y97.033 E0.01701
G1 X87.63 Y96.751 E0.03404
G1 X88.111 Y96.54 E0.05107
G1 X88.618 Y96.404 E0.06809
G1 X89.14 Y96.347 E0.08512
G1 X89.736 Y96.379 E0.10448
G1 X90.586 Y96.499 E0.13231
G1 X93.295 Y96.844 E0.22087
G1 X95.985 Y97.108 E0.30852
G1 X98.758 Y97.303 E0.39867
G1 X101.455 Y97.414 E0.48621
G1 X104.196 Y97.451 E0.5751
G1 X106.931 Y97.411 E0.6638
G1 X109.674 Y97.291 E0.75284
G1 X112.365 Y97.099 E0.84033
G1 X115.115 Y96.823 E0.92995
G1 X117.626 Y96.503 E1.01204
G1 X118.219 Y96.421 E1.03145
G1 X118.934 Y96.344 E1.05477
G1 X119.615 Y96.327 E1.07686
G1 X119.971 Y96.352 E1.08844
G1 X120.55 Y96.403 E1.10729
G1 X122.579 Y96.594 E1.17337
G1 X123.964 Y96.703 E1.21843
G1 X124.483 Y96.783 E1.23546
G1 X124.995 Y96.936 E1.25279
G1 X125.3 Y97.043 E1.26327
G1 X125.999 Y97.385 E1.2885
G1 X126.51 Y97.713 E1.30819
G1 X126.588 Y97.766 E1.31125
G1 X127.133 Y98.226 E1.33438
G1 X127.586 Y98.705 E1.35576
G1 X127.946 Y99.178 E1.37503
G1 X128.27 Y99.692 E1.39474
G1 X128.516 Y100.184 E1.41258
G1 X128.726 Y100.701 E1.43067
G1 X128.896 Y101.244 E1.44912
G1 X129.063 Y102.053 E1.47591
G1 X129.119 Y102.563 E1.49255
G1 X129.127 Y103.456 E1.52151
G1 X129.096 Y104.03 E1.54015
G1 X128.961 Y106.819 E1.6307
G1 X128.907 Y109.516 E1.71818
G1 X128.93 Y112.294 E1.80827
G1 X128.956 Y113.133 E1.83549
G1 X128.965 Y113.899 E1.86033
G1 X128.965 Y120.836 E2.08529
G1 X128.955 Y121.565 E2.10893
G1 X128.908 Y122.088 E2.12596
G1 X128.782 Y122.598 E2.14299
G1 X128.58 Y123.082 E2.16
G1 X128.307 Y123.531 E2.17704
G1 X127.969 Y123.933 E2.19407
G1 X127.574 Y124.279 E2.2111
G1 X127.131 Y124.561 E2.22813
G1 X126.604 Y124.797 E2.24686
G1 X126.252 Y124.935 E2.25912
G1 X91.065 Y138.241 E3.47905
G1 X90.428 Y138.47 E3.501
G1 X89.922 Y138.609 E3.51801
G1 X89.401 Y138.67 E3.53502
G1 X88.876 Y138.651 E3.55206
G1 X88.36 Y138.553 E3.56909
G1 X87.865 Y138.378 E3.58612
G1 X87.403 Y138.13 E3.60312
G1 X86.983 Y137.814 E3.62017
G1 X86.617 Y137.439 E3.63716
G1 X86.311 Y137.012 E3.6542
G1 X86.074 Y136.543 E3.67124
G1 X85.91 Y136.045 E3.68824
G1 X85.812 Y135.287 E3.71302
G1 X85.794 Y134.305 E3.74487
G1 X85.794 Y127.873 E3.95346
G1 X85.804 Y127.175 E3.97609
G1 X85.836 Y126.657 E3.99292
G1 X86.022 Y124.44 E4.06507
G1 X86.176 Y121.699 E4.1541
G1 X86.253 Y118.962 E4.24289
G1 X86.253 Y116.257 E4.33061
G1 X86.174 Y113.483 E4.4206
G1 X86.021 Y110.809 E4.50746
G1 X85.827 Y108.507 E4.58237
G1 X85.803 Y108.095 E4.59576
G1 X85.794 Y107.408 E4.61804
G1 X85.794 Y100.431 E4.84429
G1 X85.804 Y99.745 E4.86654
G1 X85.852 Y99.222 E4.88357
G1 X85.978 Y98.712 E4.90061
G1 X86.18 Y98.228 E4.91761
G1 X86.454 Y97.78 E4.93464
G1 X86.792 Y97.378 E4.95168
G0 F2160 X87.086 Y97.51
G1 F900 X87.476 Y97.195 E4.96793
G1 X87.911 Y96.946 E4.98419
G1 X88.381 Y96.769 E5.00047
G1 X88.872 Y96.668 E5.01673
G1 X89.373 Y96.647 E5.03299
G1 X89.694 Y96.676 E5.04344
G1 X90.503 Y96.79 E5.06994
G1 X93.269 Y97.142 E5.16036
G1 X96.003 Y97.411 E5.24945
G1 X98.725 Y97.602 E5.33793
G1 X101.438 Y97.714 E5.42599
G1 X104.196 Y97.751 E5.51543
G1 X106.949 Y97.71 E5.60472
G1 X109.672 Y97.592 E5.69311
G1 X112.418 Y97.395 E5.78238
G1 X115.11 Y97.126 E5.87012
G1 X117.701 Y96.795 E5.95482
G1 X118.251 Y96.719 E5.97283
G1 X118.966 Y96.642 E5.99615
G1 X119.594 Y96.626 E6.01652
G1 X119.945 Y96.651 E6.02793
G1 X120.522 Y96.702 E6.04671
G1 X122.536 Y96.892 E6.11232
G1 X123.941 Y97.002 E6.15802
G1 X124.657 Y97.143 E6.18168
G1 X125.2 Y97.326 E6.20026
G1 X125.838 Y97.638 E6.2233
G1 X126.267 Y97.912 E6.2398
G1 X126.419 Y98.015 E6.24576
G1 X126.917 Y98.434 E6.26686
G1 X127.364 Y98.907 E6.28797
G1 X127.693 Y99.338 E6.30555
G1 X128.011 Y99.843 E6.3249
G1 X128.238 Y100.297 E6.34136
G1 X128.448 Y100.814 E6.35946
G1 X128.604 Y101.31 E6.37632
G1 X128.768 Y102.108 E6.40274
G1 X128.828 Y102.827 E6.42614
G1 X128.827 Y103.454 E6.44647
G1 X128.794 Y104.061 E6.46618
G1 X128.661 Y106.799 E6.55508
G1 X128.607 Y109.516 E6.6432
G1 X128.63 Y112.306 E6.73368
G1 X128.656 Y113.137 E6.76064
G1 X128.665 Y113.903 E6.78549
G1 X128.665 Y120.832 E7.01018
G1 X128.655 Y121.561 E7.03383
G1 X128.608 Y122.061 E7.05011
G1 X128.482 Y122.546 E7.06636
G1 X128.281 Y123.006 E7.08264
G1 X128.01 Y123.428 E7.0989
G1 X127.675 Y123.801 E7.11516
G1 X127.285 Y124.117 E7.13144
G1 X126.728 Y124.421 E7.15202
G1 X126.181 Y124.641 E7.17114
G1 X90.964 Y137.958 E8.3921
G1 X90.327 Y138.187 E8.41405
G1 X89.843 Y138.319 E8.43032
G1 X89.344 Y138.372 E8.44659
G1 X88.843 Y138.345 E8.46286
G1 X88.353 Y138.239 E8.47912
G1 X87.885 Y138.057 E8.4954
G1 X87.453 Y137.802 E8.51167
G1 X87.067 Y137.483 E8.52791
G1 X86.736 Y137.106 E8.54418
G1 X86.469 Y136.681 E8.56046
G1 X86.273 Y136.219 E8.57673
G1 X86.152 Y135.732 E8.593
G1 X86.112 Y135.281 E8.60769
G1 X86.094 Y134.305 E8.63934
G1 X86.094 Y127.877 E8.84779
G1 X86.104 Y127.179 E8.87043
G1 X86.135 Y126.678 E8.88671
G1 X86.323 Y124.445 E8.95938
G1 X86.476 Y121.725 E9.04772
G1 X86.553 Y118.97 E9.1371
G1 X86.553 Y116.248 E9.22537
G1 X86.474 Y113.493 E9.31475
G1 X86.319 Y110.767 E9.40329
G1 X86.126 Y108.485 E9.47756
G1 X86.103 Y108.091 E9.49036
G1 X86.094 Y107.404 E9.51264
G1 X86.094 Y100.435 E9.73863
G1 X86.104 Y99.749 E9.76088
G1 X86.152 Y99.25 E9.77714
G1 X86.277 Y98.764 E9.79341
G1 X86.479 Y98.305 E9.80967
G1 X86.751 Y97.883 E9.82595
G1 X87.086 Y97.51 E9.84221
G1 F1500 E4.34221
;MESH:AAA-Label.stl
G0 F2160 X88.629 Y100.447
G0 X89.705 Y100.447
G0 X97.803 Y110.461
G0 X102.215 Y123.563
;TYPE:WALL-INNER
G1 F1500 E9.84221
G1 F900 X102.215 Y123.564 E9.84224
G1 X102.215 Y123.774 E9.84905
G1 X102.413 Y123.704 E9.85309
G1 X117.625 Y118.305 E10.37654
G1 X117.625 Y116.712 E10.4282
G1 X102.412 Y111.486 E10.94984
G1 X102.215 Y111.419 E10.95659
G1 X102.215 Y111.627 E10.96059
G1 X102.215 Y111.628 E10.96062
G1 X102.215 Y123.563 E11.34766
G0 F2160 X102.515 Y123.349
G1 F900 X102.713 Y123.279 E11.35447
G1 X117.325 Y118.093 E11.85727
G1 X117.325 Y116.926 E11.89512
G1 X102.712 Y111.906 E12.39618
G1 X102.515 Y111.839 E12.40293
G1 X102.515 Y112.047 E12.40693
G1 X102.515 Y112.048 E12.40697
G1 X102.515 Y123.138 E12.7666
G1 X102.515 Y123.139 E12.76663
G1 X102.515 Y123.349 E12.77067
G0 F2160 X102.815 Y122.924
G1 F900 X103.013 Y122.854 E12.77748
G1 X117.025 Y117.881 E13.25964
G1 X117.025 Y117.14 E13.28367
G1 X103.012 Y112.326 E13.76416
G1 X102.815 Y112.259 E13.77091
G1 X102.815 Y112.467 E13.77491
G1 X102.815 Y112.468 E13.77494
G1 X102.815 Y122.713 E14.10717
G1 X102.815 Y122.714 E14.10721
G1 X102.815 Y122.924 E14.11124
G0 F2160 X103.065 Y122.57
;TYPE:WALL-OUTER
G1 F900 X103.264 Y122.5 E14.11809
G1 X116.775 Y117.704 E14.58301
G1 X116.775 Y117.318 E14.59553
G1 X103.263 Y112.677 E15.05883
G1 X103.065 Y112.609 E15.06562
G1 X103.065 Y112.818 E15.06964
G1 X103.065 Y112.819 E15.06968
G1 X103.065 Y122.358 E15.37901
G1 X103.065 Y122.36 E15.37908
G1 X103.065 Y122.57 E15.38311
G0 F2160 X103.254 Y122.504
G0 X103.363 Y122.815
G0 X103.369 Y122.834
G0 X98.371 Y110.054
;TYPE:WALL-INNER
G1 F900 X90.294 Y107.311 E15.65972
G1 X90.294 Y101.51 E15.84784
G1 X90.294 Y101.509 E15.84788
G1 X90.294 Y101.295 E15.85482
G1 X90.495 Y101.37 E15.85891
G1 X124.465 Y114.073 E17.03502
G1 X124.465 Y120.798 E17.2531
G1 X90.496 Y133.644 E18.4308
G1 X90.294 Y133.72 E18.4378
G1 X90.294 Y133.505 E18.4419
G1 X90.294 Y133.504 E18.44194
G1 X90.294 Y127.96 E18.62172
G1 X98.371 Y125.113 E18.89944
G1 X98.371 Y110.054 E19.38778
G0 F2160 X98.071 Y110.269
G1 F900 X89.994 Y107.526 E19.6644
G1 X89.994 Y101.078 E19.8735
G1 X89.994 Y101.077 E19.87354
G1 X89.994 Y100.863 E19.88048
G1 X90.195 Y100.938 E19.88457
G1 X124.765 Y113.865 E21.08144
G1 X124.765 Y121.006 E21.31302
G1 X90.196 Y134.079 E22.51153
G1 X89.994 Y134.155 E22.51852
G1 X89.994 Y133.94 E22.52263
G1 X89.994 Y133.939 E22.52266
G1 X89.994 Y127.747 E22.72346
G1 X98.071 Y124.901 E23.00117
G1 X98.071 Y110.269 E23.47566
G0 F2160 X97.771 Y110.484
G1 F900 X89.694 Y107.741 E23.75228
G1 X89.694 Y100.646 E23.98236
G1 X89.694 Y100.645 E23.98239
G1 X89.694 Y100.431 E23.98933
G1 X89.895 Y100.506 E23.99343
G1 X125.065 Y113.657 E25.21107
G1 X125.065 Y121.214 E25.45614
G1 X89.896 Y134.514 E26.67545
G1 X89.694 Y134.59 E26.68245
G1 X89.694 Y134.375 E26.68655
G1 X89.694 Y134.374 E26.68658
G1 X89.694 Y127.534 E26.90839
G1 X97.771 Y124.689 E27.18609
G1 X97.771 Y110.484 E27.64674
G0 F2160 X97.521 Y110.663
;TYPE:WALL-OUTER
G1 F900 X89.444 Y107.92 E27.92336
G1 X89.444 Y100.287 E28.17089
G1 X89.444 Y100.286 E28.17092
G1 X89.444 Y100.071 E28.17789
G1 X89.646 Y100.146 E28.18201
G1 X125.315 Y113.484 E29.41693
G1 X125.315 Y121.387 E29.67322
G1 X89.646 Y134.876 E30.90986
G1 X89.444 Y134.952 E30.91686
G1 X89.444 Y134.737 E30.92096
G1 X89.444 Y134.735 E30.92103
G1 X89.444 Y127.357 E31.16029
G1 X97.521 Y124.512 E31.43799
G1 X97.521 Y110.663 E31.88709
G0 F2160 X97.332 Y110.599
G0 X97.439 Y110.287
G0 X97.446 Y110.269
G0 X98.661 Y109.847
;TYPE:SKIN
G1 F900 X90.584 Y107.103 E32.16372
G1 X90.584 Y101.713 E32.33851
G1 X124.175 Y114.274 E33.50149
G1 X124.175 Y120.598 E33.70657
G1 X90.584 Y133.3 E34.87115
G1 X90.584 Y128.165 E35.03768
G1 X98.661 Y125.318 E35.3154
G1 X98.661 Y109.847 E35.8171
G0 F2160 X101.925 Y111.013
G1 F900 X101.925 Y124.184 E36.24422
G1 X117.915 Y118.51 E36.79443
G1 X117.915 Y116.505 E36.85945
G1 X101.925 Y111.013 E37.40772
G0 F2160 X124.039 Y114.705
G1 F900 X123.499 Y114.165 E37.43248
G1 X123.446 Y114.112
G0 F2160 X122.822 Y113.912
G1 F900 X124.039 Y115.129 E37.48829
G0 F2160 X124.039 Y115.553
G1 F900 X122.144 Y113.658 E37.5752
G1 X122.091 Y113.605
G0 F2160 X121.466 Y113.405
G1 F900 X124.039 Y115.978 E37.6932
G0 F2160 X124.039 Y116.402
G1 F900 X120.788 Y113.151 E37.84229
G1 X120.735 Y113.098
G0 F2160 X120.111 Y112.898
G1 F900 X124.039 Y116.826 E38.02244
G0 F2160 X124.039 Y117.251
G1 F900 X119.433 Y112.644 E38.2337
G1 X119.38 Y112.591
G0 F2160 X118.755 Y112.391
G1 F900 X124.039 Y117.675 E38.47602
G0 F2160 X124.039 Y118.099
G1 F900 X118.078 Y112.138 E38.7494
G1 X118.025 Y112.085
G0 F2160 X117.4 Y111.884
G1 F900 X124.039 Y118.523 E39.05387
G0 F2160 X124.039 Y118.948
G1 F900 X116.722 Y111.631 E39.38944
G1 X116.669 Y111.578
G0 F2160 X116.044 Y111.377
G1 F900 X124.039 Y119.372 E39.7561
G0 F2160 X124.039 Y119.796
G1 F900 X115.367 Y111.124 E40.1538
G1 X115.314 Y111.071
G0 F2160 X114.689 Y110.871
G1 F900 X124.039 Y120.22 E40.58258
G0 F2160 X123.937 Y120.543
G1 F900 X114.011 Y110.617 E41.0378
G1 X113.958 Y110.564
G0 F2160 X113.334 Y110.364
G1 F900 X123.629 Y120.659 E41.50994
G0 F2160 X123.321 Y120.775
G1 F900 X112.656 Y110.11 E41.99904
G1 X112.603 Y110.057
G0 F2160 X111.978 Y109.857
G1 F900 X123.013 Y120.892 E42.50512
G0 F2160 X122.705 Y121.008
G1 F900 X111.301 Y109.604 E43.02812
G1 X111.248 Y109.551
G0 F2160 X110.623 Y109.35
G1 F900 X117.488 Y116.215 E43.34296
G1 X117.541 Y116.268
G0 F2160 X116.842 Y115.993
G1 F900 X109.945 Y109.097 E43.65924
G1 X109.892 Y109.044
G0 F2160 X109.267 Y108.843
G1 F900 X116.196 Y115.772 E43.97701
G1 X116.249 Y115.825
G0 F2160 X115.55 Y115.55
G1 F900 X108.59 Y108.59 E44.2962
G1 X108.537 Y108.537
G0 F2160 X107.912 Y108.336
G1 F900 X114.904 Y115.328 E44.61686
G1 X114.957 Y115.381
G0 F2160 X114.257 Y115.106
G1 F900 X107.234 Y108.083 E44.93894
G1 X107.181 Y108.03
G0 F2160 X106.557 Y107.83
G1 F900 X113.611 Y114.884 E45.26245
G1 X113.664 Y114.937
G0 F2160 X112.965 Y114.662
G1 F900 X105.879 Y107.576 E45.58742
G1 X105.826 Y107.523
G0 F2160 X105.201 Y107.323
G1 F900 X112.318 Y114.44 E45.91381
G1 X112.371 Y114.493
G0 F2160 X111.672 Y114.218
G1 F900 X104.523 Y107.069 E46.24167
G1 X104.47 Y107.016
G0 F2160 X103.846 Y106.816
G1 F900 X111.026 Y113.996 E46.57095
G1 X111.079 Y114.049
G0 F2160 X110.38 Y113.774
G1 F900 X103.169 Y106.563 E46.90166
G1 X103.116 Y106.51
G0 F2160 X102.49 Y106.309
G1 F900 X109.733 Y113.552 E47.23383
G1 X109.786 Y113.605
G0 F2160 X109.087 Y113.33
G1 F900 X101.813 Y106.056 E47.56742
G1 X101.76 Y106.003
G0 F2160 X101.135 Y105.802
G1 F900 X108.441 Y113.108 E47.90248
G1 X108.494 Y113.161
G0 F2160 X107.794 Y112.886
G1 F900 X100.457 Y105.549 E48.23896
G1 X100.404 Y105.496
G0 F2160 X99.779 Y105.295
G1 F900 X107.148 Y112.664 E48.57691
G1 X107.201 Y112.717
G0 F2160 X106.502 Y112.441
G1 F900 X99.102 Y105.042 E48.91626
G1 X99.049 Y104.989
G0 F2160 X98.425 Y104.788
G1 F900 X105.856 Y112.219 E49.25705
G1 X105.909 Y112.272
G0 F2160 X105.209 Y111.997
G1 F900 X97.746 Y104.535 E49.59929
G1 X97.693 Y104.482
G0 F2160 X97.069 Y104.281
G1 F900 X104.563 Y111.775 E49.94297
G1 X104.616 Y111.828
G0 F2160 X103.917 Y111.553
G1 F900 X96.391 Y104.028 E50.2881
G1 X96.338 Y103.975
G0 F2160 X95.713 Y103.774
G1 F900 X103.27 Y111.331 E50.63467
G1 X103.323 Y111.384
G0 F2160 X102.625 Y111.11
G1 F900 X95.036 Y103.521 E50.98271
G1 X94.983 Y103.468
G0 F2160 X94.358 Y103.267
G1 F900 X101.978 Y110.888 E51.3322
G0 F2160 X101.789 Y111.123
G1 F900 X93.681 Y103.014 E51.70406
G1 X93.628 Y102.961
G0 F2160 X93.002 Y102.761
G1 F900 X101.789 Y111.547 E52.10702
G0 F2160 X101.789 Y111.971
G1 F900 X92.325 Y102.507 E52.54105
G1 X92.272 Y102.454
G0 F2160 X91.648 Y102.254
G1 F900 X101.789 Y112.396 E53.00615
G0 F2160 X101.789 Y112.82
G1 F900 X98.795 Y109.826 E53.14345
G0 F2160 X98.679 Y109.71
G1 F900 X90.969 Y102 E53.49704
G0 F2160 X90.718 Y102.174
G1 F900 X98.036 Y109.491 E53.83263
G1 X98.089 Y109.544
G0 F2160 X97.394 Y109.274
G1 F900 X90.718 Y102.598 E54.1388
G0 F2160 X90.718 Y103.022
G1 F900 X96.752 Y109.055 E54.4155
G1 X96.805 Y109.108
G0 F2160 X96.109 Y108.837
G1 F900 X90.718 Y103.446 E54.66274
G0 F2160 X90.718 Y103.871
G1 F900 X95.467 Y108.619 E54.88051
G1 X95.52 Y108.672
G0 F2160 X94.824 Y108.4
G1 F900 X90.718 Y104.295 E55.06879
G0 F2160 X90.718 Y104.719
G1 F900 X94.181 Y108.182 E55.22761
G1 X94.234 Y108.235
G0 F2160 X93.539 Y107.964
G1 F900 X90.718 Y105.143 E55.35698
G0 F2160 X90.718 Y105.568
G1 F900 X92.896 Y107.746 E55.45687
G1 X92.949 Y107.799
G0 F2160 X92.254 Y107.527
G1 F900 X90.718 Y105.992 E55.52729
G0 F2160 X90.718 Y106.416
G1 F900 X91.612 Y107.309 E55.56826
G1 X91.665 Y107.362
G0 F2160 X90.969 Y107.091
G1 F900 X90.718 Y106.841 E55.57975
G0 F2160 X98.795 Y110.25
G1 F900 X101.789 Y113.244 E55.71706
G0 F2160 X101.789 Y113.668
G1 F900 X98.795 Y110.674 E55.85437
G0 F2160 X98.795 Y111.099
G1 F900 X101.789 Y114.093 E55.99167
G0 F2160 X101.789 Y114.517
G1 F900 X98.795 Y111.523 E56.12898
G0 F2160 X98.795 Y111.947
G1 F900 X101.789 Y114.941 E56.26629
G0 F2160 X101.789 Y115.365
G1 F900 X98.795 Y112.371 E56.4036
G0 F2160 X98.795 Y112.796
G1 F900 X101.789 Y115.79 E56.54091
G0 F2160 X101.789 Y116.214
G1 F900 X98.795 Y113.22 E56.67821
G0 F2160 X98.795 Y113.644
G1 F900 X101.789 Y116.638 E56.81552
G0 F2160 X101.789 Y117.062
G1 F900 X98.795 Y114.069 E56.95281
G0 F2160 X98.795 Y114.493
G1 F900 X101.789 Y117.487 E57.09011
G0 F2160 X101.789 Y117.911
G1 F900 X98.795 Y114.917 E57.22742
G0 F2160 X98.795 Y115.341
G1 F900 X101.789 Y118.335 E57.36473
G0 F2160 X101.789 Y118.759
G1 F900 X98.795 Y115.766 E57.50202
G0 F2160 X98.795 Y116.19
