;FLAVOR:Marlin
;TIME:6218
;Filament used: 3.71455m, 0m
;Layer height: 0.2
;MINX:52.674
;MINY:43.029
;MINZ:0.3
;MAXX:167.838
;MAXY:173.513
;MAXZ:1.9
;POSTPROCESSED
;Generated with Cura_SteamEngine 4.8.0
T0
M140 S60
M105
M190 S60
M104 S200
M105
M109 S200
M82 ;absolute extrusion mode
M201 X500.00 Y500.00 Z100.00 E5000.00 	;Setup machine max acceleration
M203 X500.00 Y500.00 Z10.00 E50.00 	;Setup machine max feedrate
M204 P500.00 R1000.00 T500.00 		;Setup Print/Retract/Travel acceleration
M205 X8.00 Y8.00 Z0.40 E5.00 		;Setup Jerk
M220 S100 				;Reset Feedrate
M221 S100 				;Reset Flowrate
G28				;Home the Machine
#G29 				;Bed Level
G92 E0
M300 P150 S587
G92 E0
G1 F1500 E-5.5
;LAYER_COUNT:9
;LAYER:0
M107
G0 F2160 X63.409 Y55.255 Z0.3
;TYPE:SKIRT
G1 F1500 E0
G1 F900 X63.813 Y54.853 E0.02133
G1 X64.267 Y54.477 E0.04338
G1 X64.698 Y54.18 E0.06297
G1 X64.901 Y54.048 E0.07203
G1 X65.42 Y53.77 E0.09406
G1 X66.326 Y53.381 E0.13095
G1 X67.529 Y52.882 E0.17968
G1 X70.017 Y51.766 E0.28172
G1 X72.474 Y50.579 E0.38382
G1 X74.895 Y49.324 E0.48585
G1 X76.708 Y48.312 E0.56354
G1 X76.81 Y48.265 E0.56775
G1 X78.358 Y47.399 E0.63412
G1 X79.202 Y46.957 E0.66977
G1 X80.072 Y46.53 E0.70603
G1 X80.801 Y46.195 E0.73605
G1 X81.847 Y45.747 E0.77863
G1 X82.703 Y45.407 E0.81309
G1 X83.479 Y45.123 E0.84401
G1 X84.594 Y44.751 E0.88799
G1 X84.716 Y44.713 E0.89277
G1 X86.082 Y44.313 E0.94603
G1 X86.215 Y44.277 E0.95119
G1 X87.487 Y43.959 E1.00025
G1 X87.619 Y43.929 E1.00531
G1 X88.888 Y43.664 E1.05382
G1 X89.024 Y43.638 E1.059
G1 X90.345 Y43.417 E1.10912
G1 X90.488 Y43.396 E1.11452
G1 X91.805 Y43.232 E1.16418
G1 X91.944 Y43.218 E1.16941
G1 X93.348 Y43.101 E1.22213
G1 X93.476 Y43.093 E1.22693
G1 X94.646 Y43.04 E1.27075
G1 X95.147 Y43.03 E1.2895
G1 X95.825 Y43.029 E1.31487
G1 X96.629 Y43.046 E1.34496
G1 X97.35 Y43.075 E1.37196
G1 X98.11 Y43.123 E1.40045
G1 X98.862 Y43.184 E1.42868
G1 X99.55 Y43.255 E1.45456
G1 X100.349 Y43.354 E1.48469
G1 X101.045 Y43.456 E1.51101
G1 X101.76 Y43.574 E1.53813
G1 X102.578 Y43.728 E1.56927
G1 X103.186 Y43.854 E1.5925
G1 X103.905 Y44.019 E1.62011
G1 X104.691 Y44.218 E1.65044
G1 X105.397 Y44.411 E1.67783
G1 X106.107 Y44.622 E1.70555
G1 X106.812 Y44.847 E1.73324
G1 X107.556 Y45.101 E1.76265
G1 X108.378 Y45.403 E1.79542
G1 X109.228 Y45.737 E1.82959
G1 X109.962 Y46.047 E1.85941
G1 X110.279 Y46.19 E1.87242
G1 X112.832 Y47.294 E1.97649
G1 X115.364 Y48.307 E2.07854
G1 X117.908 Y49.241 E2.17994
G1 X120.52 Y50.118 E2.28304
G1 X122.798 Y50.811 E2.37213
G1 X123.573 Y51.093 E2.40299
G1 X124.044 Y51.325 E2.42264
G1 X124.478 Y51.62 E2.44227
G1 X124.986 Y52.055 E2.4673
G1 X125.394 Y52.51 E2.49016
G1 X125.593 Y52.776 E2.50259
G1 X125.875 Y53.219 E2.52224
G1 X125.999 Y53.477 E2.53295
G1 X126.253 Y54.066 E2.55696
G1 X126.33 Y54.261 E2.5648
G1 X126.706 Y55.303 E2.60625
G1 X126.938 Y55.974 E2.63282
G1 X127.906 Y58.538 E2.73536
G1 X128.944 Y61.071 E2.83779
G1 X130.048 Y63.561 E2.93971
G1 X131.224 Y66.025 E3.04187
G1 X132.477 Y68.469 E3.14464
G1 X133.793 Y70.866 E3.24695
G1 X135.161 Y73.198 E3.34812
G1 X136.615 Y75.523 E3.45072
G1 X138.113 Y77.775 E3.55193
G1 X138.55 Y78.404 E3.58059
G1 X138.693 Y78.619 E3.59025
G1 X138.949 Y79.077 E3.60988
G1 X139.111 Y79.494 E3.62662
G1 X139.401 Y80.417 E3.66282
G1 X139.684 Y81.357 E3.69955
G1 X140.537 Y83.929 E3.80095
G1 X141.466 Y86.483 E3.90264
G1 X142.485 Y89.059 E4.00629
G1 X143.554 Y91.549 E4.10769
G1 X144.707 Y94.039 E4.21036
G1 X145.923 Y96.482 E4.31247
G1 X147.205 Y98.887 E4.41445
G1 X148.545 Y101.234 E4.51557
G1 X149.978 Y103.589 E4.61872
G1 X151.471 Y105.895 E4.72151
G1 X153.006 Y108.121 E4.82269
G1 X154.63 Y110.341 E4.92561
G1 X156.305 Y112.5 E5.02785
G1 X158.041 Y114.61 E5.13009
G1 X159.804 Y116.636 E5.23058
G1 X161.122 Y118.078 E5.30368
G1 X162.065 Y119.091 E5.35547
G1 X162.645 Y119.825 E5.39047
G1 X162.825 Y120.117 E5.40331
G1 X163.093 Y120.594 E5.42378
G1 X163.349 Y121.099 E5.44496
G1 X163.581 Y121.609 E5.46593
G1 X163.809 Y122.166 E5.48845
G1 X164.02 Y122.759 E5.512
G1 X164.229 Y123.556 E5.54283
G1 X164.334 Y124.321 E5.57172
G1 X164.385 Y125.168 E5.60347
G1 X164.439 Y126.283 E5.64524
G1 X164.65 Y129.015 E5.74777
G1 X164.937 Y131.738 E5.85022
G1 X165.297 Y134.423 E5.95159
G1 X165.738 Y137.124 E6.05399
G1 X166.255 Y139.813 E6.15645
G1 X166.841 Y142.456 E6.25775
G1 X167.396 Y144.691 E6.34392
G1 X167.561 Y145.328 E6.36854
G1 X167.715 Y146.009 E6.39466
G1 X167.802 Y146.487 E6.41284
G1 X167.838 Y147.171 E6.43847
G1 X167.799 Y148.015 E6.47009
G1 X167.702 Y151.124 E6.58647
G1 X167.645 Y151.652 E6.60635
G1 X167.613 Y151.816 E6.6126
G1 X167.486 Y152.411 E6.63536
G1 X167.149 Y153.885 E6.69194
G1 X166.988 Y154.539 E6.71714
G1 X166.939 Y154.717 E6.72405
G1 X166.62 Y155.766 E6.76508
G1 X166.525 Y156.061 E6.77667
G1 X165.763 Y158.674 E6.87852
G1 X165.069 Y161.331 E6.98127
G1 X164.459 Y163.968 E7.08255
G1 X163.766 Y167.499 E7.21719
G1 X163.668 Y168.024 E7.23717
G1 X163.471 Y168.993 E7.27417
G1 X163.24 Y169.829 E7.30663
G1 X162.971 Y170.464 E7.33243
G1 X162.721 Y170.926 E7.35209
G1 X162.383 Y171.367 E7.37288
G1 X162.154 Y171.621 E7.38567
G1 X161.774 Y171.983 E7.40531
G1 X161.343 Y172.283 E7.42496
G1 X160.791 Y172.559 E7.44805
G1 X160.299 Y172.745 E7.46773
G1 X160.045 Y172.809 E7.47753
G1 X158.932 Y173.044 E7.5201
G1 X158.142 Y173.19 E7.55016
G1 X157.581 Y173.286 E7.57145
G1 X156.941 Y173.382 E7.59567
G1 X156.294 Y173.462 E7.62006
G1 X155.784 Y173.505 E7.63921
G1 X155.39 Y173.513 E7.65396
G1 X153.942 Y173.458 E7.70818
G1 X151.231 Y173.392 E7.80965
G1 X150.777 Y173.394 E7.82664
G1 X149.392 Y173.382 E7.87846
G1 X149.106 Y173.367 E7.88918
G1 X147.961 Y173.262 E7.9322
G1 X145.182 Y173.046 E8.0365
G1 X142.447 Y172.912 E8.13896
G1 X139.743 Y172.854 E8.24016
G1 X137.006 Y172.875 E8.34257
G1 X134.265 Y172.972 E8.4452
G1 X131.532 Y173.147 E8.54767
G1 X128.847 Y173.395 E8.64857
G1 X128.226 Y173.462 E8.67194
G1 X127.678 Y173.504 E8.6925
G1 X127.286 Y173.512 E8.70717
G1 X125.831 Y173.457 E8.76165
G1 X123.346 Y173.394 E8.85467
G1 X122.723 Y173.397 E8.87798
G1 X122.636 Y173.391 E8.88124
G1 X121.29 Y173.382 E8.93161
G1 X120.51 Y173.287 E8.96101
G1 X119.786 Y173.114 E8.98886
G1 X118.709 Y172.842 E9.03043
G1 X117.983 Y172.649 E9.05853
G1 X117.487 Y172.476 E9.07819
G1 X117.167 Y172.316 E9.09158
G1 X116.503 Y171.94 E9.12013
G1 X114.098 Y170.62 E9.22278
G1 X111.655 Y169.369 E9.32548
G1 X109.177 Y168.186 E9.42823
G1 X106.713 Y167.094 E9.52907
G1 X104.125 Y166.034 E9.63372
G1 X101.63 Y165.095 E9.73347
G1 X99.011 Y164.192 E9.83713
G1 X96.417 Y163.379 E9.93884
G1 X93.707 Y162.614 E10.04421
G1 X93.214 Y162.434 E10.06384
G1 X92.754 Y162.18 E10.08351
G1 X92.338 Y161.86 E10.10314
G1 X91.975 Y161.481 E10.12278
G1 X91.675 Y161.05 E10.14243
G1 X91.442 Y160.579 E10.16209
G1 X91.284 Y160.079 E10.18171
G1 X91.233 Y159.81 E10.19196
G1 X91.048 Y158.588 E10.2382
G1 X90.601 Y155.902 E10.34009
G1 X90.077 Y153.22 E10.44234
G1 X89.479 Y150.558 E10.54443
G1 X88.806 Y147.915 E10.64648
G1 X88.057 Y145.285 E10.7488
G1 X87.23 Y142.668 E10.8515
G1 X86.341 Y140.107 E10.95293
G1 X85.356 Y137.512 E11.05679
G1 X84.345 Y135.06 E11.15603
G1 X83.204 Y132.499 E11.26094
G1 X82.031 Y130.054 E11.36241
G1 X80.789 Y127.642 E11.46392
G1 X79.471 Y125.253 E11.56601
G1 X78.071 Y122.875 E11.66927
G1 X76.629 Y120.578 E11.77075
G1 X75.111 Y118.306 E11.87299
G1 X73.537 Y116.087 E11.97479
G1 X71.869 Y113.873 E12.07851
G1 X70.192 Y111.772 E12.1791
G1 X68.428 Y109.686 E12.28132
G1 X66.567 Y107.608 E12.38569
G1 X65.372 Y106.335 E12.45103
G1 X64.897 Y105.838 E12.47675
G1 X64.567 Y105.463 E12.49544
G1 X64.176 Y104.972 E12.51893
G1 X63.8 Y104.448 E12.54306
G1 X63.587 Y104.104 E12.5582
G1 X62.499 Y102.289 E12.63738
G1 X61.029 Y99.989 E12.73952
G1 X59.493 Y97.731 E12.8417
G1 X57.892 Y95.515 E12.94399
G1 X56.23 Y93.345 E13.04627
G1 X55.29 Y92.172 E13.10251
G1 X54.441 Y91.127 E13.15289
G1 X54.311 Y90.957 E13.1609
G1 X53.958 Y90.463 E13.18362
G1 X53.659 Y89.997 E13.20434
G1 X53.406 Y89.551 E13.22352
G1 X53.186 Y89.089 E13.24267
G1 X52.959 Y88.519 E13.26563
G1 X52.756 Y87.763 E13.29492
G1 X52.687 Y87.227 E13.31514
G1 X52.674 Y86.595 E13.33879
G1 X52.737 Y86.015 E13.36062
G1 X52.749 Y85.926 E13.36398
G1 X52.871 Y85.154 E13.39323
G1 X53.087 Y83.893 E13.4411
G1 X53.468 Y81.219 E13.54216
G1 X53.735 Y78.927 E13.6285
G1 X53.826 Y78.068 E13.66083
G1 X53.977 Y76.936 E13.70356
G1 X54.302 Y74.211 E13.80624
G1 X54.545 Y71.514 E13.90757
G1 X54.713 Y68.718 E14.01238
G1 X54.742 Y68.337 E14.02667
G1 X54.798 Y67.798 E14.04695
G1 X54.925 Y67.045 E14.07552
G1 X55.047 Y66.525 E14.09551
G1 X55.245 Y65.902 E14.11997
G1 X55.605 Y65.114 E14.15239
G1 X55.932 Y64.572 E14.17607
G1 X56.249 Y64.153 E14.19573
G1 X56.721 Y63.619 E14.2224
G1 X58.493 Y61.556 E14.32416
G1 X60.231 Y59.412 E14.42743
G1 X61.875 Y57.262 E14.5287
G1 X62.28 Y56.699 E14.55465
G1 X63.013 Y55.711 E14.60068
G1 X63.409 Y55.255 E14.62328
G0 F2160 X63.629 Y55.459
G1 F900 X64.023 Y55.067 E14.64408
G1 X64.438 Y54.723 E14.66425
G1 X64.862 Y54.431 E14.68351
G1 X65.065 Y54.299 E14.69257
G1 X65.539 Y54.046 E14.71267
G1 X66.441 Y53.658 E14.74941
G1 X67.662 Y53.152 E14.79887
G1 X70.122 Y52.048 E14.89976
G1 X72.636 Y50.834 E15.00422
G1 X75.019 Y49.598 E15.10467
G1 X76.854 Y48.574 E15.1833
G1 X76.941 Y48.534 E15.18688
G1 X78.424 Y47.704 E15.25047
G1 X79.334 Y47.226 E15.28893
G1 X80.123 Y46.838 E15.32183
G1 X81 Y46.435 E15.35795
G1 X81.958 Y46.025 E15.39694
G1 X82.729 Y45.718 E15.42799
G1 X83.574 Y45.408 E15.46167
G1 X84.689 Y45.036 E15.50565
G1 X84.801 Y45.001 E15.51004
G1 X86.167 Y44.601 E15.5633
G1 X86.288 Y44.568 E15.56799
G1 X87.56 Y44.25 E15.61705
G1 X87.68 Y44.223 E15.62165
G1 X88.949 Y43.958 E15.67016
G1 X89.073 Y43.934 E15.67489
G1 X90.394 Y43.713 E15.725
G1 X90.525 Y43.694 E15.72996
G1 X91.842 Y43.53 E15.77962
G1 X91.969 Y43.517 E15.78439
G1 X93.373 Y43.4 E15.83711
G1 X93.49 Y43.392 E15.8415
G1 X94.572 Y43.342 E15.88203
G1 X95.147 Y43.33 E15.90355
G1 X95.825 Y43.329 E15.92891
G1 X96.617 Y43.345 E15.95856
G1 X97.331 Y43.374 E15.98529
G1 X98.086 Y43.422 E16.0136
G1 X98.831 Y43.482 E16.04157
G1 X99.513 Y43.553 E16.06722
G1 X100.306 Y43.651 E16.09712
G1 X100.997 Y43.752 E16.12325
G1 X101.705 Y43.869 E16.1501
G1 X102.517 Y44.021 E16.18101
G1 X103.119 Y44.147 E16.20403
G1 X103.903 Y44.327 E16.23413
G1 X104.612 Y44.507 E16.2615
G1 X105.312 Y44.699 E16.28866
G1 X106.016 Y44.908 E16.31614
G1 X106.716 Y45.131 E16.34362
G1 X107.453 Y45.383 E16.37277
G1 X108.269 Y45.682 E16.40529
G1 X109.112 Y46.013 E16.43917
G1 X109.839 Y46.32 E16.4687
G1 X110.167 Y46.468 E16.48217
G1 X112.719 Y47.572 E16.58621
G1 X115.247 Y48.583 E16.68809
G1 X117.845 Y49.538 E16.79166
G1 X120.41 Y50.398 E16.89288
G1 X122.708 Y51.097 E16.98276
G1 X123.461 Y51.372 E17.01275
G1 X123.911 Y51.595 E17.03155
G1 X124.616 Y52.12 E17.06444
G1 X124.781 Y52.274 E17.07288
G1 X125.154 Y52.69 E17.09379
G1 X125.353 Y52.956 E17.10622
G1 X125.724 Y53.596 E17.1339
G1 X125.978 Y54.185 E17.1579
G1 X126.048 Y54.363 E17.16506
G1 X126.422 Y55.401 E17.20634
G1 X126.654 Y56.073 E17.23294
G1 X127.628 Y58.652 E17.33609
G1 X128.672 Y61.201 E17.43916
G1 X129.764 Y63.663 E17.53994
G1 X130.954 Y66.157 E17.64334
G1 X132.208 Y68.601 E17.74612
G1 X133.525 Y71.002 E17.84859
G1 X134.909 Y73.36 E17.95089
G1 X136.371 Y75.699 E18.0541
G1 X137.89 Y77.982 E18.15671
G1 X138.3 Y78.571 E18.18356
G1 X138.443 Y78.786 E18.19322
G1 X138.686 Y79.224 E18.21197
G1 X138.825 Y79.584 E18.22641
G1 X139.114 Y80.503 E18.26245
G1 X139.396 Y81.442 E18.29914
G1 X140.262 Y84.052 E18.40203
G1 X141.192 Y86.608 E18.50381
G1 X142.2 Y89.153 E18.60623
G1 X143.282 Y91.675 E18.70892
G1 X144.434 Y94.165 E18.81158
G1 X145.651 Y96.609 E18.91374
G1 X146.941 Y99.028 E19.01632
G1 X148.314 Y101.432 E19.1199
G1 X149.724 Y103.75 E19.22142
G1 X151.216 Y106.054 E19.32413
G1 X152.766 Y108.301 E19.42627
G1 X154.378 Y110.505 E19.52845
G1 X156.067 Y112.682 E19.63154
G1 X157.81 Y114.802 E19.73424
G1 X159.611 Y116.871 E19.83688
G1 X160.88 Y118.259 E19.90725
G1 X161.846 Y119.296 E19.96028
G1 X162.392 Y119.985 E19.99317
G1 X162.563 Y120.264 E20.00542
G1 X162.831 Y120.741 E20.02589
G1 X163.076 Y121.224 E20.04615
G1 X163.305 Y121.726 E20.0668
G1 X163.527 Y122.268 E20.08871
G1 X163.733 Y122.847 E20.11171
G1 X163.933 Y123.603 E20.14097
G1 X164.034 Y124.34 E20.1688
G1 X164.085 Y125.182 E20.20037
G1 X164.139 Y126.286 E20.24173
G1 X164.35 Y129.032 E20.34478
G1 X164.64 Y131.776 E20.44802
G1 X165.002 Y134.473 E20.54984
G1 X165.446 Y137.197 E20.65312
G1 X165.958 Y139.863 E20.75469
G1 X166.546 Y142.511 E20.85619
G1 X167.106 Y144.767 E20.94316
G1 X167.245 Y145.299 E20.96374
G1 X167.401 Y145.977 E20.98977
G1 X167.505 Y146.533 E21.01094
G1 X167.539 Y147.157 E21.03432
G1 X167.5 Y148.001 E21.06593
G1 X167.402 Y151.115 E21.18251
G1 X167.335 Y151.677 E21.20369
G1 X167.203 Y152.302 E21.22759
G1 X166.858 Y153.813 E21.28558
G1 X166.697 Y154.467 E21.31078
G1 X166.652 Y154.63 E21.31711
G1 X166.334 Y155.674 E21.35795
G1 X166.243 Y155.958 E21.36911
G1 X165.476 Y158.588 E21.47161
G1 X164.78 Y161.253 E21.57468
G1 X164.168 Y163.899 E21.6763
G1 X163.472 Y167.441 E21.81137
G1 X163.374 Y167.964 E21.83128
G1 X163.198 Y168.836 E21.86456
G1 X162.961 Y169.72 E21.89881
G1 X162.697 Y170.342 E21.92409
G1 X162.457 Y170.782 E21.94284
G1 X161.932 Y171.42 E21.97376
G1 X161.567 Y171.765 E21.99255
G1 X161.153 Y172.047 E22.0113
G1 X160.663 Y172.287 E22.03171
G1 X159.982 Y172.515 E22.05858
G1 X158.877 Y172.749 E22.10085
G1 X158.091 Y172.895 E22.13076
G1 X157.536 Y172.989 E22.15182
G1 X156.812 Y173.097 E22.17921
G1 X156.257 Y173.165 E22.20014
G1 X155.401 Y173.213 E22.23221
G1 X153.953 Y173.158 E22.28643
G1 X151.237 Y173.092 E22.38809
G1 X150.78 Y173.094 E22.40519
G1 X149.395 Y173.082 E22.45702
G1 X149.133 Y173.069 E22.46683
G1 X147.974 Y172.962 E22.51038
G1 X145.186 Y172.746 E22.61502
G1 X142.467 Y172.612 E22.71688
G1 X139.746 Y172.554 E22.81872
G1 X136.993 Y172.575 E22.92173
G1 X134.272 Y172.672 E23.02361
G1 X131.519 Y172.847 E23.12683
G1 X128.786 Y173.1 E23.22953
G1 X128.196 Y173.163 E23.25173
G1 X127.655 Y173.205 E23.27203
G1 X127.297 Y173.212 E23.28543
G1 X125.842 Y173.157 E23.33991
G1 X123.353 Y173.094 E23.43307
G1 X122.722 Y173.097 E23.45668
G1 X122.639 Y173.091 E23.4598
G1 X121.292 Y173.082 E23.5102
G1 X120.58 Y172.996 E23.53704
G1 X119.86 Y172.823 E23.56474
G1 X118.786 Y172.552 E23.60619
G1 X118.06 Y172.359 E23.6343
G1 X117.587 Y172.192 E23.65307
G1 X117.315 Y172.055 E23.66446
G1 X116.668 Y171.688 E23.6923
G1 X114.231 Y170.351 E23.7963
G1 X111.774 Y169.092 E23.89961
G1 X109.319 Y167.921 E24.00138
G1 X106.813 Y166.811 E24.10394
G1 X104.239 Y165.756 E24.20803
G1 X101.729 Y164.812 E24.30837
G1 X99.125 Y163.914 E24.41143
G1 X96.524 Y163.098 E24.51343
G1 X93.788 Y162.326 E24.61981
G1 X93.318 Y162.151 E24.63857
G1 X92.881 Y161.905 E24.65734
G1 X92.489 Y161.592 E24.67611
G1 X92.152 Y161.221 E24.69486
G1 X91.878 Y160.801 E24.71362
G1 X91.674 Y160.342 E24.73242
G1 X91.529 Y159.766 E24.75464
G1 X91.345 Y158.544 E24.80088
G1 X90.899 Y155.868 E24.90239
G1 X90.365 Y153.129 E25.00681
G1 X89.779 Y150.525 E25.10668
G1 X89.085 Y147.799 E25.21194
G1 X88.355 Y145.234 E25.31172
G1 X87.511 Y142.563 E25.41654
G1 X86.612 Y139.976 E25.51902
G1 X85.65 Y137.439 E25.62054
G1 X84.598 Y134.89 E25.72372
G1 X83.494 Y132.41 E25.8253
G1 X82.306 Y129.935 E25.92802
G1 X81.035 Y127.466 E26.03193
G1 X79.733 Y125.105 E26.13281
G1 X78.339 Y122.739 E26.23557
G1 X76.872 Y120.402 E26.33881
G1 X75.35 Y118.124 E26.44132
G1 X73.778 Y115.907 E26.54302
G1 X72.129 Y113.719 E26.64553
G1 X70.411 Y111.566 E26.7486
G1 X68.652 Y109.486 E26.85053
G1 X66.794 Y107.412 E26.95472
G1 X65.569 Y106.106 E27.02172
