;FLAVOR:Marlin
;TIME:6427
;Filament used: 3.89207m, 0m
;Layer height: 0.2
;MINX:63.401
;MINY:36.519
;MINZ:0.26
;MAXX:171.589
;MAXY:196.75
;MAXZ:2.46
;POSTPROCESSED
;Generated with Cura_SteamEngine 4.8.0
T0
M140 S60
M105
M190 S60
M104 S200
M105
M109 S200
M82 ;absolute extrusion mode
M201 X500.00 Y500.00 Z100.00 E5000.00 	;Setup machine max acceleration
M203 X500.00 Y500.00 Z10.00 E50.00 	;Setup machine max feedrate
M204 P500.00 R1000.00 T500.00 		;Setup Print/Retract/Travel acceleration
M205 X8.00 Y8.00 Z0.40 E5.00 		;Setup Jerk
M220 S100 				;Reset Feedrate
M221 S100 				;Reset Flowrate
G28				;Home the Machine
#G29 				;Bed Level
G92 E0
M300 P150 S587
G92 E0
G1 F1500 E-5.5
;LAYER_COUNT:12
;LAYER:0
M107
G0 F2160 X112.573 Y38.622 Z0.26
;TYPE:SKIRT
G1 F1500 E0
G1 F900 X112.814 Y38.155 E0.01704
G1 X113.122 Y37.73 E0.03406
G1 X113.492 Y37.357 E0.0511
G1 X113.914 Y37.045 E0.06812
G1 X114.378 Y36.8 E0.08513
G1 X114.874 Y36.628 E0.10216
G1 X115.391 Y36.534 E0.1192
G1 X115.915 Y36.519 E0.1362
G1 X116.436 Y36.584 E0.15323
G1 X116.941 Y36.727 E0.17025
G1 X117.419 Y36.945 E0.18728
G1 X117.858 Y37.233 E0.20431
G1 X118.248 Y37.584 E0.22132
G1 X118.58 Y37.991 E0.23836
G1 X118.847 Y38.443 E0.25538
G1 X119.042 Y38.93 E0.27239
G1 X119.161 Y39.442 E0.28944
G1 X119.199 Y39.834 E0.30221
G1 X119.241 Y40.953 E0.33852
G1 X119.264 Y41.812 E0.36639
G1 X119.412 Y44.544 E0.45511
G1 X119.636 Y47.239 E0.54281
G1 X119.939 Y49.968 E0.63185
G1 X120.317 Y52.669 E0.7203
G1 X120.777 Y55.384 E0.80959
G1 X121.303 Y58.038 E0.89733
G1 X121.911 Y60.705 E0.98604
G1 X122.596 Y63.362 E1.07502
G1 X123.35 Y65.98 E1.16337
G1 X124.174 Y68.56 E1.2512
G1 X125.082 Y71.151 E1.34023
G1 X126.048 Y73.675 E1.42787
G1 X127.116 Y76.248 E1.51821
G1 X128.224 Y78.717 E1.60597
G1 X129.412 Y81.174 E1.69447
G1 X130.667 Y83.594 E1.78288
G1 X131.985 Y85.966 E1.87087
G1 X133.392 Y88.34 E1.96036
G1 X134.857 Y90.658 E2.04929
G1 X136.374 Y92.917 E2.13753
G1 X137.943 Y95.114 E2.22508
G1 X139.619 Y97.325 E2.31505
G1 X141.31 Y99.432 E2.40266
G1 X143.084 Y101.519 E2.49149
G1 X144.9 Y103.534 E2.57945
G1 X146.804 Y105.532 E2.66895
G1 X148.744 Y107.456 E2.75756
G1 X150.725 Y109.311 E2.84556
G1 X153.448 Y111.699 E2.96301
G1 X153.88 Y112.065 E2.98138
G1 X154.336 Y112.468 E3.00111
G1 X154.465 Y112.588 E3.00682
G1 X154.897 Y113.011 E3.02643
G1 X155.007 Y113.124 E3.03154
G1 X155.389 Y113.534 E3.04972
G1 X155.501 Y113.661 E3.05521
G1 X155.864 Y114.091 E3.07346
G1 X156.259 Y114.608 E3.09456
G1 X156.635 Y115.163 E3.11629
G1 X156.943 Y115.659 E3.13523
G1 X157.031 Y115.816 E3.14106
G1 X158.417 Y118.236 E3.2315
G1 X159.835 Y120.556 E3.31968
G1 X161.33 Y122.856 E3.40863
G1 X162.885 Y125.103 E3.49725
G1 X164.495 Y127.297 E3.5855
G1 X166.153 Y129.428 E3.67305
G1 X168.476 Y132.219 E3.79081
G1 X169.086 Y132.928 E3.82114
G1 X169.471 Y133.402 E3.84094
G1 X169.613 Y133.592 E3.84864
G1 X170.1 Y134.274 E3.87581
G1 X170.533 Y134.971 E3.90242
G1 X170.798 Y135.462 E3.92052
G1 X171.05 Y135.993 E3.93958
G1 X171.307 Y136.674 E3.96318
G1 X171.457 Y137.232 E3.98192
G1 X171.57 Y137.945 E4.00533
G1 X171.589 Y138.561 E4.02531
G1 X171.534 Y139.221 E4.04679
G1 X171.052 Y141.891 E4.13477
G1 X170.644 Y144.589 E4.22326
G1 X170.312 Y147.291 E4.31154
G1 X170.224 Y148.269 E4.34339
G1 X169.985 Y150.541 E4.41747
G1 X169.971 Y150.656 E4.42123
G1 X169.787 Y151.971 E4.46429
G1 X169.702 Y152.522 E4.48237
G1 X169.364 Y155.221 E4.57057
G1 X169.102 Y157.944 E4.65929
G1 X168.867 Y161.697 E4.78123
G1 X168.797 Y163.284 E4.83274
G1 X168.777 Y163.522 E4.84049
G1 X168.698 Y164.267 E4.86478
G1 X168.554 Y165.11 E4.89252
G1 X168.414 Y165.712 E4.91256
G1 X168.173 Y166.474 E4.93848
G1 X167.98 Y166.956 E4.95531
G1 X167.845 Y167.253 E4.96589
G1 X167.586 Y167.716 E4.9831
G1 X167.122 Y168.378 E5.00931
G1 X166.875 Y168.681 E5.02199
G1 X166.12 Y169.51 E5.05835
G1 X164.283 Y171.585 E5.14822
G1 X162.527 Y173.686 E5.23702
G1 X160.827 Y175.838 E5.32595
G1 X158.68 Y178.749 E5.44325
G1 X158.095 Y179.573 E5.47602
G1 X157.976 Y179.732 E5.48246
G1 X157.642 Y180.149 E5.49979
G1 X157.116 Y180.745 E5.52556
G1 X156.635 Y181.19 E5.54681
G1 X156.082 Y181.606 E5.56925
G1 X155.542 Y181.953 E5.59007
G1 X154.779 Y182.346 E5.6179
G1 X154.173 Y182.605 E5.63927
G1 X152.25 Y183.358 E5.70624
G1 X149.742 Y184.424 E5.79462
G1 X147.245 Y185.569 E5.8837
G1 X144.797 Y186.774 E5.97218
G1 X142.392 Y188.045 E6.06039
G1 X139.255 Y189.839 E6.17758
G1 X138.501 Y190.289 E6.20606
G1 X137.423 Y190.894 E6.24614
G1 X136.271 Y191.501 E6.28837
G1 X135.15 Y192.054 E6.32891
G1 X133.886 Y192.635 E6.37402
G1 X132.825 Y193.09 E6.41145
G1 X131.564 Y193.591 E6.45546
G1 X130.583 Y193.953 E6.48937
G1 X130.48 Y193.989 E6.4929
G1 X128.974 Y194.491 E6.54438
G1 X128.854 Y194.529 E6.54847
G1 X127.036 Y195.062 E6.6099
G1 X126.901 Y195.098 E6.61443
G1 X125.196 Y195.524 E6.67142
G1 X125.067 Y195.554 E6.67572
G1 X123.301 Y195.924 E6.73423
G1 X123.161 Y195.95 E6.73885
G1 X121.401 Y196.243 E6.79671
G1 X121.261 Y196.264 E6.8013
G1 X119.48 Y196.486 E6.8595
G1 X119.34 Y196.5 E6.86406
G1 X117.434 Y196.659 E6.92609
G1 X117.308 Y196.667 E6.93018
G1 X115.872 Y196.733 E6.9768
G1 X115.038 Y196.75 E7.00385
G1 X114.125 Y196.749 E7.03346
G1 X113.088 Y196.727 E7.06709
G1 X112.075 Y196.686 E7.09997
G1 X111.198 Y196.632 E7.12846
G1 X110.094 Y196.541 E7.16439
G1 X109.23 Y196.452 E7.19255
G1 X108.188 Y196.322 E7.22661
G1 X107.218 Y196.182 E7.25839
G1 X106.303 Y196.03 E7.28847
G1 X105.262 Y195.835 E7.32281
G1 X104.341 Y195.643 E7.35332
G1 X103.384 Y195.423 E7.38516
G1 X102.465 Y195.193 E7.41589
G1 X101.48 Y194.923 E7.44901
G1 X100.548 Y194.647 E7.48053
G1 X99.557 Y194.331 E7.51426
G1 X98.635 Y194.015 E7.54586
G1 X97.48 Y193.593 E7.58574
G1 X96.41 Y193.173 E7.62302
G1 X95.348 Y192.725 E7.6604
G1 X94.258 Y192.235 E7.69915
G1 X93.768 Y192.015 E7.71657
G1 X92.348 Y191.356 E7.76733
G1 X89.833 Y190.276 E7.85609
G1 X87.294 Y189.267 E7.94469
G1 X84.734 Y188.337 E8.03302
G1 X82.159 Y187.481 E8.12102
G1 X78.631 Y186.436 E8.24034
G1 X77.686 Y186.175 E8.27213
G1 X77.211 Y186.016 E8.28837
G1 X76.912 Y185.898 E8.2988
G1 X76.299 Y185.582 E8.32116
G1 X75.802 Y185.237 E8.34078
G1 X75.402 Y184.899 E8.35776
G1 X74.973 Y184.438 E8.37819
G1 X74.612 Y183.956 E8.39771
G1 X74.296 Y183.419 E8.41792
G1 X74.114 Y183.048 E8.43132
G1 X73.917 Y182.577 E8.44788
G1 X73.754 Y182.088 E8.46459
G1 X73.614 Y181.524 E8.48344
G1 X73.494 Y180.935 E8.50293
G1 X72.992 Y178.16 E8.59438
G1 X72.433 Y175.497 E8.68262
G1 X71.808 Y172.883 E8.76978
G1 X71.088 Y170.212 E8.85948
G1 X70.299 Y167.587 E8.94837
G1 X69.389 Y164.848 E9.04197
G1 X69.143 Y164.141 E9.06624
G1 X68.787 Y163.033 E9.10398
G1 X68.504 Y162.085 E9.13607
G1 X68.184 Y160.907 E9.17565
G1 X67.915 Y159.817 E9.21206
G1 X67.667 Y158.693 E9.24939
G1 X67.471 Y157.709 E9.28192
G1 X67.235 Y156.343 E9.32688
G1 X67.001 Y154.698 E9.38076
G1 X66.986 Y154.572 E9.38487
G1 X66.824 Y153.026 E9.43528
G1 X66.813 Y152.905 E9.43922
G1 X66.711 Y151.436 E9.48697
G1 X66.696 Y151.038 E9.49989
G1 X66.567 Y148.31 E9.58845
G1 X66.362 Y145.592 E9.67685
G1 X65.937 Y141.727 E9.80294
G1 X65.756 Y140.343 E9.8482
G1 X65.703 Y139.687 E9.86954
G1 X65.698 Y139.182 E9.88592
G1 X65.699 Y139.061 E9.88985
G1 X65.713 Y138.501 E9.90801
G1 X65.781 Y136.708 E9.9662
G1 X65.807 Y133.969 E10.05502
G1 X65.756 Y131.264 E10.14276
G1 X65.627 Y128.529 E10.23155
G1 X65.421 Y125.798 E10.32036
G1 X65.141 Y123.109 E10.40804
G1 X64.78 Y120.387 E10.49708
G1 X64.374 Y117.922 E10.57809
G1 X64.29 Y117.368 E10.59626
G1 X64.259 Y117.086 E10.60546
G1 X64.217 Y116.472 E10.62542
G1 X64.097 Y114.335 E10.69483
G1 X63.866 Y111.595 E10.784
G1 X63.58 Y109.047 E10.86715
G1 X63.5 Y108.405 E10.88813
G1 X63.445 Y107.882 E10.90518
G1 X63.401 Y106.945 E10.9356
G1 X63.412 Y106.431 E10.95227
G1 X63.45 Y105.858 E10.97089
G1 X63.554 Y105.123 E10.99497
G1 X63.685 Y104.541 E11.01431
G1 X63.861 Y103.954 E11.03419
G1 X64.037 Y103.483 E11.05049
G1 X64.205 Y103.106 E11.06388
G1 X64.458 Y102.617 E11.08173
G1 X64.676 Y102.253 E11.09549
G1 X65.002 Y101.777 E11.1142
G1 X65.271 Y101.432 E11.12838
G1 X65.685 Y100.967 E11.14857
G1 X66.174 Y100.491 E11.1707
G1 X66.703 Y100.053 E11.19298
G1 X67.12 Y99.753 E11.20964
G1 X67.584 Y99.445 E11.2277
G1 X67.904 Y99.256 E11.23975
G1 X70.265 Y97.807 E11.32958
G1 X72.536 Y96.326 E11.4175
G1 X74.762 Y94.779 E11.50541
G1 X76.986 Y93.14 E11.595
G1 X79.105 Y91.484 E11.68221
G1 X81.225 Y89.728 E11.77148
G1 X83.285 Y87.923 E11.8603
G1 X85.288 Y86.064 E11.94892
G1 X87.235 Y84.15 E12.03746
G1 X89.13 Y82.18 E12.1261
G1 X90.953 Y80.174 E12.214
G1 X92.743 Y78.089 E12.30311
G1 X94.466 Y75.964 E12.39183
G1 X96.121 Y73.798 E12.48023
G1 X97.71 Y71.596 E12.56829
G1 X99.254 Y69.319 E12.6575
G1 X100.716 Y67.028 E12.74563
G1 X102.106 Y64.707 E12.83337
G1 X103.467 Y62.283 E12.92352
G1 X104.727 Y59.882 E13.01145
G1 X105.925 Y57.432 E13.09989
G1 X107.048 Y54.959 E13.18796
G1 X108.12 Y52.414 E13.27752
G1 X109.117 Y49.846 E13.36685
G1 X110.012 Y47.325 E13.4536
G1 X110.866 Y44.687 E13.54352
G1 X111.625 Y42.103 E13.63086
G1 X112.226 Y39.831 E13.70707
G1 X112.406 Y39.119 E13.73088
G1 X112.573 Y38.622 E13.74789
G0 F2160 X112.858 Y38.718
G1 F900 X113.093 Y38.275 E13.76415
G1 X113.395 Y37.874 E13.78043
G1 X113.757 Y37.527 E13.79669
G1 X114.169 Y37.241 E13.81295
G1 X114.621 Y37.024 E13.82921
G1 X115.103 Y36.882 E13.84551
G1 X115.6 Y36.819 E13.86175
G1 X116.101 Y36.835 E13.87801
G1 X116.594 Y36.93 E13.89429
G1 X117.065 Y37.102 E13.91055
G1 X117.503 Y37.347 E13.92682
G1 X117.896 Y37.658 E13.94308
G1 X118.235 Y38.028 E13.95935
G1 X118.511 Y38.447 E13.97562
G1 X118.717 Y38.904 E13.99188
G1 X118.848 Y39.388 E14.00814
G1 X118.899 Y39.846 E14.02308
G1 X118.941 Y40.961 E14.05926
G1 X118.964 Y41.838 E14.08771
G1 X119.111 Y44.546 E14.17566
G1 X119.337 Y47.267 E14.2642
G1 X119.641 Y50.001 E14.35341
G1 X120.023 Y52.728 E14.44271
G1 X120.48 Y55.427 E14.53148
G1 X121.013 Y58.117 E14.6204
G1 X121.618 Y60.773 E14.70874
G1 X122.301 Y63.423 E14.79749
G1 X123.061 Y66.059 E14.88645
G1 X123.893 Y68.667 E14.97522
G1 X124.803 Y71.264 E15.06446
G1 X125.779 Y73.811 E15.15291
G1 X126.82 Y76.321 E15.24103
G1 X127.962 Y78.865 E15.33146
G1 X129.137 Y81.295 E15.41899
G1 X130.407 Y83.744 E15.50845
G1 X131.725 Y86.116 E15.59645
G1 X133.15 Y88.52 E15.68708
G1 X134.598 Y90.812 E15.77499
G1 X136.114 Y93.067 E15.86311
G1 X137.717 Y95.312 E15.95256
G1 X139.377 Y97.503 E16.04171
G1 X141.082 Y99.628 E16.13006
G1 X142.86 Y101.719 E16.21906
G1 X144.672 Y103.73 E16.30685
G1 X146.605 Y105.758 E16.3977
G1 X148.522 Y107.659 E16.48525
G1 X150.503 Y109.514 E16.57326
G1 X153.299 Y111.966 E16.69386
G1 X153.681 Y112.29 E16.7101
G1 X154.137 Y112.693 E16.72983
G1 X154.255 Y112.802 E16.73504
G1 X154.687 Y113.225 E16.75465
G1 X154.788 Y113.329 E16.75935
G1 X155.17 Y113.739 E16.77752
G1 X155.272 Y113.854 E16.78251
G1 X155.635 Y114.284 E16.80076
G1 X156.011 Y114.776 E16.82084
G1 X156.387 Y115.331 E16.84258
G1 X156.681 Y115.805 E16.86066
G1 X156.789 Y115.999 E16.86786
G1 X158.131 Y118.343 E16.95545
G1 X159.588 Y120.727 E17.04606
G1 X161.071 Y123.008 E17.13429
G1 X162.629 Y125.26 E17.22309
G1 X164.261 Y127.484 E17.31255
G1 X165.941 Y129.643 E17.40126
G1 X168.224 Y132.386 E17.51699
G1 X168.853 Y133.117 E17.54826
G1 X169.171 Y133.507 E17.56458
G1 X169.37 Y133.767 E17.5752
G1 X169.851 Y134.441 E17.60205
G1 X170.275 Y135.124 E17.62812
G1 X170.527 Y135.59 E17.6453
G1 X170.779 Y136.121 E17.66436
G1 X171.017 Y136.752 E17.68623
G1 X171.167 Y137.31 E17.70497
G1 X171.271 Y137.961 E17.72635
G1 X171.289 Y138.565 E17.74594
G1 X171.239 Y139.167 E17.76553
G1 X170.759 Y141.824 E17.85309
G1 X170.341 Y144.591 E17.94384
G1 X170.014 Y147.257 E18.03094
G1 X169.926 Y148.238 E18.06288
G1 X169.687 Y150.51 E18.13696
G1 X169.674 Y150.615 E18.1404
G1 X169.491 Y151.925 E18.18329
G1 X169.406 Y152.471 E18.20121
G1 X169.066 Y155.192 E18.29013
G1 X168.803 Y157.926 E18.3792
G1 X168.564 Y161.745 E18.50329
G1 X168.503 Y163.165 E18.54938
G1 X168.479 Y163.49 E18.55995
G1 X168.401 Y164.227 E18.58398
G1 X168.259 Y165.052 E18.61113
G1 X168.126 Y165.629 E18.63033
G1 X167.888 Y166.379 E18.65585
G1 X167.664 Y166.93 E18.67514
G1 X167.336 Y167.55 E18.69788
G1 X166.879 Y168.202 E18.7237
G1 X166.654 Y168.479 E18.73527
G1 X165.896 Y169.311 E18.77177
G1 X164.042 Y171.406 E18.86249
G1 X162.289 Y173.503 E18.95113
G1 X160.605 Y175.635 E19.03923
G1 X158.472 Y178.526 E19.15574
G1 X157.851 Y179.4 E19.19051
G1 X157.742 Y179.544 E19.19636
G1 X157.344 Y180.039 E19.21696
G1 X156.907 Y180.531 E19.2383
G1 X156.435 Y180.966 E19.25912
G1 X155.911 Y181.36 E19.28038
G1 X155.381 Y181.699 E19.30078
G1 X154.649 Y182.076 E19.32748
G1 X154.058 Y182.328 E19.34831
G1 X152.129 Y183.084 E19.4155
G1 X149.605 Y184.157 E19.50444
G1 X147.136 Y185.288 E19.59251
G1 X144.659 Y186.508 E19.68205
G1 X142.249 Y187.782 E19.77045
G1 X139.067 Y189.601 E19.88931
G1 X138.273 Y190.074 E19.91928
G1 X137.203 Y190.672 E19.95903
G1 X136.057 Y191.273 E20.00099
G1 X134.94 Y191.822 E20.04135
G1 X133.768 Y192.359 E20.08316
G1 X132.707 Y192.814 E20.1206
G1 X131.461 Y193.309 E20.16407
G1 X130.48 Y193.671 E20.19798
G1 X128.879 Y194.206 E20.25272
G1 X128.769 Y194.241 E20.25647
G1 X126.951 Y194.774 E20.3179
G1 X126.829 Y194.807 E20.322
G1 X125.124 Y195.233 E20.37899
G1 X125.006 Y195.26 E20.38292
G1 X123.24 Y195.63 E20.44143
G1 X123.111 Y195.654 E20.44569
G1 X121.351 Y195.947 E20.50355
G1 X121.224 Y195.966 E20.50771
G1 X119.443 Y196.188 E20.56591
G1 X119.315 Y196.201 E20.57009
G1 X117.409 Y196.36 E20.63211
G1 X117.294 Y196.368 E20.63585
G1 X115.946 Y196.431 E20.67961
G1 X115.038 Y196.45 E20.70906
G1 X114.131 Y196.449 E20.73847
G1 X113.1 Y196.427 E20.77191
G1 X112.093 Y196.386 E20.8046
G1 X111.223 Y196.333 E20.83286
G1 X110.124 Y196.243 E20.86862
G1 X109.266 Y196.154 E20.89659
G1 X108.231 Y196.025 E20.93042
G1 X107.267 Y195.886 E20.962
G1 X106.358 Y195.736 E20.99188
G1 X105.323 Y195.542 E21.02603
G1 X104.408 Y195.35 E21.05634
G1 X103.457 Y195.132 E21.08798
G1 X102.471 Y194.884 E21.12095
G1 X101.565 Y194.635 E21.15142
G1 X100.639 Y194.361 E21.18274
G1 X99.654 Y194.047 E21.21627
G1 X98.738 Y193.733 E21.24767
G1 X97.59 Y193.314 E21.2873
G1 X96.527 Y192.896 E21.32434
G1 X95.471 Y192.451 E21.3615
G1 X94.384 Y191.963 E21.40014
G1 X93.894 Y191.742 E21.41757
G1 X92.474 Y191.083 E21.46834
G1 X89.958 Y190.002 E21.55714
G1 X87.403 Y188.987 E21.64629
G1 X84.826 Y188.051 E21.7352
G1 X82.253 Y187.196 E21.82313
G1 X78.735 Y186.154 E21.94211
G1 X77.766 Y185.886 E21.97471
G1 X77.022 Y185.619 E22.00035
G1 X76.462 Y185.331 E22.02077
G1 X75.978 Y184.994 E22.03989
G1 X75.547 Y184.62 E22.0584
G1 X75.196 Y184.238 E22.07522
G1 X74.867 Y183.798 E22.09304
G1 X74.557 Y183.271 E22.11287
G1 X74.391 Y182.932 E22.12511
G1 X74.194 Y182.461 E22.14166
G1 X73.928 Y181.55 E22.17244
G1 X73.788 Y180.88 E22.19463
G1 X73.289 Y178.117 E22.28568
G1 X72.727 Y175.438 E22.37445
G1 X72.09 Y172.775 E22.46325
G1 X71.38 Y170.144 E22.55162
G1 X70.583 Y167.489 E22.64151
G1 X69.688 Y164.797 E22.73351
G1 X69.429 Y164.049 E22.75918
G1 X69.075 Y162.947 E22.79671
G1 X68.77 Y161.924 E22.83133
G1 X68.475 Y160.835 E22.86792
G1 X68.208 Y159.753 E22.90406
G1 X67.975 Y158.7 E22.93903
G1 X67.751 Y157.573 E22.97629
G1 X67.532 Y156.301 E23.01815
G1 X67.298 Y154.656 E23.07203
G1 X67.284 Y154.54 E23.07582
G1 X67.122 Y152.994 E23.12623
G1 X67.011 Y151.415 E23.17756
G1 X66.997 Y151.072 E23.18869
G1 X66.865 Y148.272 E23.27959
G1 X66.661 Y145.57 E23.36746
G1 X66.227 Y141.625 E23.49617
G1 X66.042 Y140.206 E23.54257
G1 X66.003 Y139.684 E23.55955
G1 X65.998 Y139.179 E23.57593
G1 X65.999 Y139.069 E23.57949
G1 X66.013 Y138.512 E23.59756
G1 X66.08 Y136.722 E23.65565
