;FLAVOR:Marlin
;TIME:8642
;Filament used: 4.39164m, 0m
;Layer height: 0.18
;MINX:45.234
;MINY:31.746
;MINZ:0.2
;MAXX:182.363
;MAXY:185.977
;MAXZ:1.64
;POSTPROCESSED
;Generated with Cura_SteamEngine 4.8.0
T0
M140 S60
M105
M190 S60
M104 S200
M105
M109 S200
M82 ;absolute extrusion mode
M201 X500.00 Y500.00 Z100.00 E5000.00 	;Setup machine max acceleration
M203 X500.00 Y500.00 Z10.00 E50.00 	;Setup machine max feedrate
M204 P500.00 R1000.00 T500.00 		;Setup Print/Retract/Travel acceleration
M205 X8.00 Y8.00 Z0.40 E5.00 		;Setup Jerk
M220 S100 				;Reset Feedrate
M221 S100 				;Reset Flowrate
G28				;Home the Machine
#G29 				;Bed Level
G92 E0
M300 P150 S587
G92 E0
G1 F1500 E-5.5
;LAYER_COUNT:9
;LAYER:0
M107
G0 F2160 X57.426 Y46.785 Z0.2
;TYPE:SKIRT
G1 F1500 E0
G1 F900 X57.845 Y46.28 E0.01637
G1 X58.287 Y45.823 E0.03223
G1 X58.859 Y45.341 E0.05089
G1 X59.29 Y45.038 E0.06403
G1 X59.719 Y44.775 E0.07658
G1 X60.448 Y44.425 E0.09675
G1 X63.117 Y43.333 E0.16869
G1 X65.637 Y42.217 E0.23744
G1 X68.102 Y41.043 E0.30555
G1 X70.558 Y39.785 E0.37438
G1 X72.917 Y38.492 E0.44149
G1 X74.623 Y37.5 E0.49071
G1 X75.555 Y36.977 E0.51737
G1 X76.627 Y36.413 E0.54759
G1 X77.6 Y35.933 E0.57465
G1 X77.683 Y35.893 E0.57695
G1 X78.698 Y35.428 E0.6048
G1 X79.778 Y34.967 E0.6341
G1 X80.784 Y34.567 E0.6611
G1 X81.675 Y34.239 E0.68479
G1 X83.082 Y33.768 E0.7218
G1 X83.204 Y33.729 E0.72499
G1 X84.81 Y33.258 E0.76674
G1 X84.943 Y33.222 E0.77018
G1 X86.5 Y32.832 E0.81022
G1 X86.635 Y32.801 E0.81367
G1 X88.133 Y32.489 E0.85184
G1 X88.268 Y32.464 E0.85527
G1 X89.856 Y32.199 E0.89543
G1 X89.998 Y32.178 E0.89901
G1 X91.558 Y31.984 E0.93822
G1 X91.698 Y31.97 E0.94173
G1 X93.396 Y31.829 E0.98424
G1 X93.519 Y31.821 E0.98731
G1 X94.836 Y31.76 E1.0202
G1 X95.514 Y31.746 E1.03711
G1 X96.294 Y31.746 E1.05657
G1 X97.251 Y31.766 E1.08045
G1 X98.121 Y31.801 E1.10217
G1 X99.024 Y31.857 E1.12474
G1 X99.891 Y31.929 E1.14644
G1 X100.751 Y32.017 E1.168
G1 X101.554 Y32.118 E1.18819
G1 X102.527 Y32.258 E1.21271
G1 X103.303 Y32.387 E1.23234
G1 X104.234 Y32.561 E1.25596
G1 X105.068 Y32.736 E1.27722
G1 X105.882 Y32.924 E1.29806
G1 X106.765 Y33.145 E1.32077
G1 X107.597 Y33.374 E1.34229
G1 X108.481 Y33.636 E1.36529
G1 X109.339 Y33.91 E1.38776
G1 X110.133 Y34.181 E1.40869
G1 X111.118 Y34.54 E1.43484
G1 X112.102 Y34.926 E1.46121
G1 X113.037 Y35.32 E1.48652
G1 X114.418 Y35.941 E1.52429
G1 X114.531 Y35.986 E1.52732
G1 X116.471 Y36.849 E1.58029
G1 X119.015 Y37.895 E1.6489
G1 X121.55 Y38.851 E1.71649
G1 X124.108 Y39.736 E1.78401
G1 X126.728 Y40.561 E1.85253
G1 X128.382 Y41.032 E1.89543
G1 X128.853 Y41.173 E1.90769
G1 X129.496 Y41.438 E1.92504
G1 X129.85 Y41.628 E1.93506
G1 X130.429 Y42.019 E1.95249
G1 X130.834 Y42.384 E1.96609
G1 X131.079 Y42.638 E1.97489
G1 X131.472 Y43.127 E1.99054
G1 X131.829 Y43.72 E2.00781
G1 X132.169 Y44.48 E2.02858
G1 X132.467 Y45.293 E2.05018
G1 X133.082 Y47.052 E2.09666
G1 X134.05 Y49.594 E2.16451
G1 X135.11 Y52.153 E2.23361
G1 X136.218 Y54.629 E2.30127
G1 X137.396 Y57.075 E2.369
G1 X138.662 Y59.523 E2.43775
G1 X139.974 Y61.894 E2.50534
G1 X141.362 Y64.238 E2.5733
G1 X142.836 Y66.581 E2.64235
G1 X144.336 Y68.819 E2.70955
G1 X146.641 Y72.015 E2.80785
G1 X147.382 Y73 E2.8386
G1 X147.665 Y73.442 E2.85169
G1 X147.877 Y73.922 E2.86478
G1 X147.968 Y74.222 E2.8726
G1 X148.233 Y75.263 E2.89939
G1 X148.952 Y77.932 E2.96835
G1 X149.747 Y80.585 E3.03743
G1 X150.6 Y83.159 E3.10507
G1 X151.531 Y85.727 E3.17321
G1 X152.532 Y88.261 E3.24118
G1 X153.607 Y90.77 E3.30927
G1 X154.745 Y93.235 E3.37699
G1 X155.971 Y95.704 E3.44576
G1 X157.255 Y98.113 E3.51385
G1 X158.603 Y100.481 E3.58182
G1 X160.025 Y102.821 E3.65013
G1 X161.497 Y105.099 E3.71779
G1 X163.051 Y107.357 E3.78616
G1 X164.668 Y109.57 E3.85453
G1 X166.341 Y111.73 E3.92268
G1 X168.058 Y113.822 E3.9902
G1 X169.855 Y115.889 E4.05852
G1 X171.721 Y117.917 E4.12726
G1 X173.592 Y119.837 E4.19414
G1 X174.901 Y121.12 E4.23986
G1 X175.472 Y121.669 E4.25962
G1 X175.87 Y122.125 E4.27472
G1 X176.234 Y122.625 E4.29015
G1 X176.654 Y123.33 E4.31062
G1 X176.716 Y123.446 E4.3139
G1 X177.129 Y124.264 E4.33676
G1 X177.387 Y124.844 E4.35259
G1 X177.633 Y125.476 E4.36951
G1 X177.973 Y126.502 E4.39647
G1 X178.021 Y126.659 E4.40057
G1 X178.13 Y127.172 E4.41365
G1 X178.158 Y127.516 E4.42226
G1 X178.2 Y128.826 E4.45495
G1 X178.33 Y131.609 E4.52445
G1 X178.531 Y134.3 E4.59176
G1 X178.818 Y137.068 E4.66118
G1 X179.171 Y139.744 E4.72851
G1 X179.605 Y142.445 E4.79676
G1 X180.114 Y145.12 E4.86468
G1 X180.701 Y147.795 E4.933
G1 X181.615 Y151.384 E5.02538
G1 X181.953 Y152.61 E5.05711
G1 X182.11 Y153.25 E5.07354
G1 X182.147 Y153.419 E5.07786
G1 X182.304 Y154.243 E5.09878
G1 X182.363 Y154.765 E5.11189
G1 X182.362 Y155.043 E5.11882
G1 X182.326 Y155.825 E5.13835
G1 X182.3 Y156.449 E5.15393
G1 X182.204 Y159.507 E5.23025
G1 X182.201 Y159.718 E5.23551
G1 X182.144 Y160.291 E5.24988
G1 X182.113 Y160.453 E5.25399
G1 X181.973 Y161.106 E5.27065
G1 X181.533 Y163.031 E5.31991
G1 X181.36 Y163.738 E5.33807
G1 X181.247 Y164.113 E5.34784
G1 X180.416 Y166.708 E5.41581
G1 X179.663 Y169.312 E5.48342
G1 X178.977 Y171.962 E5.55171
G1 X178.359 Y174.654 E5.62061
G1 X177.829 Y177.321 E5.68844
G1 X177.579 Y178.734 E5.72423
G1 X177.447 Y179.509 E5.74384
G1 X177.329 Y180.149 E5.76008
G1 X177.072 Y181.372 E5.79125
G1 X176.914 Y181.931 E5.80574
G1 X176.677 Y182.537 E5.82197
G1 X176.438 Y183.005 E5.83508
G1 X176.023 Y183.591 E5.85299
G1 X175.681 Y183.99 E5.8661
G1 X175.172 Y184.41 E5.88256
G1 X174.75 Y184.677 E5.89502
G1 X174.283 Y184.917 E5.90812
G1 X173.728 Y185.096 E5.92267
G1 X172.898 Y185.289 E5.94392
G1 X172.478 Y185.375 E5.95462
G1 X171.554 Y185.551 E5.97808
G1 X170.836 Y185.677 E5.99626
G1 X170.371 Y185.752 E6.00801
G1 X169.712 Y185.844 E6.02461
G1 X169.59 Y185.859 E6.02768
G1 X168.613 Y185.96 E6.05218
G1 X168.109 Y185.975 E6.06476
G1 X166.753 Y185.916 E6.09862
G1 X166.587 Y185.917 E6.10276
G1 X164.946 Y185.85 E6.14373
G1 X162.192 Y185.814 E6.21243
G1 X161.391 Y185.822 E6.23241
G1 X160.54 Y185.794 E6.25365
G1 X160.03 Y185.733 E6.26646
G1 X157.272 Y185.441 E6.33565
G1 X154.533 Y185.228 E6.40418
G1 X151.803 Y185.095 E6.47236
G1 X149.096 Y185.038 E6.5399
G1 X146.357 Y185.06 E6.60823
G1 X143.621 Y185.157 E6.67652
G1 X140.886 Y185.333 E6.74489
G1 X138.197 Y185.582 E6.81225
G1 X136.28 Y185.806 E6.8604
G1 X135.469 Y185.909 E6.88079
G1 X135.249 Y185.929 E6.8863
G1 X134.482 Y185.977 E6.90547
G1 X133.806 Y185.964 E6.92234
G1 X131.091 Y185.852 E6.99012
G1 X128.339 Y185.816 E7.05877
G1 X127.72 Y185.822 E7.07422
G1 X127.195 Y185.818 E7.08731
G1 X126.428 Y185.726 E7.10658
G1 X125.747 Y185.565 E7.12404
G1 X124.082 Y185.145 E7.16687
G1 X123.391 Y184.96 E7.18472
G1 X122.895 Y184.786 E7.19783
G1 X122.48 Y184.57 E7.2095
G1 X120.041 Y183.233 E7.27888
G1 X117.598 Y181.982 E7.34735
G1 X115.15 Y180.816 E7.41499
G1 X112.653 Y179.711 E7.4831
G1 X110.119 Y178.673 E7.55141
G1 X107.552 Y177.708 E7.61982
G1 X104.997 Y176.826 E7.68725
G1 X102.383 Y176.007 E7.75558
G1 X99.756 Y175.265 E7.82367
G1 X97.074 Y174.589 E7.89267
G1 X94.156 Y173.942 E7.96722
G1 X93.691 Y173.808 E7.9793
G1 X93.215 Y173.588 E7.99238
G1 X92.778 Y173.297 E8.00547
G1 X92.39 Y172.944 E8.01856
G1 X92.06 Y172.535 E8.03167
G1 X91.795 Y172.082 E8.04476
G1 X91.603 Y171.593 E8.05786
G1 X91.465 Y170.898 E8.07554
G1 X91.396 Y170.153 E8.0942
G1 X91.296 Y168.895 E8.12568
G1 X91.002 Y166.164 E8.1942
G1 X90.637 Y163.483 E8.2617
G1 X90.192 Y160.789 E8.32981
G1 X89.666 Y158.088 E8.39845
G1 X89.066 Y155.409 E8.46694
G1 X88.405 Y152.8 E8.53407
G1 X87.654 Y150.163 E8.60247
G1 X86.832 Y147.549 E8.67082
G1 X85.931 Y144.952 E8.73939
G1 X84.989 Y142.466 E8.80571
G1 X83.931 Y139.887 E8.87525
G1 X82.817 Y137.383 E8.94361
G1 X81.64 Y134.925 E9.01159
G1 X80.406 Y132.525 E9.07891
G1 X79.071 Y130.099 E9.14799
G1 X77.696 Y127.763 E9.2156
G1 X76.239 Y125.435 E9.28411
G1 X74.733 Y123.178 E9.3518
G1 X73.153 Y120.946 E9.42001
G1 X71.507 Y118.758 E9.48831
G1 X69.814 Y116.633 E9.55609
G1 X68.034 Y114.526 E9.62489
G1 X66.229 Y112.506 E9.69247
G1 X64.351 Y110.521 E9.76063
G1 X62.403 Y108.576 E9.8293
G1 X60.988 Y107.231 E9.878
G1 X60.486 Y106.761 E9.89515
G1 X60.074 Y106.358 E9.90953
G1 X59.749 Y106.013 E9.92135
G1 X59.278 Y105.47 E9.93928
G1 X59.123 Y105.279 E9.94542
G1 X58.782 Y104.836 E9.95936
G1 X58.372 Y104.235 E9.97751
G1 X57.313 Y102.392 E10.03054
G1 X55.881 Y100.058 E10.09884
G1 X54.376 Y97.751 E10.16755
G1 X52.831 Y95.524 E10.23517
G1 X51.212 Y93.325 E10.30328
G1 X49.534 Y91.177 E10.37128
G1 X48.12 Y89.484 E10.4263
G1 X47.228 Y88.392 E10.46147
G1 X46.915 Y87.98 E10.47438
G1 X46.627 Y87.569 E10.4869
G1 X46.24 Y86.939 E10.50534
G1 X45.83 Y86.157 E10.52737
G1 X45.619 Y85.662 E10.54079
G1 X45.486 Y85.302 E10.55037
G1 X45.314 Y84.645 E10.56731
G1 X45.238 Y84.044 E10.58242
G1 X45.234 Y83.345 E10.59986
G1 X45.315 Y82.596 E10.61865
G1 X45.785 Y79.852 E10.68809
G1 X46.175 Y77.107 E10.75726
G1 X46.481 Y74.402 E10.82516
G1 X46.509 Y74.087 E10.83305
G1 X46.627 Y72.939 E10.86184
G1 X46.712 Y72.287 E10.87824
G1 X46.936 Y70.732 E10.91743
G1 X47.248 Y68.031 E10.98526
G1 X47.485 Y65.303 E11.05356
G1 X47.657 Y62.274 E11.12924
G1 X47.703 Y61.447 E11.1499
G1 X47.733 Y61.172 E11.15681
G1 X47.868 Y60.254 E11.17995
G1 X47.935 Y59.914 E11.1886
G1 X48.075 Y59.358 E11.2029
G1 X48.204 Y58.954 E11.21348
G1 X48.469 Y58.27 E11.23178
G1 X48.609 Y57.956 E11.24035
G1 X48.865 Y57.516 E11.25305
G1 X49.298 Y56.909 E11.27165
G1 X49.679 Y56.454 E11.28645
G1 X51.106 Y54.86 E11.33982
G1 X52.855 Y52.792 E11.40738
G1 X54.575 Y50.638 E11.47614
G1 X56.203 Y48.475 E11.54368
G1 X56.888 Y47.51 E11.5732
G1 X57.295 Y46.953 E11.5904
G1 X57.426 Y46.785 E11.59572
G0 F2160 X57.657 Y46.977
G1 F900 X58.076 Y46.472 E11.61209
G1 X58.496 Y46.038 E11.62715
G1 X59.048 Y45.574 E11.64514
G1 X59.537 Y45.237 E11.65996
G1 X60.276 Y44.825 E11.68106
G1 X60.612 Y44.681 E11.69018
G1 X63.277 Y43.591 E11.762
G1 X65.739 Y42.501 E11.82917
G1 X68.234 Y41.313 E11.8981
G1 X70.69 Y40.055 E11.96694
G1 X73.063 Y38.754 E12.03444
G1 X74.769 Y37.762 E12.08367
G1 X75.778 Y37.197 E12.11252
G1 X76.766 Y36.678 E12.14036
G1 X77.808 Y36.165 E12.16933
G1 X78.74 Y35.737 E12.19491
G1 X79.816 Y35.276 E12.22411
G1 X80.81 Y34.879 E12.25081
G1 X81.779 Y34.521 E12.27658
G1 X81.869 Y34.489 E12.27897
G1 X83.177 Y34.052 E12.31337
G1 X83.289 Y34.017 E12.31629
G1 X84.895 Y33.546 E12.35804
G1 X85.016 Y33.513 E12.36117
G1 X86.573 Y33.123 E12.40121
G1 X86.696 Y33.095 E12.40436
G1 X88.194 Y32.783 E12.44253
G1 X88.318 Y32.76 E12.44567
G1 X89.906 Y32.495 E12.48583
G1 X90.035 Y32.476 E12.48909
G1 X91.595 Y32.282 E12.5283
G1 X91.723 Y32.269 E12.53151
G1 X93.421 Y32.128 E12.57401
G1 X93.533 Y32.121 E12.57681
G1 X94.842 Y32.06 E12.6095
G1 X95.514 Y32.046 E12.62627
G1 X96.294 Y32.046 E12.64572
G1 X97.239 Y32.066 E12.6693
G1 X98.102 Y32.101 E12.69085
G1 X99 Y32.156 E12.71329
G1 X99.861 Y32.227 E12.73484
G1 X100.714 Y32.315 E12.75623
G1 X101.512 Y32.415 E12.77629
G1 X102.479 Y32.554 E12.80066
G1 X103.248 Y32.682 E12.82011
G1 X104.173 Y32.855 E12.84358
G1 X105.001 Y33.028 E12.86469
G1 X105.809 Y33.215 E12.88537
G1 X106.686 Y33.434 E12.90792
G1 X107.512 Y33.661 E12.92929
G1 X108.39 Y33.922 E12.95214
G1 X109.242 Y34.194 E12.97445
G1 X110.03 Y34.463 E12.99522
G1 X110.933 Y34.791 E13.01919
G1 X112.063 Y35.234 E13.04946
G1 X112.914 Y35.593 E13.0725
G1 X114.357 Y36.242 E13.11197
G1 X114.409 Y36.26 E13.11334
G1 X116.34 Y37.119 E13.16606
G1 X118.929 Y38.184 E13.2359
G1 X121.419 Y39.123 E13.30228
G1 X124.025 Y40.025 E13.37107
G1 X126.661 Y40.854 E13.44
G1 X128.296 Y41.319 E13.4824
G1 X128.767 Y41.46 E13.49467
G1 X129.354 Y41.703 E13.51052
G1 X129.708 Y41.893 E13.52054
G1 X130.236 Y42.25 E13.53644
G1 X130.618 Y42.592 E13.54923
G1 X130.863 Y42.846 E13.55803
G1 X131.222 Y43.293 E13.57233
G1 X131.569 Y43.87 E13.58913
G1 X131.89 Y44.591 E13.60882
G1 X132.2 Y45.437 E13.63129
G1 X132.791 Y47.13 E13.67602
G1 X133.79 Y49.752 E13.74602
G1 X134.821 Y52.242 E13.81324
G1 X135.942 Y54.747 E13.8817
G1 X137.142 Y57.237 E13.95065
G1 X138.379 Y59.631 E14.01787
G1 X139.723 Y62.058 E14.08708
G1 X141.11 Y64.402 E14.15502
G1 X142.578 Y66.733 E14.22373
G1 X144.084 Y68.981 E14.29123
G1 X146.416 Y72.214 E14.39067
G1 X147.142 Y73.18 E14.42081
G1 X147.411 Y73.604 E14.43334
G1 X147.677 Y74.296 E14.45183
G1 X147.943 Y75.341 E14.47873
G1 X148.669 Y78.033 E14.54828
G1 X149.453 Y80.65 E14.61643
G1 X150.314 Y83.25 E14.68475
G1 X151.251 Y85.834 E14.75332
G1 X152.247 Y88.354 E14.82091
G1 X153.341 Y90.909 E14.89024
G1 X154.486 Y93.389 E14.95838
G1 X155.699 Y95.831 E15.0264
G1 X156.983 Y98.242 E15.09454
G1 X158.346 Y100.637 E15.16328
G1 X159.761 Y102.965 E15.23124
G1 X161.257 Y105.279 E15.29997
G1 X162.806 Y107.529 E15.36811
G1 X164.433 Y109.757 E15.43693
G1 X166.102 Y111.912 E15.50493
G1 X167.83 Y114.016 E15.57284
G1 X169.651 Y116.111 E15.64209
G1 X171.458 Y118.076 E15.70868
G1 X173.411 Y120.079 E15.77846
G1 X174.691 Y121.334 E15.82318
G1 X175.264 Y121.885 E15.84301
G1 X175.628 Y122.302 E15.85682
G1 X175.992 Y122.802 E15.87224
G1 X176.392 Y123.475 E15.89177
G1 X176.448 Y123.581 E15.89476
G1 X176.861 Y124.399 E15.91762
G1 X177.111 Y124.962 E15.93299
G1 X177.348 Y125.57 E15.94927
G1 X177.688 Y126.596 E15.97623
G1 X177.733 Y126.743 E15.98006
G1 X177.835 Y127.234 E15.99257
G1 X177.858 Y127.526 E15.99988
G1 X177.901 Y128.84 E16.03268
G1 X178.032 Y131.644 E16.1027
G1 X178.235 Y134.355 E16.17051
G1 X178.515 Y137.066 E16.2385
G1 X178.876 Y139.798 E16.30724
G1 X179.312 Y142.511 E16.37579
G1 X179.818 Y145.168 E16.44326
G1 X180.405 Y147.846 E16.51165
G1 X181.333 Y151.488 E16.6054
G1 X181.688 Y152.782 E16.63887
G1 X181.819 Y153.321 E16.65271
G1 X181.852 Y153.475 E16.65664
G1 X182.009 Y154.299 E16.67756
G1 X182.062 Y155.029 E16.69582
G1 X182.027 Y155.806 E16.71522
G1 X182 Y156.436 E16.73095
G1 X181.895 Y159.766 E16.81406
G1 X181.849 Y160.237 E16.82586
G1 X181.82 Y160.39 E16.82975
G1 X181.68 Y161.04 E16.84633
G1 X181.242 Y162.96 E16.89546
G1 X181.069 Y163.667 E16.91362
G1 X180.963 Y164.016 E16.92271
G1 X180.131 Y166.616 E16.99081
G1 X179.368 Y169.25 E17.05922
G1 X178.684 Y171.893 E17.12732
G1 X178.07 Y174.568 E17.19578
G1 X177.538 Y177.251 E17.26401
G1 X177.283 Y178.682 E17.30027
G1 X177.152 Y179.455 E17.31983
G1 X177.036 Y180.088 E17.33588
G1 X176.779 Y181.311 E17.36706
G1 X176.628 Y181.841 E17.3808
G1 X176.4 Y182.422 E17.39637
G1 X176.032 Y183.072 E17.41501
G1 X175.781 Y183.414 E17.42559
G1 X175.453 Y183.793 E17.43809
G1 X175.004 Y184.161 E17.45257
G1 X174.594 Y184.421 E17.46468
G1 X174.147 Y184.649 E17.4772
G1 X173.66 Y184.804 E17.48995
G1 X172.733 Y185.018 E17.51368
G1 X172.422 Y185.08 E17.52159
G1 X171.502 Y185.255 E17.54495
G1 X170.787 Y185.381 E17.56306
G1 X170.33 Y185.455 E17.57461
G1 X169.671 Y185.547 E17.59121
G1 X168.582 Y185.661 E17.61852
G1 X168.122 Y185.675 E17.63
G1 X166.686 Y185.613 E17.66586
G1 X166.6 Y185.617 E17.66801
G1 X164.963 Y185.55 E17.70888
G1 X162.192 Y185.513 E17.77801
G1 X161.393 Y185.522 E17.79794
G1 X160.575 Y185.497 E17.81835
G1 X160.017 Y185.429 E17.83237
G1 X157.325 Y185.144 E17.8999
G1 X154.537 Y184.928 E17.96966
G1 X151.823 Y184.795 E18.03744
G1 X149.1 Y184.738 E18.10538
G1 X146.345 Y184.76 E18.17411
G1 X143.626 Y184.857 E18.24197
G1 X140.876 Y185.033 E18.31071
G1 X138.132 Y185.288 E18.37946
G1 X136.216 Y185.511 E18.42758
G1 X135.431 Y185.611 E18.44732
G1 X135.231 Y185.63 E18.45233
G1 X134.464 Y185.678 E18.4715
G1 X133.83 Y185.664 E18.48732
G1 X131.108 Y185.552 E18.55527
G1 X128.34 Y185.515 E18.62433
G1 X127.722 Y185.522 E18.63975
G1 X127.197 Y185.518 E18.65284
G1 X126.497 Y185.434 E18.67043
G1 X125.821 Y185.274 E18.68776
