;FLAVOR:Marlin
;TIME:2392
;Filament used: 1.44989m, 0m
;Layer height: 0.2
;MINX:85.577
;MINY:68.313
;MINZ:0.3
;MAXX:149.422
;MAXY:164.719
;MAXZ:1.9
;POSTPROCESSED
;Generated with Cura_SteamEngine 4.8.0
T0
M140 S60
M105
M190 S60
M104 S200
M105
M109 S200
M82 ;absolute extrusion mode
M201 X500.00 Y500.00 Z100.00 E5000.00 	;Setup machine max acceleration
M203 X500.00 Y500.00 Z10.00 E50.00 	;Setup machine max feedrate
M204 P500.00 R1000.00 T500.00 		;Setup Print/Retract/Travel acceleration
M205 X8.00 Y8.00 Z0.40 E5.00 		;Setup Jerk
M220 S100 				;Reset Feedrate
M221 S100 				;Reset Flowrate
G28				;Home the Machine
#G29 				;Bed Level
G92 E0
M300 P150 S587
G92 E0
G1 F1500 E-5.5
;LAYER_COUNT:9
;LAYER:0
M107
G0 F2160 X114.502 Y69.898 Z0.3
;TYPE:SKIRT
G1 F1500 E0
G1 F900 X114.817 Y69.479 E0.01961
G1 X115.193 Y69.112 E0.03927
G1 X115.62 Y68.806 E0.05893
G1 X116.088 Y68.569 E0.07856
G1 X116.587 Y68.405 E0.09821
G1 X117.105 Y68.319 E0.11786
G1 X117.63 Y68.313 E0.13751
G1 X118.15 Y68.386 E0.15715
G1 X118.652 Y68.538 E0.17678
G1 X119.126 Y68.764 E0.19643
G1 X119.56 Y69.059 E0.21606
G1 X119.945 Y69.417 E0.23574
G1 X120.27 Y69.828 E0.25534
G1 X120.53 Y70.285 E0.27502
G1 X120.698 Y70.715 E0.29229
G1 X120.957 Y71.535 E0.32447
G1 X121.218 Y72.409 E0.3586
G1 X122.083 Y75.027 E0.46176
G1 X123.004 Y77.574 E0.56311
G1 X124.008 Y80.118 E0.66544
G1 X125.075 Y82.614 E0.76701
G1 X126.224 Y85.106 E0.86969
G1 X127.443 Y87.564 E0.97235
G1 X128.725 Y89.973 E1.07446
G1 X130.057 Y92.316 E1.17531
G1 X131.508 Y94.708 E1.27999
G1 X132.963 Y96.962 E1.38038
G1 X134.515 Y99.22 E1.4829
G1 X136.114 Y101.412 E1.58442
G1 X137.804 Y103.596 E1.68775
G1 X139.523 Y105.695 E1.78927
G1 X141.317 Y107.759 E1.89159
G1 X142.72 Y109.298 E1.96952
G1 X143.616 Y110.258 E2.01865
G1 X143.904 Y110.592 E2.03515
G1 X144.211 Y111.02 E2.05486
G1 X144.571 Y111.611 E2.08076
G1 X144.9 Y112.24 E2.10732
G1 X145.118 Y112.708 E2.12663
G1 X145.374 Y113.321 E2.15149
G1 X145.549 Y113.801 E2.17061
G1 X145.701 Y114.28 E2.18941
G1 X145.814 Y114.769 E2.20819
G1 X145.914 Y115.511 E2.23621
G1 X145.971 Y116.414 E2.27006
G1 X146.022 Y117.468 E2.30955
G1 X146.234 Y120.205 E2.41227
G1 X146.521 Y122.92 E2.51442
G1 X146.882 Y125.609 E2.61594
G1 X147.324 Y128.31 E2.71835
G1 X147.841 Y130.999 E2.82081
G1 X148.428 Y133.64 E2.92204
G1 X148.806 Y135.151 E2.98032
G1 X149.18 Y136.667 E3.03874
G1 X149.213 Y136.818 E3.04453
G1 X149.357 Y137.54 E3.07208
G1 X149.422 Y138.324 E3.10151
G1 X149.404 Y138.881 E3.12236
G1 X149.326 Y140.559 E3.18522
G1 X149.285 Y142.298 E3.25031
G1 X149.23 Y142.833 E3.27043
G1 X149.196 Y143.015 E3.27736
G1 X149.067 Y143.612 E3.30021
G1 X148.734 Y145.07 E3.35617
G1 X148.573 Y145.728 E3.38152
G1 X148.523 Y145.91 E3.38858
G1 X148.15 Y147.14 E3.43667
G1 X148.015 Y147.563 E3.45329
G1 X147.269 Y150.15 E3.55403
G1 X146.582 Y152.812 E3.6569
G1 X145.974 Y155.479 E3.75926
G1 X145.454 Y158.18 E3.86218
G1 X145.303 Y158.928 E3.89073
G1 X145.053 Y160.182 E3.93857
G1 X144.872 Y160.893 E3.96603
G1 X144.631 Y161.513 E3.99092
G1 X144.394 Y161.981 E4.01055
G1 X144.03 Y162.493 E4.03405
G1 X143.683 Y162.887 E4.0537
G1 X143.179 Y163.293 E4.07791
G1 X142.865 Y163.501 E4.09201
G1 X142.407 Y163.757 E4.11164
G1 X141.771 Y163.978 E4.13683
G1 X141.252 Y164.096 E4.15675
G1 X140.38 Y164.27 E4.19002
G1 X139.744 Y164.386 E4.21421
G1 X139.264 Y164.468 E4.23243
G1 X138.432 Y164.593 E4.26391
G1 X137.875 Y164.662 E4.28491
G1 X137.373 Y164.705 E4.30376
G1 X136.973 Y164.712 E4.31873
G1 X135.643 Y164.661 E4.36854
G1 X135.129 Y164.643 E4.38778
G1 X132.437 Y164.589 E4.48853
G1 X132.197 Y164.591 E4.49751
G1 X130.96 Y164.582 E4.5438
G1 X130.666 Y164.567 E4.55481
G1 X129.545 Y164.463 E4.59694
G1 X126.836 Y164.251 E4.69861
G1 X124.07 Y164.114 E4.80223
G1 X121.365 Y164.056 E4.90347
G1 X118.627 Y164.075 E5.00592
G1 X115.887 Y164.172 E5.10851
G1 X113.192 Y164.342 E5.20955
G1 X110.952 Y164.555 E5.29375
G1 X110.83 Y164.557 E5.29831
G1 X109.475 Y164.689 E5.34925
G1 X108.798 Y164.719 E5.37461
G1 X108.612 Y164.718 E5.38157
G1 X107.748 Y164.691 E5.41392
G1 X106.517 Y164.635 E5.46002
G1 X104.209 Y164.592 E5.5464
G1 X102.87 Y164.582 E5.5965
G1 X102.097 Y164.488 E5.62564
G1 X101.346 Y164.309 E5.65453
G1 X100.274 Y164.038 E5.6959
G1 X99.558 Y163.846 E5.72364
G1 X99.063 Y163.672 E5.74327
G1 X98.6 Y163.425 E5.76291
G1 X98.18 Y163.11 E5.78255
G1 X97.602 Y162.513 E5.81364
G1 X97.258 Y162.12 E5.83319
G1 X96.817 Y161.589 E5.85901
G1 X96.294 Y160.922 E5.89073
G1 X96.194 Y160.788 E5.89698
G1 X94.562 Y158.486 E6.00257
G1 X93.449 Y156.994 E6.07222
G1 X92.69 Y155.995 E6.11917
G1 X92.588 Y155.852 E6.12574
G1 X91.649 Y154.481 E6.18792
G1 X91.295 Y153.949 E6.21183
G1 X90.244 Y152.456 E6.28014
G1 X89.812 Y151.802 E6.30947
G1 X88.326 Y149.578 E6.40956
G1 X87.555 Y148.401 E6.4622
G1 X87.168 Y147.733 E6.49109
G1 X86.942 Y147.253 E6.51094
G1 X86.885 Y147.127 E6.51612
G1 X86.622 Y146.505 E6.54139
G1 X86.298 Y145.6 E6.57735
G1 X86.115 Y144.998 E6.6009
G1 X86.086 Y144.899 E6.60476
G1 X85.84 Y143.985 E6.64017
G1 X85.717 Y143.453 E6.6606
G1 X85.635 Y143.023 E6.67698
G1 X85.577 Y142.327 E6.70312
G1 X85.599 Y141.077 E6.7499
G1 X85.583 Y140.897 E6.75666
G1 X85.621 Y139.179 E6.82096
G1 X85.622 Y138.28 E6.8546
G1 X85.671 Y137.707 E6.87611
G1 X85.784 Y137.107 E6.89896
G1 X85.946 Y136.337 E6.9284
G1 X86.114 Y135.591 E6.95701
G1 X86.336 Y134.86 E6.9856
G1 X86.478 Y134.509 E6.99977
G1 X87.297 Y132.552 E7.07915
G1 X88.282 Y129.997 E7.18161
G1 X89.185 Y127.443 E7.28297
G1 X90.039 Y124.796 E7.38704
G1 X90.787 Y122.228 E7.48712
G1 X91.494 Y119.513 E7.5921
G1 X92.1 Y116.89 E7.69283
G1 X92.643 Y114.177 E7.79636
G1 X92.894 Y112.771 E7.8498
G1 X93.025 Y112.007 E7.87881
G1 X93.104 Y111.597 E7.89443
G1 X93.243 Y111.091 E7.91406
G1 X93.456 Y110.611 E7.93371
G1 X93.864 Y109.979 E7.96186
G1 X94.04 Y109.743 E7.97288
G1 X94.605 Y109.05 E8.00633
G1 X95.284 Y108.24 E8.04588
G1 X96.997 Y106.075 E8.14918
G1 X98.638 Y103.876 E8.25185
G1 X100.2 Y101.658 E8.35336
G1 X101.702 Y99.389 E8.45517
G1 X103.159 Y97.046 E8.55841
G1 X104.518 Y94.716 E8.65934
G1 X105.848 Y92.28 E8.76319
G1 X107.074 Y89.878 E8.8641
G1 X108.243 Y87.415 E8.96611
G1 X109.349 Y84.905 E9.06874
G1 X110.38 Y82.373 E9.17104
G1 X111.329 Y79.842 E9.27218
G1 X112.222 Y77.236 E9.37526
G1 X113.034 Y74.629 E9.47743
G1 X113.731 Y72.142 E9.57407
G1 X114.079 Y70.856 E9.62392
G1 X114.254 Y70.361 E9.64356
G1 X114.502 Y69.898 E9.66322
G0 F2160 X114.779 Y70.022
G1 F900 X115.088 Y69.627 E9.68198
G1 X115.455 Y69.285 E9.70075
G1 X115.872 Y69.006 E9.71953
G1 X116.328 Y68.797 E9.7383
G1 X116.811 Y68.663 E9.75705
G1 X117.31 Y68.608 E9.77584
G1 X117.811 Y68.632 E9.7946
G1 X118.301 Y68.735 E9.81334
G1 X118.77 Y68.915 E9.83214
G1 X119.203 Y69.167 E9.85088
G1 X119.592 Y69.485 E9.86968
G1 X119.924 Y69.86 E9.88842
G1 X120.194 Y70.283 E9.9072
G1 X120.412 Y70.806 E9.9284
G1 X120.67 Y71.621 E9.96039
G1 X120.938 Y72.515 E9.99531
G1 X121.797 Y75.117 E10.09784
G1 X122.724 Y77.68 E10.19982
G1 X123.722 Y80.211 E10.30162
G1 X124.821 Y82.782 E10.40624
G1 X125.944 Y85.216 E10.50654
G1 X127.178 Y87.704 E10.61046
G1 X128.46 Y90.113 E10.71257
G1 X129.808 Y92.486 E10.81469
G1 X131.234 Y94.835 E10.91751
G1 X132.719 Y97.136 E11.01998
G1 X134.258 Y99.376 E11.12167
G1 X135.892 Y101.615 E11.22539
G1 X137.565 Y103.778 E11.3277
G1 X139.293 Y105.886 E11.4297
G1 X141.102 Y107.969 E11.53293
G1 X142.477 Y109.477 E11.60929
G1 X143.397 Y110.463 E11.65975
G1 X143.955 Y111.176 E11.69362
G1 X144.31 Y111.76 E11.7192
G1 X144.631 Y112.374 E11.74512
G1 X144.845 Y112.834 E11.7641
G1 X145.092 Y113.424 E11.78804
G1 X145.267 Y113.904 E11.80715
G1 X145.517 Y114.814 E11.84247
G1 X145.615 Y115.53 E11.86951
G1 X145.671 Y116.429 E11.90321
G1 X145.722 Y117.47 E11.94221
G1 X145.934 Y120.222 E12.04549
G1 X146.223 Y122.958 E12.14843
G1 X146.587 Y125.659 E12.25041
G1 X147.032 Y128.383 E12.35369
G1 X147.545 Y131.049 E12.45527
G1 X148.135 Y133.705 E12.55708
G1 X148.514 Y135.223 E12.61562
G1 X148.888 Y136.739 E12.67405
G1 X148.919 Y136.877 E12.67934
G1 X149.063 Y137.599 E12.70689
G1 X149.122 Y138.314 E12.73373
G1 X149.105 Y138.868 E12.75447
G1 X149.025 Y140.598 E12.81927
G1 X148.985 Y142.291 E12.88264
G1 X148.921 Y142.856 E12.90391
G1 X148.902 Y142.953 E12.90761
G1 X148.775 Y143.545 E12.93027
G1 X148.443 Y144.999 E12.98607
G1 X148.282 Y145.657 E13.01142
G1 X148.236 Y145.823 E13.01786
G1 X147.864 Y147.049 E13.0658
G1 X147.732 Y147.463 E13.08206
G1 X146.972 Y150.098 E13.18468
G1 X146.29 Y152.743 E13.28688
G1 X145.68 Y155.414 E13.3894
G1 X145.16 Y158.121 E13.49254
G1 X145.008 Y158.874 E13.52129
G1 X144.759 Y160.123 E13.56894
G1 X144.588 Y160.796 E13.59492
G1 X144.354 Y161.398 E13.61909
G1 X144.126 Y161.844 E13.63783
G1 X143.79 Y162.312 E13.65939
G1 X143.457 Y162.688 E13.67818
G1 X143.014 Y163.043 E13.69942
G1 X142.7 Y163.251 E13.71352
G1 X142.261 Y163.494 E13.73229
G1 X141.701 Y163.687 E13.75446
G1 X141.193 Y163.802 E13.77395
G1 X140.326 Y163.975 E13.80703
G1 X139.693 Y164.09 E13.8311
G1 X139.219 Y164.171 E13.84909
G1 X138.395 Y164.295 E13.88027
G1 X137.838 Y164.364 E13.90127
G1 X136.984 Y164.413 E13.93328
G1 X135.569 Y164.359 E13.98626
G1 X135.15 Y164.343 E14.00195
G1 X132.44 Y164.289 E14.10338
G1 X132.199 Y164.291 E14.11239
G1 X130.962 Y164.282 E14.15868
G1 X130.694 Y164.269 E14.16872
G1 X129.562 Y164.163 E14.21126
G1 X126.84 Y163.95 E14.31342
G1 X124.091 Y163.814 E14.41641
G1 X121.369 Y163.756 E14.51828
G1 X118.614 Y163.775 E14.62137
G1 X115.893 Y163.871 E14.72325
G1 X113.143 Y164.045 E14.82635
G1 X110.923 Y164.256 E14.9098
G1 X110.816 Y164.257 E14.9138
G1 X109.454 Y164.39 E14.965
G1 X108.791 Y164.419 E14.98984
G1 X108.621 Y164.419 E14.9962
G1 X107.761 Y164.392 E15.02839
G1 X106.497 Y164.335 E15.07574
G1 X104.211 Y164.292 E15.16129
G1 X102.872 Y164.282 E15.21139
G1 X102.167 Y164.196 E15.23797
G1 X101.419 Y164.018 E15.26674
G1 X100.352 Y163.749 E15.30791
G1 X99.636 Y163.557 E15.33565
G1 X99.164 Y163.388 E15.35441
G1 X98.724 Y163.147 E15.37318
G1 X98.328 Y162.84 E15.39193
G1 X97.822 Y162.31 E15.41935
G1 X97.489 Y161.928 E15.43831
G1 X97.053 Y161.404 E15.46381
G1 X96.53 Y160.737 E15.49553
G1 X96.439 Y160.615 E15.50122
G1 X94.817 Y158.327 E15.60617
G1 X93.689 Y156.815 E15.67675
G1 X92.933 Y155.819 E15.72354
G1 X92.835 Y155.683 E15.72981
G1 X91.899 Y154.315 E15.79183
G1 X91.546 Y153.784 E15.81569
G1 X90.491 Y152.287 E15.88422
G1 X90.076 Y151.657 E15.91245
G1 X88.577 Y149.414 E16.01339
G1 X87.755 Y148.157 E16.06959
G1 X87.439 Y147.605 E16.09339
G1 X87.213 Y147.125 E16.11324
G1 X87.162 Y147.01 E16.11795
G1 X86.861 Y146.294 E16.14701
G1 X86.583 Y145.505 E16.17831
G1 X86.402 Y144.911 E16.20155
G1 X86.376 Y144.821 E16.20505
G1 X86.132 Y143.913 E16.24023
G1 X86.01 Y143.389 E16.26036
G1 X85.93 Y142.968 E16.2764
G1 X85.876 Y142.332 E16.30028
G1 X85.897 Y141.15 E16.34452
G1 X85.883 Y140.903 E16.35377
G1 X85.921 Y139.185 E16.41807
G1 X85.922 Y138.281 E16.4519
G1 X85.966 Y137.757 E16.47157
G1 X86.078 Y137.166 E16.49408
G1 X86.239 Y136.403 E16.52326
G1 X86.407 Y135.657 E16.55187
G1 X86.615 Y134.972 E16.57866
G1 X86.755 Y134.624 E16.59269
G1 X87.577 Y132.658 E16.67243
G1 X88.564 Y130.099 E16.77506
G1 X89.477 Y127.52 E16.87742
G1 X90.318 Y124.909 E16.98006
G1 X91.083 Y122.282 E17.08244
G1 X91.771 Y119.643 E17.18449
G1 X92.395 Y116.944 E17.28814
G1 X92.93 Y114.27 E17.39018
G1 X93.189 Y112.823 E17.44519
G1 X93.32 Y112.064 E17.47401
G1 X93.399 Y111.654 E17.48963
G1 X93.533 Y111.171 E17.50838
G1 X93.742 Y110.715 E17.52715
G1 X94.112 Y110.148 E17.55249
G1 X94.273 Y109.933 E17.56254
G1 X94.835 Y109.242 E17.59586
G1 X95.536 Y108.406 E17.63669
G1 X97.242 Y106.249 E17.73959
G1 X98.85 Y104.095 E17.84017
G1 X100.451 Y101.821 E17.94423
G1 X101.973 Y99.523 E18.04736
G1 X103.403 Y97.222 E18.14873
G1 X104.794 Y94.837 E18.25204
G1 X106.096 Y92.454 E18.35365
G1 X107.35 Y89.995 E18.45694
G1 X108.507 Y87.559 E18.55784
G1 X109.633 Y85.003 E18.66235
G1 X110.658 Y82.486 E18.76404
G1 X111.613 Y79.939 E18.86582
G1 X112.512 Y77.317 E18.96954
G1 X113.319 Y74.726 E19.07108
G1 X114.02 Y72.223 E19.16834
G1 X114.368 Y70.934 E19.2183
G1 X114.537 Y70.462 E19.23706
G1 X114.779 Y70.022 E19.25585
G1 F1500 E13.75585
;MESH:Paulo44.stl
G0 F2160 X101.232 Y111.008
G0 X100.925 Y111.888
G0 X97.188 Y123.235
;TYPE:WALL-INNER
G1 F1500 E19.25585
G1 F900 X97.188 Y122.415 E19.28653
G1 X97.089 Y121.831 E19.3087
G1 X97.044 Y121.268 E19.32983
G1 X97.019 Y120.76 E19.34886
G1 X96.998 Y120.165 E19.37114
G1 X96.983 Y119.433 E19.39853
G1 X97.098 Y118.648 E19.42822
G1 X97.073 Y117.916 E19.45562
G1 X97.098 Y117.141 E19.48464
G1 X96.985 Y116.387 E19.51317
G1 X97.051 Y114.59 E19.58045
G1 X97.052 Y114.074 E19.59976
G1 X97.191 Y113.31 E19.62882
G1 X97.168 Y112.677 E19.65252
G1 X97.214 Y112.495 E19.65954
G1 X97.762 Y112.315 E19.68112
G1 X98.349 Y112.207 E19.70346
G1 X99.095 Y112.131 E19.73151
G1 X99.704 Y112.115 E19.75431
G1 X100.17 Y112.167 E19.77185
G1 X100.772 Y112.291 E19.79485
G1 X100.942 Y112.353 E19.80162
G1 X101.03 Y112.54 E19.80936
G1 X101.159 Y113.198 E19.83445
G1 X101.115 Y113.918 E19.86144
G1 X101.14 Y114.227 E19.87304
G1 X101.14 Y115.737 E19.92954
G1 X102.56 Y115.737 E19.98267
G1 X103.587 Y115.913 E20.02166
G1 X104.015 Y115.968 E20.03781
G1 X104.4 Y116.106 E20.05311
G1 X104.875 Y116.347 E20.07304
G1 X105.477 Y116.784 E20.10087
G1 X105.673 Y117.081 E20.11419
G1 X105.989 Y117.601 E20.13696
G1 X106.211 Y118.071 E20.15641
G1 X106.816 Y119.495 E20.2143
G1 X106.908 Y119.712 E20.22312
G1 X107.064 Y119.536 E20.22819
G1 X108.765 Y117.613 E20.32426
G1 X108.871 Y117.494 E20.33022
G1 X108.744 Y117.397 E20.334
G1 X107.945 Y116.785 E20.37166
G1 X107.627 Y116.448 E20.38899
G1 X107.187 Y115.925 E20.41457
G1 X106.961 Y115.599 E20.42941
G1 X107.015 Y114.759 E20.46091
G1 X107.015 Y114.128 E20.48452
G1 X107.061 Y113.829 E20.49584
G1 X107.199 Y113.428 E20.51171
G1 X107.615 Y112.658 E20.54445
G1 X107.776 Y112.5 E20.55289
G1 X108.207 Y112.287 E20.57088
G1 X108.774 Y112.098 E20.59325
G1 X109.165 Y111.995 E20.60838
G1 X110.806 Y111.875 E20.66994
G1 X111.402 Y112.097 E20.69374
G1 X111.658 Y112.224 E20.70443
G1 X112.806 Y111.989 E20.74828
G1 X113.614 Y112.076 E20.77869
G1 X114.476 Y111.991 E20.8111
G1 X115.953 Y112.37 E20.86815
G1 X116.13 Y112.415 E20.87499
G1 X116.139 Y112.233 E20.87916
G1 X116.792 Y99.147 E21.36942
G1 X116.858 Y112.651 E21.87471
G1 X118.239 Y112.106 E21.93027
G1 X118.697 Y112.006 E21.94781
G1 X119.356 Y111.916 E21.97269
G1 X119.793 Y111.868 E21.98914
G1 X120.368 Y111.949 E22.01087
G1 X121.014 Y112.024 E22.03521
G1 X121.082 Y112.029 E22.03776
G1 X121.384 Y112.259 E22.05196
G1 X122.363 Y111.989 E22.08996
G1 X122.637 Y111.943 E22.10036
G1 X123.342 Y112.032 E22.12695
G1 X124.027 Y111.963 E22.15271
G1 X124.64 Y112.045 E22.17585
G1 X125.27 Y112.071 E22.19944
G1 X125.513 Y112.071 E22.20853
G1 X125.655 Y112.754 E22.23464
G1 X126.94 Y112.686 E22.28279
G1 X126.972 Y112.363 E22.29493
G1 X128.105 Y112.186 E22.33784
G1 X128.649 Y112.141 E22.35826
G1 X129.365 Y112.141 E22.38505
G1 X130.004 Y112.245 E22.40928
G1 X130.651 Y112.335 E22.43372
G1 X130.793 Y112.357 E22.4391
G1 X130.932 Y112.7 E22.45295
G1 X130.989 Y113.104 E22.46821
G1 X131.017 Y114.074 E22.50452
G1 X132.027 Y114.399 E22.54422
G1 X132.65 Y113.58 E22.58273
G1 X132.965 Y113.239 E22.6001
G1 X133.532 Y112.691 E22.6296
G1 X134.299 Y112.357 E22.6609
G1 X134.917 Y112.059 E22.68658
G1 X135.107 Y111.984 E22.69422
G1 X136.022 Y111.843 E22.72886
G1 X136.567 Y111.803 E22.74931
G1 X137.106 Y111.808 E22.76948
G1 X137.916 Y111.881 E22.79991
G1 X138.82 Y112.046 E22.83429
G1 X139.249 Y112.192 E22.85125
G1 X139.76 Y112.479 E22.87318
G1 X140.192 Y112.794 E22.89318
G1 X140.703 Y113.296 E22.91999
