;FLAVOR:Marlin
;TIME:2623
;Filament used: 1.47976m, 0m
;Layer height: 0.2
;MINX:76.818
;MINY:56.989
;MINZ:0.26
;MAXX:158.18
;MAXY:176.645
;MAXZ:1.26
;POSTPROCESSED
;Generated with Cura_SteamEngine 4.8.0
T0
M140 S60
M105
M190 S60
M104 S200
M105
M109 S200
M82 ;absolute extrusion mode
M201 X500.00 Y500.00 Z100.00 E5000.00 	;Setup machine max acceleration
M203 X500.00 Y500.00 Z10.00 E50.00 	;Setup machine max feedrate
M204 P500.00 R1000.00 T500.00 		;Setup Print/Retract/Travel acceleration
M205 X8.00 Y8.00 Z0.40 E5.00 		;Setup Jerk
M220 S100 				;Reset Feedrate
M221 S100 				;Reset Flowrate
G28				;Home the Machine
#G29 				;Bed Level
G92 E0
M300 P150 S587
G92 E0
G1 F1500 E-5.5
;LAYER_COUNT:6
;LAYER:0
M107
G0 F2160 X113.205 Y58.754 Z0.26
;TYPE:SKIRT
G1 F1500 E0
G1 F900 X113.495 Y58.317 E0.01701
G1 X113.849 Y57.928 E0.03406
G1 X114.257 Y57.599 E0.05106
G1 X114.711 Y57.334 E0.06811
G1 X115.199 Y57.142 E0.08511
G1 X115.711 Y57.026 E0.10214
G1 X116.235 Y56.989 E0.11917
G1 X116.758 Y57.032 E0.13619
G1 X117.269 Y57.154 E0.15323
G1 X117.755 Y57.352 E0.17025
G1 X118.205 Y57.621 E0.18725
G1 X118.61 Y57.956 E0.20429
G1 X118.959 Y58.348 E0.22131
G1 X119.245 Y58.788 E0.23833
G1 X119.46 Y59.267 E0.25536
G1 X119.626 Y59.919 E0.27717
G1 X119.813 Y61.145 E0.31739
G1 X120.261 Y63.833 E0.40576
G1 X120.786 Y66.519 E0.49451
G1 X121.385 Y69.171 E0.58268
G1 X122.065 Y71.838 E0.67193
G1 X122.814 Y74.455 E0.76021
G1 X123.638 Y77.061 E0.84884
G1 X124.53 Y79.621 E0.93675
G1 X125.493 Y82.155 E1.02466
G1 X126.548 Y84.714 E1.11442
G1 X127.67 Y87.229 E1.20373
G1 X128.838 Y89.659 E1.29116
G1 X130.096 Y92.097 E1.38012
G1 X131.422 Y94.498 E1.46907
G1 X132.804 Y96.839 E1.55723
G1 X134.244 Y99.133 E1.64506
G1 X135.775 Y101.424 E1.73442
G1 X137.357 Y103.651 E1.823
G1 X138.985 Y105.809 E1.91066
G1 X140.71 Y107.966 E2.00023
G1 X142.462 Y110.036 E2.08817
G1 X145.051 Y112.893 E2.2132
G1 X145.922 Y113.815 E2.25434
G1 X146.254 Y114.191 E2.2706
G1 X146.699 Y114.749 E2.29375
G1 X147.174 Y115.455 E2.32134
G1 X147.936 Y116.705 E2.36881
G1 X148.126 Y117.025 E2.38088
G1 X149.584 Y119.335 E2.46947
G1 X151.096 Y121.587 E2.55743
G1 X152.691 Y123.824 E2.64652
G1 X154.335 Y125.994 E2.73481
G1 X156.274 Y128.398 E2.83496
G1 X156.587 Y128.798 E2.85143
G1 X157 Y129.391 E2.87487
G1 X157.28 Y129.848 E2.89225
G1 X157.566 Y130.382 E2.91189
G1 X157.881 Y131.136 E2.93839
G1 X158.088 Y131.894 E2.96387
G1 X158.162 Y132.428 E2.98136
G1 X158.18 Y133.119 E3.00377
G1 X158.116 Y133.7 E3.02273
G1 X158.024 Y134.309 E3.0427
G1 X157.731 Y136.038 E3.09957
G1 X157.348 Y138.771 E3.18906
G1 X157.074 Y141.203 E3.26843
G1 X157.033 Y141.595 E3.28121
G1 X156.745 Y143.823 E3.35406
G1 X156.448 Y146.612 E3.44502
G1 X156.247 Y149.125 E3.52677
G1 X156.196 Y149.954 E3.5537
G1 X156.111 Y151.423 E3.60142
G1 X156.022 Y152.157 E3.6254
G1 X155.875 Y152.919 E3.65056
G1 X155.716 Y153.483 E3.66957
G1 X155.418 Y154.258 E3.69649
G1 X155.157 Y154.762 E3.7149
G1 X154.884 Y155.189 E3.73133
G1 X154.493 Y155.695 E3.75207
G1 X152.612 Y157.852 E3.84488
G1 X150.873 Y159.967 E3.93367
G1 X149.184 Y162.144 E4.02303
G1 X148.076 Y163.644 E4.0835
G1 X147.639 Y164.209 E4.10666
G1 X147.08 Y164.787 E4.13274
G1 X146.632 Y165.164 E4.15173
G1 X146.211 Y165.458 E4.16838
G1 X145.673 Y165.788 E4.18885
G1 X145.139 Y166.039 E4.20798
G1 X144.703 Y166.221 E4.2233
G1 X142.184 Y167.303 E4.31221
G1 X139.708 Y168.451 E4.40071
G1 X137.266 Y169.668 E4.48919
G1 X134.866 Y170.949 E4.57741
G1 X132.506 Y172.271 E4.66513
G1 X131.655 Y172.716 E4.69627
G1 X130.797 Y173.137 E4.72727
G1 X129.919 Y173.539 E4.75858
G1 X129.046 Y173.912 E4.78937
G1 X128.113 Y174.282 E4.82192
G1 X127.42 Y174.536 E4.84585
G1 X126.227 Y174.934 E4.88663
G1 X126.107 Y174.971 E4.89071
G1 X124.83 Y175.346 E4.93387
G1 X124.695 Y175.383 E4.93841
G1 X123.343 Y175.721 E4.9836
G1 X123.213 Y175.751 E4.98793
G1 X121.933 Y176.019 E5.03033
G1 X121.79 Y176.046 E5.03505
G1 X120.554 Y176.251 E5.07568
G1 X120.418 Y176.27 E5.08014
G1 X119.051 Y176.441 E5.12481
G1 X118.909 Y176.456 E5.12944
G1 X117.443 Y176.578 E5.17715
G1 X117.319 Y176.586 E5.18118
G1 X116.292 Y176.633 E5.21452
G1 X115.688 Y176.645 E5.23411
G1 X114.982 Y176.645 E5.257
G1 X114.173 Y176.627 E5.28324
G1 X113.495 Y176.599 E5.30525
G1 X112.801 Y176.557 E5.32779
G1 X111.979 Y176.489 E5.35454
G1 X111.289 Y176.417 E5.37704
G1 X110.506 Y176.32 E5.40262
G1 X109.806 Y176.218 E5.42556
G1 X109.059 Y176.094 E5.45012
G1 X108.411 Y175.973 E5.4715
G1 X107.538 Y175.791 E5.50042
G1 X106.892 Y175.641 E5.52192
G1 X106.222 Y175.473 E5.54432
G1 X105.448 Y175.26 E5.57035
G1 X104.719 Y175.044 E5.59501
G1 X103.972 Y174.804 E5.62045
G1 X103.392 Y174.607 E5.64032
G1 X102.419 Y174.251 E5.67392
G1 X101.685 Y173.962 E5.6995
G1 X100.79 Y173.584 E5.731
G1 X100.478 Y173.444 E5.74209
G1 X97.959 Y172.356 E5.83108
G1 X95.44 Y171.351 E5.91902
G1 X92.884 Y170.415 E6.0073
G1 X90.284 Y169.545 E6.0962
G1 X89.158 Y169.207 E6.13433
G1 X87.965 Y168.834 E6.17486
G1 X87.664 Y168.724 E6.18526
G1 X87.15 Y168.509 E6.20332
G1 X86.682 Y168.27 E6.22036
G1 X86.193 Y167.908 E6.24009
G1 X85.743 Y167.49 E6.26001
G1 X85.395 Y167.097 E6.27703
G1 X85.076 Y166.61 E6.29591
G1 X84.907 Y166.319 E6.30683
G1 X84.656 Y165.782 E6.32605
G1 X84.459 Y165.189 E6.34631
G1 X84.383 Y164.899 E6.35603
G1 X84.18 Y163.971 E6.38684
G1 X83.818 Y162.15 E6.44705
G1 X83.208 Y159.485 E6.53571
G1 X82.533 Y156.875 E6.62313
G1 X81.756 Y154.182 E6.71402
G1 X81.266 Y152.624 E6.76698
G1 X80.811 Y151.213 E6.81506
G1 X80.577 Y150.423 E6.84178
G1 X80.341 Y149.549 E6.87114
G1 X80.158 Y148.801 E6.89611
G1 X79.962 Y147.918 E6.92544
G1 X79.804 Y147.116 E6.95195
G1 X79.65 Y146.22 E6.98143
G1 X79.47 Y144.948 E7.02309
G1 X79.455 Y144.824 E7.02714
G1 X79.334 Y143.669 E7.0648
G1 X79.323 Y143.548 E7.06874
G1 X79.222 Y142.072 E7.11672
G1 X79.198 Y141.721 E7.12813
G1 X79.158 Y140.852 E7.15634
G1 X78.957 Y138.147 E7.2443
G1 X78.68 Y135.445 E7.33238
G1 X78.527 Y134.131 E7.37528
G1 X78.488 Y133.53 E7.39481
G1 X78.49 Y132.36 E7.43275
G1 X78.501 Y131.647 E7.45588
G1 X78.466 Y128.914 E7.54451
G1 X78.353 Y126.207 E7.63237
G1 X78.16 Y123.444 E7.72219
G1 X77.896 Y120.765 E7.80949
G1 X77.612 Y118.617 E7.87975
G1 X77.452 Y117.314 E7.92232
G1 X77.436 Y117.133 E7.92822
G1 X77.367 Y116.135 E7.96066
G1 X77.358 Y116.066 E7.96291
G1 X77.216 Y114.08 E8.02748
G1 X76.943 Y111.347 E8.11655
G1 X76.887 Y110.848 E8.13283
G1 X76.876 Y110.726 E8.1368
G1 X76.818 Y109.882 E8.16424
G1 X76.818 Y109.379 E8.18055
G1 X76.891 Y108.548 E8.2076
G1 X77.04 Y107.767 E8.23339
G1 X77.279 Y106.993 E8.25966
G1 X77.609 Y106.261 E8.28569
G1 X78.061 Y105.51 E8.31412
G1 X78.38 Y105.083 E8.3314
G1 X78.75 Y104.671 E8.34936
G1 X79.225 Y104.212 E8.37078
G1 X79.468 Y104.011 E8.38101
G1 X80.418 Y103.275 E8.41998
G1 X81.378 Y102.554 E8.45891
G1 X83.487 Y100.872 E8.54639
G1 X85.581 Y99.104 E8.63526
G1 X87.612 Y97.285 E8.72368
G1 X89.618 Y95.386 E8.81326
G1 X91.531 Y93.47 E8.90106
G1 X93.406 Y91.482 E8.98968
G1 X95.227 Y89.438 E9.07845
G1 X96.984 Y87.351 E9.16692
G1 X98.672 Y85.228 E9.25488
G1 X100.321 Y83.027 E9.34406
G1 X101.888 Y80.806 E9.43221
G1 X103.417 Y78.505 E9.5218
G1 X104.854 Y76.203 E9.6098
G1 X106.226 Y73.862 E9.69779
G1 X107.547 Y71.455 E9.78683
G1 X108.774 Y69.057 E9.87418
G1 X109.969 Y66.553 E9.96416
G1 X111.068 Y64.069 E10.05224
G1 X112.106 Y61.533 E10.1411
G1 X112.626 Y60.186 E10.18792
G1 X112.984 Y59.23 E10.22103
G1 X113.205 Y58.754 E10.23805
G0 F2160 X113.477 Y58.881
G1 F900 X113.759 Y58.466 E10.25432
G1 X114.104 Y58.101 E10.27061
G1 X114.501 Y57.796 E10.28684
G1 X114.943 Y57.557 E10.30313
G1 X115.416 Y57.392 E10.31938
G1 X115.91 Y57.304 E10.33565
G1 X116.412 Y57.295 E10.35193
G1 X116.908 Y57.366 E10.36818
G1 X117.387 Y57.515 E10.38445
G1 X117.836 Y57.738 E10.40071
G1 X118.244 Y58.03 E10.41698
G1 X118.601 Y58.383 E10.43326
G1 X118.897 Y58.787 E10.4495
G1 X119.125 Y59.234 E10.46577
G1 X119.28 Y59.711 E10.48204
G1 X119.329 Y59.964 E10.49039
G1 X119.509 Y61.147 E10.5292
G1 X119.968 Y63.902 E10.61977
G1 X120.487 Y66.557 E10.7075
G1 X121.101 Y69.272 E10.79777
G1 X121.768 Y71.889 E10.88534
G1 X122.531 Y74.554 E10.97524
G1 X123.354 Y77.155 E11.06371
G1 X124.258 Y79.753 E11.15291
G1 X125.216 Y82.272 E11.24031
G1 X126.264 Y84.816 E11.32953
G1 X127.388 Y87.334 E11.41895
G1 X128.584 Y89.821 E11.50844
G1 X129.827 Y92.231 E11.59638
G1 X131.146 Y94.62 E11.68488
G1 X132.562 Y97.018 E11.77518
G1 X133.98 Y99.277 E11.86168
G1 X135.537 Y101.606 E11.95253
G1 X137.106 Y103.814 E12.04037
G1 X138.773 Y106.025 E12.13016
G1 X140.473 Y108.152 E12.21846
G1 X142.224 Y110.219 E12.30631
G1 X144.847 Y113.113 E12.43297
G1 X145.704 Y114.021 E12.47346
G1 X146.336 Y114.767 E12.50516
G1 X146.662 Y115.218 E12.52321
G1 X146.972 Y115.698 E12.54174
G1 X147.678 Y116.858 E12.58578
G1 X147.868 Y117.179 E12.59787
G1 X149.332 Y119.497 E12.68678
G1 X150.847 Y121.754 E12.77493
G1 X152.452 Y124.005 E12.86458
G1 X154.091 Y126.168 E12.95259
G1 X156.038 Y128.583 E13.05319
G1 X156.346 Y128.977 E13.0694
G1 X156.751 Y129.558 E13.09237
G1 X157.018 Y129.995 E13.10898
G1 X157.293 Y130.506 E13.1278
G1 X157.603 Y131.247 E13.15384
G1 X157.792 Y131.939 E13.17711
G1 X157.865 Y132.466 E13.19436
G1 X157.881 Y133.097 E13.21483
G1 X157.819 Y133.662 E13.23326
G1 X157.728 Y134.259 E13.25284
G1 X157.431 Y136.014 E13.31057
G1 X157.054 Y138.698 E13.39846
G1 X156.771 Y141.21 E13.48043
G1 X156.735 Y141.557 E13.49175
G1 X156.438 Y143.862 E13.56711
G1 X156.151 Y146.553 E13.65487
G1 X155.948 Y149.102 E13.7378
G1 X155.897 Y149.935 E13.76486
G1 X155.812 Y151.398 E13.81238
G1 X155.725 Y152.116 E13.83584
G1 X155.581 Y152.855 E13.86025
G1 X155.431 Y153.388 E13.87821
G1 X155.15 Y154.123 E13.90373
G1 X154.894 Y154.619 E13.92183
G1 X154.415 Y155.315 E13.94923
G1 X154.267 Y155.498 E13.95686
G1 X152.382 Y157.66 E14.04987
G1 X150.635 Y159.785 E14.13908
G1 X148.94 Y161.969 E14.22874
G1 X147.835 Y163.465 E14.28905
G1 X147.418 Y164.006 E14.3112
G1 X146.867 Y164.574 E14.33686
G1 X146.458 Y164.919 E14.35421
G1 X146.047 Y165.207 E14.37049
G1 X145.536 Y165.522 E14.38995
G1 X145.017 Y165.765 E14.40854
G1 X144.609 Y165.934 E14.42286
G1 X142.087 Y167.018 E14.51188
G1 X139.568 Y168.186 E14.60192
G1 X137.153 Y169.389 E14.68941
G1 X134.676 Y170.711 E14.78046
G1 X132.444 Y171.963 E14.86345
G1 X131.594 Y172.41 E14.8946
G1 X130.748 Y172.828 E14.9252
G1 X130.672 Y172.865 E14.92794
G1 X129.875 Y173.231 E14.95638
G1 X128.936 Y173.633 E14.9895
G1 X128.084 Y173.972 E15.01924
G1 X127.325 Y174.251 E15.04546
G1 X126.132 Y174.649 E15.08625
G1 X126.023 Y174.683 E15.08995
G1 X124.746 Y175.058 E15.13311
G1 X124.622 Y175.092 E15.13728
G1 X123.27 Y175.43 E15.18247
G1 X123.152 Y175.457 E15.1864
G1 X121.872 Y175.725 E15.22881
G1 X121.741 Y175.75 E15.23313
G1 X120.505 Y175.955 E15.27376
G1 X120.381 Y175.973 E15.27782
G1 X119.014 Y176.144 E15.3225
G1 X118.884 Y176.157 E15.32674
G1 X117.305 Y176.287 E15.37811
G1 X116.37 Y176.331 E15.40847
G1 X115.687 Y176.345 E15.43062
G1 X114.988 Y176.345 E15.45329
G1 X114.186 Y176.327 E15.4793
G1 X113.513 Y176.299 E15.50115
G1 X112.825 Y176.258 E15.5235
G1 X112.01 Y176.19 E15.55002
G1 X111.326 Y176.119 E15.57232
G1 X110.549 Y176.023 E15.59771
G1 X109.855 Y175.922 E15.62045
G1 X109.114 Y175.799 E15.64481
G1 X108.472 Y175.679 E15.66599
G1 X107.606 Y175.499 E15.69467
G1 X106.964 Y175.35 E15.71604
G1 X106.301 Y175.184 E15.73821
G1 X105.533 Y174.973 E15.76404
G1 X104.811 Y174.758 E15.78847
G1 X104.068 Y174.52 E15.81377
G1 X103.495 Y174.325 E15.83339
G1 X102.528 Y173.972 E15.86678
G1 X101.801 Y173.686 E15.89211
G1 X100.912 Y173.31 E15.92341
G1 X100.617 Y173.178 E15.93389
G1 X98.084 Y172.084 E16.02337
G1 X95.549 Y171.072 E16.11188
G1 X92.946 Y170.119 E16.20177
G1 X90.4 Y169.267 E16.28884
G1 X89.248 Y168.92 E16.32785
G1 X88.055 Y168.547 E16.36839
G1 X87.779 Y168.447 E16.37791
G1 X87.265 Y168.232 E16.39598
G1 X86.82 Y168.002 E16.41222
G1 X86.392 Y167.684 E16.42951
G1 X85.952 Y167.274 E16.44901
G1 X85.62 Y166.898 E16.46528
G1 X85.332 Y166.453 E16.48247
G1 X85.167 Y166.169 E16.49312
G1 X84.938 Y165.679 E16.51066
G1 X84.746 Y165.1 E16.53044
G1 X84.676 Y164.835 E16.53933
G1 X84.474 Y163.912 E16.56997
G1 X84.113 Y162.097 E16.62998
G1 X83.5 Y159.416 E16.71917
G1 X82.812 Y156.756 E16.80826
G1 X82.052 Y154.123 E16.89714
G1 X81.544 Y152.507 E16.95207
G1 X81.098 Y151.127 E16.9991
G1 X80.866 Y150.345 E17.02555
G1 X80.632 Y149.477 E17.0547
G1 X80.45 Y148.735 E17.07948
G1 X80.256 Y147.86 E17.10854
G1 X80.099 Y147.065 E17.13482
G1 X79.962 Y146.276 E17.16079
G1 X79.767 Y144.906 E17.20567
G1 X79.753 Y144.793 E17.20936
G1 X79.632 Y143.638 E17.24702
G1 X79.622 Y143.527 E17.25063
G1 X79.521 Y142.056 E17.29845
G1 X79.497 Y141.707 E17.30979
G1 X79.456 Y140.817 E17.33868
G1 X79.256 Y138.131 E17.42603
G1 X78.978 Y135.415 E17.51456
G1 X78.814 Y133.988 E17.56114
G1 X78.788 Y133.53 E17.57602
G1 X78.79 Y132.365 E17.6138
G1 X78.801 Y131.648 E17.63705
G1 X78.765 Y128.896 E17.72631
G1 X78.652 Y126.176 E17.81459
G1 X78.462 Y123.46 E17.90288
G1 X78.193 Y120.73 E17.99184
G1 X77.91 Y118.58 E18.06216
G1 X77.751 Y117.285 E18.10447
G1 X77.735 Y117.113 E18.11007
G1 X77.664 Y116.084 E18.14352
G1 X77.657 Y116.045 E18.14481
G1 X77.512 Y114.021 E18.21061
G1 X77.245 Y111.344 E18.29785
G1 X77.185 Y110.817 E18.31505
G1 X77.175 Y110.705 E18.3187
G1 X77.117 Y109.861 E18.34613
G1 X77.124 Y109.292 E18.36459
G1 X77.19 Y108.578 E18.38784
G1 X77.333 Y107.832 E18.41247
G1 X77.557 Y107.107 E18.43708
G1 X77.88 Y106.389 E18.46261
G1 X78.312 Y105.675 E18.48967
G1 X78.616 Y105.268 E18.50615
G1 X78.962 Y104.883 E18.52293
G1 X79.419 Y104.441 E18.54355
G1 X79.652 Y104.248 E18.55336
G1 X80.599 Y103.515 E18.5922
G1 X81.532 Y102.814 E18.63004
G1 X83.694 Y101.09 E18.71971
G1 X85.782 Y99.326 E18.80835
G1 X87.824 Y97.498 E18.89723
G1 X89.808 Y95.621 E18.9858
G1 X91.749 Y93.676 E19.07491
G1 X93.619 Y91.693 E19.16329
G1 X95.45 Y89.638 E19.25255
G1 X97.221 Y87.535 E19.34171
G1 X98.916 Y85.403 E19.43003
G1 X100.562 Y83.206 E19.51906
G1 X102.139 Y80.97 E19.60779
G1 X103.661 Y78.68 E19.69695
G1 X105.097 Y76.38 E19.78488
G1 X106.514 Y73.962 E19.87577
G1 X107.801 Y71.616 E19.96254
G1 X109.051 Y69.174 E20.05151
G1 X110.246 Y66.668 E20.14154
G1 X111.345 Y64.186 E20.22956
G1 X112.378 Y61.661 E20.31803
G1 X112.906 Y60.294 E20.36555
G1 X113.265 Y59.335 E20.39876
G1 X113.477 Y58.881 E20.41501
G1 F1500 E14.91501
;MESH:BatizadoJoao.stl
G0 F2160 X97.637 Y104.802
G0 X97.204 Y105.63
G0 X96.891 Y106.682
;TYPE:WALL-INNER
G1 F1500 E20.41501
G1 F900 X96.909 Y108.222 E20.46495
G1 X96.91 Y108.223 E20.465
G1 X96.911 Y108.44 E20.47204
G1 X97.113 Y108.36 E20.47618
G1 X98.806 Y107.683 E20.5353
G1 X99.319 Y107.533 E20.55264
G1 X99.91 Y107.419 E20.57216
G1 X100.592 Y107.34 E20.59442
G1 X101.083 Y107.31 E20.61037
G1 X101.821 Y107.285 E20.63432
G1 X102.791 Y107.305 E20.66578
G1 X103.322 Y107.327 E20.68301
G1 X104.05 Y107.373 E20.70667
G1 X104.554 Y107.455 E20.72323
G1 X104.87 Y107.562 E20.73405
G1 X105.131 Y107.729 E20.7441
G1 X105.357 Y107.872 E20.75277
G1 X105.36 Y107.926 E20.75452
G1 X105.103 Y108.002 E20.75998
G1 X104.794 Y108.095 E20.77044
G1 X104.422 Y108.528 E20.78896
G1 X103.694 Y109.037 E20.81776
G1 X104.488 Y110.654 E20.87618
G1 X106.073 Y110.159 E20.93003
G1 X106.79 Y109.95 E20.95425
G1 X107.514 Y109.756 E20.97855
G1 X108.23 Y109.579 E21.00247
G1 X108.963 Y109.418 E21.02681
G1 X109.678 Y109.279 E21.05043
G1 X110.422 Y109.152 E21.0749
G1 X111.148 Y109.048 E21.09869
G1 X112.001 Y108.951 E21.12653
G1 X112.882 Y108.87 E21.15522
G1 X113.733 Y108.814 E21.18287
G1 X115.417 Y108.743 E21.23753
G1 X117.283 Y108.828 E21.29811
G1 X118.348 Y108.911 E21.33275
G1 X119.418 Y109.03 E21.36766
