;FLAVOR:Marlin
;TIME:3097
;Filament used: 1.80426m, 0m
;Layer height: 0.2
;MINX:67.584
;MINY:52.106
;MINZ:0.26
;MAXX:167.421
;MAXY:181.325
;MAXZ:1.46
;Generated with Cura_SteamEngine 4.8.0
T0
M140 S60
M105
M190 S60
M104 S200
M105
M109 S200
M82 ;absolute extrusion mode
M201 X500.00 Y500.00 Z100.00 E5000.00 	;Setup machine max acceleration
M203 X500.00 Y500.00 Z10.00 E50.00 	;Setup machine max feedrate
M204 P500.00 R1000.00 T500.00 		;Setup Print/Retract/Travel acceleration
M205 X8.00 Y8.00 Z0.40 E5.00 		;Setup Jerk
M220 S100 				;Reset Feedrate
M221 S100 				;Reset Flowrate
G28				;Home the Machine
#G29 				;Bed Level
G92 E0
M300 P150 S587
G92 E0
G1 F1500 E-5.5
;LAYER_COUNT:7
;LAYER:0
M107
G0 F2160 X82.352 Y96.163 Z0.26
;TYPE:SKIRT
G1 F1500 E0
G1 F900 X82.781 Y95.845 E0.01732
G1 X82.977 Y95.708 E0.02507
G1 X85.182 Y94.119 E0.11321
G1 X87.383 Y92.437 E0.20304
G1 X89.478 Y90.736 E0.29055
G1 X91.536 Y88.969 E0.37851
G1 X93.584 Y87.107 E0.46827
G1 X95.555 Y85.211 E0.55696
G1 X97.435 Y83.296 E0.64399
G1 X99.309 Y81.278 E0.7333
G1 X101.116 Y79.216 E0.82221
G1 X102.853 Y77.118 E0.91053
G1 X104.543 Y74.955 E0.99955
G1 X106.148 Y72.777 E1.08728
G1 X107.717 Y70.518 E1.17648
G1 X109.215 Y68.224 E1.26532
G1 X110.623 Y65.926 E1.35272
G1 X111.999 Y63.533 E1.44224
G1 X113.292 Y61.131 E1.5307
G1 X114.509 Y58.707 E1.61866
G1 X115.666 Y56.229 E1.70734
G1 X116.003 Y55.445 E1.73502
G1 X116.042 Y55.37 E1.73776
G1 X116.577 Y54.157 E1.78075
G1 X116.825 Y53.694 E1.79778
G1 X117.14 Y53.274 E1.81481
G1 X117.515 Y52.907 E1.83182
G1 X117.942 Y52.601 E1.84886
G1 X118.41 Y52.363 E1.86588
G1 X118.908 Y52.199 E1.88289
G1 X119.426 Y52.113 E1.89991
G1 X119.951 Y52.106 E1.91694
G1 X120.471 Y52.179 E1.93397
G1 X120.974 Y52.33 E1.951
G1 X121.448 Y52.555 E1.96801
G1 X121.882 Y52.85 E1.98503
G1 X122.267 Y53.207 E2.00206
G1 X122.593 Y53.618 E2.01907
G1 X122.853 Y54.075 E2.03612
G1 X123.061 Y54.636 E2.05552
G1 X123.16 Y55 E2.06776
G1 X123.652 Y56.922 E2.13209
G1 X124.41 Y59.573 E2.22151
G1 X125.24 Y62.193 E2.31063
G1 X126.128 Y64.738 E2.39804
G1 X127.088 Y67.262 E2.48561
G1 X128.138 Y69.806 E2.57486
G1 X129.268 Y72.332 E2.6646
G1 X130.431 Y74.751 E2.75164
G1 X131.696 Y77.202 E2.84108
G1 X133.029 Y79.614 E2.93045
G1 X134.399 Y81.932 E3.01777
G1 X135.857 Y84.251 E3.1066
G1 X137.384 Y86.534 E3.19567
G1 X138.97 Y88.764 E3.28441
G1 X140.574 Y90.891 E3.3708
G1 X142.329 Y93.084 E3.46188
G1 X144.066 Y95.135 E3.54904
G1 X145.908 Y97.187 E3.63846
G1 X147.773 Y99.152 E3.72632
G1 X149.712 Y101.081 E3.81501
G1 X151.355 Y102.613 E3.88786
G1 X151.948 Y103.179 E3.91444
G1 X152.299 Y103.57 E3.93148
G1 X152.686 Y104.203 E3.95554
G1 X152.923 Y104.773 E3.97556
G1 X153.036 Y105.132 E3.98777
G1 X153.203 Y105.788 E4.00972
G1 X153.57 Y107.318 E4.06074
G1 X154.283 Y109.959 E4.14945
G1 X155.067 Y112.567 E4.23776
G1 X155.923 Y115.152 E4.32607
G1 X156.86 Y117.729 E4.41499
G1 X157.863 Y120.263 E4.50337
G1 X158.951 Y122.8 E4.59289
G1 X160.094 Y125.27 E4.68114
G1 X160.759 Y126.629 E4.73021
G1 X161.641 Y128.35 E4.79292
G1 X162.073 Y129.174 E4.82309
G1 X162.621 Y130.244 E4.86208
G1 X162.799 Y130.6 E4.87498
G1 X163.237 Y131.503 E4.90753
G1 X163.507 Y132.071 E4.92792
G1 X163.909 Y132.941 E4.959
G1 X164.286 Y133.796 E4.98931
G1 X164.703 Y134.804 E5.02468
G1 X165.058 Y135.722 E5.0566
G1 X165.388 Y136.643 E5.08832
G1 X165.694 Y137.563 E5.11977
G1 X165.966 Y138.457 E5.15007
G1 X166.257 Y139.511 E5.18553
G1 X166.281 Y139.602 E5.18858
G1 X166.53 Y140.62 E5.22256
G1 X166.761 Y141.688 E5.258
G1 X166.952 Y142.708 E5.29165
G1 X166.974 Y142.838 E5.29593
G1 X167.166 Y144.136 E5.33848
G1 X167.183 Y144.275 E5.34302
G1 X167.318 Y145.547 E5.3845
G1 X167.371 Y146.263 E5.40778
G1 X167.379 Y146.427 E5.41311
G1 X167.421 Y148.079 E5.4667
G1 X167.421 Y148.985 E5.49608
G1 X167.419 Y149.28 E5.50564
G1 X167.405 Y150.067 E5.53117
G1 X167.366 Y151.163 E5.56673
G1 X167.308 Y152.103 E5.59727
G1 X167.21 Y153.25 E5.6346
G1 X167.101 Y154.225 E5.66642
G1 X166.962 Y155.258 E5.70022
G1 X166.794 Y156.3 E5.73445
G1 X166.64 Y157.137 E5.76205
G1 X166.396 Y158.29 E5.80026
G1 X166.371 Y158.4 E5.80392
G1 X166.172 Y159.209 E5.83094
G1 X166.142 Y159.323 E5.83476
G1 X165.892 Y160.208 E5.86458
G1 X165.857 Y160.323 E5.86848
G1 X165.587 Y161.165 E5.89716
G1 X165.544 Y161.292 E5.9015
G1 X165.126 Y162.44 E5.94112
G1 X165.083 Y162.553 E5.94504
G1 X164.889 Y163.033 E5.96183
G1 X164.832 Y163.166 E5.96653
G1 X164.449 Y164.01 E5.99658
G1 X164.384 Y164.144 E6.00141
G1 X164.014 Y164.874 E6.02795
G1 X163.93 Y165.03 E6.0337
G1 X163.158 Y166.377 E6.08404
G1 X163.101 Y166.473 E6.08766
G1 X162.672 Y167.168 E6.11415
G1 X162.574 Y167.318 E6.11996
G1 X161.619 Y168.699 E6.17441
G1 X161.536 Y168.814 E6.17901
G1 X160.706 Y169.915 E6.22372
G1 X160.615 Y170.03 E6.22848
G1 X159.787 Y171.036 E6.27073
G1 X159.694 Y171.144 E6.27535
G1 X158.778 Y172.168 E6.31991
G1 X158.684 Y172.269 E6.32438
G1 X157.793 Y173.188 E6.36589
G1 X157.699 Y173.282 E6.3702
G1 X156.695 Y174.241 E6.41522
G1 X156.595 Y174.333 E6.41963
G1 X155.719 Y175.106 E6.45752
G1 X155.625 Y175.186 E6.46152
G1 X155.023 Y175.68 E6.48677
G1 X154.932 Y175.752 E6.49054
G1 X154.283 Y176.249 E6.51704
G1 X154.178 Y176.326 E6.52127
G1 X153.394 Y176.881 E6.55242
G1 X153.291 Y176.951 E6.55646
G1 X152.662 Y177.363 E6.58084
G1 X152.55 Y177.434 E6.58514
G1 X151.715 Y177.936 E6.61673
G1 X151.594 Y178.005 E6.62125
G1 X150.845 Y178.415 E6.64894
G1 X150.717 Y178.482 E6.65363
G1 X149.718 Y178.976 E6.68977
G1 X149.608 Y179.028 E6.69371
G1 X149.136 Y179.241 E6.71051
G1 X148.995 Y179.301 E6.71547
G1 X148.137 Y179.642 E6.74542
G1 X147.767 Y179.777 E6.75819
G1 X146.948 Y180.056 E6.78625
G1 X146.733 Y180.123 E6.79355
G1 X145.796 Y180.392 E6.82516
G1 X145.635 Y180.433 E6.83055
G1 X144.82 Y180.627 E6.85772
G1 X144.646 Y180.664 E6.86349
G1 X143.25 Y180.921 E6.90952
G1 X143.114 Y180.943 E6.91398
G1 X142.193 Y181.075 E6.94416
G1 X142.07 Y181.09 E6.94817
G1 X140.876 Y181.216 E6.98711
G1 X140.074 Y181.274 E7.01318
G1 X139.132 Y181.314 E7.04376
G1 X139.032 Y181.317 E7.047
G1 X138.257 Y181.325 E7.07214
G1 X137.416 Y181.311 E7.09941
G1 X136.547 Y181.271 E7.12762
G1 X136.445 Y181.265 E7.13094
G1 X135.632 Y181.201 E7.15738
G1 X134.794 Y181.112 E7.18471
G1 X133.814 Y180.979 E7.21678
G1 X133.31 Y180.897 E7.23334
G1 X133.218 Y180.881 E7.23637
G1 X132.012 Y180.649 E7.2762
G1 X129.247 Y180.156 E7.36728
G1 X126.576 Y179.759 E7.45484
G1 X123.888 Y179.435 E7.54264
G1 X121.126 Y179.182 E7.63259
G1 X118.426 Y179.011 E7.72032
G1 X115.689 Y178.916 E7.80913
G1 X112.949 Y178.897 E7.89799
G1 X110.247 Y178.956 E7.98563
G1 X107.476 Y179.094 E8.0756
G1 X104.795 Y179.304 E8.16281
G1 X103.157 Y179.485 E8.21625
G1 X103.004 Y179.49 E8.22121
G1 X100.69 Y179.739 E8.29669
G1 X100.568 Y179.75 E8.30066
G1 X99.677 Y179.814 E8.32963
G1 X98.08 Y179.951 E8.38161
G1 X97.564 Y179.987 E8.39838
G1 X96.941 Y179.982 E8.41858
G1 X96.526 Y179.955 E8.43207
G1 X93.504 Y179.73 E8.53034
G1 X92.628 Y179.658 E8.55884
G1 X92.306 Y179.63 E8.56933
G1 X91.564 Y179.555 E8.59351
G1 X90.767 Y179.452 E8.61957
G1 X90.263 Y179.371 E8.63612
G1 X90.152 Y179.351 E8.63978
G1 X89.546 Y179.231 E8.65981
G1 X89.418 Y179.203 E8.66406
G1 X88.644 Y179.019 E8.68986
G1 X88.2 Y178.896 E8.7048
G1 X87.679 Y178.727 E8.72257
G1 X87.154 Y178.536 E8.74068
G1 X86.97 Y178.462 E8.74711
G1 X85.823 Y177.961 E8.7877
G1 X85.181 Y177.66 E8.8107
G1 X84.208 Y177.178 E8.84591
G1 X83.439 Y176.788 E8.87387
G1 X82.623 Y176.36 E8.90375
G1 X81.925 Y175.97 E8.92968
G1 X81.362 Y175.634 E8.95094
G1 X80.707 Y175.222 E8.97603
G1 X80.209 Y174.89 E8.99544
G1 X79.559 Y174.43 E9.02127
G1 X78.948 Y173.97 E9.04607
G1 X78.503 Y173.616 E9.06451
G1 X78.41 Y173.539 E9.06842
G1 X77.798 Y173.016 E9.09453
G1 X77.712 Y172.94 E9.09825
G1 X77.017 Y172.303 E9.12882
G1 X76.464 Y171.764 E9.15387
G1 X75.787 Y171.062 E9.18549
G1 X75.715 Y170.985 E9.18891
G1 X75.084 Y170.285 E9.21947
G1 X74.567 Y169.675 E9.2454
G1 X74.498 Y169.591 E9.24893
G1 X73.99 Y168.952 E9.2754
G1 X73.358 Y168.109 E9.30957
G1 X72.925 Y167.5 E9.3338
G1 X72.382 Y166.691 E9.3654
G1 X71.876 Y165.885 E9.39626
G1 X71.821 Y165.794 E9.39971
G1 X71.399 Y165.071 E9.42685
G1 X71.342 Y164.969 E9.43064
G1 X70.908 Y164.164 E9.4603
G1 X70.851 Y164.054 E9.46432
G1 X70.465 Y163.272 E9.4926
G1 X70.413 Y163.162 E9.49654
G1 X70.1 Y162.467 E9.52126
G1 X70.048 Y162.345 E9.52556
G1 X69.684 Y161.446 E9.55701
G1 X69.636 Y161.32 E9.56139
G1 X69.332 Y160.476 E9.59048
G1 X69.292 Y160.357 E9.59455
G1 X69.06 Y159.626 E9.61942
G1 X68.828 Y158.811 E9.6469
G1 X68.61 Y157.941 E9.67598
G1 X68.425 Y157.125 E9.70312
G1 X68.313 Y156.564 E9.72167
G1 X68.089 Y155.292 E9.76355
G1 X67.878 Y153.83 E9.81145
G1 X67.774 Y152.933 E9.84074
G1 X67.68 Y151.849 E9.87602
G1 X67.612 Y150.657 E9.91474
G1 X67.584 Y149.669 E9.94679
G1 X67.586 Y148.648 E9.9799
G1 X67.588 Y148.539 E9.98344
G1 X67.624 Y147.507 E10.01692
G1 X67.63 Y147.391 E10.02069
G1 X67.709 Y146.239 E10.05814
G1 X67.809 Y145.217 E10.09144
G1 X67.818 Y145.131 E10.09424
G1 X67.972 Y143.892 E10.13473
G1 X68.161 Y142.637 E10.17589
G1 X68.387 Y141.362 E10.21788
G1 X68.403 Y141.275 E10.22075
G1 X68.637 Y140.132 E10.25858
G1 X68.917 Y138.918 E10.29898
G1 X69.25 Y137.636 E10.34194
G1 X69.275 Y137.544 E10.34503
G1 X69.643 Y136.279 E10.38775
G1 X70.001 Y135.161 E10.42582
G1 X70.325 Y134.233 E10.45769
G1 X70.705 Y133.221 E10.49275
G1 X71.063 Y132.338 E10.52365
G1 X71.475 Y131.389 E10.5572
G1 X72.61 Y128.848 E10.64744
G1 X73.654 Y126.318 E10.7362
G1 X74.621 Y123.778 E10.82434
G1 X75.515 Y121.209 E10.91255
G1 X76.345 Y118.591 E11.00161
G1 X77.1 Y115.951 E11.09065
G1 X77.77 Y113.333 E11.17829
G1 X78.379 Y110.639 E11.26785
G1 X78.899 Y107.978 E11.35578
G1 X79.346 Y105.302 E11.44376
G1 X79.876 Y101.264 E11.57583
G1 X79.945 Y100.638 E11.59625
G1 X80.027 Y100.14 E11.61262
G1 X80.212 Y99.402 E11.63729
G1 X80.442 Y98.739 E11.66005
G1 X80.468 Y98.669 E11.66247
G1 X80.741 Y98.099 E11.68297
G1 X81.014 Y97.647 E11.70009
G1 X81.418 Y97.078 E11.72272
G1 X81.842 Y96.613 E11.74313
G1 X82.352 Y96.163 E11.76518
G0 F2160 X82.531 Y96.404
G1 F900 X82.953 Y96.091 E11.78222
G1 X83.149 Y95.954 E11.78998
G1 X85.372 Y94.352 E11.87883
G1 X87.558 Y92.681 E11.96806
G1 X89.67 Y90.966 E12.05629
G1 X91.738 Y89.19 E12.14469
G1 X93.782 Y87.332 E12.23426
G1 X95.765 Y85.425 E12.32348
G1 X97.674 Y83.48 E12.41186
G1 X99.526 Y81.486 E12.50011
G1 X101.343 Y79.413 E12.5895
G1 X103.094 Y77.299 E12.67852
G1 X104.759 Y75.167 E12.76624
G1 X106.409 Y72.929 E12.85641
G1 X107.971 Y70.679 E12.94523
G1 X109.446 Y68.42 E13.03272
G1 X110.893 Y66.059 E13.12252
G1 X112.255 Y63.691 E13.21111
G1 X113.563 Y61.259 E13.30066
G1 X114.78 Y58.835 E13.38861
G1 X115.945 Y56.341 E13.47788
G1 X116.279 Y55.564 E13.50531
G1 X116.316 Y55.495 E13.50785
G1 X116.852 Y54.278 E13.55097
G1 X117.09 Y53.837 E13.56722
G1 X117.395 Y53.439 E13.58348
G1 X117.76 Y53.094 E13.59977
G1 X118.175 Y52.812 E13.61604
G1 X118.629 Y52.599 E13.6323
G1 X119.111 Y52.461 E13.64856
G1 X119.609 Y52.401 E13.66483
G1 X120.11 Y52.422 E13.68109
G1 X120.602 Y52.521 E13.69736
G1 X121.072 Y52.697 E13.71364
G1 X121.507 Y52.946 E13.72989
G1 X121.898 Y53.26 E13.74615
G1 X122.234 Y53.633 E13.76243
G1 X122.506 Y54.054 E13.77869
G1 X122.772 Y54.715 E13.80179
G1 X122.87 Y55.074 E13.81386
G1 X123.373 Y57.039 E13.87964
G1 X124.117 Y59.64 E13.96737
G1 X124.952 Y62.276 E14.05703
G1 X125.85 Y64.85 E14.14544
G1 X126.807 Y67.366 E14.23273
G1 X127.868 Y69.937 E14.32293
G1 X128.992 Y72.45 E14.4122
G1 X130.176 Y74.913 E14.50082
G1 X131.427 Y77.336 E14.58925
G1 X132.762 Y79.752 E14.67876
G1 X134.137 Y82.079 E14.76642
G1 X135.624 Y84.444 E14.85701
G1 X137.118 Y86.677 E14.94413
G1 X138.718 Y88.927 E15.03367
G1 X140.382 Y91.132 E15.12325
G1 X142.062 Y93.231 E15.21043
G1 X143.862 Y95.357 E15.30077
G1 X145.661 Y97.362 E15.38812
G1 X147.573 Y99.376 E15.47818
G1 X149.507 Y101.3 E15.56665
G1 X151.148 Y102.83 E15.6394
G1 X151.741 Y103.396 E15.66599
G1 X152.075 Y103.77 E15.68225
G1 X152.415 Y104.331 E15.70352
G1 X152.642 Y104.878 E15.72273
G1 X152.745 Y105.207 E15.7339
G1 X152.911 Y105.858 E15.75569
G1 X153.279 Y107.394 E15.80691
G1 X153.99 Y110.028 E15.89539
G1 X154.783 Y112.664 E15.98465
G1 X155.637 Y115.243 E16.07275
G1 X156.584 Y117.849 E16.16267
G1 X157.584 Y120.374 E16.25074
G1 X158.665 Y122.895 E16.33969
G1 X159.829 Y125.411 E16.42959
G1 X160.504 Y126.789 E16.47935
G1 X161.389 Y128.516 E16.54228
G1 X161.806 Y129.31 E16.57136
G1 X162.352 Y130.378 E16.61026
G1 X162.529 Y130.732 E16.62309
G1 X162.966 Y131.632 E16.65554
G1 X163.234 Y132.197 E16.67582
G1 X163.634 Y133.062 E16.70672
G1 X164.009 Y133.911 E16.73682
G1 X164.423 Y134.912 E16.77195
G1 X164.748 Y135.75 E16.80109
G1 X165.103 Y136.738 E16.83514
G1 X165.434 Y137.737 E16.86927
G1 X165.702 Y138.624 E16.89931
G1 X165.99 Y139.674 E16.93462
G1 X166.237 Y140.683 E16.96831
G1 X166.466 Y141.743 E17.00348
G1 X166.657 Y142.763 E17.03713
G1 X166.677 Y142.882 E17.04104
G1 X166.869 Y144.18 E17.08359
G1 X166.885 Y144.306 E17.08771
G1 X167.009 Y145.467 E17.12557
G1 X167.071 Y146.285 E17.15218
G1 X167.079 Y146.435 E17.15705
G1 X167.121 Y148.079 E17.21038
G1 X167.121 Y148.983 E17.23969
G1 X167.119 Y149.275 E17.24916
G1 X167.105 Y150.056 E17.27449
G1 X167.062 Y151.236 E17.31279
G1 X167.003 Y152.159 E17.34278
G1 X166.903 Y153.307 E17.38015
G1 X166.794 Y154.261 E17.41129
G1 X166.653 Y155.293 E17.44506
G1 X166.499 Y156.247 E17.4764
G1 X166.347 Y157.075 E17.5037
G1 X166.103 Y158.228 E17.54192
G1 X165.881 Y159.137 E17.57226
G1 X165.603 Y160.126 E17.60558
G1 X165.572 Y160.232 E17.60916
G1 X165.302 Y161.074 E17.63783
G1 X165.262 Y161.19 E17.64181
G1 X164.844 Y162.338 E17.68143
G1 X164.61 Y162.92 E17.70177
G1 X164.558 Y163.042 E17.70607
G1 X164.175 Y163.886 E17.73613
G1 X164.117 Y164.008 E17.74051
G1 X163.747 Y164.738 E17.76705
G1 X163.67 Y164.88 E17.77229
G1 X162.898 Y166.227 E17.82264
G1 X162.845 Y166.316 E17.82599
G1 X162.416 Y167.011 E17.85248
G1 X162.327 Y167.148 E17.85778
G1 X161.372 Y168.529 E17.91223
G1 X161.296 Y168.633 E17.9164
G1 X160.466 Y169.734 E17.96112
G1 X160.383 Y169.84 E17.96548
G1 X159.555 Y170.846 E18.00774
G1 X159.471 Y170.944 E18.01192
G1 X158.555 Y171.968 E18.05647
G1 X158.469 Y172.061 E18.06058
G1 X157.578 Y172.98 E18.10209
G1 X157.492 Y173.065 E18.10601
G1 X156.488 Y174.024 E18.15104
G1 X156.396 Y174.108 E18.15508
G1 X155.52 Y174.881 E18.19296
G1 X155.434 Y174.954 E18.19662
G1 X154.832 Y175.448 E18.22188
G1 X154.749 Y175.514 E18.22531
G1 X154.1 Y176.011 E18.25182
G1 X154.005 Y176.081 E18.25565
G1 X153.221 Y176.636 E18.2868
G1 X153.127 Y176.7 E18.29049
G1 X152.498 Y177.112 E18.31487
G1 X152.395 Y177.177 E18.31882
G1 X151.56 Y177.679 E18.35041
G1 X151.45 Y177.742 E18.35453
G1 X150.701 Y178.152 E18.38222
G1 X150.584 Y178.213 E18.38649
G1 X149.585 Y178.707 E18.42263
G1 X149.013 Y178.967 E18.44301
G1 X148.884 Y179.022 E18.44756
G1 X148.033 Y179.36 E18.47725
G1 X147.671 Y179.493 E18.48976
G1 X146.858 Y179.77 E18.51761
G1 X146.65 Y179.834 E18.52467
G1 X145.721 Y180.102 E18.55602
G1 X145.565 Y180.141 E18.56124
G1 X144.75 Y180.335 E18.58841
G1 X144.591 Y180.369 E18.59368
G1 X143.195 Y180.626 E18.63971
G1 X143.072 Y180.646 E18.64375
G1 X142.151 Y180.778 E18.67392
G1 X142.038 Y180.792 E18.67761
G1 X140.854 Y180.917 E18.71622
G1 X140.052 Y180.975 E18.7423
G1 X139.119 Y181.014 E18.77258
G1 X139.028 Y181.017 E18.77553
G1 X138.262 Y181.025 E18.80038
G1 X137.421 Y181.011 E18.82765
G1 X136.468 Y180.966 E18.85859
G1 X135.754 Y180.911 E18.88181
G1 X134.825 Y180.813 E18.91211
G1 X134.73 Y180.802 E18.91521
G1 X133.771 Y180.669 E18.94661
G1 X133.275 Y180.586 E18.96291
G1 X132.064 Y180.353 E19.0029
G1 X129.34 Y179.868 E19.09263
