;FLAVOR:Marlin
;TIME:3515
;Filament used: 2.07461m, 0m
;Layer height: 0.2
;MINX:67.584
;MINY:44.91
;MINZ:0.26
;MAXX:167.421
;MAXY:188.547
;MAXZ:1.86
;Generated with Cura_SteamEngine 4.8.0
T0
M140 S60
M105
M190 S60
M104 S200
M105
M109 S200
M82 ;absolute extrusion mode
M201 X500.00 Y500.00 Z100.00 E5000.00 	;Setup machine max acceleration
M203 X500.00 Y500.00 Z10.00 E50.00 	;Setup machine max feedrate
M204 P500.00 R1000.00 T500.00 		;Setup Print/Retract/Travel acceleration
M205 X8.00 Y8.00 Z0.40 E5.00 		;Setup Jerk
M220 S100 				;Reset Feedrate
M221 S100 				;Reset Flowrate
G28				;Home the Machine
#G29 				;Bed Level
G92 E0
M300 P150 S587
G92 E0
G1 F1500 E-5.5
;LAYER_COUNT:9
;LAYER:0
M107
G0 F2160 X116.326 Y47.093 Z0.26
;TYPE:SKIRT
G1 F1500 E0
G1 F900 X116.555 Y46.621 E0.01701
G1 X116.853 Y46.189 E0.03403
G1 X117.214 Y45.807 E0.05108
G1 X117.628 Y45.484 E0.0681
G1 X118.086 Y45.228 E0.08512
G1 X118.578 Y45.044 E0.10215
G1 X119.092 Y44.938 E0.11917
G1 X119.616 Y44.91 E0.13619
G1 X120.138 Y44.962 E0.1532
G1 X120.647 Y45.093 E0.17024
G1 X121.13 Y45.3 E0.18729
G1 X121.575 Y45.577 E0.20428
G1 X121.974 Y45.919 E0.22133
G1 X122.316 Y46.317 E0.23834
G1 X122.593 Y46.763 E0.25537
G1 X122.8 Y47.245 E0.27238
G1 X122.931 Y47.753 E0.28939
G1 X122.971 Y48.049 E0.29908
G1 X123.057 Y49.01 E0.33037
G1 X123.112 Y49.754 E0.35456
G1 X123.399 Y52.52 E0.44474
G1 X123.751 Y55.19 E0.53207
G1 X124.189 Y57.91 E0.62141
G1 X124.694 Y60.567 E0.70912
G1 X125.281 Y63.241 E0.7979
G1 X125.942 Y65.894 E0.88656
G1 X126.675 Y68.513 E0.97476
G1 X127.49 Y71.136 E1.06383
G1 X128.38 Y73.743 E1.15316
G1 X129.326 Y76.274 E1.24078
G1 X130.355 Y78.806 E1.32941
G1 X131.459 Y81.317 E1.41836
G1 X132.628 Y83.784 E1.50689
G1 X133.851 Y86.187 E1.59433
G1 X135.177 Y88.622 E1.68424
G1 X136.544 Y90.968 E1.77229
G1 X137.976 Y93.275 E1.86035
G1 X139.484 Y95.56 E1.94913
G1 X141.067 Y97.814 E2.03845
G1 X142.675 Y99.972 E2.12572
G1 X144.385 Y102.136 E2.21516
G1 X146.138 Y104.228 E2.30367
G1 X147.937 Y106.258 E2.39163
G1 X149.819 Y108.266 E2.48088
G1 X151.693 Y110.139 E2.5668
G1 X152.046 Y110.501 E2.5832
G1 X152.383 Y110.904 E2.60023
G1 X152.738 Y111.529 E2.62354
G1 X152.926 Y112.004 E2.64011
G1 X153.036 Y112.357 E2.6521
G1 X153.189 Y112.959 E2.67224
G1 X153.553 Y114.478 E2.72289
G1 X154.261 Y117.11 E2.81128
G1 X155.039 Y119.705 E2.89913
G1 X155.913 Y122.346 E2.98935
G1 X156.825 Y124.862 E3.07613
G1 X157.85 Y127.456 E3.16658
G1 X158.911 Y129.934 E3.25399
G1 X160.049 Y132.399 E3.34204
G1 X161.268 Y134.854 E3.43092
G1 X161.638 Y135.549 E3.45646
G1 X161.685 Y135.656 E3.46025
G1 X162.072 Y136.395 E3.4873
G1 X162.585 Y137.395 E3.52375
G1 X162.768 Y137.763 E3.53707
G1 X163.295 Y138.847 E3.57616
G1 X163.526 Y139.336 E3.5937
G1 X163.909 Y140.163 E3.62325
G1 X164.267 Y140.973 E3.65197
G1 X164.688 Y141.991 E3.6877
G1 X165.071 Y142.981 E3.72212
G1 X165.375 Y143.827 E3.75127
G1 X165.724 Y144.88 E3.78724
G1 X165.989 Y145.756 E3.81692
G1 X166.289 Y146.854 E3.85383
G1 X166.536 Y147.866 E3.88762
G1 X166.756 Y148.882 E3.92133
G1 X166.954 Y149.937 E3.95614
G1 X166.976 Y150.069 E3.96048
G1 X167.163 Y151.335 E4.00198
G1 X167.181 Y151.474 E4.00652
G1 X167.309 Y152.678 E4.04579
G1 X167.319 Y152.788 E4.04937
G1 X167.371 Y153.49 E4.07219
G1 X167.379 Y153.654 E4.07752
G1 X167.421 Y155.302 E4.13098
G1 X167.421 Y156.205 E4.16026
G1 X167.419 Y156.491 E4.16954
G1 X167.405 Y157.3 E4.19578
G1 X167.362 Y158.469 E4.23371
G1 X167.301 Y159.443 E4.26536
G1 X167.205 Y160.529 E4.30071
G1 X167.092 Y161.516 E4.33293
G1 X166.949 Y162.561 E4.36713
G1 X166.793 Y163.535 E4.39912
G1 X166.662 Y164.252 E4.42276
G1 X166.397 Y165.508 E4.46438
G1 X166.373 Y165.614 E4.46791
G1 X166.173 Y166.43 E4.49515
G1 X166.142 Y166.548 E4.49911
G1 X165.892 Y167.432 E4.5289
G1 X165.575 Y168.423 E4.56264
G1 X165.533 Y168.546 E4.56686
G1 X165.14 Y169.627 E4.60416
G1 X165.097 Y169.739 E4.60805
G1 X164.884 Y170.267 E4.62651
G1 X164.825 Y170.405 E4.63138
G1 X164.446 Y171.238 E4.66105
G1 X164.384 Y171.367 E4.6657
G1 X164.024 Y172.078 E4.69154
G1 X163.938 Y172.238 E4.69743
G1 X163.156 Y173.6 E4.74836
G1 X162.661 Y174.406 E4.77903
G1 X162.561 Y174.559 E4.78496
G1 X161.612 Y175.931 E4.83906
G1 X161.529 Y176.047 E4.84369
G1 X160.713 Y177.128 E4.88761
G1 X160.623 Y177.241 E4.89229
G1 X159.77 Y178.278 E4.93583
G1 X159.678 Y178.385 E4.94041
G1 X158.794 Y179.374 E4.98343
G1 X158.698 Y179.478 E4.98802
G1 X157.776 Y180.428 E5.03095
G1 X157.682 Y180.52 E5.03521
G1 X156.711 Y181.447 E5.07875
G1 X156.614 Y181.537 E5.08304
G1 X155.71 Y182.336 E5.12216
G1 X155.614 Y182.418 E5.12626
G1 X155.05 Y182.881 E5.14992
G1 X154.227 Y183.511 E5.18353
G1 X154.13 Y183.583 E5.18745
G1 X153.449 Y184.066 E5.21452
G1 X153.344 Y184.138 E5.21865
G1 X152.61 Y184.619 E5.24711
G1 X152.494 Y184.691 E5.25154
G1 X151.729 Y185.15 E5.28047
G1 X151.613 Y185.217 E5.28481
G1 X150.867 Y185.626 E5.3124
G1 X150.738 Y185.693 E5.31711
G1 X149.705 Y186.204 E5.35449
G1 X149.596 Y186.256 E5.3584
G1 X149.138 Y186.463 E5.3747
G1 X148.993 Y186.524 E5.3798
G1 X148.14 Y186.863 E5.40957
G1 X147.767 Y187.001 E5.42247
G1 X147.027 Y187.252 E5.44781
G1 X146.696 Y187.356 E5.45906
G1 X145.858 Y187.597 E5.48734
G1 X145.712 Y187.635 E5.49223
G1 X144.799 Y187.855 E5.52268
G1 X144.615 Y187.894 E5.52878
G1 X143.31 Y188.134 E5.57181
G1 X143.181 Y188.155 E5.57605
G1 X142.18 Y188.3 E5.60885
G1 X142.048 Y188.317 E5.61317
G1 X141.017 Y188.426 E5.64679
G1 X140.901 Y188.436 E5.65056
G1 X139.983 Y188.502 E5.68041
G1 X139.877 Y188.508 E5.68385
G1 X139.166 Y188.536 E5.70693
G1 X138.261 Y188.547 E5.73628
G1 X137.439 Y188.533 E5.76294
G1 X137.34 Y188.53 E5.76615
G1 X136.49 Y188.489 E5.79374
G1 X135.648 Y188.425 E5.82113
G1 X134.843 Y188.34 E5.84738
G1 X133.807 Y188.2 E5.88128
G1 X133.223 Y188.105 E5.90047
G1 X132.009 Y187.871 E5.94056
G1 X129.328 Y187.392 E6.02888
G1 X126.622 Y186.988 E6.1176
G1 X123.888 Y186.657 E6.20691
G1 X121.207 Y186.41 E6.29422
G1 X118.467 Y186.235 E6.38325
G1 X115.732 Y186.139 E6.472
G1 X112.992 Y186.12 E6.56086
G1 X110.291 Y186.178 E6.64847
G1 X107.552 Y186.313 E6.7374
G1 X104.82 Y186.526 E6.82626
G1 X103.151 Y186.708 E6.88071
G1 X103.011 Y186.713 E6.88525
G1 X100.69 Y186.962 E6.96095
G1 X100.568 Y186.973 E6.96492
G1 X99.677 Y187.037 E6.99389
G1 X98.08 Y187.174 E7.04587
G1 X97.564 Y187.21 E7.06264
G1 X96.941 Y187.205 E7.08284
G1 X96.526 Y187.178 E7.09633
G1 X93.504 Y186.953 E7.1946
G1 X92.751 Y186.892 E7.2191
G1 X90.894 Y186.689 E7.27968
G1 X90.249 Y186.593 E7.30083
G1 X89.572 Y186.459 E7.32321
G1 X89.44 Y186.431 E7.32758
G1 X88.875 Y186.296 E7.34642
G1 X88.74 Y186.26 E7.35095
G1 X87.96 Y186.04 E7.37723
G1 X87.143 Y185.754 E7.4053
G1 X86.974 Y185.685 E7.41122
G1 X85.747 Y185.148 E7.45466
G1 X85.098 Y184.842 E7.47792
G1 X84.177 Y184.385 E7.51126
G1 X83.763 Y184.175 E7.52632
G1 X82.37 Y183.435 E7.57747
G1 X82.25 Y183.368 E7.58193
G1 X81.244 Y182.781 E7.6197
G1 X80.8 Y182.504 E7.63667
G1 X80.21 Y182.113 E7.65962
G1 X79.616 Y181.694 E7.68319
G1 X79.541 Y181.64 E7.68619
G1 X79.046 Y181.269 E7.70625
G1 X78.5 Y180.835 E7.72887
G1 X78.41 Y180.761 E7.73265
G1 X77.793 Y180.234 E7.75896
G1 X77.707 Y180.158 E7.76268
G1 X77.037 Y179.544 E7.79215
G1 X76.446 Y178.969 E7.81889
G1 X75.771 Y178.269 E7.85043
G1 X75.695 Y178.188 E7.85403
G1 X75.183 Y177.62 E7.87883
G1 X74.561 Y176.888 E7.90998
G1 X74.492 Y176.805 E7.91348
G1 X73.992 Y176.177 E7.93951
G1 X73.358 Y175.332 E7.97377
G1 X72.977 Y174.797 E7.99507
G1 X72.386 Y173.917 E8.02944
G1 X72.329 Y173.829 E8.03284
G1 X71.87 Y173.096 E8.06089
G1 X71.411 Y172.312 E8.09035
G1 X71.355 Y172.213 E8.09404
G1 X70.9 Y171.37 E8.1251
G1 X70.844 Y171.261 E8.12908
G1 X70.47 Y170.505 E8.15643
G1 X70.415 Y170.389 E8.16059
G1 X70.091 Y169.668 E8.18623
G1 X70.04 Y169.548 E8.19045
G1 X69.694 Y168.693 E8.22036
G1 X69.646 Y168.568 E8.22471
G1 X69.323 Y167.671 E8.25562
G1 X69.284 Y167.555 E8.25959
G1 X69.067 Y166.873 E8.2828
G1 X68.814 Y165.981 E8.31287
G1 X68.68 Y165.449 E8.33066
G1 X68.401 Y164.192 E8.37241
G1 X68.375 Y164.065 E8.37662
G1 X68.091 Y162.507 E8.42797
G1 X68.071 Y162.382 E8.43208
G1 X67.864 Y160.942 E8.47926
G1 X67.766 Y160.063 E8.50794
G1 X67.674 Y158.976 E8.54331
G1 X67.612 Y157.88 E8.57891
G1 X67.584 Y156.892 E8.61097
G1 X67.586 Y155.871 E8.64407
G1 X67.588 Y155.76 E8.64768
G1 X67.624 Y154.739 E8.68081
G1 X67.63 Y154.626 E8.68447
G1 X67.708 Y153.482 E8.72166
G1 X67.814 Y152.395 E8.75708
G1 X67.823 Y152.308 E8.75991
G1 X67.967 Y151.15 E8.79775
G1 X68.167 Y149.826 E8.84118
G1 X68.387 Y148.586 E8.88202
G1 X68.635 Y147.367 E8.92236
G1 X68.654 Y147.278 E8.92531
G1 X68.923 Y146.117 E8.96395
G1 X69.257 Y144.833 E9.00698
G1 X69.281 Y144.744 E9.00997
G1 X69.634 Y143.53 E9.05097
G1 X69.998 Y142.393 E9.08968
G1 X70.315 Y141.482 E9.12096
G1 X70.672 Y140.529 E9.15396
G1 X71.074 Y139.536 E9.1887
G1 X71.461 Y138.643 E9.22027
G1 X72.593 Y136.108 E9.3103
G1 X73.646 Y133.565 E9.39955
G1 X74.601 Y131.054 E9.48667
G1 X75.508 Y128.451 E9.57606
G1 X76.338 Y125.836 E9.66503
G1 X77.088 Y123.214 E9.75347
G1 X77.761 Y120.586 E9.84144
G1 X78.372 Y117.887 E9.93118
G1 X78.889 Y115.245 E10.01848
G1 X79.342 Y112.539 E10.10745
G1 X79.836 Y108.828 E10.22886
G1 X79.946 Y107.854 E10.26064
G1 X80.035 Y107.33 E10.27788
G1 X80.217 Y106.617 E10.30174
G1 X80.453 Y105.941 E10.32496
G1 X80.756 Y105.296 E10.34807
G1 X81.026 Y104.85 E10.36498
G1 X81.137 Y104.676 E10.37167
G1 X81.573 Y104.126 E10.39443
G1 X82.127 Y103.573 E10.41982
G1 X82.652 Y103.129 E10.44211
G1 X84.766 Y101.35 E10.53171
G1 X86.801 Y99.536 E10.62012
G1 X88.793 Y97.658 E10.7089
G1 X90.727 Y95.727 E10.79752
G1 X92.588 Y93.762 E10.88529
G1 X94.429 Y91.703 E10.97486
G1 X96.186 Y89.623 E11.06315
G1 X97.882 Y87.495 E11.1514
G1 X99.521 Y85.316 E11.23982
G1 X101.106 Y83.08 E11.3287
G1 X102.634 Y80.791 E11.41794
G1 X104.062 Y78.512 E11.50516
G1 X105.461 Y76.133 E11.59466
G1 X106.773 Y73.753 E11.68279
G1 X108.027 Y71.315 E11.77169
G1 X109.205 Y68.856 E11.86011
G1 X110.31 Y66.372 E11.94828
G1 X111.351 Y63.847 E12.03685
G1 X112.333 Y61.25 E12.12688
G1 X113.212 Y58.712 E12.21398
G1 X114.034 Y56.112 E12.30241
G1 X114.787 Y53.457 E12.3919
G1 X115.456 Y50.829 E12.47984
G1 X115.951 Y48.562 E12.55509
G1 X116.171 Y47.594 E12.58728
G1 X116.326 Y47.093 E12.60429
G0 F2160 X116.613 Y47.182
G1 F900 X116.837 Y46.733 E12.62056
G1 X117.129 Y46.326 E12.63681
G1 X117.482 Y45.97 E12.65306
G1 X117.888 Y45.674 E12.66936
G1 X118.335 Y45.447 E12.68562
G1 X118.812 Y45.293 E12.70187
G1 X119.308 Y45.217 E12.71814
G1 X119.81 Y45.221 E12.73442
G1 X120.304 Y45.304 E12.75067
G1 X120.779 Y45.465 E12.76693
G1 X121.223 Y45.699 E12.78321
G1 X121.624 Y46.001 E12.79949
G1 X121.972 Y46.363 E12.81577
G1 X122.258 Y46.775 E12.83203
G1 X122.475 Y47.227 E12.84829
G1 X122.617 Y47.708 E12.86456
G1 X122.672 Y48.076 E12.87662
G1 X122.758 Y49.033 E12.90778
G1 X122.816 Y49.806 E12.93292
G1 X123.096 Y52.518 E13.02133
G1 X123.456 Y55.244 E13.1105
G1 X123.89 Y57.941 E13.19909
G1 X124.405 Y60.649 E13.28848
G1 X124.995 Y63.338 E13.37775
G1 X125.646 Y65.95 E13.46505
G1 X126.39 Y68.609 E13.55459
G1 X127.2 Y71.216 E13.64311
G1 X128.096 Y73.84 E13.73303
G1 X129.048 Y76.387 E13.82121
G1 X130.083 Y78.934 E13.91036
G1 X131.175 Y81.417 E13.99833
G1 X132.358 Y83.914 E14.08793
G1 X133.596 Y86.346 E14.17643
G1 X134.908 Y88.756 E14.26541
G1 X136.29 Y91.128 E14.35443
G1 X137.725 Y93.44 E14.44268
G1 X139.237 Y95.731 E14.53169
G1 X140.808 Y97.967 E14.62031
G1 X142.444 Y100.162 E14.70909
G1 X144.151 Y102.323 E14.79839
G1 X145.911 Y104.424 E14.88727
G1 X147.731 Y106.478 E14.97626
G1 X149.585 Y108.456 E15.06418
G1 X151.478 Y110.349 E15.15099
G1 X151.831 Y110.711 E15.16739
G1 X152.152 Y111.097 E15.18367
G1 X152.463 Y111.649 E15.20422
G1 X152.745 Y112.431 E15.23118
G1 X152.898 Y113.029 E15.25119
G1 X153.263 Y114.554 E15.30204
G1 X153.978 Y117.211 E15.39127
G1 X154.756 Y119.802 E15.479
G1 X155.627 Y122.436 E15.56897
G1 X156.549 Y124.981 E15.65675
G1 X157.559 Y127.536 E15.74584
G1 X158.645 Y130.073 E15.83533
G1 X159.79 Y132.553 E15.92391
G1 X161.003 Y134.995 E16.01233
G1 X161.373 Y135.69 E16.03787
G1 X161.419 Y135.796 E16.04161
G1 X161.805 Y136.532 E16.06857
G1 X162.316 Y137.529 E16.1049
G1 X162.498 Y137.894 E16.11812
G1 X163.024 Y138.975 E16.15711
G1 X163.254 Y139.462 E16.17457
G1 X163.634 Y140.285 E16.20397
G1 X164.021 Y141.162 E16.23506
G1 X164.409 Y142.1 E16.26797
G1 X164.789 Y143.082 E16.30212
G1 X165.09 Y143.922 E16.33105
G1 X165.437 Y144.968 E16.36679
G1 X165.7 Y145.836 E16.3962
G1 X165.976 Y146.841 E16.43
G1 X166.243 Y147.93 E16.46636
G1 X166.443 Y148.847 E16.4968
G1 X166.659 Y149.992 E16.53458
G1 X166.679 Y150.113 E16.53856
G1 X166.866 Y151.379 E16.58006
G1 X166.882 Y151.506 E16.58421
G1 X167.01 Y152.71 E16.62348
G1 X167.071 Y153.512 E16.64956
G1 X167.079 Y153.662 E16.65443
G1 X167.121 Y155.302 E16.70763
G1 X167.121 Y156.203 E16.73685
G1 X167.119 Y156.486 E16.74603
G1 X167.105 Y157.289 E16.77207
G1 X167.062 Y158.451 E16.80978
G1 X167.002 Y159.417 E16.84117
G1 X166.907 Y160.496 E16.87629
G1 X166.795 Y161.476 E16.90828
G1 X166.653 Y162.514 E16.94225
G1 X166.498 Y163.481 E16.97401
G1 X166.35 Y164.285 E17.00052
G1 X166.104 Y165.446 E17.03901
G1 X165.881 Y166.359 E17.06949
G1 X165.853 Y166.466 E17.07307
G1 X165.603 Y167.35 E17.10286
G1 X165.571 Y167.457 E17.10649
G1 X165.29 Y168.331 E17.13626
G1 X165.251 Y168.443 E17.1401
G1 X164.858 Y169.524 E17.1774
G1 X164.819 Y169.626 E17.18094
G1 X164.606 Y170.154 E17.19941
G1 X164.552 Y170.281 E17.20388
G1 X164.173 Y171.114 E17.23356
G1 X164.116 Y171.232 E17.23781
G1 X163.756 Y171.943 E17.26365
G1 X163.678 Y172.088 E17.26899
G1 X162.846 Y173.535 E17.32312
G1 X162.406 Y174.249 E17.35032
G1 X162.315 Y174.388 E17.35571
G1 X161.366 Y175.76 E17.4098
G1 X161.289 Y175.866 E17.41405
G1 X160.473 Y176.947 E17.45797
G1 X160.392 Y177.05 E17.46222
G1 X159.539 Y178.087 E17.50577
G1 X159.455 Y178.185 E17.50995
G1 X158.571 Y179.174 E17.55297
G1 X158.482 Y179.269 E17.55719
G1 X157.56 Y180.219 E17.60012
G1 X157.475 Y180.303 E17.604
G1 X156.504 Y181.23 E17.64753
G1 X156.415 Y181.312 E17.65145
G1 X155.424 Y182.186 E17.6943
G1 X154.86 Y182.649 E17.71797
G1 X154.045 Y183.273 E17.75125
G1 X153.275 Y183.821 E17.7819
G1 X153.18 Y183.887 E17.78565
G1 X152.446 Y184.368 E17.81411
G1 X152.34 Y184.434 E17.81816
G1 X151.575 Y184.893 E17.84709
G1 X151.468 Y184.954 E17.85109
G1 X150.722 Y185.363 E17.87867
G1 X150.605 Y185.424 E17.88295
G1 X149.572 Y185.935 E17.92033
G1 X149.014 Y186.189 E17.94021
G1 X148.882 Y186.246 E17.94487
G1 X148.035 Y186.582 E17.97442
G1 X147.67 Y186.717 E17.98704
G1 X146.937 Y186.966 E18.01214
G1 X146.613 Y187.067 E18.02315
G1 X145.775 Y187.308 E18.05143
G1 X145.642 Y187.343 E18.05589
G1 X144.729 Y187.563 E18.08634
G1 X144.561 Y187.599 E18.09191
G1 X143.256 Y187.839 E18.13494
G1 X143.138 Y187.858 E18.13882
G1 X142.016 Y188.019 E18.17558
G1 X140.985 Y188.128 E18.2092
G1 X139.962 Y188.203 E18.24246
G1 X139.253 Y188.233 E18.26547
G1 X139.162 Y188.236 E18.26842
G1 X138.257 Y188.247 E18.29777
G1 X137.354 Y188.231 E18.32706
G1 X136.604 Y188.196 E18.35141
G1 X135.67 Y188.126 E18.38178
G1 X134.875 Y188.042 E18.40771
G1 X133.847 Y187.903 E18.44135
G1 X133.28 Y187.81 E18.45998
G1 X132.089 Y187.58 E18.49932
G1 X129.353 Y187.092 E18.58944
G1 X126.67 Y186.691 E18.67741
G1 X123.952 Y186.362 E18.7662
G1 X121.214 Y186.11 E18.85536
G1 X118.463 Y185.935 E18.94475
G1 X115.745 Y185.839 E19.03295
G1 X112.988 Y185.82 E19.12236
G1 X110.269 Y185.878 E19.21055
G1 X107.515 Y186.014 E19.29997
G1 X104.83 Y186.224 E19.38731
G1 X103.119 Y186.41 E19.44312
G1 X102.987 Y186.414 E19.4474
G1 X100.658 Y186.664 E19.52336
G1 X100.547 Y186.674 E19.52698
G1 X99.698 Y186.735 E19.55458
