;FLAVOR:Marlin
;TIME:1692
;Filament used: 0.979886m, 0m
;Layer height: 0.2
;MINX:60.287
;MINY:70.562
;MINZ:0.26
;MAXX:174.707
;MAXY:163.252
;MAXZ:1.26
;POSTPROCESSED
;Generated with Cura_SteamEngine 4.8.0
T0
M140 S60
M105
M190 S60
M104 S200
M105
M109 S200
M82 ;absolute extrusion mode
M201 X500.00 Y500.00 Z100.00 E5000.00 	;Setup machine max acceleration
M203 X500.00 Y500.00 Z10.00 E50.00 	;Setup machine max feedrate
M204 P500.00 R1000.00 T500.00 		;Setup Print/Retract/Travel acceleration
M205 X8.00 Y8.00 Z0.40 E5.00 		;Setup Jerk
M220 S100 				;Reset Feedrate
M221 S100 				;Reset Flowrate
G28				;Home the Machine
#G29 				;Bed Level
G92 E0
M300 P150 S587
G92 E0
G1 F1500 E-5.5
;LAYER_COUNT:6
;LAYER:0
M107
G0 F2160 X111.853 Y72.219 Z0.26
;TYPE:SKIRT
G1 F1500 E0
G1 F900 X112.159 Y71.792 E0.01704
G1 X112.525 Y71.417 E0.03403
G1 X112.945 Y71.101 E0.05107
G1 X113.408 Y70.853 E0.06811
G1 X113.903 Y70.678 E0.08513
G1 X114.419 Y70.58 E0.10216
G1 X114.943 Y70.562 E0.11917
G1 X115.465 Y70.623 E0.13621
G1 X115.971 Y70.763 E0.15323
G1 X116.45 Y70.978 E0.17026
G1 X116.89 Y71.263 E0.18726
G1 X117.283 Y71.612 E0.20431
G1 X117.618 Y72.016 E0.22132
G1 X117.895 Y72.48 E0.23885
G1 X119.034 Y74.872 E0.32476
G1 X120.284 Y77.318 E0.41384
G1 X121.598 Y79.72 E0.50263
G1 X122.959 Y82.05 E0.59013
G1 X124.414 Y84.384 E0.67932
G1 X125.935 Y86.678 E0.76858
G1 X127.491 Y88.887 E0.8562
G1 X129.13 Y91.08 E0.94499
G1 X130.824 Y93.215 E1.03337
G1 X132.586 Y95.313 E1.12221
G1 X134.401 Y97.353 E1.21076
G1 X136.276 Y99.347 E1.29952
G1 X138.187 Y101.264 E1.3873
G1 X140.205 Y103.178 E1.47749
G1 X142.206 Y104.971 E1.56462
G1 X144.292 Y106.737 E1.65326
G1 X146.426 Y108.444 E1.74187
G1 X148.608 Y110.088 E1.83047
G1 X150.841 Y111.674 E1.91929
G1 X153.103 Y113.187 E2.00754
G1 X155.418 Y114.641 E2.09619
G1 X157.787 Y116.038 E2.18538
G1 X160.174 Y117.357 E2.27382
G1 X162.571 Y118.593 E2.36127
G1 X165.067 Y119.793 E2.45108
G1 X168.334 Y121.239 E2.56694
G1 X168.701 Y121.427 E2.58031
G1 X169.017 Y121.621 E2.59234
G1 X169.445 Y121.906 E2.60901
G1 X169.952 Y122.306 E2.62996
G1 X170.392 Y122.711 E2.64935
G1 X170.895 Y123.248 E2.67321
G1 X171.221 Y123.632 E2.68954
G1 X171.5 Y123.998 E2.70447
G1 X171.906 Y124.588 E2.72769
G1 X172.335 Y125.282 E2.75415
G1 X172.589 Y125.734 E2.77096
G1 X172.735 Y126.018 E2.78132
G1 X173.213 Y127.011 E2.81706
G1 X173.464 Y127.589 E2.83749
G1 X173.677 Y128.143 E2.85674
G1 X173.789 Y128.467 E2.86786
G1 X174.179 Y129.697 E2.9097
G1 X174.216 Y129.823 E2.91396
G1 X174.378 Y130.414 E2.93383
G1 X174.583 Y131.233 E2.96121
G1 X174.631 Y131.446 E2.96829
G1 X174.707 Y131.965 E2.9853
G1 X174.703 Y132.49 E3.00233
G1 X174.66 Y132.817 E3.01302
G1 X174.416 Y134.167 E3.05751
G1 X174.324 Y134.642 E3.0732
G1 X173.883 Y137.325 E3.16137
G1 X173.517 Y140.029 E3.24986
G1 X173.226 Y142.759 E3.33889
G1 X173.012 Y145.499 E3.42802
G1 X172.913 Y147.312 E3.4869
G1 X172.854 Y148.601 E3.52874
G1 X172.791 Y149.123 E3.54579
G1 X172.635 Y149.666 E3.56411
G1 X172.498 Y150.028 E3.57667
G1 X172.275 Y150.504 E3.59371
G1 X171.999 Y150.918 E3.60985
G1 X170.045 Y153.443 E3.71338
G1 X169.421 Y154.288 E3.74745
G1 X169.033 Y154.793 E3.7681
G1 X168.632 Y155.231 E3.78736
G1 X168.203 Y155.621 E3.80616
G1 X168.04 Y155.759 E3.81308
G1 X167.562 Y156.098 E3.83209
G1 X166.869 Y156.483 E3.8578
G1 X166.337 Y156.712 E3.87658
G1 X165.545 Y156.952 E3.90342
G1 X165.179 Y157.034 E3.91558
G1 X164.119 Y157.212 E3.95043
G1 X163.003 Y157.382 E3.98704
G1 X160.329 Y157.869 E4.07518
G1 X157.671 Y158.429 E4.16327
G1 X154.991 Y159.075 E4.25267
G1 X152.34 Y159.794 E4.34174
G1 X149.74 Y160.578 E4.42981
G1 X148.741 Y160.908 E4.46392
G1 X148.012 Y161.137 E4.4887
G1 X147.448 Y161.264 E4.50745
G1 X146.675 Y161.356 E4.5327
G1 X143.938 Y161.693 E4.62212
G1 X141.216 Y162.108 E4.71141
G1 X138.499 Y162.6 E4.80096
G1 X136.976 Y162.911 E4.85136
G1 X135.842 Y163.152 E4.88896
G1 X135.344 Y163.222 E4.90527
G1 X134.826 Y163.252 E4.92209
G1 X134.258 Y163.236 E4.94052
G1 X133.483 Y163.143 E4.96583
G1 X132.542 Y162.96 E4.99692
G1 X129.803 Y162.468 E5.08716
G1 X127.149 Y162.068 E5.1742
G1 X124.404 Y161.733 E5.26388
G1 X121.707 Y161.481 E5.35172
G1 X118.975 Y161.304 E5.4405
G1 X116.237 Y161.205 E5.52935
G1 X113.499 Y161.182 E5.61814
G1 X110.793 Y161.237 E5.70591
G1 X108.063 Y161.368 E5.79454
G1 X105.324 Y161.579 E5.88363
G1 X102.624 Y161.863 E5.97167
G1 X98.92 Y162.378 E6.09294
G1 X97.966 Y162.529 E6.12426
G1 X97.773 Y162.554 E6.13057
G1 X96.97 Y162.635 E6.15674
G1 X95.885 Y162.728 E6.19206
G1 X95.1 Y162.817 E6.21768
G1 X95.01 Y162.82 E6.2206
G1 X93.685 Y162.962 E6.26381
G1 X92.93 Y162.98 E6.2883
G1 X92.399 Y162.956 E6.30554
G1 X91.776 Y162.89 E6.32586
G1 X91.104 Y162.75 E6.34812
G1 X90.75 Y162.654 E6.36001
G1 X90.112 Y162.409 E6.38217
G1 X89.558 Y162.108 E6.40262
G1 X89.201 Y161.879 E6.41637
G1 X88.145 Y161.113 E6.45868
G1 X85.907 Y159.536 E6.54746
G1 X83.65 Y158.041 E6.63525
G1 X81.315 Y156.587 E6.72445
G1 X78.957 Y155.209 E6.81302
G1 X76.552 Y153.893 E6.90192
G1 X74.15 Y152.668 E6.98936
G1 X71.668 Y151.487 E7.0785
G1 X69.515 Y150.54 E7.15477
G1 X68.378 Y150.015 E7.19538
G1 X67.782 Y149.689 E7.21741
G1 X67.314 Y149.404 E7.23518
G1 X66.639 Y148.94 E7.26175
G1 X66.163 Y148.563 E7.28144
G1 X65.731 Y148.194 E7.29986
G1 X65.099 Y147.589 E7.32823
G1 X64.722 Y147.174 E7.34641
G1 X64.418 Y146.815 E7.36167
G1 X64.047 Y146.348 E7.38101
G1 X63.91 Y146.163 E7.38848
G1 X63.369 Y145.378 E7.41939
G1 X63.083 Y144.927 E7.43671
G1 X62.762 Y144.364 E7.45773
G1 X62.386 Y143.657 E7.48369
G1 X62.119 Y143.111 E7.5034
G1 X61.913 Y142.643 E7.51999
G1 X61.632 Y141.926 E7.54496
G1 X61.593 Y141.822 E7.54856
G1 X61.415 Y141.321 E7.5658
G1 X61.249 Y140.805 E7.58338
G1 X61.065 Y140.172 E7.60476
G1 X60.915 Y139.596 E7.62406
G1 X60.889 Y139.49 E7.6276
G1 X60.754 Y138.89 E7.64754
G1 X60.637 Y138.293 E7.66727
G1 X60.619 Y138.195 E7.6705
G1 X60.529 Y137.646 E7.68854
G1 X60.506 Y137.475 E7.69414
G1 X60.363 Y136.208 E7.73549
G1 X60.322 Y135.679 E7.75269
G1 X60.293 Y135.03 E7.77376
G1 X60.287 Y134.409 E7.7939
G1 X60.299 Y133.846 E7.81216
G1 X60.304 Y133.725 E7.81609
G1 X60.35 Y132.914 E7.84243
G1 X60.362 Y132.756 E7.84757
G1 X60.432 Y132.076 E7.86974
G1 X60.449 Y131.942 E7.87412
G1 X60.528 Y131.388 E7.89226
G1 X60.55 Y131.248 E7.89686
G1 X60.673 Y130.582 E7.91882
G1 X60.8 Y130.017 E7.9376
G1 X60.988 Y129.322 E7.96095
G1 X61.163 Y128.755 E7.98019
G1 X61.24 Y128.533 E7.98781
G1 X61.531 Y127.777 E8.01408
G1 X61.765 Y127.234 E8.03325
G1 X62.05 Y126.675 E8.0536
G1 X62.334 Y126.174 E8.07228
G1 X62.633 Y125.692 E8.09067
G1 X63.091 Y125.036 E8.11662
G1 X63.474 Y124.557 E8.1365
G1 X63.843 Y124.128 E8.15486
G1 X64.389 Y123.56 E8.1804
G1 X64.934 Y123.071 E8.20415
G1 X65.165 Y122.891 E8.21365
G1 X65.673 Y122.528 E8.23389
G1 X66.34 Y122.101 E8.25958
G1 X69.102 Y120.618 E8.36124
G1 X71.474 Y119.256 E8.44994
G1 X73.788 Y117.838 E8.53795
G1 X76.102 Y116.33 E8.62751
G1 X78.334 Y114.781 E8.71562
G1 X80.533 Y113.164 E8.80413
G1 X82.687 Y111.484 E8.89272
G1 X84.778 Y109.755 E8.9807
G1 X86.864 Y107.927 E9.07065
G1 X88.838 Y106.098 E9.15792
G1 X90.795 Y104.179 E9.2468
G1 X92.701 Y102.2 E9.3359
G1 X94.509 Y100.213 E9.42302
G1 X96.324 Y98.103 E9.51327
G1 X98.038 Y95.993 E9.60143
G1 X99.683 Y93.842 E9.68924
G1 X101.292 Y91.614 E9.77837
G1 X102.827 Y89.356 E9.86691
G1 X104.303 Y87.047 E9.95578
G1 X105.692 Y84.733 E10.0433
G1 X107.043 Y82.329 E10.13272
G1 X108.306 Y79.926 E10.22076
G1 X109.513 Y77.463 E10.3097
G1 X110.649 Y74.969 E10.39858
G1 X111.641 Y72.635 E10.48082
G1 X111.853 Y72.219 E10.49596
G0 F2160 X112.121 Y72.356
G1 F900 X112.417 Y71.951 E10.51222
G1 X112.774 Y71.598 E10.52851
G1 X113.183 Y71.307 E10.54478
G1 X113.632 Y71.084 E10.56104
G1 X114.111 Y70.936 E10.5773
G1 X114.608 Y70.865 E10.59358
G1 X115.109 Y70.874 E10.60983
G1 X115.603 Y70.963 E10.62611
G1 X116.076 Y71.128 E10.64235
G1 X116.517 Y71.367 E10.65862
G1 X116.915 Y71.673 E10.6749
G1 X117.259 Y72.038 E10.69116
G1 X117.626 Y72.613 E10.71328
G1 X118.765 Y75.004 E10.79917
G1 X120.015 Y77.45 E10.88825
G1 X121.336 Y79.867 E10.97757
G1 X122.715 Y82.227 E11.06621
G1 X124.154 Y84.534 E11.15438
G1 X125.684 Y86.843 E11.24421
G1 X127.25 Y89.066 E11.33239
G1 X128.886 Y91.255 E11.42101
G1 X130.604 Y93.42 E11.51063
G1 X132.362 Y95.513 E11.59927
G1 X134.186 Y97.563 E11.68826
G1 X136.057 Y99.552 E11.77681
G1 X137.979 Y101.481 E11.86512
G1 X139.974 Y103.374 E11.9543
G1 X142.024 Y105.211 E12.04357
G1 X144.106 Y106.974 E12.13204
G1 X146.25 Y108.687 E12.22103
G1 X148.427 Y110.329 E12.30946
G1 X150.675 Y111.925 E12.39886
G1 X152.925 Y113.43 E12.48664
G1 X155.281 Y114.91 E12.57687
G1 X157.623 Y116.291 E12.66504
G1 X159.998 Y117.603 E12.75303
G1 X162.48 Y118.883 E12.84359
G1 X164.911 Y120.051 E12.93105
G1 X167.92 Y121.384 E13.03777
G1 X168.546 Y121.683 E13.06027
G1 X168.851 Y121.871 E13.07189
G1 X169.279 Y122.156 E13.08856
G1 X169.757 Y122.535 E13.10834
G1 X170.188 Y122.93 E13.1273
G1 X170.673 Y123.449 E13.15034
G1 X171.133 Y124.006 E13.17376
G1 X171.253 Y124.168 E13.1803
G1 X171.706 Y124.828 E13.20626
G1 X172.077 Y125.435 E13.22933
G1 X172.323 Y125.873 E13.24562
G1 X172.464 Y126.148 E13.25564
G1 X172.942 Y127.141 E13.29138
G1 X173.185 Y127.697 E13.31106
G1 X173.394 Y128.242 E13.32999
G1 X173.503 Y128.558 E13.34083
G1 X173.893 Y129.788 E13.38267
G1 X173.927 Y129.903 E13.38656
G1 X174.087 Y130.487 E13.4062
G1 X174.29 Y131.299 E13.43334
G1 X174.338 Y131.512 E13.44042
G1 X174.409 Y132.008 E13.45667
G1 X174.4 Y132.51 E13.47295
G1 X174.365 Y132.763 E13.48123
G1 X174.122 Y134.11 E13.52562
G1 X174.026 Y134.608 E13.54207
G1 X173.588 Y137.269 E13.62952
G1 X173.215 Y140.03 E13.71987
G1 X172.926 Y142.737 E13.80815
G1 X172.713 Y145.462 E13.89679
G1 X172.615 Y147.266 E13.95538
G1 X172.555 Y148.588 E13.99829
G1 X172.492 Y149.085 E14.01454
G1 X172.217 Y149.922 E14.04311
G1 X172.003 Y150.375 E14.05935
G1 X171.762 Y150.735 E14.0734
G1 X169.817 Y153.247 E14.17643
G1 X169.183 Y154.105 E14.21102
G1 X168.795 Y154.61 E14.23168
G1 X168.429 Y155.01 E14.24926
G1 X168.009 Y155.392 E14.26767
G1 X167.846 Y155.53 E14.27459
G1 X167.41 Y155.84 E14.29194
G1 X166.727 Y156.218 E14.31726
G1 X166.241 Y156.428 E14.33443
G1 X165.463 Y156.663 E14.36078
G1 X165.129 Y156.738 E14.37188
G1 X164.073 Y156.916 E14.40661
G1 X162.941 Y157.089 E14.44375
G1 X160.251 Y157.578 E14.53241
G1 X157.611 Y158.134 E14.6199
G1 X154.906 Y158.787 E14.71014
G1 X152.291 Y159.496 E14.798
G1 X149.632 Y160.298 E14.88806
G1 X148.651 Y160.622 E14.92157
G1 X147.922 Y160.851 E14.94635
G1 X147.407 Y160.967 E14.96347
G1 X147.111 Y161.006 E14.97315
G1 X146.601 Y161.062 E14.98979
G1 X143.889 Y161.396 E15.0784
G1 X141.189 Y161.808 E15.16697
G1 X138.432 Y162.307 E15.25783
G1 X136.914 Y162.617 E15.30807
G1 X135.78 Y162.858 E15.34566
G1 X135.158 Y162.935 E15.36599
G1 X134.435 Y162.948 E15.38944
G1 X133.802 Y162.888 E15.41006
G1 X133.54 Y162.848 E15.41865
G1 X132.58 Y162.661 E15.45037
G1 X129.898 Y162.18 E15.53873
G1 X127.163 Y161.767 E15.62843
G1 X124.431 Y161.434 E15.71768
G1 X121.72 Y161.181 E15.80597
G1 X119.004 Y161.005 E15.89423
G1 X116.251 Y160.905 E15.98357
G1 X113.495 Y160.882 E16.07295
G1 X110.774 Y160.937 E16.1612
G1 X108.06 Y161.068 E16.24932
G1 X105.307 Y161.28 E16.33886
G1 X102.577 Y161.567 E16.42787
G1 X98.888 Y162.079 E16.54865
G1 X97.919 Y162.233 E16.58047
G1 X97.743 Y162.256 E16.58622
G1 X96.945 Y162.336 E16.61223
G1 X95.859 Y162.429 E16.64758
G1 X95.066 Y162.519 E16.67346
G1 X94.982 Y162.522 E16.67619
G1 X93.653 Y162.664 E16.71953
G1 X92.932 Y162.68 E16.74292
G1 X92.428 Y162.657 E16.75928
G1 X91.812 Y162.592 E16.77936
G1 X91.175 Y162.459 E16.80047
G1 X90.829 Y162.365 E16.81209
G1 X90.247 Y162.141 E16.83232
G1 X89.706 Y161.847 E16.85228
G1 X89.377 Y161.636 E16.86496
G1 X88.321 Y160.87 E16.90726
G1 X86.092 Y159.299 E16.9957
G1 X83.794 Y157.777 E17.08508
G1 X81.476 Y156.334 E17.17362
G1 X79.092 Y154.941 E17.26316
G1 X76.725 Y153.645 E17.35067
G1 X74.267 Y152.391 E17.44016
G1 X71.784 Y151.21 E17.52932
G1 X69.64 Y150.268 E17.60526
G1 X68.503 Y149.743 E17.64588
G1 X67.932 Y149.429 E17.66701
G1 X67.414 Y149.113 E17.68669
G1 X66.815 Y148.697 E17.71034
G1 X66.351 Y148.329 E17.72954
G1 X65.926 Y147.967 E17.74764
G1 X65.312 Y147.376 E17.77528
G1 X64.945 Y146.974 E17.79293
G1 X64.653 Y146.628 E17.80761
G1 X64.282 Y146.161 E17.82696
G1 X64.156 Y145.993 E17.83377
G1 X63.671 Y145.291 E17.86144
G1 X63.344 Y144.778 E17.88116
G1 X62.975 Y144.129 E17.90537
G1 X62.606 Y143.429 E17.93103
G1 X62.251 Y142.674 E17.95809
G1 X62.192 Y142.533 E17.96305
G1 X61.911 Y141.816 E17.98802
G1 X61.698 Y141.221 E18.00851
G1 X61.537 Y140.721 E18.02555
G1 X61.328 Y139.997 E18.04998
G1 X61.182 Y139.424 E18.06916
G1 X61.027 Y138.732 E18.09216
G1 X60.915 Y138.147 E18.11147
G1 X60.825 Y137.598 E18.12951
G1 X60.804 Y137.441 E18.13465
G1 X60.661 Y136.174 E18.176
G1 X60.621 Y135.665 E18.19255
G1 X60.596 Y135.128 E18.20999
G1 X60.586 Y134.527 E18.22948
G1 X60.599 Y133.853 E18.25134
G1 X60.603 Y133.742 E18.25494
G1 X60.649 Y132.931 E18.28128
G1 X60.661 Y132.786 E18.286
G1 X60.731 Y132.106 E18.30817
G1 X60.746 Y131.984 E18.31216
G1 X60.825 Y131.43 E18.3303
G1 X60.845 Y131.303 E18.33447
G1 X60.968 Y130.637 E18.35644
G1 X61.089 Y130.095 E18.37445
G1 X61.242 Y129.524 E18.39361
G1 X61.275 Y129.41 E18.39746
G1 X61.45 Y128.843 E18.41671
G1 X61.52 Y128.64 E18.42367
G1 X61.811 Y127.884 E18.44994
G1 X62.038 Y127.358 E18.46852
G1 X62.316 Y126.813 E18.48836
G1 X62.589 Y126.332 E18.50629
G1 X62.888 Y125.85 E18.52469
G1 X63.333 Y125.213 E18.54989
G1 X63.707 Y124.746 E18.56929
G1 X64.07 Y124.324 E18.58734
G1 X64.599 Y123.774 E18.61209
G1 X65.129 Y123.3 E18.63514
G1 X65.34 Y123.135 E18.64383
G1 X65.848 Y122.772 E18.66408
G1 X66.482 Y122.365 E18.68851
G1 X69.244 Y120.882 E18.79017
G1 X71.62 Y119.518 E18.87901
G1 X73.985 Y118.068 E18.96898
G1 X76.24 Y116.599 E19.05625
G1 X78.508 Y115.025 E19.14577
G1 X80.726 Y113.394 E19.23505
G1 X82.866 Y111.724 E19.32308
G1 X84.991 Y109.967 E19.4125
G1 X87.035 Y108.177 E19.50061
G1 X89.075 Y106.287 E19.59079
G1 X90.992 Y104.407 E19.67786
G1 X92.908 Y102.417 E19.76744
G1 X94.764 Y100.379 E19.85683
G1 X96.539 Y98.314 E19.94514
G1 X98.265 Y96.19 E20.03389
G1 X99.933 Y94.009 E20.12293
G1 X101.54 Y91.784 E20.21193
G1 X103.084 Y89.512 E20.30101
G1 X104.543 Y87.229 E20.38888
G1 X105.966 Y84.859 E20.47852
G1 X107.309 Y82.468 E20.56745
G1 X108.573 Y80.064 E20.65553
G1 X109.781 Y77.6 E20.74452
G1 X110.916 Y75.107 E20.83335
G1 X111.916 Y72.754 E20.91626
G1 X112.121 Y72.356 E20.93078
G1 F1500 E15.43078
;MESH:Catarina.stl
G0 F2160 X114.718 Y80.768
G0 X114.708 Y81.603
G0 X114.738 Y92.837
G0 X115.178 Y124.824
G0 X122.841 Y135.03
G0 X124.42 Y134.654
G0 X130.975 Y126.943
G0 X133.607 Y139.012
G0 X134.587 Y142.107
G0 X136.958 Y143.614
;TYPE:WALL-INNER
G1 F1500 E20.93078
G1 F900 X137.33 Y143.768 E20.94383
G1 X137.393 Y143.794 E20.94604
G1 X137.55 Y143.876 E20.95179
G1 X137.859 Y144.039 E20.96312
G1 X138.47 Y144.455 E20.98709
G1 X138.86 Y144.776 E21.00347
G1 X139.157 Y145.076 E21.01716
G1 X139.593 Y145.605 E21.03939
G1 X140.773 Y147.207 E21.10391
G1 X140.923 Y147.411 E21.11212
G1 X141.028 Y147.18 E21.1168
G1 X141.979 Y145.094 E21.19114
G1 X142.19 Y144.749 E21.20425
G1 X142.585 Y144.281 E21.22411
G1 X142.998 Y143.926 E21.24177
G1 X143.49 Y143.633 E21.26034
G1 X144.094 Y143.393 E21.28142
G1 X144.656 Y143.246 E21.30026
G1 X145.057 Y143.192 E21.31338
G1 X145.645 Y143.201 E21.33245
G1 X146.087 Y143.253 E21.34688
G1 X146.983 Y143.498 E21.37701
G1 X147.83 Y143.906 E21.40749
G1 X149.222 Y144.868 E21.46236
G1 X149.364 Y144.966 E21.46796
G1 X149.44 Y144.811 E21.47143
G1 X149.977 Y143.714 E21.51104
