;FLAVOR:Marlin
;TIME:1912
;Filament used: 1.12018m, 0m
;Layer height: 0.2
;MINX:54.717
;MINY:71.523
;MINZ:0.26
;MAXX:197.481
;MAXY:162.083
;MAXZ:1.26
;POSTPROCESSED
;Generated with Cura_SteamEngine 4.8.0
T0
M140 S60
M105
M190 S60
M104 S200
M105
M109 S200
M82 ;absolute extrusion mode
M201 X500.00 Y500.00 Z100.00 E5000.00 	;Setup machine max acceleration
M203 X500.00 Y500.00 Z10.00 E50.00 	;Setup machine max feedrate
M204 P500.00 R1000.00 T500.00 		;Setup Print/Retract/Travel acceleration
M205 X8.00 Y8.00 Z0.40 E5.00 		;Setup Jerk
M220 S100 				;Reset Feedrate
M221 S100 				;Reset Flowrate
G28				;Home the Machine
#G29 				;Bed Level
G92 E0
M300 P150 S587
G92 E0
G1 F1500 E-5.5
;LAYER_COUNT:6
;LAYER:0
M107
G0 F2160 X58.651 Y115.435 Z0.26
;TYPE:SKIRT
G1 F1500 E0
G1 F900 X59.295 Y115.138 E0.023
G1 X59.584 Y115.02 E0.03312
G1 X60.29 Y114.77 E0.05741
G1 X61.573 Y114.335 E0.10134
G1 X64.106 Y113.395 E0.18896
G1 X66.672 Y112.36 E0.27868
G1 X69.186 Y111.262 E0.36764
G1 X71.64 Y110.106 E0.45561
G1 X74.074 Y108.875 E0.54406
G1 X76.471 Y107.576 E0.63248
G1 X78.848 Y106.198 E0.72157
G1 X81.139 Y104.783 E0.8089
G1 X83.445 Y103.267 E0.89839
G1 X85.697 Y101.693 E0.98749
G1 X87.87 Y100.082 E1.07521
G1 X90.033 Y98.381 E1.16444
G1 X92.111 Y96.649 E1.25217
G1 X94.179 Y94.824 E1.34161
G1 X96.161 Y92.974 E1.42953
G1 X98.094 Y91.063 E1.51768
G1 X99.993 Y89.077 E1.60679
G1 X101.827 Y87.047 E1.6955
G1 X103.601 Y84.969 E1.78411
G1 X105.307 Y82.851 E1.8723
G1 X106.957 Y80.678 E1.96078
G1 X108.545 Y78.462 E2.04919
G1 X110.078 Y76.189 E2.1381
G1 X111.549 Y73.867 E2.22723
G1 X112.002 Y73.142 E2.25496
G1 X112.313 Y72.719 E2.27198
G1 X112.685 Y72.348 E2.28902
G1 X113.108 Y72.038 E2.30603
G1 X113.574 Y71.795 E2.32307
G1 X114.071 Y71.626 E2.34009
G1 X114.588 Y71.535 E2.35712
G1 X115.113 Y71.523 E2.37415
G1 X115.633 Y71.591 E2.39115
G1 X116.138 Y71.737 E2.4082
G1 X116.614 Y71.957 E2.4252
G1 X117.051 Y72.248 E2.44223
G1 X117.439 Y72.601 E2.45924
G1 X117.769 Y73.01 E2.47628
G1 X118.057 Y73.514 E2.49511
G1 X118.184 Y73.786 E2.50484
G1 X119.093 Y75.815 E2.57694
G1 X120.265 Y78.245 E2.66443
G1 X121.53 Y80.691 E2.75373
G1 X122.847 Y83.067 E2.84182
G1 X124.238 Y85.419 E2.93044
G1 X125.691 Y87.725 E3.01882
G1 X127.216 Y89.999 E3.10761
G1 X128.817 Y92.247 E3.19711
G1 X130.441 Y94.394 E3.28441
G1 X132.144 Y96.521 E3.37277
G1 X133.922 Y98.617 E3.4619
G1 X135.735 Y100.633 E3.54983
G1 X137.639 Y102.635 E3.63942
G1 X139.561 Y104.544 E3.72727
G1 X141.566 Y106.428 E3.81649
G1 X143.601 Y108.231 E3.90466
G1 X145.691 Y109.982 E3.99308
G1 X147.834 Y111.676 E4.08166
G1 X150.029 Y113.313 E4.17046
G1 X152.265 Y114.883 E4.25906
G1 X154.536 Y116.385 E4.34735
G1 X156.871 Y117.834 E4.43647
G1 X159.212 Y119.198 E4.52433
G1 X161.613 Y120.508 E4.61303
G1 X164.028 Y121.738 E4.70091
G1 X166.547 Y122.932 E4.79131
G1 X169.01 Y124.015 E4.87856
G1 X171.555 Y125.051 E4.96767
G1 X174.077 Y125.994 E5.05499
G1 X176.676 Y126.884 E5.14407
G1 X179.317 Y127.704 E5.23375
G1 X181.895 Y128.425 E5.32056
G1 X184.599 Y129.102 E5.41095
G1 X186.032 Y129.425 E5.45859
G1 X186.737 Y129.58 E5.482
G1 X187.322 Y129.722 E5.50152
G1 X187.863 Y129.883 E5.51982
G1 X188.599 Y130.153 E5.54525
G1 X189.376 Y130.515 E5.57304
G1 X189.985 Y130.862 E5.59577
G1 X190.41 Y131.136 E5.61217
G1 X190.996 Y131.562 E5.63567
G1 X191.387 Y131.894 E5.6523
G1 X191.767 Y132.27 E5.66964
G1 X192.191 Y132.728 E5.68988
G1 X192.621 Y133.298 E5.71303
G1 X192.706 Y133.42 E5.71785
G1 X194.22 Y135.705 E5.80674
G1 X195.673 Y137.751 E5.88812
G1 X196.32 Y138.68 E5.92483
G1 X196.608 Y139.157 E5.9429
G1 X196.688 Y139.305 E5.94836
G1 X196.962 Y139.845 E5.96799
G1 X197.149 Y140.264 E5.98287
G1 X197.318 Y140.761 E5.99989
G1 X197.412 Y141.263 E6.01646
G1 X197.47 Y141.805 E6.03413
G1 X197.481 Y142.33 E6.05116
G1 X197.42 Y142.842 E6.06788
G1 X197.346 Y143.249 E6.0813
G1 X197.209 Y143.755 E6.0983
G1 X197.077 Y144.075 E6.10952
G1 X196.86 Y144.536 E6.12605
G1 X196.601 Y144.993 E6.14308
G1 X196.437 Y145.218 E6.15211
G1 X195.825 Y145.984 E6.1839
G1 X195.229 Y146.711 E6.21439
G1 X193.251 Y149.285 E6.31966
G1 X192.684 Y150.048 E6.35049
G1 X192.55 Y150.217 E6.35748
G1 X192.063 Y150.793 E6.38194
G1 X191.701 Y151.161 E6.39868
G1 X191.267 Y151.539 E6.41735
G1 X190.853 Y151.85 E6.43414
G1 X190.298 Y152.201 E6.45543
G1 X189.467 Y152.604 E6.48538
G1 X188.879 Y152.826 E6.50576
G1 X188.177 Y153.024 E6.52942
G1 X187.575 Y153.139 E6.54929
G1 X186.328 Y153.302 E6.59007
G1 X185.16 Y153.438 E6.62821
G1 X182.478 Y153.827 E6.71609
G1 X179.788 Y154.294 E6.80463
G1 X177.102 Y154.84 E6.89351
G1 X174.459 Y155.457 E6.98153
G1 X171.813 Y156.151 E7.07024
G1 X169.182 Y156.923 E7.15915
G1 X166.578 Y157.768 E7.24793
G1 X163.209 Y158.981 E7.36405
G1 X162.572 Y159.191 E7.3858
G1 X162.071 Y159.311 E7.40251
G1 X161.441 Y159.393 E7.42311
G1 X161.337 Y159.404 E7.4265
G1 X160.637 Y159.463 E7.44928
G1 X157.925 Y159.732 E7.53766
G1 X155.202 Y160.08 E7.62668
G1 X152.537 Y160.498 E7.71416
G1 X149.832 Y161.001 E7.80338
G1 X147.162 Y161.575 E7.89194
G1 X145.737 Y161.916 E7.93946
G1 X145.235 Y162.01 E7.95602
G1 X144.938 Y162.051 E7.96574
G1 X144.439 Y162.083 E7.98196
G1 X143.794 Y162.078 E8.00288
G1 X143.052 Y162.006 E8.02705
G1 X142.397 Y161.879 E8.04869
G1 X141.862 Y161.731 E8.06669
G1 X139.205 Y161.034 E8.15577
G1 X136.491 Y160.405 E8.24611
G1 X133.894 Y159.88 E8.33203
G1 X131.165 Y159.408 E8.42184
G1 X128.441 Y159.014 E8.5111
G1 X125.762 Y158.706 E8.59855
G1 X123.028 Y158.468 E8.68754
G1 X120.294 Y158.308 E8.77635
G1 X117.594 Y158.228 E8.86395
G1 X114.854 Y158.223 E8.9528
G1 X112.116 Y158.296 E9.04163
G1 X109.383 Y158.446 E9.13039
G1 X106.681 Y158.671 E9.21831
G1 X103.928 Y158.979 E9.30814
G1 X101.251 Y159.355 E9.39581
G1 X98.576 Y159.809 E9.4838
G1 X95.876 Y160.345 E9.57306
G1 X93.999 Y160.765 E9.63543
G1 X92.955 Y161.009 E9.6702
G1 X92.272 Y161.132 E9.69271
G1 X91.769 Y161.191 E9.70913
G1 X90.323 Y161.321 E9.75621
G1 X87.547 Y161.608 E9.84671
G1 X86.678 Y161.718 E9.87512
G1 X86.49 Y161.736 E9.88124
G1 X85.646 Y161.796 E9.90868
G1 X85.101 Y161.803 E9.92636
G1 X84.505 Y161.773 E9.94571
G1 X83.6 Y161.653 E9.97531
G1 X82.846 Y161.496 E10.00029
G1 X82.244 Y161.308 E10.02074
G1 X81.372 Y160.909 E10.05184
G1 X81.184 Y160.809 E10.05874
G1 X80.589 Y160.405 E10.08207
G1 X80.201 Y160.075 E10.09858
G1 X79.532 Y159.477 E10.12768
G1 X78.614 Y158.631 E10.16817
G1 X76.575 Y156.855 E10.25585
G1 X74.439 Y155.101 E10.34548
G1 X72.299 Y153.442 E10.43329
G1 X70.096 Y151.831 E10.5218
G1 X67.847 Y150.283 E10.61033
G1 X65.555 Y148.797 E10.69891
G1 X63.215 Y147.374 E10.78773
G1 X60.823 Y146.011 E10.87701
G1 X59.721 Y145.419 E10.91757
G1 X59.096 Y145.056 E10.94101
G1 X58.551 Y144.665 E10.96276
G1 X58.154 Y144.322 E10.97978
G1 X57.746 Y143.838 E11.0003
G1 X57.51 Y143.515 E11.01328
G1 X57.236 Y143.068 E11.03028
G1 X56.906 Y142.221 E11.05976
G1 X56.815 Y141.919 E11.06999
G1 X56.655 Y141.275 E11.0915
G1 X56.434 Y140.271 E11.12484
G1 X56.245 Y139.319 E11.15632
G1 X55.888 Y137.384 E11.22012
G1 X55.65 Y136.014 E11.26522
G1 X55.502 Y135.026 E11.29761
G1 X55.464 Y134.751 E11.30662
G1 X55.371 Y134.029 E11.33022
G1 X55.285 Y133.318 E11.35345
G1 X55.129 Y131.906 E11.39952
G1 X55.064 Y131.285 E11.41976
G1 X54.971 Y130.316 E11.45133
G1 X54.896 Y129.409 E11.48085
G1 X54.816 Y128.296 E11.51703
G1 X54.756 Y127.274 E11.55023
G1 X54.719 Y126.101 E11.58829
G1 X54.717 Y125.995 E11.59173
G1 X54.717 Y124.843 E11.62908
G1 X54.75 Y123.732 E11.66513
G1 X54.755 Y123.618 E11.66883
G1 X54.804 Y122.851 E11.69375
G1 X54.858 Y122.287 E11.71213
G1 X54.873 Y122.163 E11.71618
G1 X55.01 Y121.157 E11.7491
G1 X55.107 Y120.593 E11.76766
G1 X55.209 Y120.151 E11.78237
G1 X55.419 Y119.415 E11.80719
G1 X55.653 Y118.784 E11.82901
G1 X55.91 Y118.231 E11.84879
G1 X56.358 Y117.485 E11.87701
G1 X56.532 Y117.233 E11.88694
G1 X56.924 Y116.768 E11.90666
G1 X57.325 Y116.369 E11.92501
G1 X57.858 Y115.923 E11.94754
G1 X58.204 Y115.683 E11.9612
G1 X58.651 Y115.435 E11.97777
G0 F2160 X58.777 Y115.708
G1 F900 X59.421 Y115.411 E12.00077
G1 X59.685 Y115.303 E12.01002
G1 X60.386 Y115.054 E12.03415
G1 X61.679 Y114.615 E12.07843
G1 X64.25 Y113.661 E12.16736
G1 X66.757 Y112.65 E12.25502
G1 X69.3 Y111.54 E12.345
G1 X71.769 Y110.377 E12.4335
G1 X74.232 Y109.13 E12.52303
G1 X76.631 Y107.83 E12.61151
G1 X78.981 Y106.468 E12.69959
G1 X81.313 Y105.029 E12.78845
G1 X83.607 Y103.519 E12.87752
G1 X85.855 Y101.948 E12.96645
G1 X88.077 Y100.302 E13.05613
G1 X90.197 Y98.634 E13.1436
G1 X92.327 Y96.859 E13.23352
G1 X94.37 Y95.056 E13.32188
G1 X96.383 Y93.177 E13.41118
G1 X98.293 Y91.29 E13.49824
G1 X100.221 Y89.273 E13.58873
G1 X102.048 Y87.25 E13.67713
G1 X103.832 Y85.16 E13.76623
G1 X105.539 Y83.042 E13.85445
G1 X107.209 Y80.842 E13.94402
G1 X108.794 Y78.63 E14.03226
G1 X110.336 Y76.343 E14.12171
G1 X111.803 Y74.027 E14.21062
G1 X112.257 Y73.3 E14.23841
G1 X112.555 Y72.897 E14.25466
G1 X112.914 Y72.547 E14.27092
G1 X113.324 Y72.258 E14.28719
G1 X113.774 Y72.037 E14.30345
G1 X114.254 Y71.891 E14.31972
G1 X114.751 Y71.823 E14.33598
G1 X115.253 Y71.835 E14.35227
G1 X115.746 Y71.926 E14.36853
G1 X116.218 Y72.094 E14.38477
G1 X116.658 Y72.335 E14.40104
G1 X117.054 Y72.643 E14.41731
G1 X117.396 Y73.01 E14.43358
G1 X117.785 Y73.64 E14.45759
G1 X117.91 Y73.908 E14.46718
G1 X118.823 Y75.947 E14.53963
G1 X120.004 Y78.394 E14.62774
G1 X121.255 Y80.814 E14.71608
G1 X122.587 Y83.217 E14.80518
G1 X123.987 Y85.582 E14.8943
G1 X125.448 Y87.902 E14.98321
G1 X126.943 Y90.133 E15.0703
G1 X128.577 Y92.427 E15.16164
G1 X130.198 Y94.57 E15.24877
G1 X131.926 Y96.728 E15.33842
G1 X133.698 Y98.817 E15.42726
G1 X135.524 Y100.848 E15.51582
G1 X137.399 Y102.819 E15.60404
G1 X139.356 Y104.764 E15.69352
G1 X141.355 Y106.641 E15.78244
G1 X143.423 Y108.473 E15.87203
G1 X145.486 Y110.203 E15.95934
G1 X147.665 Y111.925 E16.04941
G1 X149.829 Y113.538 E16.13693
G1 X152.102 Y115.135 E16.22702
G1 X154.387 Y116.645 E16.31583
G1 X156.711 Y118.088 E16.40454
G1 X159.066 Y119.46 E16.49293
G1 X161.467 Y120.77 E16.58162
G1 X163.94 Y122.029 E16.67162
G1 X166.361 Y123.177 E16.7585
G1 X168.926 Y124.304 E16.84936
G1 X171.442 Y125.329 E16.93746
G1 X173.981 Y126.278 E17.02536
G1 X176.595 Y127.173 E17.11496
G1 X179.179 Y127.976 E17.20271
G1 X181.857 Y128.725 E17.29288
G1 X184.543 Y129.397 E17.38267
G1 X185.966 Y129.719 E17.42998
G1 X186.666 Y129.872 E17.45322
G1 X187.251 Y130.014 E17.47274
G1 X187.765 Y130.166 E17.49012
G1 X188.477 Y130.427 E17.51472
G1 X189.245 Y130.785 E17.54219
G1 X189.832 Y131.12 E17.56411
G1 X190.233 Y131.379 E17.57959
G1 X190.819 Y131.805 E17.60309
G1 X191.495 Y132.421 E17.63274
G1 X191.958 Y132.917 E17.65475
G1 X192.378 Y133.474 E17.67737
G1 X192.456 Y133.586 E17.6818
G1 X193.98 Y135.885 E17.77124
G1 X195.427 Y137.923 E17.8523
G1 X196.074 Y138.852 E17.88901
G1 X196.348 Y139.306 E17.9062
G1 X196.42 Y139.441 E17.91117
G1 X196.694 Y139.981 E17.9308
G1 X196.873 Y140.381 E17.94501
G1 X197.032 Y140.857 E17.96129
G1 X197.136 Y141.477 E17.98167
G1 X197.171 Y141.835 E17.99334
G1 X197.18 Y142.336 E18.00959
G1 X197.102 Y142.924 E18.02882
G1 X197.051 Y143.193 E18.0377
G1 X196.918 Y143.677 E18.05398
G1 X196.806 Y143.948 E18.06349
G1 X196.589 Y144.409 E18.08001
G1 X196.202 Y145.031 E18.10377
G1 X195.593 Y145.794 E18.13543
G1 X195.015 Y146.499 E18.16499
G1 X192.98 Y149.147 E18.27329
G1 X192.443 Y149.869 E18.30247
G1 X192.32 Y150.024 E18.30889
G1 X191.833 Y150.6 E18.33335
G1 X191.157 Y151.239 E18.36351
G1 X190.69 Y151.597 E18.38259
G1 X190.142 Y151.945 E18.40365
G1 X189.344 Y152.33 E18.43238
G1 X188.778 Y152.543 E18.45199
G1 X188.101 Y152.734 E18.4748
G1 X187.536 Y152.841 E18.49345
G1 X186.294 Y153.004 E18.53407
G1 X185.115 Y153.141 E18.57256
G1 X182.451 Y153.527 E18.65985
G1 X179.715 Y154.003 E18.74991
G1 X177.046 Y154.546 E18.83823
G1 X174.388 Y155.166 E18.92674
G1 X171.726 Y155.864 E19.01599
G1 X169.068 Y156.644 E19.10582
G1 X166.516 Y157.472 E19.19282
G1 X163.111 Y158.698 E19.31018
G1 X162.481 Y158.905 E19.33169
G1 X161.867 Y159.039 E19.35207
G1 X161.312 Y159.105 E19.37019
G1 X160.65 Y159.161 E19.39173
G1 X157.857 Y159.438 E19.48275
G1 X155.19 Y159.779 E19.56994
G1 X152.468 Y160.206 E19.65929
G1 X149.787 Y160.704 E19.74772
G1 X147.073 Y161.288 E19.83775
G1 X145.667 Y161.624 E19.88463
G1 X144.897 Y161.753 E19.90994
G1 X144.442 Y161.783 E19.92473
G1 X143.797 Y161.778 E19.94565
G1 X143.091 Y161.709 E19.96865
G1 X142.477 Y161.59 E19.98893
G1 X141.945 Y161.442 E20.00684
G1 X139.276 Y160.743 E20.09631
G1 X136.553 Y160.112 E20.18696
G1 X133.932 Y159.581 E20.27368
G1 X131.221 Y159.113 E20.36289
G1 X128.485 Y158.718 E20.45254
G1 X125.786 Y158.406 E20.54064
G1 X123.072 Y158.17 E20.62899
G1 X120.32 Y158.01 E20.71838
G1 X117.567 Y157.928 E20.8077
G1 X114.847 Y157.923 E20.8959
G1 X112.091 Y157.996 E20.98531
G1 X109.376 Y158.145 E21.07348
G1 X106.66 Y158.372 E21.16187
G1 X103.891 Y158.681 E21.25222
G1 X101.226 Y159.056 E21.33949
G1 X98.498 Y159.519 E21.42922
G1 X95.803 Y160.054 E21.51832
G1 X93.934 Y160.472 E21.58043
G1 X92.887 Y160.717 E21.6153
G1 X92.236 Y160.834 E21.63675
G1 X91.743 Y160.892 E21.65285
G1 X90.275 Y161.024 E21.70064
G1 X87.521 Y161.309 E21.79043
G1 X86.64 Y161.42 E21.81923
G1 X86.468 Y161.437 E21.82483
G1 X85.624 Y161.497 E21.85227
G1 X85.113 Y161.504 E21.86884
G1 X84.536 Y161.475 E21.88758
G1 X83.645 Y161.357 E21.91672
G1 X82.931 Y161.209 E21.94037
G1 X82.339 Y161.023 E21.96049
G1 X81.507 Y160.641 E21.99018
G1 X81.326 Y160.545 E21.99683
G1 X80.783 Y160.176 E22.01811
G1 X80.401 Y159.852 E22.03436
G1 X79.735 Y159.256 E22.06334
G1 X78.807 Y158.401 E22.10426
G1 X76.763 Y156.622 E22.19213
G1 X74.638 Y154.877 E22.2813
G1 X72.469 Y153.194 E22.37033
G1 X70.269 Y151.586 E22.4587
G1 X68.005 Y150.028 E22.54782
G1 X65.699 Y148.533 E22.63694
G1 X63.371 Y147.117 E22.7253
G1 X60.991 Y145.761 E22.81413
G1 X59.868 Y145.158 E22.85547
G1 X59.264 Y144.807 E22.87812
G1 X58.729 Y144.424 E22.89946
G1 X58.351 Y144.094 E22.91573
G1 X57.983 Y143.654 E22.93433
G1 X57.754 Y143.34 E22.94694
G1 X57.493 Y142.911 E22.96322
G1 X57.189 Y142.122 E22.99064
G1 X57.106 Y141.846 E22.99999
G1 X56.948 Y141.21 E23.02124
G1 X56.742 Y140.278 E23.05219
G1 X56.54 Y139.265 E23.08569
G1 X56.184 Y137.333 E23.14939
G1 X55.947 Y135.97 E23.19426
G1 X55.799 Y134.986 E23.22653
G1 X55.672 Y134.017 E23.25822
G1 X55.583 Y133.285 E23.28213
G1 X55.427 Y131.874 E23.32817
G1 X55.363 Y131.256 E23.34831
G1 X55.27 Y130.291 E23.37975
G1 X55.195 Y129.387 E23.40917
G1 X55.115 Y128.279 E23.44519
G1 X55.051 Y127.168 E23.48128
G1 X55.018 Y126.091 E23.51622
G1 X55.017 Y124.843 E23.55669
G1 X55.018 Y124.746 E23.55984
G1 X55.049 Y123.741 E23.59245
G1 X55.054 Y123.637 E23.59582
G1 X55.103 Y122.87 E23.62075
G1 X55.156 Y122.317 E23.63876
G1 X55.307 Y121.198 E23.67538
G1 X55.401 Y120.656 E23.69322
G1 X55.498 Y120.232 E23.70732
G1 X55.705 Y119.506 E23.7318
G1 X55.93 Y118.899 E23.7528
G1 X56.181 Y118.358 E23.77214
G1 X56.608 Y117.65 E23.79895
G1 X56.778 Y117.405 E23.80862
G1 X57.135 Y116.981 E23.82659
G1 X57.536 Y116.582 E23.84494
G1 X58.042 Y116.16 E23.8663
G1 X58.777 Y115.708 E23.89429
G1 F1500 E18.39429
;MESH:ParabensLara.stl
G0 F2160 X73.108 Y118.193
G0 X73.606 Y118.983
G0 X93.973 Y129.283
G0 X95.317 Y128.969
G0 X107.822 Y123.094
G0 X109.316 Y123.477
;TYPE:WALL-INNER
G1 F1500 E23.89429
G1 F900 X108.847 Y122.163 E23.93953
G1 X107.08 Y122.503 E23.99788
G1 X107.135 Y124.112 E24.05009
G1 X107.192 Y124.802 E24.07254
G1 X107.266 Y125.41 E24.0924
G1 X107.352 Y125.897 E24.10844
G1 X107.489 Y126.629 E24.13259
G1 X107.638 Y127.228 E24.15261
G1 X107.809 Y127.799 E24.17194
G1 X108.011 Y128.375 E24.19173
G1 X108.339 Y129.071 E24.21668
