;FLAVOR:Marlin
;TIME:4103
;Filament used: 2.32923m, 0m
;Layer height: 0.2
;MINX:16.4
;MINY:71.034
;MINZ:0.26
;MAXX:165.377
;MAXY:159.633
;MAXZ:1.26
;POSTPROCESSED
;Generated with Cura_SteamEngine 4.8.0
T0
M140 S60
M105
M190 S60
M104 S200
M105
M109 S200
M82 ;absolute extrusion mode
M201 X500.00 Y500.00 Z100.00 E5000.00 	;Setup machine max acceleration
M203 X500.00 Y500.00 Z10.00 E50.00 	;Setup machine max feedrate
M204 P500.00 R1000.00 T500.00 		;Setup Print/Retract/Travel acceleration
M205 X8.00 Y8.00 Z0.40 E5.00 		;Setup Jerk
M220 S100 				;Reset Feedrate
M221 S100 				;Reset Flowrate
G28				;Home the Machine
#G29 				;Bed Level
G92 E0
M300 P150 S587
G92 E0
G1 F1500 E-5.5
;LAYER_COUNT:6
;LAYER:0
M107
G0 F2160 X19.39 Y111.942 Z0.26
;TYPE:SKIRT
G1 F1500 E0
G1 F900 X20.334 Y111.816 E0.03088
G1 X20.747 Y111.768 E0.04437
G1 X23.441 Y111.377 E0.13265
G1 X26.138 Y110.907 E0.22142
G1 X28.837 Y110.358 E0.31074
G1 X31.429 Y109.755 E0.39704
G1 X34.147 Y109.04 E0.48818
G1 X36.715 Y108.286 E0.57497
G1 X39.348 Y107.432 E0.66474
G1 X41.913 Y106.518 E0.75304
G1 X44.46 Y105.529 E0.84164
G1 X46.956 Y104.477 E0.92948
G1 X49.472 Y103.333 E1.01911
G1 X51.921 Y102.135 E1.10752
G1 X54.319 Y100.875 E1.19536
G1 X56.72 Y99.525 E1.28469
G1 X59.027 Y98.143 E1.3719
G1 X61.351 Y96.659 E1.46132
G1 X63.628 Y95.112 E1.55059
G1 X65.811 Y93.537 E1.63788
G1 X68.019 Y91.848 E1.72803
G1 X70.107 Y90.154 E1.81522
G1 X71.515 Y88.936 E1.87559
G1 X72.774 Y87.885 E1.92878
G1 X73.409 Y87.39 E1.95489
G1 X73.506 Y87.317 E1.95882
G1 X74 Y86.959 E1.97861
G1 X74.681 Y86.495 E2.00533
G1 X74.779 Y86.431 E2.00913
G1 X75.559 Y85.941 E2.039
G1 X76.079 Y85.635 E2.05856
G1 X76.803 Y85.236 E2.08537
G1 X76.894 Y85.187 E2.08872
G1 X77.511 Y84.872 E2.11119
G1 X78.272 Y84.509 E2.13853
G1 X78.937 Y84.213 E2.16214
G1 X79.533 Y83.965 E2.18307
G1 X80.704 Y83.517 E2.22373
G1 X80.827 Y83.472 E2.22798
G1 X82.368 Y82.95 E2.28074
G1 X82.486 Y82.913 E2.28475
G1 X83.91 Y82.487 E2.33295
G1 X84.017 Y82.457 E2.33655
G1 X85.977 Y81.939 E2.40229
G1 X88.593 Y81.207 E2.49039
G1 X91.245 Y80.383 E2.58044
G1 X93.791 Y79.513 E2.66769
G1 X96.353 Y78.555 E2.75639
G1 X98.906 Y77.519 E2.84574
G1 X101.115 Y76.543 E2.92406
G1 X101.188 Y76.517 E2.92657
G1 X102.362 Y75.989 E2.96831
G1 X102.592 Y75.888 E2.97646
G1 X103.709 Y75.414 E3.01581
G1 X104.848 Y74.958 E3.05559
G1 X105.965 Y74.539 E3.09428
G1 X106.996 Y74.178 E3.12971
G1 X107.079 Y74.148 E3.13257
G1 X108.166 Y73.798 E3.1696
G1 X109.35 Y73.446 E3.20966
G1 X110.507 Y73.134 E3.24852
G1 X111.627 Y72.863 E3.28588
G1 X112.797 Y72.612 E3.32469
G1 X113.956 Y72.397 E3.36292
G1 X115.111 Y72.217 E3.40082
G1 X116.267 Y72.07 E3.43861
G1 X117.359 Y71.963 E3.47419
G1 X118.639 Y71.878 E3.51579
G1 X119.671 Y71.84 E3.54928
G1 X119.785 Y71.838 E3.55298
G1 X120.995 Y71.835 E3.59222
G1 X124.796 Y71.939 E3.71553
G1 X127.51 Y71.942 E3.80354
G1 X130.248 Y71.867 E3.89236
G1 X132.98 Y71.715 E3.98109
G1 X137.176 Y71.337 E4.11771
G1 X137.383 Y71.324 E4.12444
G1 X138.821 Y71.277 E4.1711
G1 X139.593 Y71.262 E4.19614
G1 X142.349 Y71.131 E4.28561
G1 X143.44 Y71.054 E4.32108
G1 X144.008 Y71.034 E4.33951
G1 X144.476 Y71.043 E4.35469
G1 X145.16 Y71.133 E4.37706
G1 X145.668 Y71.254 E4.394
G1 X145.88 Y71.317 E4.40117
G1 X146.683 Y71.583 E4.4286
G1 X147.108 Y71.742 E4.44332
G1 X147.583 Y71.966 E4.46035
G1 X147.9 Y72.171 E4.47259
G1 X148.705 Y72.755 E4.50484
G1 X150.507 Y74.111 E4.57797
G1 X151.063 Y74.541 E4.60077
G1 X151.569 Y75.023 E4.62343
G1 X151.733 Y75.214 E4.63159
G1 X152.066 Y75.673 E4.64998
G1 X152.183 Y75.866 E4.6573
G1 X152.506 Y76.563 E4.68221
G1 X152.703 Y77.252 E4.70545
G1 X152.753 Y77.519 E4.71426
G1 X153.155 Y79.86 E4.79129
G1 X153.69 Y82.526 E4.87946
G1 X154.299 Y85.177 E4.96767
G1 X154.987 Y87.816 E5.05611
G1 X155.757 Y90.466 E5.1456
G1 X156.592 Y93.057 E5.23388
G1 X157.502 Y95.635 E5.32254
G1 X158.473 Y98.154 E5.41008
G1 X159.548 Y100.724 E5.50042
G1 X160.658 Y103.183 E5.58791
G1 X161.615 Y105.164 E5.65926
G1 X162.05 Y106.039 E5.69094
G1 X162.247 Y106.525 E5.70795
G1 X162.369 Y107.036 E5.72499
G1 X162.41 Y107.642 E5.74468
G1 X162.391 Y108.202 E5.76285
G1 X161.898 Y117.334 E6.05942
G1 X161.826 Y120.076 E6.14837
G1 X161.832 Y122.804 E6.23684
G1 X161.915 Y125.518 E6.32489
G1 X162.076 Y128.25 E6.41364
G1 X162.315 Y130.986 E6.5027
G1 X162.628 Y133.698 E6.59123
G1 X163.017 Y136.382 E6.67918
G1 X163.488 Y139.095 E6.76848
G1 X164.019 Y141.719 E6.85529
G1 X164.422 Y143.423 E6.91208
G1 X164.666 Y144.504 E6.94801
G1 X164.719 Y144.796 E6.95764
G1 X164.857 Y145.799 E6.99047
G1 X165.004 Y146.838 E7.0245
G1 X165.104 Y147.509 E7.0465
G1 X165.16 Y148.24 E7.07027
G1 X165.362 Y154.348 E7.26845
G1 X165.377 Y155.093 E7.29262
G1 X165.348 Y155.617 E7.30964
G1 X165.239 Y156.131 E7.32668
G1 X165.054 Y156.622 E7.34369
G1 X164.796 Y157.079 E7.36071
G1 X164.472 Y157.492 E7.37773
G1 X164.089 Y157.851 E7.39476
G1 X163.656 Y158.148 E7.41178
G1 X163.183 Y158.376 E7.42881
G1 X162.681 Y158.529 E7.44583
G1 X162.044 Y158.61 E7.46665
G1 X161.075 Y158.642 E7.49809
G1 X160.302 Y158.657 E7.52317
G1 X157.568 Y158.787 E7.61193
G1 X154.836 Y158.994 E7.70077
G1 X152.588 Y159.223 E7.77405
G1 X151.519 Y159.344 E7.80894
G1 X151.051 Y159.37 E7.82414
G1 X148.53 Y159.405 E7.9059
G1 X145.789 Y159.522 E7.99487
G1 X144.947 Y159.581 E8.02224
G1 X144.039 Y159.633 E8.05173
G1 X143.432 Y159.615 E8.07143
G1 X142.344 Y159.484 E8.10696
G1 X133.298 Y158.217 E8.40318
G1 X130.6 Y157.878 E8.49136
G1 X127.873 Y157.614 E8.5802
G1 X125.2 Y157.429 E8.66709
G1 X124.601 Y157.398 E8.68654
G1 X121.869 Y157.265 E8.77524
G1 X121.76 Y157.258 E8.77878
G1 X120.496 Y157.156 E8.81991
G1 X119.031 Y156.999 E8.86769
G1 X117.729 Y156.821 E8.9103
G1 X116.43 Y156.61 E8.95298
G1 X115.09 Y156.358 E8.99719
G1 X113.903 Y156.105 E9.03655
G1 X112.628 Y155.803 E9.07904
G1 X111.183 Y155.424 E9.12749
G1 X110.214 Y155.149 E9.16015
G1 X109.882 Y155.052 E9.17137
G1 X108.999 Y154.783 E9.2013
G1 X108.549 Y154.642 E9.21659
G1 X107.84 Y154.412 E9.24077
G1 X107.417 Y154.271 E9.25522
G1 X106.219 Y153.861 E9.29629
G1 X103.952 Y153.1 E9.37383
G1 X101.305 Y152.292 E9.46358
G1 X98.684 Y151.572 E9.55173
G1 X96.011 Y150.918 E9.64097
G1 X93.818 Y150.445 E9.71372
G1 X93.079 Y150.291 E9.7382
G1 X91.931 Y150.038 E9.77632
G1 X90.834 Y149.771 E9.81293
G1 X90.356 Y149.644 E9.82897
G1 X89.614 Y149.432 E9.85399
G1 X89.009 Y149.247 E9.87451
G1 X88.266 Y149.003 E9.89987
G1 X87.592 Y148.766 E9.92304
G1 X86.842 Y148.481 E9.94906
G1 X86.183 Y148.213 E9.97213
G1 X85.286 Y147.821 E10.00387
G1 X84.578 Y147.489 E10.02923
G1 X83.785 Y147.093 E10.05797
G1 X82.996 Y146.674 E10.08694
G1 X82.166 Y146.205 E10.11786
G1 X81.412 Y145.755 E10.14634
G1 X80.57 Y145.223 E10.17863
G1 X79.685 Y144.632 E10.21314
G1 X78.832 Y144.031 E10.24698
G1 X77.96 Y143.385 E10.28217
G1 X77.077 Y142.698 E10.31845
G1 X76.173 Y141.96 E10.3563
G1 X75.808 Y141.65 E10.37183
G1 X73.664 Y139.877 E10.46205
G1 X71.488 Y138.178 E10.55157
G1 X69.32 Y136.582 E10.63888
G1 X67.084 Y135.034 E10.72707
G1 X64.779 Y133.529 E10.81634
G1 X62.448 Y132.101 E10.90499
G1 X60.092 Y130.747 E10.99311
G1 X57.691 Y129.457 E11.08149
G1 X55.239 Y128.229 E11.17042
G1 X52.748 Y127.067 E11.25956
G1 X50.257 Y125.989 E11.34758
G1 X47.716 Y124.972 E11.43634
G1 X45.143 Y124.031 E11.52518
G1 X42.58 Y123.172 E11.61284
G1 X39.963 Y122.377 E11.70153
G1 X37.305 Y121.65 E11.79089
G1 X34.695 Y121.015 E11.878
G1 X31.975 Y120.433 E11.9682
G1 X29.29 Y119.942 E12.05672
G1 X26.632 Y119.53 E12.14394
G1 X23.908 Y119.186 E12.23298
G1 X21.153 Y118.918 E12.32274
G1 X19.591 Y118.801 E12.37354
G1 X19.072 Y118.722 E12.39056
G1 X18.571 Y118.565 E12.40759
G1 X18.099 Y118.334 E12.42463
G1 X17.668 Y118.035 E12.44164
G1 X17.288 Y117.673 E12.45866
G1 X16.967 Y117.257 E12.4757
G1 X16.713 Y116.798 E12.49271
G1 X16.531 Y116.306 E12.50972
G1 X16.426 Y115.791 E12.52677
G1 X16.4 Y115.267 E12.54378
G1 X16.454 Y114.745 E12.5608
G1 X16.587 Y114.237 E12.57783
G1 X16.796 Y113.755 E12.59486
G1 X17.075 Y113.31 E12.6119
G1 X17.418 Y112.913 E12.62891
G1 X17.817 Y112.573 E12.64591
G1 X18.264 Y112.297 E12.66295
G1 X18.747 Y112.092 E12.67996
G1 X19.39 Y111.942 E12.70137
G0 F2160 X19.43 Y112.239
G1 F900 X20.369 Y112.114 E12.73209
G1 X20.788 Y112.066 E12.74577
G1 X23.504 Y111.671 E12.83477
G1 X26.177 Y111.205 E12.92276
G1 X28.893 Y110.653 E13.01264
G1 X31.542 Y110.037 E13.10083
G1 X34.193 Y109.339 E13.18973
G1 X36.829 Y108.565 E13.27882
G1 X39.437 Y107.719 E13.36773
G1 X42.018 Y106.8 E13.45658
G1 X44.537 Y105.821 E13.54422
G1 X47.105 Y104.739 E13.63459
G1 X49.596 Y103.607 E13.72332
G1 X52.03 Y102.416 E13.81119
G1 X54.472 Y101.133 E13.90065
G1 X56.873 Y99.783 E13.98997
G1 X59.193 Y98.393 E14.07768
G1 X61.554 Y96.885 E14.16852
G1 X63.774 Y95.376 E14.25557
G1 X65.995 Y93.774 E14.34438
G1 X68.199 Y92.088 E14.43436
G1 X70.297 Y90.387 E14.52195
G1 X71.707 Y89.166 E14.58244
G1 X72.874 Y88.19 E14.63177
G1 X72.958 Y88.122 E14.63528
G1 X73.593 Y87.627 E14.66139
G1 X73.682 Y87.56 E14.665
G1 X74.176 Y87.202 E14.68478
G1 X74.85 Y86.743 E14.71123
G1 X74.939 Y86.684 E14.71469
G1 X75.711 Y86.199 E14.74426
G1 X76.231 Y85.893 E14.76382
G1 X76.947 Y85.499 E14.79032
G1 X77.031 Y85.454 E14.79341
G1 X77.727 Y85.1 E14.81874
G1 X78.476 Y84.745 E14.84561
G1 X79.13 Y84.456 E14.8688
G1 X79.647 Y84.242 E14.88695
G1 X80.811 Y83.797 E14.92736
G1 X80.923 Y83.757 E14.93121
G1 X82.572 Y83.2 E14.98766
G1 X83.996 Y82.774 E15.03586
G1 X86.02 Y82.237 E15.10376
G1 X88.731 Y81.479 E15.19505
G1 X91.294 Y80.682 E15.28209
G1 X93.919 Y79.785 E15.37205
G1 X96.466 Y78.834 E15.46021
G1 X99.031 Y77.792 E15.54999
G1 X101.236 Y76.818 E15.62817
G1 X101.295 Y76.797 E15.6302
G1 X102.483 Y76.264 E15.67242
G1 X102.709 Y76.164 E15.68044
G1 X103.821 Y75.692 E15.71961
G1 X104.954 Y75.239 E15.75918
G1 X106.064 Y74.822 E15.79763
G1 X107.095 Y74.461 E15.83306
G1 X107.171 Y74.434 E15.83567
G1 X108.252 Y74.085 E15.87251
G1 X109.352 Y73.757 E15.90973
G1 X110.578 Y73.425 E15.95092
G1 X111.69 Y73.156 E15.98802
G1 X112.852 Y72.907 E16.02656
G1 X114.002 Y72.693 E16.06449
G1 X115.061 Y72.527 E16.09925
G1 X116.203 Y72.38 E16.13659
G1 X116.296 Y72.369 E16.13963
G1 X117.388 Y72.262 E16.17521
G1 X118.558 Y72.183 E16.21324
G1 X118.65 Y72.178 E16.21623
G1 X119.682 Y72.14 E16.24972
G1 X119.787 Y72.138 E16.25312
G1 X120.987 Y72.135 E16.29204
G1 X124.789 Y72.239 E16.41538
G1 X127.518 Y72.242 E16.50387
G1 X130.274 Y72.167 E16.59328
G1 X132.994 Y72.016 E16.68162
G1 X137.204 Y71.636 E16.8187
G1 X137.393 Y71.624 E16.82484
G1 X138.827 Y71.577 E16.87137
G1 X139.612 Y71.562 E16.89683
G1 X142.341 Y71.432 E16.98543
G1 X143.455 Y71.354 E17.02164
G1 X144.013 Y71.333 E17.03975
G1 X144.467 Y71.343 E17.05448
G1 X145.092 Y71.425 E17.07492
G1 X145.592 Y71.545 E17.09159
G1 X145.786 Y71.602 E17.09815
G1 X146.589 Y71.868 E17.12558
G1 X147.001 Y72.022 E17.13985
G1 X147.454 Y72.238 E17.15612
G1 X147.724 Y72.414 E17.16657
G1 X148.525 Y72.995 E17.19866
G1 X150.323 Y74.348 E17.27163
G1 X150.879 Y74.778 E17.29443
G1 X151.342 Y75.218 E17.31514
G1 X151.506 Y75.409 E17.3233
G1 X151.81 Y75.828 E17.34009
G1 X151.927 Y76.021 E17.34741
G1 X152.221 Y76.658 E17.37016
G1 X152.408 Y77.308 E17.39209
G1 X152.458 Y77.57 E17.40074
G1 X152.863 Y79.932 E17.47846
G1 X153.395 Y82.579 E17.56601
G1 X154.008 Y85.247 E17.65479
G1 X154.703 Y87.912 E17.7441
G1 X155.475 Y90.568 E17.83379
G1 X156.304 Y93.144 E17.92155
G1 X157.22 Y95.737 E18.01073
G1 X158.201 Y98.283 E18.09921
G1 X159.26 Y100.814 E18.18818
G1 X160.391 Y103.318 E18.27728
G1 X161.329 Y105.261 E18.34725
G1 X161.782 Y106.172 E18.38024
G1 X161.968 Y106.638 E18.39651
G1 X162.079 Y107.127 E18.41277
G1 X162.11 Y107.636 E18.42931
G1 X162.092 Y108.189 E18.44725
G1 X161.598 Y117.31 E18.74347
G1 X161.526 Y120.069 E18.83297
G1 X161.532 Y122.788 E18.92114
G1 X161.617 Y125.546 E19.01062
G1 X161.778 Y128.295 E19.09992
G1 X162.015 Y131.009 E19.18827
G1 X162.328 Y133.708 E19.27638
G1 X162.723 Y136.439 E19.36586
G1 X163.197 Y139.168 E19.45569
G1 X163.727 Y141.788 E19.54237
G1 X164.13 Y143.489 E19.59906
G1 X164.374 Y144.57 E19.635
G1 X164.422 Y144.836 E19.64376
G1 X164.56 Y145.842 E19.67669
G1 X164.705 Y146.861 E19.71007
G1 X164.808 Y147.553 E19.73276
G1 X164.861 Y148.257 E19.75565
G1 X165.063 Y154.398 E19.9549
G1 X165.077 Y155.099 E19.97764
G1 X165.047 Y155.6 E19.99392
G1 X164.938 Y156.089 E20.01016
G1 X164.753 Y156.555 E20.02642
G1 X164.496 Y156.986 E20.04269
G1 X164.174 Y157.371 E20.05897
G1 X163.795 Y157.699 E20.07522
G1 X163.368 Y157.963 E20.0915
G1 X162.905 Y158.157 E20.10778
G1 X162.418 Y158.274 E20.12403
G1 X162.034 Y158.31 E20.13653
G1 X161.069 Y158.342 E20.16784
G1 X160.283 Y158.357 E20.19334
G1 X157.566 Y158.486 E20.28155
G1 X154.824 Y158.694 E20.37072
G1 X152.542 Y158.927 E20.44511
G1 X151.485 Y159.046 E20.4796
G1 X151.046 Y159.07 E20.49386
G1 X148.515 Y159.106 E20.57594
G1 X145.79 Y159.221 E20.66439
G1 X144.93 Y159.282 E20.69235
G1 X144.022 Y159.334 E20.72184
G1 X143.468 Y159.317 E20.73982
G1 X142.386 Y159.187 E20.77516
G1 X133.364 Y157.923 E21.07058
G1 X130.594 Y157.576 E21.16111
G1 X127.886 Y157.313 E21.24934
G1 X125.273 Y157.133 E21.33428
G1 X124.604 Y157.097 E21.35601
G1 X121.784 Y156.959 E21.44756
G1 X120.437 Y156.849 E21.49139
G1 X119.159 Y156.712 E21.53307
G1 X117.777 Y156.525 E21.5783
G1 X116.486 Y156.315 E21.62071
G1 X115.152 Y156.064 E21.66473
G1 X113.972 Y155.813 E21.70385
G1 X112.704 Y155.512 E21.74612
G1 X111.265 Y155.135 E21.79436
G1 X110.298 Y154.861 E21.82695
G1 X109.969 Y154.765 E21.83806
G1 X109.089 Y154.497 E21.86789
G1 X108.642 Y154.357 E21.88308
G1 X107.934 Y154.127 E21.90722
G1 X107.514 Y153.987 E21.92158
G1 X106.296 Y153.57 E21.96333
G1 X104.051 Y152.817 E22.04012
G1 X101.408 Y152.01 E22.12973
G1 X98.761 Y151.283 E22.21875
G1 X96.065 Y150.623 E22.30876
G1 X93.878 Y150.151 E22.38131
G1 X93.141 Y149.998 E22.40572
G1 X92.002 Y149.746 E22.44355
G1 X90.91 Y149.48 E22.48
G1 X90.439 Y149.356 E22.4958
G1 X89.702 Y149.145 E22.52066
G1 X89.102 Y148.962 E22.541
G1 X88.365 Y148.72 E22.56615
G1 X87.616 Y148.455 E22.59192
G1 X86.955 Y148.203 E22.61486
G1 X86.296 Y147.935 E22.63793
G1 X85.413 Y147.55 E22.66917
G1 X84.712 Y147.221 E22.69428
G1 X83.925 Y146.828 E22.7228
G1 X83.214 Y146.451 E22.7489
G1 X82.32 Y145.947 E22.78218
G1 X81.496 Y145.454 E22.81332
G1 X80.666 Y144.928 E22.84519
G1 X79.857 Y144.387 E22.87675
G1 X79.01 Y143.79 E22.91035
G1 X78.144 Y143.148 E22.94531
G1 X77.266 Y142.465 E22.98138
G1 X76.367 Y141.732 E23.019
G1 X75.966 Y141.391 E23.03607
G1 X73.848 Y139.639 E23.1252
G1 X71.699 Y137.961 E23.21362
G1 X69.494 Y136.339 E23.30239
G1 X67.219 Y134.763 E23.39214
G1 X64.95 Y133.282 E23.48
G1 X62.605 Y131.846 E23.56918
G1 X60.25 Y130.492 E23.65727
G1 X57.806 Y129.179 E23.74724
G1 X55.394 Y127.97 E23.83473
G1 X52.875 Y126.795 E23.92487
G1 X50.382 Y125.716 E24.01296
G1 X47.785 Y124.677 E24.10367
G1 X45.28 Y123.761 E24.19016
G1 X42.657 Y122.882 E24.27987
G1 X40.056 Y122.092 E24.36802
G1 X37.382 Y121.361 E24.45792
G1 X34.722 Y120.714 E24.54669
G1 X32.026 Y120.137 E24.6361
G1 X29.388 Y119.654 E24.72307
G1 X26.643 Y119.229 E24.81315
G1 X23.941 Y118.888 E24.90146
G1 X21.206 Y118.622 E24.99057
G1 X19.613 Y118.502 E25.04238
G1 X19.118 Y118.425 E25.05863
G1 X18.64 Y118.27 E25.07492
G1 X18.194 Y118.041 E25.09118
G1 X17.79 Y117.745 E25.10742
G1 X17.437 Y117.387 E25.12372
G1 X17.146 Y116.979 E25.13998
G1 X16.924 Y116.529 E25.15625
G1 X16.775 Y116.05 E25.17252
G1 X16.705 Y115.554 E25.18876
G1 X16.714 Y115.052 E25.20504
G1 X16.803 Y114.558 E25.22132
G1 X16.969 Y114.085 E25.23757
G1 X17.208 Y113.644 E25.25384
G1 X17.514 Y113.247 E25.2701
G1 X17.879 Y112.903 E25.28636
G1 X18.294 Y112.621 E25.30263
