;FLAVOR:Marlin
;TIME:3788
;Filament used: 1.45817m, 0m
;Layer height: 0.1
;MINX:70.545
;MINY:60.419
;MINZ:0.26
;MAXX:141.708
;MAXY:172.6
;MAXZ:1.96
;POSTPROCESSED
;Generated with Cura_SteamEngine 4.8.0
T0
M140 S60
M105
M190 S60
M104 S200
M105
M109 S200
M82 ;absolute extrusion mode
M201 X500.00 Y500.00 Z100.00 E5000.00 	;Setup machine max acceleration
M203 X500.00 Y500.00 Z10.00 E50.00 	;Setup machine max feedrate
M204 P500.00 R1000.00 T500.00 		;Setup Print/Retract/Travel acceleration
M205 X8.00 Y8.00 Z0.40 E5.00 		;Setup Jerk
M220 S100 				;Reset Feedrate
M221 S100 				;Reset Flowrate
G28				;Home the Machine
#G29 				;Bed Level
G92 E0
M300 P150 S587
G92 E0
G1 F1500 E-5.5
;LAYER_COUNT:18
;LAYER:0
M107
G0 F2160 X75.194 Y94.717 Z0.26
;TYPE:SKIRT
G1 F1500 E0
G1 F900 X75.422 Y94.538 E0.0094
G1 X76.009 Y94.116 E0.03284
G1 X77.174 Y93.302 E0.07893
G1 X79.35 Y91.693 E0.16669
G1 X81.492 Y90.01 E0.25503
G1 X83.595 Y88.26 E0.34375
G1 X85.659 Y86.44 E0.43299
G1 X87.646 Y84.588 E0.52107
G1 X89.579 Y82.678 E0.6092
G1 X91.481 Y80.694 E0.69833
G1 X93.314 Y78.669 E0.7869
G1 X95.095 Y76.585 E0.8758
G1 X96.8 Y74.473 E0.96382
G1 X98.452 Y72.301 E1.05231
G1 X100.036 Y70.094 E1.14041
G1 X101.58 Y67.806 E1.22992
G1 X103.043 Y65.503 E1.3184
G1 X104.423 Y63.185 E1.40588
G1 X104.766 Y62.578 E1.42849
G1 X105.032 Y62.124 E1.44555
G1 X105.331 Y61.692 E1.46259
G1 X105.692 Y61.311 E1.47961
G1 X106.107 Y60.99 E1.49663
G1 X106.566 Y60.734 E1.51367
G1 X107.058 Y60.552 E1.53068
G1 X107.572 Y60.446 E1.5477
G1 X108.097 Y60.419 E1.56475
G1 X108.619 Y60.472 E1.58176
G1 X109.127 Y60.604 E1.59878
G1 X109.609 Y60.812 E1.61581
G1 X110.054 Y61.09 E1.63282
G1 X110.452 Y61.432 E1.64984
G1 X110.794 Y61.831 E1.66688
G1 X111.007 Y62.161 E1.67962
G1 X111.546 Y63.107 E1.71493
G1 X112.965 Y65.513 E1.80551
G1 X114.408 Y67.81 E1.89348
G1 X115.942 Y70.104 E1.98297
G1 X117.496 Y72.29 E2.06994
G1 X119.158 Y74.495 E2.15948
G1 X120.864 Y76.629 E2.24808
G1 X122.617 Y78.7 E2.33607
G1 X124.439 Y80.732 E2.42458
G1 X126.316 Y82.712 E2.51305
G1 X128.257 Y84.645 E2.60188
G1 X130.245 Y86.516 E2.69041
G1 X132.292 Y88.336 E2.77924
G1 X134.403 Y90.109 E2.86864
G1 X136.505 Y91.775 E2.95562
G1 X138.719 Y93.43 E3.04526
G1 X140.261 Y94.527 E3.10662
G1 X140.664 Y94.862 E3.12362
G1 X141.012 Y95.256 E3.14067
G1 X141.296 Y95.697 E3.15768
G1 X141.51 Y96.177 E3.17472
G1 X141.648 Y96.683 E3.19173
G1 X141.708 Y97.205 E3.20877
G1 X141.703 Y97.579 E3.22089
G1 X141.503 Y100.425 E3.31341
G1 X141.392 Y103.126 E3.40108
G1 X141.354 Y105.886 E3.49059
G1 X141.424 Y109.703 E3.61439
G1 X141.405 Y110.146 E3.62877
G1 X141.241 Y110.858 E3.65246
G1 X141.009 Y111.53 E3.67552
G1 X140.146 Y114.153 E3.76506
G1 X139.362 Y116.788 E3.85421
G1 X138.649 Y119.452 E3.94365
G1 X138.018 Y122.107 E4.03214
G1 X137.47 Y124.753 E4.11977
G1 X136.99 Y127.441 E4.20832
G1 X136.587 Y130.148 E4.29707
G1 X136.26 Y132.865 E4.38581
G1 X136.012 Y135.563 E4.47367
G1 X135.839 Y138.295 E4.56245
G1 X135.743 Y141.03 E4.65119
G1 X135.721 Y143.083 E4.71777
G1 X135.721 Y153.281 E5.04848
G1 X135.711 Y153.983 E5.07125
G1 X135.663 Y154.506 E5.08828
G1 X135.537 Y155.016 E5.10531
G1 X135.335 Y155.5 E5.12232
G1 X135.062 Y155.948 E5.13933
G1 X134.724 Y156.35 E5.15637
G1 X134.506 Y156.554 E5.16605
G1 X133.64 Y157.296 E5.20303
G1 X131.596 Y159.097 E5.29137
G1 X129.606 Y160.953 E5.37962
G1 X127.652 Y162.883 E5.46868
G1 X125.762 Y164.856 E5.55728
G1 X123.939 Y166.873 E5.64545
G1 X122.971 Y168.019 E5.69409
G1 X122.901 Y168.09 E5.69733
G1 X122.004 Y169.132 E5.74191
G1 X121.588 Y169.539 E5.76079
G1 X120.783 Y170.205 E5.79467
G1 X119.625 Y171.193 E5.84403
G1 X118.908 Y171.79 E5.87429
G1 X118.48 Y172.095 E5.89133
G1 X118.011 Y172.33 E5.90834
G1 X117.511 Y172.492 E5.92539
G1 X116.751 Y172.589 E5.95023
G1 X116.005 Y172.6 E5.97443
G1 X106.295 Y172.6 E6.28931
G1 X105.594 Y172.59 E6.31204
G1 X105.071 Y172.542 E6.32907
G1 X104.561 Y172.416 E6.34611
G1 X104.077 Y172.214 E6.36312
G1 X103.629 Y171.941 E6.38013
G1 X103.227 Y171.603 E6.39716
G1 X102.881 Y171.208 E6.41419
G1 X102.633 Y170.826 E6.42896
G1 X102.264 Y170.167 E6.45345
G1 X100.875 Y167.765 E6.54343
G1 X99.432 Y165.424 E6.63261
G1 X97.933 Y163.139 E6.72123
G1 X96.389 Y160.926 E6.80874
G1 X94.753 Y158.718 E6.89785
G1 X93.072 Y156.576 E6.98615
G1 X91.311 Y154.461 E7.0754
G1 X89.518 Y152.425 E7.16338
G1 X87.656 Y150.427 E7.25194
G1 X85.723 Y148.47 E7.34115
G1 X84.315 Y147.112 E7.40458
G1 X83.578 Y146.415 E7.43748
G1 X83.2 Y146.034 E7.45488
G1 X83.099 Y145.927 E7.45965
G1 X82.648 Y145.429 E7.48144
G1 X82.532 Y145.294 E7.48721
G1 X81.642 Y144.203 E7.53287
G1 X81.321 Y143.785 E7.54996
G1 X81.226 Y143.654 E7.55521
G1 X80.856 Y143.118 E7.57633
G1 X80.765 Y142.98 E7.58169
G1 X80.096 Y141.904 E7.62278
G1 X80.023 Y141.78 E7.62745
G1 X79.655 Y141.129 E7.6517
G1 X79.368 Y140.575 E7.67193
G1 X79.096 Y139.988 E7.69291
G1 X79.016 Y139.803 E7.69945
G1 X78.578 Y138.692 E7.73817
G1 X78.384 Y138.147 E7.75693
G1 X78.207 Y137.591 E7.77585
G1 X78.024 Y136.944 E7.79766
G1 X77.996 Y136.839 E7.80118
G1 X77.833 Y136.174 E7.82339
G1 X77.434 Y134.307 E7.8853
G1 X76.83 Y131.666 E7.97315
G1 X76.136 Y128.976 E8.06324
G1 X75.385 Y126.377 E8.15097
G1 X74.552 Y123.77 E8.23972
G1 X73.651 Y121.202 E8.32798
G1 X72.682 Y118.674 E8.41577
G1 X71.611 Y116.104 E8.50606
G1 X70.851 Y114.387 E8.56695
G1 X70.683 Y113.922 E8.58299
G1 X70.58 Y113.407 E8.60002
G1 X70.547 Y112.769 E8.62073
G1 X70.545 Y112.664 E8.62414
G1 X70.545 Y109.146 E8.73822
G1 X70.556 Y108.439 E8.76115
G1 X70.604 Y107.917 E8.77815
G1 X70.768 Y107.301 E8.79883
G1 X70.888 Y106.975 E8.81009
G1 X71.79 Y104.419 E8.89799
G1 X72.634 Y101.792 E8.98747
G1 X73.396 Y99.171 E9.07598
G1 X74.097 Y96.471 E9.16644
G1 X74.267 Y95.975 E9.18344
G1 X74.511 Y95.51 E9.20047
G1 X74.822 Y95.087 E9.2175
G1 X75.194 Y94.717 E9.23451
G0 F2160 X75.597 Y94.781
G1 F900 X76.181 Y94.362 E9.25782
G1 X77.333 Y93.558 E9.30338
G1 X79.539 Y91.925 E9.39238
G1 X81.695 Y90.232 E9.48128
G1 X83.791 Y88.488 E9.5697
G1 X85.852 Y86.671 E9.6588
G1 X87.849 Y84.81 E9.74732
G1 X89.795 Y82.887 E9.83604
G1 X91.708 Y80.891 E9.9257
G1 X93.536 Y78.871 E10.01405
G1 X95.31 Y76.795 E10.1026
G1 X97.045 Y74.646 E10.19217
G1 X98.714 Y72.451 E10.28159
G1 X100.284 Y70.262 E10.36894
G1 X101.821 Y67.985 E10.45803
G1 X103.3 Y65.658 E10.54744
G1 X104.703 Y63.301 E10.63639
G1 X105.025 Y62.73 E10.65765
G1 X105.291 Y62.276 E10.67472
G1 X105.578 Y61.864 E10.691
G1 X105.927 Y61.504 E10.70726
G1 X106.329 Y61.203 E10.72354
G1 X106.773 Y60.971 E10.73979
G1 X107.249 Y60.811 E10.75607
G1 X107.744 Y60.729 E10.77235
G1 X108.245 Y60.727 E10.78859
G1 X108.741 Y60.804 E10.80487
G1 X109.218 Y60.959 E10.82113
G1 X109.664 Y61.188 E10.83739
G1 X110.069 Y61.485 E10.85368
G1 X110.421 Y61.842 E10.86994
G1 X110.746 Y62.309 E10.88839
G1 X111.306 Y63.292 E10.92507
G1 X112.684 Y65.629 E11.01305
G1 X114.138 Y67.944 E11.10171
G1 X115.682 Y70.253 E11.19178
G1 X117.285 Y72.51 E11.28155
G1 X118.915 Y74.671 E11.36933
G1 X120.628 Y76.814 E11.4583
G1 X122.393 Y78.9 E11.54691
G1 X124.209 Y80.925 E11.63512
G1 X126.138 Y82.959 E11.72602
G1 X128.034 Y84.847 E11.81279
G1 X130.053 Y86.747 E11.9027
G1 X132.093 Y88.561 E11.99123
G1 X134.198 Y90.329 E12.08037
G1 X136.331 Y92.019 E12.16862
G1 X138.531 Y93.665 E12.25772
G1 X140.087 Y94.771 E12.31963
G1 X140.471 Y95.093 E12.33588
G1 X140.799 Y95.473 E12.35216
G1 X141.063 Y95.899 E12.36841
G1 X141.256 Y96.362 E12.38468
G1 X141.373 Y96.85 E12.40095
G1 X141.403 Y97.558 E12.42393
G1 X141.204 Y100.393 E12.51609
G1 X141.092 Y103.109 E12.60424
G1 X141.054 Y105.887 E12.69434
G1 X141.124 Y109.711 E12.81837
G1 X141.105 Y110.132 E12.83203
G1 X140.958 Y110.76 E12.85295
G1 X140.71 Y111.479 E12.87761
G1 X139.858 Y114.069 E12.96603
G1 X139.072 Y116.707 E13.05529
G1 X138.369 Y119.336 E13.14354
G1 X137.724 Y122.049 E13.23398
G1 X137.174 Y124.706 E13.32197
G1 X136.696 Y127.387 E13.41028
G1 X136.284 Y130.149 E13.50084
G1 X135.967 Y132.783 E13.58687
G1 X135.712 Y135.553 E13.67708
G1 X135.538 Y138.301 E13.76637
G1 X135.443 Y141.02 E13.8546
G1 X135.421 Y143.08 E13.9214
G1 X135.421 Y153.277 E14.25208
G1 X135.411 Y153.979 E14.27485
G1 X135.364 Y154.478 E14.2911
G1 X135.238 Y154.964 E14.30738
G1 X135.037 Y155.423 E14.32363
G1 X134.765 Y155.845 E14.33991
G1 X134.311 Y156.326 E14.36136
G1 X133.445 Y157.068 E14.39834
G1 X131.386 Y158.882 E14.48733
G1 X129.375 Y160.758 E14.57651
G1 X127.436 Y162.673 E14.66489
G1 X125.551 Y164.642 E14.75328
G1 X123.714 Y166.673 E14.84209
G1 X122.742 Y167.825 E14.89097
G1 X122.669 Y167.899 E14.89434
G1 X121.776 Y168.936 E14.93872
G1 X121.397 Y169.308 E14.95594
G1 X120.588 Y169.977 E14.98998
G1 X119.433 Y170.963 E15.03923
G1 X118.716 Y171.56 E15.06949
G1 X118.306 Y171.849 E15.08575
G1 X117.855 Y172.07 E15.10204
G1 X117.375 Y172.216 E15.11831
G1 X116.746 Y172.289 E15.13885
G1 X116 Y172.3 E15.16304
G1 X106.299 Y172.3 E15.47763
G1 X105.598 Y172.29 E15.50036
G1 X105.099 Y172.243 E15.51662
G1 X104.613 Y172.117 E15.5329
G1 X104.154 Y171.916 E15.54915
G1 X103.732 Y171.644 E15.56543
G1 X103.359 Y171.309 E15.58169
G1 X103.043 Y170.919 E15.59797
G1 X102.895 Y170.679 E15.60711
G1 X102.524 Y170.017 E15.63172
G1 X101.121 Y167.59 E15.72263
G1 X99.704 Y165.293 E15.81015
G1 X98.175 Y162.961 E15.90058
G1 X96.632 Y160.749 E15.98804
G1 X94.999 Y158.545 E16.07699
G1 X93.294 Y156.374 E16.16651
G1 X91.554 Y154.283 E16.25473
G1 X89.734 Y152.217 E16.34401
G1 X87.859 Y150.206 E16.43317
G1 X85.954 Y148.276 E16.52111
G1 X84.498 Y146.871 E16.58673
G1 X83.785 Y146.197 E16.61855
G1 X83.414 Y145.823 E16.63563
G1 X83.321 Y145.725 E16.64001
G1 X82.87 Y145.227 E16.6618
G1 X82.764 Y145.104 E16.66706
G1 X81.874 Y144.013 E16.71272
G1 X81.56 Y143.603 E16.72947
G1 X81.473 Y143.483 E16.73428
G1 X81.103 Y142.947 E16.7554
G1 X81.02 Y142.821 E16.76029
G1 X80.351 Y141.745 E16.80138
G1 X80.284 Y141.632 E16.80564
G1 X79.916 Y140.981 E16.82989
G1 X79.64 Y140.449 E16.84932
G1 X79.368 Y139.862 E16.8703
G1 X79.296 Y139.693 E16.87626
G1 X78.858 Y138.582 E16.91499
G1 X78.668 Y138.047 E16.9334
G1 X78.493 Y137.5 E16.95202
G1 X78.464 Y137.404 E16.95527
G1 X78.312 Y136.863 E16.9735
G1 X78.149 Y136.209 E16.99536
G1 X77.737 Y134.288 E17.05907
G1 X77.114 Y131.563 E17.14972
G1 X76.431 Y128.914 E17.23843
G1 X75.671 Y126.285 E17.32717
G1 X74.84 Y123.685 E17.41569
G1 X73.929 Y121.089 E17.50491
G1 X72.958 Y118.556 E17.59288
G1 X71.894 Y116.002 E17.6826
G1 X71.125 Y114.263 E17.74426
G1 X70.966 Y113.819 E17.75956
G1 X70.856 Y113.088 E17.78353
G1 X70.845 Y112.664 E17.79728
G1 X70.845 Y109.151 E17.9112
G1 X70.856 Y108.444 E17.93413
G1 X70.904 Y107.945 E17.95039
G1 X71.05 Y107.405 E17.96853
G1 X71.155 Y107.119 E17.97841
G1 X72.088 Y104.474 E18.06936
G1 X72.916 Y101.895 E18.1572
G1 X73.683 Y99.257 E18.24629
G1 X74.387 Y96.547 E18.33709
G1 X74.552 Y96.073 E18.35337
G1 X74.789 Y95.631 E18.36963
G1 X75.094 Y95.233 E18.38589
G1 X75.597 Y94.781 E18.40782
G1 F1500 E12.90782
;MESH:TikTok.stl
G0 F2160 X77.051 Y96.957
G0 X77.741 Y97.647
G0 X78.477 Y98.383
;TYPE:WALL-INNER
G1 F1500 E18.40782
G1 F900 X81.367 Y98.383 E18.50154
G1 X81.367 Y109.543 E18.86344
G1 X84.215 Y109.543 E18.9558
G1 X84.611 Y110.716 E18.99595
G1 X86.014 Y110.804 E19.04153
G1 X86.506 Y109.8 E19.07779
G1 X86.726 Y109.537 E19.08891
G1 X87.538 Y108.874 E19.12291
G1 X87.038 Y107.48 E19.17093
G1 X86.28 Y107.48 E19.19551
G1 X86.28 Y98.402 E19.4899
G1 X93.896 Y98.402 E19.73688
G1 X93.896 Y101.89 E19.84999
G1 X95.065 Y103.074 E19.90394
G1 X95.19 Y103.2 E19.9097
G1 X95.293 Y103.055 E19.91326
G1 X98.585 Y98.42 E20.09762
G1 X101.261 Y98.42 E20.1844
G1 X101.262 Y98.42 E20.18443
G1 X101.549 Y98.42 E20.19374
G1 X101.383 Y98.655 E20.19892
G1 X96.99 Y104.876 E20.44589
G1 X100.541 Y108.427 E20.60874
G1 X100.795 Y108.681 E20.62039
G1 X100.436 Y108.681 E20.62666
G1 X100.435 Y108.681 E20.62669
G1 X97.612 Y108.681 E20.71824
G1 X95.175 Y106.241 E20.83007
G1 X93.877 Y106.777 E20.87561
G1 X93.877 Y111.926 E21.04258
G1 X91.063 Y111.926 E21.13384
G1 X91.063 Y110.46 E21.18138
G1 X89.408 Y110.099 E21.23631
G1 X88.886 Y111.247 E21.27721
G1 X88.688 Y111.503 E21.2877
G1 X88.449 Y111.696 E21.29766
G1 X88.147 Y111.841 E21.30853
G1 X87.824 Y111.91 E21.31924
G1 X87.499 Y111.905 E21.32978
G1 X87.205 Y111.831 E21.33961
G1 X86.198 Y111.332 E21.37605
G1 X85.487 Y111.944 E21.40648
G1 X75.045 Y111.944 E21.7451
G1 X75.045 Y109.543 E21.82296
G1 X78.477 Y109.543 E21.93425
G1 X78.477 Y98.383 E22.29616
G0 F2160 X82.089 Y108.821
G0 X85.137 Y110.031
G0 X97.929 Y104.797
G0 X101.933 Y108.81
G0 X105.833 Y108.802
G0 X118.717 Y106.687
G1 F900 X119.437 Y106.288 E22.32285
G1 X119.917 Y105.857 E22.34377
G1 X120.355 Y105.227 E22.36865
G1 X120.602 Y104.625 E22.38975
G1 X120.724 Y103.813 E22.41638
G1 X120.636 Y103.102 E22.43961
G1 X120.339 Y102.339 E22.46617
G1 X119.951 Y101.783 E22.48815
G1 X119.353 Y101.249 E22.51415
G1 X118.755 Y100.918 E22.53632
G1 X117.954 Y100.711 E22.56314
G1 X117.284 Y100.695 E22.58488
G1 X116.517 Y100.862 E22.61033
G1 X115.819 Y101.214 E22.63568
G1 X115.239 Y101.723 E22.66071
G1 X114.796 Y102.359 E22.68584
G1 X114.546 Y103.05 E22.70967
G1 X114.467 Y103.516 E22.725
G1 X114.506 Y104.32 E22.7511
G1 X114.737 Y105.083 E22.77695
G1 X115.154 Y105.753 E22.80255
G1 X115.714 Y106.296 E22.82784
G1 X116.389 Y106.683 E22.85307
G1 X117.032 Y106.875 E22.87483
G1 X117.821 Y106.9 E22.90043
G1 X118.717 Y106.687 E22.9303
G0 F2160 X118.608 Y106.405
G1 F900 X119.262 Y106.042 E22.95456
G1 X119.691 Y105.657 E22.97325
G1 X120.09 Y105.083 E22.99592
G1 X120.311 Y104.545 E23.01478
G1 X120.421 Y103.809 E23.03891
G1 X120.343 Y103.176 E23.05959
G1 X120.072 Y102.481 E23.08379
G1 X119.725 Y101.983 E23.10347
G1 X119.178 Y101.495 E23.12724
G1 X118.643 Y101.199 E23.14707
G1 X117.912 Y101.01 E23.17155
G1 X117.313 Y100.996 E23.19098
G1 X116.618 Y101.147 E23.21405
G1 X115.988 Y101.465 E23.23693
G1 X115.464 Y101.924 E23.25952
G1 X115.444 Y101.954 E23.26069
G1 X115.065 Y102.498 E23.28219
G1 X114.837 Y103.127 E23.30389
G1 X114.768 Y103.534 E23.31727
G1 X114.804 Y104.268 E23.34111
G1 X115.013 Y104.958 E23.36448
G1 X115.389 Y105.563 E23.38758
G1 X115.896 Y106.054 E23.41047
G1 X116.508 Y106.405 E23.43335
G1 X117.081 Y106.576 E23.45274
G1 X117.791 Y106.599 E23.47578
G1 X118.608 Y106.405 E23.50301
G0 F2160 X118.498 Y106.123
G1 F900 X119.087 Y105.796 E23.52486
G1 X119.465 Y105.457 E23.54132
G1 X119.825 Y104.939 E23.56178
G1 X120.02 Y104.465 E23.5784
G1 X120.118 Y103.805 E23.60004
G1 X120.05 Y103.25 E23.61817
G1 X119.805 Y102.623 E23.64
G1 X119.499 Y102.183 E23.65738
G1 X119.003 Y101.741 E23.67892
G1 X118.531 Y101.48 E23.69641
G1 X117.87 Y101.309 E23.71855
G1 X117.342 Y101.297 E23.73568
G1 X116.719 Y101.432 E23.75635
G1 X116.157 Y101.716 E23.77677
G1 X115.689 Y102.125 E23.79693
G1 X115.334 Y102.637 E23.81713
G1 X115.128 Y103.204 E23.8367
G1 X115.069 Y103.552 E23.84814
G1 X115.102 Y104.216 E23.8697
G1 X115.289 Y104.833 E23.89061
G1 X115.624 Y105.373 E23.91122
G1 X116.078 Y105.812 E23.9317
G1 X116.627 Y106.127 E23.95222
G1 X117.13 Y106.277 E23.96924
G1 X117.761 Y106.298 E23.98972
G1 X118.498 Y106.123 E24.01428
G0 F2160 X118.407 Y105.888
;TYPE:WALL-OUTER
G1 F900 X118.941 Y105.591 E24.0341
G1 X119.276 Y105.29 E24.0487
G1 X119.604 Y104.819 E24.06731
G1 X119.777 Y104.398 E24.08207
G1 X119.866 Y103.802 E24.10162
G1 X119.806 Y103.312 E24.11762
G1 X119.583 Y102.741 E24.1375
G1 X119.311 Y102.35 E24.15295
G1 X118.858 Y101.946 E24.17263
G1 X118.438 Y101.714 E24.18819
G1 X117.836 Y101.558 E24.20836
G1 X117.366 Y101.548 E24.2236
G1 X116.803 Y101.67 E24.24228
G1 X116.298 Y101.925 E24.26063
G1 X115.877 Y102.293 E24.27876
G1 X115.558 Y102.753 E24.29692
G1 X115.371 Y103.268 E24.31468
