;FLAVOR:Marlin
;TIME:1952
;Filament used: 1.1291m, 0m
;Layer height: 0.2
;MINX:58.585
;MINY:69.499
;MINZ:0.26
;MAXX:176.403
;MAXY:165.543
;MAXZ:1.26
;POSTPROCESSED
;Generated with Cura_SteamEngine 4.8.0
T0
M140 S60
M105
M190 S60
M104 S200
M105
M109 S200
M82 ;absolute extrusion mode
M201 X500.00 Y500.00 Z100.00 E5000.00 	;Setup machine max acceleration
M203 X500.00 Y500.00 Z10.00 E50.00 	;Setup machine max feedrate
M204 P500.00 R1000.00 T500.00 		;Setup Print/Retract/Travel acceleration
M205 X8.00 Y8.00 Z0.40 E5.00 		;Setup Jerk
M220 S100 				;Reset Feedrate
M221 S100 				;Reset Flowrate
G28				;Home the Machine
#G29 				;Bed Level
G92 E0
M300 P150 S587
G92 E0
G1 F1500 E-5.5
;LAYER_COUNT:6
;LAYER:0
M107
G0 F2160 X61.289 Y118.346 Z0.26
;TYPE:SKIRT
G1 F1500 E0
G1 F900 X61.611 Y118.198 E0.01149
G1 X62.177 Y117.972 E0.03126
G1 X62.29 Y117.929 E0.03518
G1 X63.373 Y117.54 E0.07249
G1 X65.925 Y116.583 E0.16088
G1 X68.443 Y115.558 E0.24904
G1 X70.966 Y114.445 E0.33847
G1 X73.414 Y113.282 E0.42635
G1 X75.859 Y112.033 E0.51539
G1 X78.249 Y110.728 E0.60369
G1 X80.625 Y109.34 E0.69293
G1 X82.93 Y107.905 E0.78098
G1 X85.207 Y106.398 E0.86953
G1 X87.432 Y104.832 E0.95776
G1 X89.64 Y103.183 E1.04713
G1 X91.774 Y101.493 E1.1354
G1 X93.84 Y99.759 E1.22287
G1 X95.926 Y97.907 E1.31333
G1 X97.879 Y96.07 E1.40028
G1 X99.816 Y94.142 E1.4889
G1 X101.715 Y92.142 E1.57834
G1 X103.524 Y90.125 E1.6662
G1 X105.309 Y88.019 E1.75573
G1 X107.002 Y85.902 E1.84363
G1 X108.644 Y83.725 E1.93206
G1 X110.232 Y81.492 E2.02091
G1 X111.752 Y79.221 E2.10953
G1 X113.205 Y76.912 E2.198
G1 X114.59 Y74.564 E2.2864
G1 X115.899 Y72.197 E2.37412
G1 X116.319 Y71.397 E2.40342
G1 X116.598 Y70.952 E2.42045
G1 X116.941 Y70.555 E2.43747
G1 X117.354 Y70.204 E2.45504
G1 X117.426 Y70.152 E2.45792
G1 X117.874 Y69.878 E2.47495
G1 X118.358 Y69.675 E2.49197
G1 X118.867 Y69.548 E2.50898
G1 X119.39 Y69.499 E2.52602
G1 X119.914 Y69.531 E2.54304
G1 X120.427 Y69.641 E2.56006
G1 X120.918 Y69.829 E2.57711
G1 X121.374 Y70.088 E2.59411
G1 X121.786 Y70.414 E2.61115
G1 X122.143 Y70.798 E2.62815
G1 X122.439 Y71.232 E2.64519
G1 X122.602 Y71.555 E2.65692
G1 X123.669 Y73.971 E2.74257
G1 X124.82 Y76.392 E2.8295
G1 X126.085 Y78.864 E2.91955
G1 X127.392 Y81.256 E3.00794
G1 X128.762 Y83.599 E3.09596
G1 X130.213 Y85.928 E3.18494
G1 X131.71 Y88.186 E3.2728
G1 X133.284 Y90.42 E3.36142
G1 X134.938 Y92.632 E3.45099
G1 X136.594 Y94.721 E3.53743
G1 X138.396 Y96.867 E3.62831
G1 X140.193 Y98.887 E3.71598
G1 X142.052 Y100.864 E3.80399
G1 X143.998 Y102.816 E3.89337
G1 X145.957 Y104.676 E3.98097
G1 X148.003 Y106.507 E4.07001
G1 X150.097 Y108.281 E4.15901
G1 X152.224 Y109.98 E4.24729
G1 X154.402 Y111.621 E4.33572
G1 X156.636 Y113.208 E4.42458
G1 X158.906 Y114.727 E4.51316
G1 X161.218 Y116.179 E4.60169
G1 X163.555 Y117.557 E4.68967
G1 X163.791 Y117.69 E4.69846
G1 X164.421 Y118.055 E4.72207
G1 X164.933 Y118.384 E4.7418
G1 X165.389 Y118.703 E4.75985
G1 X165.831 Y119.063 E4.77834
G1 X166.307 Y119.533 E4.80003
G1 X166.75 Y120.048 E4.82206
G1 X167.107 Y120.51 E4.84099
G1 X167.867 Y121.645 E4.88529
G1 X167.947 Y121.767 E4.89002
G1 X169.513 Y124.03 E4.97926
G1 X170.224 Y124.999 E5.01824
G1 X170.757 Y125.746 E5.048
G1 X171.047 Y126.193 E5.06527
G1 X171.304 Y126.625 E5.08158
G1 X171.618 Y127.29 E5.10542
G1 X171.913 Y128.11 E5.13368
G1 X172.085 Y128.862 E5.1587
G1 X172.134 Y129.151 E5.16821
G1 X172.21 Y129.765 E5.18827
G1 X172.591 Y132.525 E5.27862
G1 X173.04 Y135.21 E5.3669
G1 X173.569 Y137.91 E5.45612
G1 X174.157 Y140.511 E5.5426
G1 X174.846 Y143.21 E5.63293
G1 X175.601 Y145.847 E5.72188
G1 X176.068 Y147.328 E5.77224
G1 X176.274 Y148.053 E5.79668
G1 X176.384 Y148.717 E5.8185
G1 X176.403 Y149 E5.8277
G1 X176.398 Y149.525 E5.84473
G1 X176.289 Y150.164 E5.86575
G1 X176.141 Y150.667 E5.88275
G1 X175.792 Y151.346 E5.90751
G1 X175.367 Y151.965 E5.93186
G1 X175.268 Y152.089 E5.937
G1 X173.631 Y154.066 E6.02024
G1 X172.454 Y155.559 E6.08189
G1 X172.136 Y155.964 E6.09859
G1 X171.783 Y156.361 E6.11582
G1 X171.34 Y156.772 E6.13542
G1 X170.8 Y157.19 E6.15756
G1 X170.712 Y157.255 E6.16111
G1 X170.268 Y157.533 E6.1781
G1 X169.745 Y157.801 E6.19715
G1 X169.276 Y157.99 E6.21355
G1 X168.737 Y158.163 E6.23191
G1 X168.072 Y158.33 E6.25414
G1 X167.741 Y158.384 E6.26502
G1 X165.209 Y158.732 E6.3479
G1 X162.539 Y159.176 E6.43567
G1 X159.852 Y159.701 E6.52446
G1 X157.19 Y160.301 E6.61295
G1 X154.557 Y160.971 E6.70105
G1 X151.91 Y161.727 E6.79032
G1 X149.273 Y162.561 E6.88001
G1 X147.785 Y163.07 E6.93101
G1 X147.336 Y163.191 E6.94609
G1 X146.748 Y163.307 E6.96553
G1 X146.431 Y163.354 E6.97592
G1 X145.272 Y163.473 E7.0137
G1 X142.507 Y163.795 E7.10397
G1 X139.821 Y164.185 E7.19199
G1 X137.127 Y164.654 E7.28067
G1 X133.457 Y165.42 E7.40224
G1 X132.74 Y165.526 E7.42575
G1 X131.944 Y165.543 E7.45157
G1 X131.25 Y165.481 E7.47416
G1 X130.873 Y165.418 E7.48656
G1 X129.248 Y165.053 E7.54057
G1 X126.583 Y164.501 E7.62882
G1 X123.846 Y164.013 E7.71898
G1 X121.167 Y163.614 E7.80682
G1 X118.483 Y163.291 E7.89448
G1 X115.719 Y163.038 E7.98449
G1 X113.022 Y162.868 E8.07212
G1 X110.283 Y162.772 E8.161
G1 X107.543 Y162.754 E8.24986
G1 X104.843 Y162.813 E8.33743
G1 X102.068 Y162.952 E8.42754
G1 X99.376 Y163.163 E8.5151
G1 X96.682 Y163.451 E8.60296
G1 X93.942 Y163.823 E8.69263
G1 X91.266 Y164.264 E8.78058
G1 X89.673 Y164.562 E8.83314
G1 X89.043 Y164.684 E8.85395
G1 X88.731 Y164.73 E8.86417
G1 X85.677 Y165.034 E8.9637
G1 X84.057 Y165.223 E9.01659
G1 X83.509 Y165.257 E9.0344
G1 X82.874 Y165.257 E9.05499
G1 X82.346 Y165.229 E9.07213
G1 X81.819 Y165.165 E9.08935
G1 X81.093 Y165.025 E9.11333
G1 X80.476 Y164.84 E9.13421
G1 X79.942 Y164.62 E9.15294
G1 X79.375 Y164.316 E9.17381
G1 X78.833 Y163.939 E9.19522
G1 X78.417 Y163.564 E9.21338
G1 X77.92 Y162.979 E9.23827
G1 X77.582 Y162.472 E9.25803
G1 X77.333 Y162.071 E9.27334
G1 X76.269 Y160.308 E9.34012
G1 X74.795 Y158.012 E9.42859
G1 X73.265 Y155.773 E9.51654
G1 X71.637 Y153.529 E9.60644
G1 X69.974 Y151.369 E9.69484
G1 X68.27 Y149.278 E9.78231
G1 X66.459 Y147.183 E9.87212
G1 X65.519 Y146.14 E9.91765
G1 X64.961 Y145.53 E9.94446
G1 X64.616 Y145.135 E9.96146
G1 X64.245 Y144.674 E9.98065
G1 X63.812 Y144.087 E10.00431
G1 X63.446 Y143.542 E10.0256
G1 X63.178 Y143.116 E10.04192
G1 X62.889 Y142.626 E10.06037
G1 X62.799 Y142.462 E10.06643
G1 X62.419 Y141.727 E10.09327
G1 X62.218 Y141.302 E10.10851
G1 X61.899 Y140.573 E10.13432
G1 X61.852 Y140.459 E10.13831
G1 X61.598 Y139.817 E10.1607
G1 X61.558 Y139.711 E10.16438
G1 X61.123 Y138.493 E10.20632
G1 X60.794 Y137.471 E10.24114
G1 X60.51 Y136.507 E10.27373
G1 X60.247 Y135.521 E10.30682
G1 X60.18 Y135.24 E10.31619
G1 X59.978 Y134.344 E10.34597
G1 X59.769 Y133.297 E10.38059
G1 X59.749 Y133.189 E10.38416
G1 X59.482 Y131.577 E10.43714
G1 X59.405 Y131.017 E10.45547
G1 X59.205 Y129.493 E10.50532
G1 X59.054 Y128.299 E10.54435
G1 X58.953 Y127.428 E10.57278
G1 X58.865 Y126.585 E10.60027
G1 X58.795 Y125.821 E10.62515
G1 X58.75 Y125.202 E10.64527
G1 X58.588 Y123.26 E10.70847
G1 X58.585 Y122.575 E10.73068
G1 X58.639 Y122.053 E10.7477
G1 X58.716 Y121.719 E10.75882
G1 X58.862 Y121.207 E10.77608
G1 X59.044 Y120.714 E10.79312
G1 X59.329 Y120.21 E10.8119
G1 X59.575 Y119.849 E10.82607
G1 X59.986 Y119.352 E10.84698
G1 X60.169 Y119.169 E10.85537
G1 X60.563 Y118.831 E10.87221
G1 X60.844 Y118.624 E10.88352
G1 X61.289 Y118.346 E10.90054
G0 F2160 X61.448 Y118.601
G1 F900 X61.722 Y118.477 E10.91029
G1 X62.391 Y118.211 E10.93364
G1 X63.474 Y117.823 E10.97095
G1 X66.038 Y116.861 E11.05975
G1 X68.571 Y115.829 E11.14845
G1 X71.081 Y114.722 E11.23741
G1 X73.545 Y113.552 E11.32587
G1 X75.991 Y112.303 E11.41493
G1 X78.411 Y110.982 E11.50434
G1 X80.76 Y109.609 E11.59257
G1 X83.088 Y108.16 E11.68149
G1 X85.387 Y106.638 E11.7709
G1 X87.634 Y105.057 E11.86
G1 X89.792 Y103.445 E11.94735
G1 X91.957 Y101.73 E12.03692
G1 X94.058 Y99.967 E12.12586
G1 X96.101 Y98.153 E12.21446
G1 X98.12 Y96.254 E12.30434
G1 X100.033 Y94.35 E12.39187
G1 X101.927 Y92.356 E12.48105
G1 X103.749 Y90.325 E12.56953
G1 X105.539 Y88.213 E12.65931
G1 X107.245 Y86.078 E12.74793
G1 X108.885 Y83.905 E12.83622
G1 X110.466 Y81.682 E12.92468
G1 X112.011 Y79.373 E13.01477
G1 X113.447 Y77.09 E13.10223
G1 X114.85 Y74.712 E13.19177
G1 X116.197 Y72.277 E13.28201
G1 X116.585 Y71.537 E13.30911
G1 X116.853 Y71.113 E13.32537
G1 X117.184 Y70.736 E13.34164
G1 X117.602 Y70.395 E13.35914
G1 X118.03 Y70.135 E13.37538
G1 X118.495 Y69.946 E13.39165
G1 X118.984 Y69.833 E13.40793
G1 X119.484 Y69.799 E13.42418
G1 X119.984 Y69.845 E13.44046
G1 X120.47 Y69.97 E13.45674
G1 X120.929 Y70.17 E13.47297
G1 X121.352 Y70.441 E13.48926
G1 X121.726 Y70.775 E13.50552
G1 X122.042 Y71.165 E13.5218
G1 X122.328 Y71.676 E13.54079
G1 X123.392 Y74.086 E13.62622
G1 X124.565 Y76.551 E13.71475
G1 X125.815 Y78.996 E13.8038
G1 X127.13 Y81.402 E13.89271
G1 X128.493 Y83.734 E13.98031
G1 X129.969 Y86.102 E14.07079
G1 X131.459 Y88.35 E14.15825
G1 X133.055 Y90.615 E14.24811
G1 X134.694 Y92.806 E14.33684
G1 X136.384 Y94.939 E14.42509
G1 X138.155 Y97.047 E14.51437
G1 X139.963 Y99.079 E14.60257
G1 X141.85 Y101.086 E14.69191
G1 X143.773 Y103.015 E14.78024
G1 X145.781 Y104.921 E14.87002
G1 X147.802 Y106.73 E14.95797
G1 X149.911 Y108.517 E15.04762
G1 X152.048 Y110.223 E15.13629
G1 X154.221 Y111.862 E15.22456
G1 X156.445 Y113.442 E15.31302
G1 X158.754 Y114.986 E15.4031
G1 X161.039 Y116.421 E15.4906
G1 X163.442 Y117.838 E15.58107
G1 X163.64 Y117.949 E15.58843
G1 X164.27 Y118.314 E15.61204
G1 X164.768 Y118.635 E15.63125
G1 X165.216 Y118.949 E15.64899
G1 X165.628 Y119.284 E15.66621
G1 X166.08 Y119.729 E15.68678
G1 X166.523 Y120.244 E15.70881
G1 X166.858 Y120.677 E15.72656
G1 X167.616 Y121.809 E15.77074
G1 X167.709 Y121.952 E15.77628
G1 X169.268 Y124.204 E15.8651
G1 X169.98 Y125.173 E15.90409
G1 X170.513 Y125.92 E15.93385
G1 X170.793 Y126.354 E15.9506
G1 X171.24 Y127.164 E15.9806
G1 X171.507 Y127.829 E16.00384
G1 X171.676 Y128.391 E16.02287
G1 X171.792 Y128.924 E16.04056
G1 X171.836 Y129.188 E16.04924
G1 X171.918 Y129.849 E16.07084
G1 X172.291 Y132.549 E16.15923
G1 X172.746 Y135.273 E16.24878
G1 X173.268 Y137.935 E16.33675
G1 X173.873 Y140.612 E16.42575
G1 X174.558 Y143.294 E16.51552
G1 X175.307 Y145.913 E16.60386
G1 X175.78 Y147.414 E16.65489
G1 X175.984 Y148.131 E16.67906
G1 X176.085 Y148.737 E16.69899
G1 X176.104 Y149.02 E16.70819
G1 X176.098 Y149.522 E16.72447
G1 X175.996 Y150.101 E16.74353
G1 X175.852 Y150.582 E16.75981
G1 X175.542 Y151.18 E16.78166
G1 X175.132 Y151.779 E16.8052
G1 X175.037 Y151.897 E16.81011
G1 X173.415 Y153.856 E16.89259
G1 X172.196 Y155.402 E16.95643
G1 X171.797 Y155.898 E16.97707
G1 X171.56 Y156.16 E16.98853
G1 X171.156 Y156.535 E17.0064
G1 X170.622 Y156.949 E17.02832
G1 X170.128 Y157.268 E17.04739
G1 X169.613 Y157.531 E17.06614
G1 X169.185 Y157.704 E17.08111
G1 X168.646 Y157.877 E17.09947
G1 X168.022 Y158.034 E17.12033
G1 X167.7 Y158.087 E17.13091
G1 X165.157 Y158.436 E17.21415
G1 X162.464 Y158.884 E17.30268
G1 X159.8 Y159.405 E17.39071
G1 X157.148 Y160.002 E17.47886
G1 X154.44 Y160.692 E17.56949
G1 X151.82 Y161.44 E17.65784
G1 X149.206 Y162.266 E17.74674
G1 X147.688 Y162.786 E17.79878
G1 X147.278 Y162.896 E17.81254
G1 X146.69 Y163.012 E17.83198
G1 X146.401 Y163.056 E17.84146
G1 X145.2 Y163.179 E17.88061
G1 X142.466 Y163.497 E17.96987
G1 X139.764 Y163.89 E18.05841
G1 X137.102 Y164.353 E18.14603
G1 X133.396 Y165.127 E18.26881
G1 X132.721 Y165.227 E18.29094
G1 X131.967 Y165.244 E18.31539
G1 X131.283 Y165.183 E18.33766
G1 X130.939 Y165.125 E18.34897
G1 X129.316 Y164.761 E18.40291
G1 X126.625 Y164.203 E18.49204
G1 X123.94 Y163.725 E18.58048
G1 X121.18 Y163.313 E18.67097
G1 X118.509 Y162.992 E18.75821
G1 X115.767 Y162.74 E18.8475
G1 X113.016 Y162.567 E18.93689
G1 X110.296 Y162.472 E19.02515
G1 X107.539 Y162.454 E19.11456
G1 X104.821 Y162.513 E19.20272
G1 X102.066 Y162.651 E19.29217
G1 X99.354 Y162.864 E19.38039
G1 X96.612 Y163.158 E19.46982
G1 X93.92 Y163.522 E19.55791
G1 X91.204 Y163.97 E19.64718
G1 X89.634 Y164.265 E19.69898
G1 X88.987 Y164.39 E19.72035
G1 X88.701 Y164.431 E19.72972
G1 X85.662 Y164.734 E19.82876
G1 X84.023 Y164.925 E19.88227
G1 X83.506 Y164.957 E19.89907
G1 X82.879 Y164.958 E19.9194
G1 X82.364 Y164.929 E19.93613
G1 X81.861 Y164.868 E19.95256
G1 X81.172 Y164.736 E19.97531
G1 X80.567 Y164.554 E19.9958
G1 X80.079 Y164.353 E20.01291
G1 X79.522 Y164.054 E20.03341
G1 X79.027 Y163.71 E20.05296
G1 X78.623 Y163.345 E20.07062
G1 X78.169 Y162.811 E20.09335
G1 X77.837 Y162.314 E20.11273
G1 X77.59 Y161.916 E20.12792
G1 X76.536 Y160.169 E20.19408
G1 X75.05 Y157.855 E20.28326
G1 X73.494 Y155.578 E20.3727
G1 X71.874 Y153.345 E20.46216
G1 X70.231 Y151.21 E20.54952
G1 X68.485 Y149.067 E20.63916
G1 X66.67 Y146.968 E20.72915
G1 X65.742 Y145.939 E20.77408
G1 X65.187 Y145.332 E20.80076
G1 X64.842 Y144.937 E20.81776
G1 X64.486 Y144.496 E20.83614
G1 X64.058 Y143.915 E20.85954
G1 X63.696 Y143.377 E20.88057
G1 X63.437 Y142.963 E20.89641
G1 X63.148 Y142.473 E20.91486
G1 X63.065 Y142.324 E20.92039
G1 X62.69 Y141.598 E20.94689
G1 X62.493 Y141.182 E20.96181
G1 X62.174 Y140.453 E20.98762
G1 X62.131 Y140.349 E20.99127
G1 X61.84 Y139.61 E21.01702
G1 X61.44 Y138.493 E21.0555
G1 X61.105 Y137.46 E21.09071
G1 X60.822 Y136.507 E21.12295
G1 X60.562 Y135.542 E21.15536
G1 X60.473 Y135.174 E21.16764
G1 X60.255 Y134.201 E21.19997
G1 X60.045 Y133.14 E21.23505
G1 X59.779 Y131.536 E21.28778
G1 X59.703 Y130.978 E21.30604
G1 X59.503 Y129.456 E21.35582
G1 X59.352 Y128.264 E21.39478
G1 X59.251 Y127.397 E21.42309
G1 X59.163 Y126.557 E21.45048
G1 X59.094 Y125.795 E21.47529
G1 X59.049 Y125.181 E21.49525
G1 X58.887 Y123.235 E21.55858
G1 X58.885 Y122.583 E21.57972
G1 X58.938 Y122.084 E21.59599
G1 X59.005 Y121.801 E21.60542
G1 X59.151 Y121.289 E21.62269
G1 X59.326 Y120.819 E21.63895
G1 X59.577 Y120.379 E21.65538
G1 X59.823 Y120.018 E21.66955
G1 X60.199 Y119.565 E21.68864
G1 X60.741 Y119.073 E21.71238
G1 X61.022 Y118.866 E21.72369
G1 X61.448 Y118.601 E21.73996
G1 F1500 E16.23996
;MESH:Aninhas.stl
G0 F2160 X66.542 Y121.005
G0 X66.09 Y121.824
G0 X67.872 Y133.043
G0 X71.546 Y133.525
G0 X72.932 Y133.607
G0 X73.071 Y125.345
G0 X92.753 Y135.274
G0 X95.487 Y125.952
G0 X103.437 Y125.548
G0 X117.017 Y135.615
G0 X120.524 Y125.952
G0 X121.651 Y127.308
G0 X122.236 Y129.312
G0 X123.556 Y142.269
G0 X122.169 Y143.927
G0 X109.882 Y150.644
G0 X108.698 Y150.918
G0 X101.11 Y141.688
G0 X99.728 Y138.794
;TYPE:WALL-INNER
G1 F1500 E21.73996
G1 F900 X99.915 Y138.592 E21.74889
G1 X100.126 Y138.458 E21.757
G1 X100.426 Y138.392 E21.76696
G1 X100.669 Y138.427 E21.77492
G1 X100.981 Y138.54 E21.78568
G1 X101.221 Y138.684 E21.79476
G1 X101.417 Y138.877 E21.80368
G1 X101.609 Y139.291 E21.81848
G1 X101.625 Y139.556 E21.82708
G1 X101.503 Y140.006 E21.8422
G1 X101.285 Y140.313 E21.85441
G1 X101.152 Y140.43 E21.86016
G1 X100.459 Y140.828 E21.88607
G1 X99.862 Y140.353 E21.91081
G1 X99.739 Y140.192 E21.91738
G1 X99.608 Y139.909 E21.9275
G1 X99.548 Y139.592 E21.93796
G1 X99.608 Y139.035 E21.95613
G1 X99.728 Y138.794 E21.96486
G0 F2160 X101.11 Y141.688
G0 X108.698 Y150.918
G0 X109.882 Y150.644
G0 X122.169 Y143.927
G0 X122.562 Y143.458
G0 X134.662 Y143.311
G1 F900 X134.922 Y143.404 E21.97381
G1 X135.275 Y143.569 E21.98645
G1 X135.472 Y143.662 E21.99351
G1 X136.015 Y143.971 E22.01377
G1 X136.521 Y144.321 E22.03372
G1 X137.019 Y144.74 E22.05483
G1 X137.389 Y145.116 E22.07194
G1 X137.75 Y145.55 E22.09024
G1 X138.048 Y145.978 E22.10716
G1 X138.684 Y147.067 E22.14805
G1 X140.053 Y146.905 E22.19276
G1 X140.41 Y145.709 E22.23323
G1 X140.622 Y145.212 E22.25075
G1 X140.895 Y144.726 E22.26883
G1 X141.192 Y144.311 E22.28538
