;FLAVOR:Marlin
;TIME:3150
;Filament used: 5.00917m, 0m
;Layer height: 0.28
;MINX:48.409
;MINY:78.416
;MINZ:0.26
;MAXX:186.593
;MAXY:150.596
;MAXZ:5.86
;Generated with Cura_SteamEngine 4.8.0
T0
M140 S60
M105
M190 S60
M104 S200
M105
M109 S200
M82 ;absolute extrusion mode
M201 X500.00 Y500.00 Z100.00 E5000.00 	;Setup machine max acceleration
M203 X500.00 Y500.00 Z10.00 E50.00 	;Setup machine max feedrate
M204 P500.00 R1000.00 T500.00 		;Setup Print/Retract/Travel acceleration
M205 X8.00 Y8.00 Z0.40 E5.00 		;Setup Jerk
M220 S100 				;Reset Feedrate
M221 S100 				;Reset Flowrate
G28				;Home the Machine
#G29 				;Bed Level
G92 E0
M300 P150 S587
G92 E0
G1 F1500 E-6.5
;LAYER_COUNT:21
;LAYER:0
M107
G0 F2160 X70.407 Y80.983 Z0.26
;TYPE:SKIRT
G1 F1500 E0
G1 F900 X70.842 Y80.639 E0.02398
G1 X71.539 Y80.155 E0.06067
G1 X72.008 Y79.872 E0.08435
G1 X72.473 Y79.622 E0.10718
G1 X73.257 Y79.262 E0.14448
G1 X73.787 Y79.056 E0.16907
G1 X74.514 Y78.825 E0.20205
G1 X75.092 Y78.682 E0.2278
G1 X75.631 Y78.574 E0.25157
G1 X76.186 Y78.494 E0.27581
G1 X76.968 Y78.429 E0.30974
G1 X77.544 Y78.416 E0.33465
G1 X78.118 Y78.434 E0.35948
G1 X78.927 Y78.508 E0.39461
G1 X79.471 Y78.592 E0.41841
G1 X80.052 Y78.714 E0.44408
G1 X80.814 Y78.924 E0.47825
G1 X81.357 Y79.108 E0.50304
G1 X81.938 Y79.338 E0.53006
G1 X84.542 Y80.327 E0.6505
G1 X87.128 Y81.227 E0.76889
G1 X89.692 Y82.038 E0.88517
G1 X92.34 Y82.794 E1.00424
G1 X94.986 Y83.471 E1.12233
G1 X97.659 Y84.075 E1.24082
G1 X100.291 Y84.588 E1.35677
G1 X103.011 Y85.042 E1.476
G1 X105.683 Y85.41 E1.59262
G1 X108.427 Y85.708 E1.71197
G1 X111.119 Y85.925 E1.82874
G1 X113.845 Y86.067 E1.94677
G1 X116.575 Y86.132 E2.06484
G1 X119.305 Y86.12 E2.18288
G1 X122.034 Y86.03 E2.30095
G1 X124.722 Y85.866 E2.41739
G1 X127.481 Y85.618 E2.53716
G1 X130.162 Y85.301 E2.65389
G1 X132.859 Y84.905 E2.77175
G1 X135.586 Y84.425 E2.89148
G1 X138.199 Y83.889 E3.00681
G1 X140.865 Y83.263 E3.12522
G1 X143.523 Y82.558 E3.24412
G1 X146.134 Y81.786 E3.36185
G1 X148.704 Y80.947 E3.47874
G1 X151.304 Y80.015 E3.59816
G1 X153.105 Y79.321 E3.68162
G1 X153.61 Y79.121 E3.7051
G1 X154.132 Y78.941 E3.72898
G1 X154.708 Y78.773 E3.75492
G1 X155.412 Y78.613 E3.78614
G1 X156.065 Y78.51 E3.81472
G1 X156.615 Y78.45 E3.83864
G1 X157.334 Y78.417 E3.86976
G1 X158.013 Y78.429 E3.89913
G1 X158.557 Y78.465 E3.9227
G1 X159.273 Y78.557 E3.95391
G1 X159.925 Y78.685 E3.98264
G1 X160.433 Y78.811 E4.00527
G1 X160.924 Y78.958 E4.02743
G1 X161.712 Y79.248 E4.06374
G1 X162.23 Y79.475 E4.08819
G1 X162.736 Y79.73 E4.11269
G1 X163.442 Y80.144 E4.14808
G1 X163.918 Y80.461 E4.17281
G1 X164.325 Y80.765 E4.19477
G1 X164.991 Y81.33 E4.23253
G1 X165.391 Y81.715 E4.25654
G1 X165.742 Y82.088 E4.27869
G1 X166.276 Y82.729 E4.31476
G1 X166.617 Y83.193 E4.33966
G1 X166.918 Y83.654 E4.36346
G1 X167.137 Y84.021 E4.38194
G1 X168.623 Y86.774 E4.51721
G1 X169.982 Y89.141 E4.63522
G1 X171.403 Y91.462 E4.75289
G1 X172.91 Y93.775 E4.87226
G1 X174.441 Y95.982 E4.9884
G1 X176.064 Y98.188 E5.10681
G1 X177.746 Y100.344 E5.22505
G1 X179.723 Y102.728 E5.35896
G1 X180.397 Y103.555 E5.40509
G1 X180.614 Y103.836 E5.42044
G1 X181.18 Y104.602 E5.46162
G1 X181.412 Y104.933 E5.4791
G1 X181.97 Y105.768 E5.52252
G1 X182.155 Y106.062 E5.53754
G1 X182.679 Y106.929 E5.58135
G1 X182.885 Y107.291 E5.59935
G1 X183.337 Y108.131 E5.6406
G1 X183.493 Y108.438 E5.65549
G1 X183.95 Y109.388 E5.70107
G1 X184.11 Y109.744 E5.71795
G1 X184.474 Y110.601 E5.75821
G1 X184.634 Y111.009 E5.77715
G1 X184.985 Y111.963 E5.82111
G1 X185.091 Y112.276 E5.8354
G1 X185.391 Y113.225 E5.87843
G1 X185.516 Y113.66 E5.898
G1 X185.748 Y114.54 E5.93735
G1 X185.843 Y114.943 E5.95525
G1 X186.03 Y115.808 E5.99352
G1 X186.119 Y116.281 E6.01433
G1 X186.29 Y117.314 E6.0596
G1 X186.337 Y117.652 E6.07436
G1 X186.445 Y118.574 E6.11449
G1 X186.486 Y119.015 E6.13364
G1 X186.553 Y119.98 E6.17547
G1 X186.572 Y120.412 E6.19417
G1 X186.593 Y121.378 E6.23594
G1 X186.591 Y121.777 E6.2532
G1 X186.566 Y122.778 E6.29649
G1 X186.55 Y123.081 E6.30961
G1 X186.467 Y124.212 E6.35864
G1 X186.44 Y124.479 E6.37025
G1 X186.319 Y125.492 E6.41436
G1 X186.263 Y125.867 E6.43075
G1 X186.095 Y126.86 E6.4743
G1 X186.022 Y127.237 E6.4909
G1 X185.808 Y128.219 E6.53436
G1 X185.733 Y128.525 E6.54798
G1 X185.461 Y129.541 E6.59346
G1 X185.354 Y129.901 E6.6097
G1 X185.054 Y130.838 E6.65224
G1 X184.92 Y131.225 E6.66995
G1 X184.575 Y132.149 E6.71259
G1 X184.439 Y132.487 E6.72834
G1 X184.044 Y133.413 E6.77187
G1 X183.893 Y133.744 E6.7876
G1 X183.46 Y134.636 E6.83048
G1 X183.281 Y134.981 E6.84728
G1 X182.781 Y135.9 E6.89252
G1 X182.626 Y136.166 E6.90583
G1 X182.06 Y137.099 E6.95301
G1 X181.885 Y137.369 E6.96693
G1 X181.335 Y138.186 E7.00951
G1 X181.106 Y138.508 E7.0266
G1 X180.487 Y139.337 E7.07133
G1 X180.292 Y139.584 E7.08494
G1 X179.636 Y140.383 E7.12964
G1 X179.41 Y140.643 E7.14453
G1 X178.675 Y141.454 E7.19186
G1 X178.463 Y141.675 E7.2051
G1 X177.819 Y142.325 E7.24466
G1 X177.505 Y142.626 E7.26347
G1 X176.791 Y143.281 E7.30536
G1 X176.463 Y143.566 E7.32415
G1 X175.665 Y144.229 E7.36901
G1 X175.432 Y144.412 E7.38182
G1 X174.583 Y145.053 E7.42782
G1 X174.323 Y145.24 E7.44166
G1 X173.472 Y145.821 E7.48622
G1 X173.152 Y146.027 E7.50267
G1 X172.252 Y146.579 E7.54832
G1 X171.987 Y146.732 E7.56155
G1 X171.098 Y147.222 E7.60545
G1 X170.791 Y147.382 E7.62041
G1 X169.842 Y147.849 E7.66615
G1 X169.514 Y148 E7.68176
G1 X168.685 Y148.36 E7.72084
G1 X168.299 Y148.518 E7.73887
G1 X167.348 Y148.879 E7.78285
G1 X166.988 Y149.005 E7.79935
G1 X166.02 Y149.32 E7.84336
G1 X165.657 Y149.429 E7.85975
G1 X164.675 Y149.698 E7.90377
G1 X164.31 Y149.788 E7.92003
G1 X163.387 Y149.995 E7.96093
G1 X162.95 Y150.081 E7.98018
G1 X162.029 Y150.242 E8.02061
G1 X161.643 Y150.299 E8.03748
G1 X160.602 Y150.431 E8.08285
G1 X160.294 Y150.462 E8.09624
G1 X159.342 Y150.538 E8.13753
G1 X158.886 Y150.563 E8.15728
G1 X157.896 Y150.594 E8.2001
G1 X157.492 Y150.596 E8.21757
G1 X156.589 Y150.582 E8.25662
G1 X156.146 Y150.564 E8.27579
G1 X155.124 Y150.499 E8.32007
G1 X154.739 Y150.464 E8.33679
G1 X153.766 Y150.356 E8.37912
G1 X153.419 Y150.309 E8.39426
G1 X152.593 Y150.178 E8.43042
G1 X149.898 Y149.79 E8.54815
G1 X147.208 Y149.48 E8.66523
G1 X144.463 Y149.244 E8.78435
G1 X141.731 Y149.085 E8.90268
G1 X139.038 Y149.005 E9.01917
G1 X136.309 Y149.001 E9.13717
G1 X133.579 Y149.074 E9.25525
G1 X130.816 Y149.227 E9.3749
G1 X128.163 Y149.449 E9.49001
G1 X125.392 Y149.76 E9.61058
G1 X123.029 Y150.09 E9.71374
G1 X121.716 Y150.289 E9.77116
G1 X120.615 Y150.429 E9.81915
G1 X120.348 Y150.456 E9.83075
G1 X119.285 Y150.541 E9.87686
G1 X118.916 Y150.561 E9.89284
G1 X117.879 Y150.594 E9.9377
G1 X117.551 Y150.596 E9.95188
G1 X116.583 Y150.582 E9.99374
G1 X116.192 Y150.566 E10.01066
G1 X115.153 Y150.501 E10.05567
G1 X114.801 Y150.47 E10.07095
G1 X113.768 Y150.356 E10.11589
G1 X113.456 Y150.312 E10.12951
G1 X112.589 Y150.176 E10.16746
G1 X109.839 Y149.782 E10.28758
G1 X107.127 Y149.472 E10.4056
G1 X104.407 Y149.239 E10.52364
G1 X101.674 Y149.081 E10.64201
G1 X98.985 Y149.003 E10.75833
G1 X96.253 Y149.001 E10.87645
G1 X93.486 Y149.077 E10.99614
G1 X90.8 Y149.227 E11.11246
G1 X88.071 Y149.457 E11.23087
G1 X85.368 Y149.762 E11.34849
G1 X82.863 Y150.113 E11.45786
G1 X81.672 Y150.295 E11.50995
G1 X80.771 Y150.412 E11.54924
G1 X80.345 Y150.456 E11.56775
G1 X79.307 Y150.54 E11.61278
G1 X78.943 Y150.56 E11.62854
G1 X77.924 Y150.593 E11.67263
G1 X77.546 Y150.596 E11.68897
G1 X76.599 Y150.583 E11.72992
G1 X76.219 Y150.568 E11.74636
G1 X75.207 Y150.506 E11.7902
G1 X74.835 Y150.473 E11.80635
G1 X73.818 Y150.362 E11.85059
G1 X73.466 Y150.315 E11.86594
G1 X72.458 Y150.156 E11.91006
G1 X72.073 Y150.085 E11.92699
G1 X71.164 Y149.898 E11.96712
G1 X70.728 Y149.796 E11.98648
G1 X69.791 Y149.557 E12.02829
G1 X69.461 Y149.463 E12.04313
G1 X68.44 Y149.149 E12.08931
G1 X68.094 Y149.033 E12.10509
G1 X67.22 Y148.72 E12.14523
G1 X66.851 Y148.577 E12.16234
G1 X65.884 Y148.177 E12.20759
G1 X65.564 Y148.034 E12.22274
G1 X64.632 Y147.596 E12.26727
G1 X64.344 Y147.452 E12.28119
G1 X63.457 Y146.983 E12.32458
G1 X63.066 Y146.762 E12.344
G1 X62.239 Y146.272 E12.38556
G1 X61.926 Y146.076 E12.40153
G1 X61.167 Y145.579 E12.44076
G1 X60.769 Y145.304 E12.46167
G1 X59.94 Y144.7 E12.50602
G1 X59.666 Y144.489 E12.52097
G1 X58.947 Y143.913 E12.56081
G1 X58.602 Y143.623 E12.5803
G1 X57.91 Y143.013 E12.62018
G1 X57.56 Y142.688 E12.64083
G1 X56.875 Y142.022 E12.68214
G1 X56.592 Y141.732 E12.69966
G1 X55.876 Y140.966 E12.745
G1 X55.667 Y140.73 E12.75863
G1 X55.068 Y140.03 E12.79847
G1 X54.765 Y139.655 E12.81931
G1 X54.16 Y138.873 E12.86206
G1 X53.932 Y138.56 E12.87881
G1 X53.364 Y137.749 E12.92162
G1 X53.174 Y137.46 E12.93657
G1 X52.612 Y136.569 E12.98212
G1 X52.441 Y136.283 E12.99653
G1 X51.964 Y135.445 E13.03822
G1 X51.769 Y135.081 E13.05607
G1 X51.34 Y134.234 E13.09713
G1 X51.154 Y133.842 E13.11589
G1 X50.744 Y132.928 E13.1592
G1 X50.614 Y132.617 E13.17378
G1 X50.213 Y131.595 E13.22124
G1 X50.102 Y131.289 E13.23532
G1 X49.791 Y130.372 E13.27719
G1 X49.672 Y129.988 E13.29457
G1 X49.393 Y129.017 E13.33825
G1 X49.3 Y128.657 E13.35433
G1 X49.074 Y127.699 E13.39689
G1 X48.991 Y127.305 E13.4143
G1 X48.81 Y126.328 E13.45726
G1 X48.762 Y126.031 E13.47027
G1 X48.613 Y124.964 E13.51685
G1 X48.575 Y124.617 E13.53195
G1 X48.482 Y123.588 E13.57662
G1 X48.458 Y123.223 E13.59243
G1 X48.418 Y122.314 E13.63178
G1 X48.409 Y121.836 E13.65245
G1 X48.412 Y120.924 E13.69188
G1 X48.425 Y120.505 E13.71001
G1 X48.478 Y119.472 E13.75473
G1 X48.507 Y119.096 E13.77104
G1 X48.612 Y118.054 E13.81632
G1 X48.659 Y117.69 E13.83219
G1 X48.799 Y116.74 E13.87371
G1 X48.861 Y116.386 E13.88925
G1 X49.037 Y115.482 E13.92907
G1 X49.132 Y115.052 E13.94811
G1 X49.38 Y114.042 E13.99308
G1 X49.485 Y113.658 E14.01029
G1 X49.746 Y112.779 E14.04994
G1 X49.874 Y112.385 E14.06785
G1 X50.227 Y111.374 E14.11415
G1 X50.327 Y111.112 E14.12628
G1 X50.741 Y110.084 E14.17419
G1 X50.866 Y109.798 E14.18769
G1 X51.272 Y108.916 E14.22967
G1 X51.446 Y108.558 E14.24688
G1 X51.895 Y107.69 E14.28914
G1 X52.079 Y107.356 E14.30563
G1 X52.611 Y106.437 E14.35154
G1 X52.763 Y106.191 E14.36404
G1 X53.329 Y105.312 E14.40925
G1 X53.544 Y104.996 E14.42577
G1 X54.113 Y104.2 E14.46808
G1 X54.339 Y103.899 E14.48435
G1 X54.975 Y103.091 E14.52881
G1 X55.166 Y102.86 E14.54177
G1 X56.755 Y100.963 E14.64877
G1 X58.469 Y98.802 E14.76803
G1 X60.104 Y96.615 E14.8861
G1 X61.657 Y94.412 E15.00264
G1 X63.178 Y92.119 E15.12161
G1 X64.615 Y89.814 E15.23906
G1 X65.988 Y87.467 E15.35663
G1 X67.172 Y85.285 E15.46397
G1 X67.215 Y85.218 E15.46741
G1 X67.83 Y84.076 E15.52349
G1 X68.139 Y83.563 E15.54939
G1 X68.441 Y83.11 E15.57293
G1 X68.743 Y82.704 E15.59481
G1 X69.059 Y82.312 E15.61658
G1 X69.577 Y81.746 E15.64975
G1 X70.009 Y81.331 E15.67565
G1 X70.407 Y80.983 E15.69851
G0 F2160 X70.356 Y81.555
G1 F900 X71.008 Y81.016 E15.73509
G1 X71.431 Y80.705 E15.75779
G1 X72.043 Y80.313 E15.78922
G1 X72.583 Y80.016 E15.81586
G1 X73.415 Y79.629 E15.85554
G1 X73.913 Y79.435 E15.87865
G1 X74.628 Y79.208 E15.91108
G1 X75.184 Y79.071 E15.93584
G1 X75.689 Y78.969 E15.95812
G1 X76.231 Y78.891 E15.9818
G1 X76.992 Y78.829 E16.01481
G1 X77.533 Y78.816 E16.03821
G1 X78.095 Y78.833 E16.06252
G1 X78.88 Y78.905 E16.0966
G1 X79.391 Y78.984 E16.11896
G1 X79.958 Y79.102 E16.144
G1 X80.7 Y79.307 E16.17729
G1 X81.21 Y79.48 E16.20057
G1 X81.81 Y79.717 E16.22847
G1 X84.411 Y80.705 E16.34877
G1 X86.981 Y81.6 E16.46644
G1 X89.589 Y82.425 E16.58471
G1 X92.245 Y83.184 E16.70415
G1 X94.878 Y83.856 E16.82164
G1 X97.553 Y84.461 E16.94023
G1 X100.261 Y84.99 E17.05953
G1 X102.923 Y85.433 E17.17621
G1 X105.657 Y85.81 E17.29554
G1 X108.352 Y86.103 E17.41276
G1 X111.102 Y86.324 E17.53204
G1 X113.849 Y86.467 E17.65098
G1 X116.568 Y86.532 E17.76858
G1 X119.319 Y86.52 E17.88753
G1 X122.035 Y86.431 E18.00503
G1 X124.784 Y86.262 E18.12411
G1 X127.492 Y86.019 E18.24167
G1 X130.231 Y85.695 E18.36093
G1 X132.921 Y85.3 E18.47848
G1 X135.624 Y84.825 E18.59715
G1 X138.345 Y84.266 E18.71726
G1 X140.945 Y83.655 E18.83274
G1 X143.611 Y82.949 E18.95198
G1 X146.257 Y82.166 E19.0713
G1 X148.858 Y81.317 E19.1896
G1 X151.42 Y80.399 E19.30727
G1 X153.22 Y79.705 E19.39068
G1 X153.757 Y79.492 E19.41566
G1 X154.258 Y79.32 E19.43857
G1 X154.8 Y79.162 E19.46298
G1 X155.495 Y79.004 E19.49379
G1 X156.123 Y78.905 E19.52128
G1 X156.639 Y78.85 E19.54372
G1 X157.346 Y78.816 E19.57433
G1 X158.002 Y78.829 E19.6027
G1 X158.51 Y78.862 E19.62471
G1 X159.215 Y78.953 E19.65544
G1 X159.845 Y79.077 E19.68321
G1 X160.7 Y79.307 E19.72149
G1 X161.211 Y79.48 E19.74481
G1 X161.887 Y79.757 E19.7764
G1 X162.442 Y80.028 E19.80311
G1 X162.889 Y80.274 E19.82517
G1 X163.523 Y80.673 E19.85756
G1 X164.003 Y81.022 E19.88322
G1 X164.41 Y81.349 E19.90579
G1 X164.802 Y81.7 E19.92854
G1 X165.381 Y82.286 E19.96416
G1 X165.719 Y82.671 E19.98631
G1 X166.18 Y83.267 E20.01889
G1 X166.523 Y83.778 E20.0455
G1 X166.785 Y84.211 E20.06739
G1 X168.273 Y86.968 E20.20285
G1 X169.637 Y89.343 E20.32127
G1 X171.064 Y91.674 E20.43945
G1 X172.563 Y93.975 E20.55819
G1 X174.123 Y96.225 E20.67657
G1 X175.743 Y98.426 E20.79473
G1 X177.438 Y100.599 E20.91389
G1 X179.413 Y102.981 E21.04768
G1 X180.081 Y103.8 E21.09338
G1 X180.292 Y104.074 E21.10833
G1 X180.853 Y104.833 E21.14914
G1 X181.08 Y105.155 E21.16618
G1 X181.632 Y105.982 E21.20917
G1 X181.813 Y106.269 E21.22384
G1 X182.332 Y107.127 E21.2672
G1 X182.533 Y107.481 E21.2848
G1 X182.981 Y108.313 E21.32566
G1 X183.133 Y108.612 E21.34016
G1 X183.585 Y109.552 E21.38526
G1 X183.741 Y109.9 E21.40175
G1 X184.142 Y110.846 E21.44618
G1 X184.259 Y111.148 E21.46018
G1 X184.579 Y112.014 E21.5001
G1 X184.709 Y112.396 E21.51755
G1 X185.035 Y113.431 E21.56446
G1 X185.129 Y113.763 E21.57938
G1 X185.359 Y114.632 E21.61825
G1 X185.452 Y115.028 E21.63584
G1 X185.639 Y115.893 E21.6741
G1 X185.724 Y116.347 E21.69408
G1 X185.894 Y117.369 E21.73887
G1 X185.939 Y117.699 E21.75327
G1 X186.055 Y118.694 E21.79659
G1 X186.087 Y119.043 E21.81174
G1 X186.154 Y119.998 E21.85313
G1 X186.172 Y120.422 E21.87148
G1 X186.193 Y121.377 E21.91279
G1 X186.191 Y121.767 E21.92965
G1 X186.166 Y122.758 E21.97251
G1 X186.151 Y123.052 E21.98524
G1 X186.069 Y124.173 E22.03384
G1 X186.043 Y124.432 E22.04509
G1 X185.923 Y125.434 E22.08873
G1 X185.869 Y125.801 E22.10477
G1 X185.702 Y126.785 E22.14792
G1 X185.631 Y127.152 E22.16409
G1 X185.419 Y128.125 E22.20714
G1 X185.347 Y128.421 E22.22031
G1 X185.077 Y129.429 E22.26544
G1 X184.973 Y129.779 E22.28122
G1 X184.676 Y130.708 E22.32339
G1 X184.545 Y131.086 E22.34069
G1 X184.204 Y132.001 E22.38291
G1 X184.071 Y132.33 E22.39826
G1 X183.68 Y133.247 E22.44136
G1 X183.533 Y133.569 E22.45666
G1 X183.103 Y134.455 E22.49925
G1 X182.93 Y134.79 E22.51555
G1 X182.435 Y135.699 E22.5603
G1 X182.284 Y135.959 E22.5733
G1 X181.723 Y136.883 E22.62004
G1 X181.553 Y137.146 E22.63358
G1 X181.008 Y137.955 E22.67576
G1 X180.785 Y138.269 E22.69241
G1 X180.172 Y139.09 E22.73671
G1 X179.983 Y139.331 E22.74996
G1 X179.333 Y140.122 E22.79422
G1 X179.113 Y140.374 E22.80869
G1 X178.385 Y141.178 E22.85558
G1 X178.179 Y141.393 E22.86846
G1 X177.47 Y142.108 E22.912
G1 X177.234 Y142.331 E22.92604
G1 X176.45 Y143.049 E22.972
G1 X176.207 Y143.258 E22.98586
G1 X175.417 Y143.915 E23.03029
G1 X175.19 Y144.093 E23.04276
G1 X174.348 Y144.729 E23.08839
G1 X174.097 Y144.91 E23.10177
G1 X173.313 Y145.446 E23.14283
G1 X172.943 Y145.686 E23.1619
G1 X172.05 Y146.233 E23.20718
G1 X171.794 Y146.382 E23.21999
G1 X170.913 Y146.868 E23.26349
G1 X170.614 Y147.023 E23.27805
G1 X169.674 Y147.486 E23.32336
G1 X169.355 Y147.633 E23.33855
