;FLAVOR:Marlin
;TIME:4812
;Filament used: 3.52635m, 0m
;Layer height: 0.2
;MINX:80.4
;MINY:81.25
;MINZ:0.2
;MAXX:154.05
;MAXY:154.05
;MAXZ:13.4
;Generated with Cura_SteamEngine 4.8.0
T0
M140 S60
M105
M190 S60
M104 S200
M105
M109 S200
M82 ;absolute extrusion mode
M201 X500.00 Y500.00 Z100.00 E5000.00 	;Setup machine max acceleration
M203 X500.00 Y500.00 Z10.00 E50.00 	;Setup machine max feedrate
M204 P500.00 R1000.00 T500.00 		;Setup Print/Retract/Travel acceleration
M205 X8.00 Y8.00 Z0.40 E5.00 		;Setup Jerk
M220 S100 				;Reset Feedrate
M221 S100 				;Reset Flowrate
G28				;Home the Machine
#G29 				;Bed Level
G92 E0
M300 P150 S587
G92 E0
G1 F1500 E-5.5
;LAYER_COUNT:67
;LAYER:0
M107
G0 F2160 X82.479 Y103.796 Z0.2
;TYPE:SKIRT
G1 F1500 E0
G1 F900 X83.278 Y103.256 E0.02406
G1 X84.152 Y102.681 E0.05015
G1 X86.335 Y101.158 E0.11655
G1 X88.581 Y99.493 E0.18629
G1 X90.699 Y97.829 E0.25348
G1 X92.796 Y96.083 E0.32155
G1 X94.864 Y94.26 E0.39032
G1 X96.847 Y92.41 E0.45797
G1 X98.789 Y90.492 E0.52606
G1 X100.68 Y88.515 E0.5943
G1 X102.514 Y86.487 E0.66251
G1 X103.815 Y84.965 E0.71246
G1 X104.063 Y84.683 E0.72182
G1 X104.439 Y84.316 E0.73493
G1 X104.866 Y84.011 E0.74802
G1 X105.334 Y83.773 E0.76112
G1 X105.965 Y83.581 E0.77757
G1 X106.396 Y83.493 E0.78854
G1 X109.124 Y82.903 E0.85817
G1 X111.73 Y82.263 E0.92511
G1 X114.428 Y81.516 E0.99494
G1 X114.847 Y81.395 E1.00582
G1 X115.361 Y81.289 E1.01891
G1 X116.024 Y81.252 E1.03547
G1 X116.13 Y81.25 E1.03812
G1 X127.692 Y81.25 E1.32653
G1 X128.394 Y81.26 E1.34405
G1 X128.917 Y81.308 E1.35715
G1 X129.427 Y81.434 E1.37025
G1 X129.911 Y81.636 E1.38334
G1 X130.359 Y81.909 E1.39642
G1 X130.761 Y82.247 E1.40952
G1 X131.089 Y82.618 E1.42188
G1 X131.933 Y83.727 E1.45664
G1 X132.177 Y84.055 E1.46684
G1 X133.878 Y86.212 E1.53536
G1 X135.613 Y88.289 E1.60287
G1 X137.441 Y90.355 E1.67169
G1 X139.293 Y92.334 E1.7393
G1 X141.216 Y94.274 E1.80744
G1 X143.212 Y96.177 E1.87623
G1 X145.205 Y97.973 E1.94315
G1 X147.334 Y99.784 E2.01288
G1 X149.442 Y101.477 E2.08032
G1 X151.614 Y103.124 E2.14832
G1 X152.622 Y103.867 E2.17956
G1 X152.85 Y104.05 E2.18685
G1 X153.219 Y104.423 E2.19994
G1 X153.527 Y104.848 E2.21303
G1 X153.768 Y105.314 E2.22612
G1 X153.935 Y105.812 E2.23922
G1 X154.038 Y106.55 E2.25781
G1 X154.05 Y106.98 E2.26854
G1 X154.05 Y118.522 E2.55645
G1 X154.04 Y119.242 E2.57442
G1 X154.003 Y119.696 E2.58578
G1 X153.914 Y120.124 E2.59668
G1 X153.686 Y120.953 E2.61813
G1 X153.393 Y121.959 E2.64427
G1 X152.708 Y124.585 E2.71197
G1 X152.093 Y127.246 E2.78009
G1 X151.935 Y128.044 E2.80039
G1 X151.714 Y129.07 E2.82657
G1 X151.564 Y129.574 E2.83969
G1 X151.34 Y130.049 E2.85279
G1 X151.047 Y130.484 E2.86587
G1 X150.581 Y130.968 E2.88263
G1 X150.268 Y131.234 E2.89288
G1 X148.653 Y132.578 E2.94529
G1 X146.602 Y134.386 E3.01349
G1 X144.602 Y136.252 E3.08172
G1 X142.659 Y138.171 E3.14985
G1 X140.766 Y140.148 E3.21812
G1 X138.938 Y142.169 E3.2861
G1 X137.152 Y144.261 E3.35472
G1 X135.458 Y146.362 E3.42204
G1 X133.784 Y148.562 E3.491
G1 X132.203 Y150.767 E3.55868
G1 X131.724 Y151.474 E3.57998
G1 X131.17 Y152.267 E3.60412
G1 X130.838 Y152.673 E3.6172
G1 X130.447 Y153.024 E3.63031
G1 X130.008 Y153.312 E3.6434
G1 X129.531 Y153.53 E3.65648
G1 X129.025 Y153.673 E3.6696
G1 X128.438 Y153.74 E3.68434
G1 X128.02 Y153.75 E3.69477
G1 X116.432 Y153.75 E3.98383
G1 X114.927 Y153.729 E4.02138
G1 X112.21 Y153.729 E4.08916
G1 X109.434 Y153.809 E4.15843
G1 X106.736 Y153.961 E4.22584
G1 X105.963 Y154.022 E4.24518
G1 X105.317 Y154.049 E4.26131
G1 X93.658 Y154.05 E4.55215
G1 X92.958 Y154.04 E4.56961
G1 X92.563 Y154.011 E4.57949
G1 X92.073 Y153.914 E4.59195
G1 X91.2 Y153.672 E4.61455
G1 X90.263 Y153.399 E4.63889
G1 X87.615 Y152.708 E4.70716
G1 X84.946 Y152.091 E4.77549
G1 X84.131 Y151.929 E4.79622
G1 X83.129 Y151.712 E4.8218
G1 X82.626 Y151.562 E4.83489
G1 X82.151 Y151.338 E4.84799
G1 X81.716 Y151.044 E4.86109
G1 X81.331 Y150.687 E4.87418
G1 X81.004 Y150.276 E4.88729
G1 X80.743 Y149.821 E4.90037
G1 X80.554 Y149.331 E4.91347
G1 X80.442 Y148.818 E4.92657
G1 X80.401 Y148.101 E4.94449
G1 X80.4 Y146.973 E4.97262
G1 X80.41 Y146.299 E4.98944
G1 X80.442 Y145.513 E5.00906
G1 X80.519 Y144.175 E5.04249
G1 X80.599 Y141.403 E5.11167
G1 X80.601 Y138.698 E5.17915
G1 X80.525 Y135.949 E5.24775
G1 X80.447 Y134.39 E5.28668
G1 X80.41 Y133.731 E5.30315
G1 X80.4 Y133.315 E5.31353
G1 X80.4 Y132.303 E5.33877
G1 X80.411 Y131.596 E5.35641
G1 X80.428 Y131.311 E5.36353
G1 X80.495 Y130.629 E5.38063
G1 X80.732 Y127.83 E5.4507
G1 X80.884 Y125.161 E5.51739
G1 X80.961 Y122.39 E5.58654
G1 X80.961 Y119.65 E5.65489
G1 X80.95 Y118.91 E5.67335
G1 X80.95 Y107.309 E5.96273
G1 X80.96 Y106.606 E5.98027
G1 X81.008 Y106.083 E5.99337
G1 X81.134 Y105.574 E6.00645
G1 X81.336 Y105.089 E6.01956
G1 X81.609 Y104.641 E6.03265
G1 X81.947 Y104.239 E6.04575
G1 X82.479 Y103.796 E6.06302
G0 F2160 X82.647 Y104.045
G1 F900 X83.443 Y103.507 E6.08698
G1 X84.297 Y102.945 E6.11249
G1 X86.527 Y101.389 E6.18032
G1 X88.754 Y99.738 E6.24947
G1 X90.881 Y98.068 E6.31693
G1 X93.012 Y96.293 E6.38611
G1 X95.056 Y94.491 E6.45408
G1 X97.05 Y92.632 E6.52209
G1 X99.005 Y90.7 E6.59065
G1 X100.908 Y88.711 E6.65932
G1 X102.735 Y86.69 E6.72728
G1 X104.041 Y85.163 E6.7774
G1 X104.289 Y84.881 E6.78677
G1 X104.649 Y84.532 E6.79928
G1 X105.06 Y84.244 E6.8118
G1 X105.511 Y84.026 E6.82429
G1 X106.025 Y83.874 E6.83766
G1 X106.496 Y83.778 E6.84965
G1 X109.185 Y83.196 E6.91828
G1 X111.817 Y82.55 E6.98589
G1 X114.992 Y81.671 E7.06807
G1 X115.422 Y81.583 E7.07902
G1 X116.033 Y81.551 E7.09428
G1 X127.688 Y81.55 E7.38501
G1 X128.39 Y81.56 E7.40253
G1 X128.889 Y81.607 E7.41503
G1 X129.375 Y81.733 E7.42755
G1 X129.834 Y81.934 E7.44005
G1 X130.256 Y82.206 E7.45258
G1 X130.629 Y82.541 E7.46508
G1 X130.85 Y82.8 E7.47358
G1 X131.693 Y83.906 E7.50827
G1 X131.945 Y84.244 E7.51878
G1 X133.643 Y86.398 E7.5872
G1 X135.403 Y88.505 E7.65569
G1 X137.209 Y90.546 E7.72367
G1 X139.073 Y92.538 E7.79172
G1 X141.008 Y94.49 E7.86029
G1 X142.999 Y96.388 E7.9289
G1 X145.04 Y98.227 E7.99743
G1 X147.109 Y99.987 E8.06519
G1 X149.265 Y101.719 E8.13418
G1 X151.436 Y103.365 E8.20214
G1 X152.444 Y104.108 E8.23338
G1 X152.653 Y104.277 E8.24008
G1 X153.005 Y104.634 E8.25259
G1 X153.295 Y105.043 E8.2651
G1 X153.517 Y105.493 E8.27761
G1 X153.665 Y105.972 E8.29012
G1 X153.738 Y106.56 E8.3049
G1 X153.75 Y106.98 E8.31538
G1 X153.75 Y118.518 E8.6032
G1 X153.74 Y119.238 E8.62116
G1 X153.706 Y119.653 E8.63155
G1 X153.625 Y120.044 E8.64151
G1 X153.398 Y120.869 E8.66285
G1 X153.106 Y121.873 E8.68893
G1 X152.419 Y124.507 E8.75684
G1 X151.792 Y127.215 E8.82618
G1 X151.641 Y127.981 E8.84565
G1 X151.42 Y129.007 E8.87183
G1 X151.276 Y129.488 E8.88436
G1 X151.057 Y129.939 E8.89686
G1 X150.77 Y130.35 E8.90937
G1 X150.386 Y130.74 E8.92302
G1 X150.076 Y131.004 E8.93318
G1 X148.456 Y132.353 E8.98577
G1 X146.392 Y134.171 E9.05438
G1 X144.381 Y136.047 E9.12298
G1 X142.46 Y137.944 E9.19033
G1 X140.539 Y139.952 E9.25965
G1 X138.717 Y141.965 E9.32738
G1 X136.917 Y144.073 E9.39652
G1 X135.216 Y146.183 E9.46413
G1 X133.546 Y148.379 E9.53295
G1 X131.954 Y150.598 E9.60108
G1 X131.478 Y151.302 E9.62227
G1 X130.924 Y152.095 E9.64641
G1 X130.605 Y152.482 E9.65892
G1 X130.229 Y152.813 E9.67141
G1 X129.804 Y153.081 E9.68395
G1 X129.343 Y153.278 E9.69645
G1 X128.856 Y153.399 E9.70897
G1 X128.108 Y153.449 E9.72767
G1 X116.436 Y153.45 E10.01883
G1 X114.931 Y153.429 E10.05637
G1 X112.201 Y153.429 E10.12447
G1 X109.444 Y153.508 E10.19328
G1 X106.698 Y153.664 E10.26189
G1 X105.945 Y153.723 E10.28073
G1 X105.309 Y153.749 E10.29661
G1 X93.662 Y153.75 E10.58714
G1 X92.962 Y153.74 E10.6046
G1 X92.6 Y153.714 E10.61366
G1 X92.153 Y153.624 E10.62503
G1 X91.284 Y153.384 E10.64752
G1 X90.35 Y153.112 E10.67179
G1 X87.693 Y152.419 E10.74028
G1 X85.007 Y151.797 E10.80906
G1 X84.194 Y151.636 E10.82973
G1 X83.192 Y151.419 E10.85531
G1 X82.712 Y151.274 E10.86782
G1 X82.261 Y151.055 E10.88032
G1 X81.85 Y150.766 E10.89286
G1 X81.491 Y150.417 E10.90535
G1 X81.191 Y150.015 E10.91786
G1 X80.959 Y149.57 E10.93038
G1 X80.801 Y149.094 E10.94289
G1 X80.71 Y148.425 E10.95973
G1 X80.7 Y148.008 E10.97013
G1 X80.7 Y146.977 E10.99585
G1 X80.71 Y146.303 E11.01267
G1 X80.744 Y145.477 E11.03329
G1 X80.819 Y144.167 E11.06602
G1 X80.899 Y141.412 E11.13477
G1 X80.901 Y138.69 E11.20267
G1 X80.825 Y135.926 E11.27165
G1 X80.747 Y134.375 E11.31039
G1 X80.71 Y133.722 E11.3267
G1 X80.7 Y133.315 E11.33686
G1 X80.7 Y132.308 E11.36198
G1 X80.711 Y131.601 E11.37962
G1 X80.726 Y131.341 E11.38611
G1 X80.798 Y130.611 E11.40441
G1 X81.03 Y127.871 E11.47301
G1 X81.184 Y125.152 E11.54094
G1 X81.261 Y122.398 E11.60967
G1 X81.261 Y119.623 E11.67889
G1 X81.25 Y118.908 E11.69673
G1 X81.25 Y107.313 E11.98597
G1 X81.26 Y106.61 E12.0035
G1 X81.307 Y106.111 E12.01601
G1 X81.433 Y105.625 E12.02853
G1 X81.634 Y105.166 E12.04103
G1 X81.906 Y104.744 E12.05355
G1 X82.241 Y104.371 E12.06606
G1 X82.647 Y104.045 E12.07905
G1 F1500 E6.57905
;MESH:Chain_link.stl(4)
G0 F2160 X87.053 Y105.997
G0 X87.053 Y115.847
G0 X85.936 Y116.964
G0 X102.6 Y118.45
;TYPE:WALL-INNER
G1 F1500 E12.07905
G1 F900 X102.6 Y127.6 E12.3073
G1 X102.1 Y127.6 E12.31977
G1 X102.1 Y125.017 E12.3842
G1 X102.006 Y124.48 E12.3978
G1 X101.7 Y123.949 E12.41309
G1 X101.231 Y123.556 E12.42835
G1 X100.724 Y123.373 E12.4418
G1 X100.687 Y123.359 E12.44279
G1 X100.383 Y123.332 E12.4504
G1 X89.583 Y123.332 E12.71981
G1 X89.048 Y123.428 E12.73336
G1 X88.518 Y123.731 E12.74859
G1 X88.124 Y124.202 E12.76391
G1 X87.927 Y124.745 E12.77832
G1 X87.9 Y125.049 E12.78593
G1 X87.9 Y127.6 E12.84957
G1 X87.4 Y127.6 E12.86204
G1 X87.4 Y118.45 E13.09029
G1 X85.15 Y118.45 E13.14642
G1 X85.15 Y107.4 E13.42206
G1 X85.65 Y107.4 E13.43453
G1 X85.65 Y117.25 E13.68024
G1 X104.35 Y117.25 E14.14671
G1 X104.35 Y107.4 E14.39242
G1 X104.85 Y107.4 E14.4049
G1 X104.85 Y118.45 E14.68054
G1 X102.6 Y118.45 E14.73667
G0 F2160 X102.9 Y118.75
G1 F900 X102.9 Y127.9 E14.96491
G1 X101.8 Y127.9 E14.99235
G1 X101.8 Y125.043 E15.06362
G1 X101.72 Y124.584 E15.07524
G1 X101.467 Y124.145 E15.08788
G1 X101.079 Y123.82 E15.10051
G1 X100.622 Y123.654 E15.11264
G1 X100.37 Y123.632 E15.11895
G1 X89.61 Y123.632 E15.38736
G1 X89.152 Y123.714 E15.39896
G1 X88.714 Y123.965 E15.41156
G1 X88.388 Y124.354 E15.42422
G1 X88.222 Y124.81 E15.43632
G1 X88.2 Y125.062 E15.44263
G1 X88.2 Y127.9 E15.51343
G1 X87.1 Y127.9 E15.54087
G1 X87.1 Y118.75 E15.76911
G1 X84.85 Y118.75 E15.82524
G1 X84.85 Y107.1 E16.11585
G1 X85.95 Y107.1 E16.14329
G1 X85.95 Y116.95 E16.389
G1 X104.05 Y116.95 E16.8405
G1 X104.05 Y107.1 E17.08621
G1 X105.15 Y107.1 E17.11365
G1 X105.15 Y118.75 E17.40426
G1 X102.9 Y118.75 E17.46039
G0 F2160 X103.15 Y119
;TYPE:WALL-OUTER
G1 F900 X103.15 Y128.15 E17.68864
G1 X101.55 Y128.15 E17.72855
G1 X101.55 Y125.065 E17.80551
G1 X101.481 Y124.671 E17.81548
G1 X101.272 Y124.308 E17.82593
G1 X100.952 Y124.04 E17.83634
G1 X100.568 Y123.9 E17.84654
G1 X100.359 Y123.882 E17.85177
G1 X89.632 Y123.882 E18.11936
G1 X89.239 Y123.952 E18.12932
G1 X88.877 Y124.16 E18.13973
G1 X88.608 Y124.481 E18.15018
G1 X88.468 Y124.865 E18.16037
G1 X88.45 Y125.073 E18.16558
G1 X88.45 Y128.15 E18.24234
G1 X86.85 Y128.15 E18.28225
G1 X86.85 Y119 E18.5105
G1 X84.6 Y119 E18.56663
G1 X84.6 Y106.85 E18.86971
G1 X86.2 Y106.85 E18.90962
G1 X86.2 Y116.7 E19.15533
G1 X103.8 Y116.7 E19.59436
G1 X103.8 Y106.85 E19.84007
G1 X105.4 Y106.85 E19.87998
G1 X105.4 Y119 E20.18307
G1 X103.15 Y119 E20.23919
G0 F2160 X103.15 Y119.2
G0 X102.82 Y119.2
G0 X102.8 Y119.2
G0 X102.31 Y118.16
;TYPE:SKIN
G1 F900 X102.31 Y124.534 E20.39819
G1 X102.283 Y124.38 E20.40209
G1 X101.926 Y123.76 E20.41994
G1 X101.378 Y123.301 E20.43777
G1 X100.751 Y123.073 E20.45442
G1 X100.396 Y123.042 E20.4633
G1 X89.558 Y123.042 E20.73366
G1 X88.948 Y123.151 E20.74912
G1 X88.329 Y123.505 E20.7669
G1 X87.869 Y124.055 E20.78479
G1 X87.69 Y124.546 E20.79783
G1 X87.69 Y118.16 E20.95713
G1 X85.44 Y118.16 E21.01325
G1 X85.44 Y117.54 E21.02872
G1 X104.56 Y117.54 E21.50567
G1 X104.56 Y118.16 E21.52114
G1 X102.31 Y118.16 E21.57726
G0 F2160 X104.424 Y118.001
G1 F900 X104.098 Y117.674 E21.58878
G0 F2160 X104.023 Y118.023
G1 F900 X103.673 Y117.674 E21.60111
G0 F2160 X103.598 Y118.023
G1 F900 X103.249 Y117.674 E21.61342
G0 F2160 X103.174 Y118.023
G1 F900 X102.825 Y117.674 E21.62573
G0 F2160 X102.75 Y118.023
G1 F900 X102.401 Y117.674 E21.63805
G0 F2160 X102.326 Y118.023
G1 F900 X101.976 Y117.674 E21.65037
G0 F2160 X101.552 Y117.674
G1 F900 X102.174 Y118.296 E21.67232
G0 F2160 X102.174 Y118.721
G1 F900 X101.128 Y117.674 E21.70924
G0 F2160 X100.704 Y117.674
G1 F900 X102.174 Y119.145 E21.76111
G0 F2160 X102.174 Y119.569
G1 F900 X100.279 Y117.674 E21.82796
G0 F2160 X99.855 Y117.674
G1 F900 X102.174 Y119.993 E21.90977
G0 F2160 X102.174 Y120.418
G1 F900 X99.431 Y117.674 E22.00656
G0 F2160 X99.006 Y117.674
G1 F900 X102.174 Y120.842 E22.11832
G0 F2160 X102.174 Y121.266
G1 F900 X98.582 Y117.674 E22.24503
G0 F2160 X98.158 Y117.674
G1 F900 X102.174 Y121.69 E22.38671
G0 F2160 X102.174 Y122.115
G1 F900 X97.734 Y117.674 E22.54336
G0 F2160 X97.309 Y117.674
G1 F900 X102.174 Y122.539 E22.71499
G0 F2160 X102.174 Y122.963
G1 F900 X96.885 Y117.674 E22.90157
G0 F2160 X96.461 Y117.674
G1 F900 X102.174 Y123.388 E23.10313
G0 F2160 X102.174 Y123.812
G1 F900 X96.037 Y117.674 E23.31964
G0 F2160 X95.612 Y117.674
G1 F900 X100.931 Y122.993 E23.50729
G0 F2160 X100.421 Y122.907
G1 F900 X95.188 Y117.674 E23.6919
G0 F2160 X94.764 Y117.674
G1 F900 X99.996 Y122.906 E23.87647
G0 F2160 X99.571 Y122.906
G1 F900 X94.34 Y117.674 E24.06102
G0 F2160 X93.915 Y117.674
G1 F900 X99.147 Y122.906 E24.2456
G0 F2160 X98.723 Y122.906
G1 F900 X93.491 Y117.674 E24.43017
G0 F2160 X93.067 Y117.674
G1 F900 X98.299 Y122.906 E24.61474
G0 F2160 X97.874 Y122.906
G1 F900 X92.643 Y117.674 E24.7993
G0 F2160 X92.218 Y117.674
G1 F900 X97.45 Y122.906 E24.98387
G0 F2160 X97.026 Y122.906
G1 F900 X91.794 Y117.674 E25.16844
G0 F2160 X91.37 Y117.674
G1 F900 X96.602 Y122.906 E25.35302
G0 F2160 X96.177 Y122.906
G1 F900 X90.945 Y117.674 E25.53759
G0 F2160 X90.521 Y117.674
G1 F900 X95.753 Y122.906 E25.72216
G0 F2160 X95.329 Y122.906
G1 F900 X90.097 Y117.674 E25.90674
G0 F2160 X89.673 Y117.674
G1 F900 X94.905 Y122.906 E26.09131
G0 F2160 X94.48 Y122.906
G1 F900 X89.248 Y117.674 E26.27588
G0 F2160 X88.824 Y117.674
G1 F900 X94.056 Y122.906 E26.46045
G0 F2160 X93.632 Y122.906
G1 F900 X88.4 Y117.674 E26.64503
G0 F2160 X87.976 Y117.674
G1 F900 X93.207 Y122.906 E26.82958
G0 F2160 X92.783 Y122.906
G1 F900 X87.551 Y117.674 E27.01416
G0 F2160 X87.476 Y118.023
G1 F900 X87.127 Y117.674 E27.02647
G0 F2160 X87.052 Y118.023
G1 F900 X86.703 Y117.674 E27.03878
G0 F2160 X86.628 Y118.023
G1 F900 X86.279 Y117.674 E27.05109
G0 F2160 X86.204 Y118.023
G1 F900 X85.854 Y117.674 E27.06342
G0 F2160 X85.574 Y117.818
G1 F900 X85.779 Y118.023 E27.07065
G0 F2160 X87.824 Y118.371
G1 F900 X92.359 Y122.906 E27.23064
G0 F2160 X91.935 Y122.906
G1 F900 X87.824 Y118.796 E27.37565
G0 F2160 X87.824 Y119.22
G1 F900 X91.51 Y122.906 E27.50568
G0 F2160 X91.086 Y122.906
G1 F900 X87.824 Y119.644 E27.62076
G0 F2160 X87.824 Y120.068
G1 F900 X90.662 Y122.906 E27.72087
G0 F2160 X90.238 Y122.906
G1 F900 X87.824 Y120.493 E27.80602
G0 F2160 X87.824 Y120.917
G1 F900 X89.813 Y122.906 E27.87618
G0 F2160 X89.413 Y122.93
G1 F900 X87.824 Y121.341 E27.93224
G0 F2160 X87.824 Y121.765
G1 F900 X89.053 Y122.994 E27.9756
G0 F2160 X88.744 Y123.11
G1 F900 X87.824 Y122.19 E28.00805
G0 F2160 X87.824 Y122.614
G1 F900 X88.474 Y123.264 E28.03098
G0 F2160 X88.215 Y123.429
G1 F900 X87.824 Y123.038 E28.04478
G0 F2160 X87.824 Y123.462
G1 F900 X88.022 Y123.66 E28.05176
G0 F2160 X87.549 Y124.672
;TYPE:SKIN
G1 F900 X87.777 Y124.9 E28.05578
G0 F2160 X87.764 Y125.099
G1 F900 X87.534 Y124.87 E28.05983
G0 F2160 X87.534 Y125.082
G1 F900 X87.764 Y125.312 E28.06389
G0 F2160 X87.764 Y125.524
G1 F900 X87.534 Y125.294 E28.06794
G0 F2160 X87.534 Y125.506
G1 F900 X87.764 Y125.736 E28.072
G0 F2160 X87.764 Y125.948
G1 F900 X87.534 Y125.718 E28.07606
G0 F2160 X87.534 Y125.93
G1 F900 X87.764 Y126.16 E28.08011
G0 F2160 X87.764 Y126.372
G1 F900 X87.534 Y126.142 E28.08417
G0 F2160 X87.534 Y126.355
