;FLAVOR:Marlin
;TIME:10227
;Filament used: 4.24348m, 0m
;Layer height: 0.1
;MINX:49.568
;MINY:70.1
;MINZ:0.2
;MAXX:137.599
;MAXY:154.008
;MAXZ:29.3
;Generated with Cura_SteamEngine 4.8.0
T0
M140 S60
M105
M190 S60
M104 S200
M105
M109 S200
M82 ;absolute extrusion mode
M201 X500.00 Y500.00 Z100.00 E5000.00 	;Setup machine max acceleration
M203 X500.00 Y500.00 Z10.00 E50.00 	;Setup machine max feedrate
M204 P500.00 R1000.00 T500.00 		;Setup Print/Retract/Travel acceleration
M205 X8.00 Y8.00 Z0.40 E5.00 		;Setup Jerk
M220 S100 				;Reset Feedrate
M221 S100 				;Reset Flowrate
G28				;Home the Machine
#G29 				;Bed Level
G92 E0
M300 P150 S587
G92 E0
G1 F1500 E-5.5
;LAYER_COUNT:292
;LAYER:0
M107
G0 F2160 X50.962 Y70.796 Z0.2
;TYPE:SKIRT
G1 F1500 E0
G1 F900 X51.406 Y70.514 E0.01312
G1 X51.886 Y70.303 E0.0262
G1 X52.394 Y70.168 E0.03931
G1 X52.931 Y70.11 E0.05279
G1 X53.348 Y70.1 E0.06319
G1 X64.361 Y70.1 E0.33791
G1 X65.063 Y70.11 E0.35542
G1 X65.586 Y70.158 E0.36853
G1 X66.096 Y70.284 E0.38163
G1 X66.58 Y70.486 E0.39471
G1 X67.028 Y70.759 E0.4078
G1 X67.291 Y70.968 E0.41618
G1 X67.775 Y71.393 E0.43225
G1 X69.873 Y73.185 E0.50107
G1 X71.969 Y74.877 E0.56827
G1 X74.176 Y76.556 E0.63744
G1 X76.372 Y78.131 E0.70486
G1 X78.651 Y79.671 E0.77347
G1 X80.934 Y81.119 E0.84091
G1 X83.308 Y82.534 E0.90985
G1 X85.663 Y83.848 E0.97712
G1 X88.096 Y85.118 E1.04558
G1 X90.578 Y86.325 E1.11443
G1 X93.036 Y87.435 E1.1817
G1 X95.6 Y88.508 E1.25104
G1 X98.106 Y89.471 E1.31801
G1 X100.699 Y90.387 E1.38661
G1 X103.28 Y91.216 E1.45423
G1 X105.896 Y91.977 E1.52219
G1 X108.548 Y92.666 E1.59054
G1 X111.254 Y93.291 E1.65982
G1 X113.899 Y93.82 E1.72711
G1 X116.586 Y94.28 E1.79511
G1 X118.173 Y94.506 E1.8351
G1 X118.781 Y94.602 E1.85045
G1 X119.292 Y94.723 E1.86355
G1 X119.778 Y94.921 E1.87664
G1 X120.229 Y95.189 E1.88973
G1 X120.634 Y95.523 E1.90282
G1 X120.984 Y95.915 E1.91593
G1 X121.27 Y96.355 E1.92902
G1 X121.425 Y96.677 E1.93794
G1 X121.735 Y97.418 E1.95798
G1 X122.197 Y98.564 E1.9888
G1 X123.292 Y101.075 E2.05713
G1 X124.447 Y103.532 E2.12486
G1 X125.691 Y105.995 E2.19369
G1 X126.981 Y108.379 E2.2613
G1 X128.351 Y110.747 E2.32955
G1 X129.777 Y113.061 E2.39735
G1 X131.31 Y115.395 E2.46701
G1 X131.702 Y115.977 E2.48451
G1 X131.962 Y116.434 E2.49763
G1 X132.149 Y116.924 E2.51071
G1 X132.24 Y117.315 E2.52073
G1 X132.424 Y118.374 E2.54754
G1 X132.545 Y119.137 E2.56681
G1 X133.038 Y121.776 E2.63378
G1 X133.621 Y124.463 E2.70237
G1 X134.278 Y127.129 E2.77086
G1 X135.001 Y129.741 E2.83847
G1 X135.801 Y132.345 E2.90642
G1 X136.687 Y134.96 E2.97529
G1 X136.899 Y135.532 E2.99051
G1 X136.928 Y135.632 E2.99311
G1 X137.385 Y136.901 E3.02675
G1 X137.525 Y137.407 E3.03985
G1 X137.587 Y137.949 E3.05346
G1 X137.599 Y138.58 E3.0692
G1 X137.599 Y149.865 E3.35071
G1 X137.59 Y150.592 E3.36884
G1 X137.543 Y151.115 E3.38194
G1 X137.418 Y151.624 E3.39502
G1 X137.217 Y152.109 E3.40811
G1 X136.945 Y152.558 E3.42121
G1 X136.607 Y152.96 E3.43431
G1 X136.213 Y153.307 E3.44741
G1 X135.77 Y153.589 E3.46051
G1 X135.29 Y153.802 E3.4736
G1 X134.783 Y153.938 E3.4867
G1 X134.237 Y153.998 E3.5004
G1 X133.819 Y154.008 E3.51083
G1 X101.706 Y154.008 E4.31189
G1 X101.003 Y153.998 E4.32943
G1 X100.48 Y153.95 E4.34253
G1 X99.971 Y153.824 E4.35561
G1 X99.486 Y153.622 E4.36872
G1 X98.924 Y153.263 E4.38535
G1 X98.189 Y152.687 E4.40865
G1 X96.024 Y151.04 E4.47651
G1 X93.804 Y149.447 E4.54467
G1 X91.541 Y147.918 E4.61279
G1 X89.216 Y146.442 E4.68149
G1 X86.893 Y145.057 E4.74896
G1 X84.475 Y143.708 E4.81802
G1 X82.11 Y142.473 E4.88458
G1 X79.6 Y141.253 E4.9542
G1 X77.136 Y140.141 E5.02163
G1 X74.582 Y139.071 E5.09071
G1 X72.072 Y138.106 E5.15779
G1 X69.479 Y137.19 E5.22639
G1 X66.898 Y136.361 E5.29401
G1 X64.29 Y135.603 E5.36176
G1 X61.614 Y134.906 E5.43074
G1 X58.937 Y134.288 E5.49927
G1 X57.25 Y133.95 E5.54219
G1 X55.887 Y133.672 E5.57689
G1 X55.155 Y133.436 E5.59608
G1 X54.697 Y133.224 E5.60867
G1 X52.063 Y131.926 E5.68192
G1 X51.47 Y131.624 E5.69852
G1 X51.022 Y131.351 E5.7116
G1 X50.62 Y131.013 E5.7247
G1 X50.275 Y130.618 E5.73779
G1 X49.993 Y130.175 E5.75089
G1 X49.781 Y129.695 E5.76398
G1 X49.645 Y129.188 E5.77707
G1 X49.587 Y128.614 E5.79146
G1 X49.568 Y127.582 E5.81721
G1 X49.568 Y74.172 E7.14953
G1 X49.578 Y73.507 E7.16612
G1 X49.626 Y72.984 E7.17922
G1 X49.753 Y72.475 E7.1923
G1 X49.955 Y71.99 E7.20541
G1 X50.229 Y71.542 E7.21851
G1 X50.567 Y71.141 E7.23159
G1 X50.962 Y70.796 E7.24468
G0 F2160 X51.251 Y70.958
G1 F900 X51.687 Y70.709 E7.2572
G1 X52.156 Y70.532 E7.2697
G1 X52.647 Y70.432 E7.2822
G1 X53.259 Y70.401 E7.29749
G1 X64.357 Y70.4 E7.57433
G1 X65.059 Y70.41 E7.59184
G1 X65.558 Y70.457 E7.60435
G1 X66.044 Y70.583 E7.61687
G1 X66.503 Y70.784 E7.62937
G1 X67.093 Y71.194 E7.64729
G1 X67.554 Y71.599 E7.6626
G1 X69.664 Y73.401 E7.73182
G1 X71.812 Y75.135 E7.80068
G1 X73.993 Y76.794 E7.86904
G1 X76.204 Y78.38 E7.93691
G1 X78.473 Y79.913 E8.00522
G1 X80.794 Y81.385 E8.07378
G1 X83.141 Y82.784 E8.14194
G1 X85.526 Y84.116 E8.21008
G1 X87.974 Y85.393 E8.27896
G1 X90.415 Y86.58 E8.34666
G1 X92.932 Y87.717 E8.41556
G1 X95.494 Y88.788 E8.48483
G1 X98.003 Y89.753 E8.55189
G1 X100.581 Y90.663 E8.62008
G1 X103.2 Y91.505 E8.68871
G1 X105.819 Y92.266 E8.75674
G1 X108.503 Y92.965 E8.82593
G1 X111.168 Y93.58 E8.89415
G1 X113.826 Y94.111 E8.96177
G1 X116.565 Y94.58 E9.03109
G1 X118.126 Y94.803 E9.07042
G1 X118.734 Y94.899 E9.08577
G1 X119.222 Y95.016 E9.09829
G1 X119.685 Y95.209 E9.11081
G1 X120.111 Y95.474 E9.12332
G1 X120.49 Y95.802 E9.13582
G1 X120.812 Y96.187 E9.14834
G1 X121.148 Y96.793 E9.16563
G1 X121.457 Y97.53 E9.18556
G1 X121.924 Y98.691 E9.21678
G1 X123.014 Y101.188 E9.28474
G1 X124.183 Y103.675 E9.35329
G1 X125.414 Y106.112 E9.4214
G1 X126.733 Y108.55 E9.49055
G1 X128.081 Y110.879 E9.55767
G1 X129.541 Y113.249 E9.62711
G1 X131.059 Y115.56 E9.69608
G1 X131.453 Y116.145 E9.71368
G1 X131.7 Y116.582 E9.7262
G1 X131.873 Y117.053 E9.73872
G1 X131.945 Y117.367 E9.74675
G1 X132.127 Y118.421 E9.77343
G1 X132.245 Y119.166 E9.79225
G1 X132.743 Y121.829 E9.85983
G1 X133.335 Y124.56 E9.92954
G1 X133.979 Y127.174 E9.99669
G1 X134.716 Y129.836 E10.06559
G1 X135.514 Y132.435 E10.13341
G1 X136.398 Y135.045 E10.20215
G1 X136.618 Y135.636 E10.21788
G1 X136.645 Y135.73 E10.22032
G1 X137.103 Y137.002 E10.25405
G1 X137.234 Y137.486 E10.26656
G1 X137.292 Y138.103 E10.28202
G1 X137.299 Y138.583 E10.29399
G1 X137.299 Y149.861 E10.57532
G1 X137.29 Y150.588 E10.59346
G1 X137.244 Y151.087 E10.60596
G1 X137.119 Y151.573 E10.61848
G1 X136.918 Y152.033 E10.631
G1 X136.648 Y152.455 E10.6435
G1 X136.313 Y152.829 E10.65602
G1 X135.924 Y153.145 E10.66852
G1 X135.489 Y153.396 E10.68105
G1 X135.02 Y153.574 E10.69356
G1 X134.529 Y153.675 E10.70607
G1 X133.907 Y153.707 E10.7216
G1 X101.71 Y153.708 E11.52476
G1 X101.007 Y153.698 E11.5423
G1 X100.508 Y153.651 E11.5548
G1 X100.022 Y153.525 E11.56733
G1 X99.563 Y153.324 E11.57983
G1 X99.109 Y153.027 E11.59336
G1 X98.409 Y152.479 E11.61554
G1 X96.158 Y150.766 E11.6861
G1 X93.972 Y149.198 E11.7532
G1 X91.695 Y147.66 E11.82175
G1 X89.407 Y146.208 E11.88935
G1 X87.033 Y144.792 E11.9583
G1 X84.653 Y143.464 E12.02629
G1 X82.189 Y142.178 E12.09562
G1 X79.75 Y140.992 E12.16327
G1 X77.24 Y139.859 E12.23197
G1 X74.7 Y138.795 E12.30066
G1 X72.175 Y137.824 E12.36814
G1 X69.597 Y136.914 E12.43634
G1 X66.978 Y136.072 E12.50497
G1 X64.334 Y135.303 E12.57365
G1 X61.692 Y134.615 E12.64176
G1 X59.024 Y134 E12.71006
G1 X57.309 Y133.656 E12.75369
G1 X55.946 Y133.378 E12.78839
G1 X55.279 Y133.162 E12.80588
G1 X54.794 Y132.938 E12.8192
G1 X52.199 Y131.659 E12.89137
G1 X51.606 Y131.357 E12.90797
G1 X51.179 Y131.094 E12.92048
G1 X50.799 Y130.767 E12.93299
G1 X50.475 Y130.384 E12.9455
G1 X50.216 Y129.954 E12.95802
G1 X50.029 Y129.489 E12.97053
G1 X49.918 Y129 E12.98303
G1 X49.887 Y128.609 E12.99282
G1 X49.868 Y127.582 E13.01844
G1 X49.868 Y74.177 E14.35064
G1 X49.878 Y73.512 E14.36723
G1 X49.926 Y73.012 E14.37976
G1 X50.052 Y72.527 E14.39226
G1 X50.253 Y72.067 E14.40478
G1 X50.525 Y71.646 E14.41728
G1 X50.861 Y71.273 E14.4298
G1 X51.251 Y70.958 E14.44231
G1 F1500 E8.94231
;MESH:cable_ends_k40_EndofBar.stl
G0 F2160 X53.482 Y72.885
G0 X53.482 Y74.014
G0 X54.31 Y90.051
G0 X54.647 Y91.303
G0 X55.427 Y92.458
;TYPE:WALL-INNER
G1 F1500 E14.44231
G1 F900 X56.819 Y92.831 E14.47826
G1 X58.208 Y92.458 E14.51413
G1 X59.226 Y91.44 E14.55005
G1 X59.599 Y90.051 E14.58592
G1 X59.226 Y88.659 E14.62187
G1 X58.207 Y87.644 E14.65775
G1 X56.819 Y87.271 E14.6936
G1 X55.43 Y87.644 E14.72948
G1 X54.412 Y88.662 E14.76539
G1 X54.066 Y89.949 E14.79863
G1 X54.039 Y90.051 E14.80127
G1 X54.066 Y90.153 E14.8039
G1 X54.412 Y91.439 E14.83712
G1 X55.427 Y92.458 E14.873
G0 F2160 X55.583 Y92.189
G1 F900 X56.819 Y92.52 E14.90492
G1 X58.053 Y92.189 E14.93679
G1 X58.957 Y91.285 E14.96868
G1 X59.288 Y90.051 E15.00055
G1 X58.957 Y88.815 E15.03247
G1 X58.052 Y87.913 E15.06434
G1 X56.819 Y87.582 E15.09619
G1 X55.585 Y87.913 E15.12806
G1 X54.681 Y88.817 E15.15995
G1 X54.35 Y90.051 E15.19182
G1 X54.681 Y91.284 E15.22366
G1 X55.583 Y92.189 E15.25554
G0 F2160 X55.713 Y91.965
;TYPE:WALL-OUTER
G1 F900 X56.819 Y92.261 E15.2841
G1 X57.924 Y91.965 E15.31263
G1 X58.733 Y91.156 E15.34117
G1 X59.029 Y90.051 E15.36971
G1 X58.733 Y88.945 E15.39827
G1 X57.923 Y88.137 E15.42681
G1 X56.819 Y87.841 E15.45532
G1 X55.714 Y88.137 E15.48386
G1 X54.905 Y88.946 E15.5124
G1 X54.609 Y90.051 E15.54093
G1 X54.905 Y91.155 E15.56945
G1 X55.713 Y91.965 E15.59798
G0 F2160 X55.906 Y92.016
G0 X55.82 Y92.335
G0 X55.815 Y92.353
G0 X55.427 Y103.644
;TYPE:WALL-INNER
G1 F900 X54.412 Y104.663 E15.63386
G1 X54.066 Y105.949 E15.66708
G1 X54.039 Y106.051 E15.66971
G1 X54.066 Y106.153 E15.67235
G1 X54.412 Y107.44 E15.70559
G1 X55.43 Y108.458 E15.7415
G1 X56.819 Y108.831 E15.77738
G1 X58.207 Y108.458 E15.81323
G1 X59.131 Y107.538 E15.84576
G1 X59.26 Y107.314 E15.85221
G1 X59.599 Y106.051 E15.88483
G1 X59.226 Y104.662 E15.9207
G1 X58.208 Y103.644 E15.95662
G1 X56.819 Y103.271 E15.99249
G1 X55.427 Y103.644 E16.02844
G0 F2160 X55.583 Y103.913
G1 F900 X54.681 Y104.818 E16.06031
G1 X54.35 Y106.051 E16.09216
G1 X54.681 Y107.285 E16.12403
G1 X55.585 Y108.189 E16.15592
G1 X56.819 Y108.52 E16.18779
G1 X58.052 Y108.189 E16.21964
G1 X58.891 Y107.353 E16.24918
G1 X58.981 Y107.198 E16.25366
G1 X59.288 Y106.051 E16.28327
G1 X58.957 Y104.817 E16.31514
G1 X58.053 Y103.913 E16.34704
G1 X56.819 Y103.582 E16.37891
G1 X55.583 Y103.913 E16.41082
G0 F2160 X55.713 Y104.137
;TYPE:WALL-OUTER
G1 F900 X54.905 Y104.947 E16.43936
G1 X54.609 Y106.051 E16.46788
G1 X54.905 Y107.156 E16.49641
G1 X55.714 Y107.965 E16.52495
G1 X56.819 Y108.261 E16.55349
G1 X57.923 Y107.965 E16.582
G1 X58.691 Y107.199 E16.60906
G1 X58.748 Y107.101 E16.61189
G1 X59.029 Y106.051 E16.639
G1 X58.733 Y104.946 E16.66754
G1 X57.924 Y104.137 E16.69608
G1 X56.819 Y103.841 E16.72461
G1 X55.713 Y104.137 E16.75317
G0 F2160 X55.572 Y104.278
G0 X55.34 Y104.045
G0 X55.326 Y104.03
G0 X56.819 Y103.542
G0 X58.073 Y103.879
G0 X58.816 Y104.622
G0 X82.569 Y134.301
;TYPE:WALL-INNER
G1 F900 X95.069 Y134.301 E17.06499
G1 X95.069 Y137.8 E17.15227
G1 X93.732 Y137.8 E17.18562
G1 X66.496 Y131.437 E17.88332
G1 X63.129 Y130.767 E17.96896
G1 X56.805 Y129.582 E18.12946
G1 X53.768 Y128.085 E18.21392
G1 X53.768 Y106.157 E18.76091
G1 X53.768 Y106.051 E18.76344
G1 X53.768 Y105.945 E18.76596
G1 X53.768 Y90.157 E19.15979
G1 X53.768 Y90.051 E19.16231
G1 X53.768 Y89.945 E19.16484
G1 X53.768 Y74.3 E19.5551
G1 X64.678 Y74.3 E19.82725
G1 X76.569 Y87.91 E20.27808
G1 X76.569 Y118.014 E21.02903
G1 X82.569 Y123.867 E21.23812
G1 X82.569 Y134.301 E21.4984
G0 F2160 X82.869 Y134.001
G1 F900 X95.369 Y134.001 E21.81021
G1 X95.369 Y138.1 E21.91246
G1 X93.698 Y138.1 E21.95414
G1 X66.433 Y131.73 E22.65259
G1 X63.072 Y131.062 E22.73807
G1 X56.709 Y129.869 E22.89956
G1 X53.468 Y128.272 E22.98969
G1 X53.468 Y74 E24.34351
G1 X64.814 Y74 E24.62654
G1 X76.869 Y87.798 E25.08359
G1 X76.869 Y117.888 E25.83419
G1 X82.869 Y123.741 E26.04328
G1 X82.869 Y134.001 E26.29921
G0 F2160 X83.119 Y133.751
;TYPE:WALL-OUTER
G1 F900 X95.619 Y133.751 E26.61103
G1 X95.619 Y138.35 E26.72575
G1 X93.671 Y138.35 E26.77434
G1 X66.38 Y131.974 E27.47345
G1 X63.025 Y131.307 E27.55878
G1 X56.632 Y130.109 E27.72103
G1 X53.218 Y128.427 E27.81597
G1 X53.218 Y73.75 E29.17989
G1 X64.927 Y73.75 E29.47197
G1 X77.119 Y87.705 E29.93422
G1 X77.119 Y117.783 E30.68452
G1 X83.119 Y123.635 E30.89359
G1 X83.119 Y133.751 E31.14594
G0 F2160 X83.319 Y133.751
G0 X83.319 Y134.081
G0 X83.319 Y134.101
G0 X82.279 Y134.591
;TYPE:SKIN
G1 F900 X94.779 Y134.591 E31.45775
G1 X94.779 Y137.51 E31.53057
G1 X93.764 Y137.51 E31.55589
G1 X66.558 Y131.153 E32.25282
G1 X63.184 Y130.483 E32.33863
G1 X56.9 Y129.305 E32.49812
G1 X54.058 Y127.903 E32.57717
G1 X54.058 Y107.237 E33.09268
G1 X54.153 Y107.591 E33.10183
G1 X55.279 Y108.717 E33.14155
G1 X56.819 Y109.131 E33.18133
G1 X58.357 Y108.718 E33.22105
G1 X59.363 Y107.716 E33.25647
G1 X59.53 Y107.426 E33.26482
G1 X59.899 Y106.051 E33.30033
G1 X59.485 Y104.511 E33.34011
G1 X58.359 Y103.385 E33.37983
G1 X56.819 Y102.971 E33.41961
G1 X55.276 Y103.385 E33.45947
G1 X54.152 Y104.513 E33.49919
G1 X54.058 Y104.863 E33.50823
G1 X54.058 Y91.239 E33.84808
G1 X54.152 Y91.589 E33.85712
G1 X55.276 Y92.717 E33.89684
G1 X56.819 Y93.131 E33.93669
G1 X58.359 Y92.717 E33.97647
G1 X59.485 Y91.591 E34.0162
G1 X59.899 Y90.051 E34.05598
G1 X59.485 Y88.508 E34.09583
G1 X58.357 Y87.384 E34.13555
G1 X56.819 Y86.971 E34.17528
G1 X55.279 Y87.385 E34.21506
G1 X54.153 Y88.511 E34.25478
G1 X54.058 Y88.865 E34.26392
G1 X54.058 Y74.59 E34.62001
G1 X64.547 Y74.59 E34.88166
G1 X76.279 Y88.019 E35.32648
G1 X76.279 Y118.136 E36.07775
G1 X82.279 Y123.989 E36.28684
G1 X82.279 Y134.591 E36.55131
G0 F2160 X54.193 Y127.591
G1 F900 X54.64 Y128.037 E36.56706
G1 X54.693 Y128.09
G0 F2160 X55.478 Y128.451
G1 F900 X54.193 Y127.166 E36.61239
G0 F2160 X54.193 Y126.742
G1 F900 X56.316 Y128.865 E36.68729
G1 X56.369 Y128.918
G0 F2160 X57.074 Y129.199
G1 F900 X54.193 Y126.318 E36.78892
G0 F2160 X54.193 Y125.893
G1 F900 X57.597 Y129.298 E36.90903
G0 F2160 X58.119 Y129.395
G1 F900 X54.193 Y125.469 E37.04753
G0 F2160 X54.193 Y125.045
G1 F900 X58.641 Y129.493 E37.20444
G0 F2160 X59.163 Y129.591
G1 F900 X54.193 Y124.621 E37.37977
G0 F2160 X54.193 Y124.196
G1 F900 X59.685 Y129.689 E37.57353
G0 F2160 X60.208 Y129.787
G1 F900 X54.193 Y123.772 E37.78573
G0 F2160 X54.193 Y123.348
G1 F900 X60.729 Y129.884 E38.0163
G0 F2160 X61.252 Y129.983
G1 F900 X54.193 Y122.924 E38.26533
G0 F2160 X54.193 Y122.499
G1 F900 X61.774 Y130.08 E38.53277
G0 F2160 X62.296 Y130.179
G1 F900 X54.193 Y122.075 E38.81864
G0 F2160 X54.193 Y121.651
G1 F900 X62.818 Y130.276 E39.12291
G0 F2160 X63.342 Y130.376
G1 F900 X54.193 Y121.227 E39.44567
G0 F2160 X54.193 Y120.802
G1 F900 X63.871 Y130.481 E39.7871
G0 F2160 X64.401 Y130.586
G1 F900 X54.193 Y120.378 E40.14722
G0 F2160 X54.193 Y119.954
G1 F900 X64.93 Y130.691 E40.526
G0 F2160 X65.459 Y130.796
G1 F900 X54.193 Y119.53 E40.92343
G0 F2160 X54.193 Y119.105
G1 F900 X65.988 Y130.901 E41.33955
G0 F2160 X66.517 Y131.005
G1 F900 X54.193 Y118.681 E41.77431
G0 F2160 X54.193 Y118.257
G1 F900 X67.068 Y131.132 E42.22851
G0 F2160 X67.622 Y131.261
G1 F900 X54.193 Y117.832 E42.70226
G0 F2160 X54.193 Y117.408
G1 F900 X68.175 Y131.391 E43.19553
G0 F2160 X68.729 Y131.52
G1 F900 X54.193 Y116.984 E43.70833
G0 F2160 X54.193 Y116.56
G1 F900 X69.282 Y131.649 E44.24063
G0 F2160 X69.835 Y131.778
G1 F900 X54.193 Y116.135 E44.79246
G0 F2160 X54.193 Y115.711
G1 F900 X70.389 Y131.907 E45.36382
G0 F2160 X70.943 Y132.037
G1 F900 X54.193 Y115.287 E45.95472
G0 F2160 X54.193 Y114.863
G1 F900 X71.496 Y132.166 E46.56513
G0 F2160 X72.05 Y132.296
G1 F900 X54.193 Y114.438 E47.1951
G0 F2160 X54.193 Y114.014
G1 F900 X72.604 Y132.425 E47.8446
G0 F2160 X73.157 Y132.554
G1 F900 X54.193 Y113.59 E48.51361
G0 F2160 X54.193 Y113.166
G1 F900 X73.711 Y132.684 E49.20216
G0 F2160 X74.265 Y132.813
G1 F900 X54.193 Y112.741 E49.91025
G0 F2160 X54.193 Y112.317
G1 F900 X74.818 Y132.943 E50.63787
G0 F2160 X75.372 Y133.072
G1 F900 X54.193 Y111.893 E51.38502
G0 F2160 X54.193 Y111.469
