;FLAVOR:Marlin
;TIME:3845
;Filament used: 2.27798m, 0m
;Layer height: 0.2
;MINX:76.816
;MINY:56.677
;MINZ:0.3
;MAXX:158.178
;MAXY:176.358
;MAXZ:1.9
;POSTPROCESSED
;Generated with Cura_SteamEngine 4.8.0
T0
M140 S60
M105
M190 S60
M104 S200
M105
M109 S200
M82 ;absolute extrusion mode
M201 X500.00 Y500.00 Z100.00 E5000.00 	;Setup machine max acceleration
M203 X500.00 Y500.00 Z10.00 E50.00 	;Setup machine max feedrate
M204 P500.00 R1000.00 T500.00 		;Setup Print/Retract/Travel acceleration
M205 X8.00 Y8.00 Z0.40 E5.00 		;Setup Jerk
M220 S100 				;Reset Feedrate
M221 S100 				;Reset Flowrate
G28				;Home the Machine
#G29 				;Bed Level
G92 E0
M300 P150 S587
G92 E0
G1 F1500 E-5.5
;LAYER_COUNT:9
;LAYER:0
M107
G0 F2160 X113.21 Y58.432 Z0.3
;TYPE:SKIRT
G1 F1500 E0
G1 F900 X113.502 Y57.996 E0.01963
G1 X113.857 Y57.609 E0.03929
G1 X114.266 Y57.28 E0.05893
G1 X114.72 Y57.018 E0.07854
G1 X115.209 Y56.827 E0.09818
G1 X115.722 Y56.712 E0.11785
G1 X116.246 Y56.677 E0.1375
G1 X116.769 Y56.722 E0.15715
G1 X117.279 Y56.845 E0.17678
G1 X117.765 Y57.045 E0.19644
G1 X118.214 Y57.315 E0.21605
G1 X118.618 Y57.651 E0.23571
G1 X118.966 Y58.044 E0.25535
G1 X119.25 Y58.486 E0.27501
G1 X119.464 Y58.965 E0.29464
G1 X119.626 Y59.611 E0.31956
G1 X119.793 Y60.714 E0.3613
G1 X120.25 Y63.474 E0.46598
G1 X120.768 Y66.131 E0.56727
G1 X121.366 Y68.792 E0.66932
G1 X122.037 Y71.438 E0.77146
G1 X122.789 Y74.078 E0.87417
G1 X123.607 Y76.676 E0.97609
G1 X124.508 Y79.267 E1.07873
G1 X125.455 Y81.768 E1.1788
G1 X126.513 Y84.338 E1.28279
G1 X127.627 Y86.84 E1.38527
G1 X128.793 Y89.273 E1.48622
G1 X130.055 Y91.726 E1.58944
G1 X131.37 Y94.113 E1.69142
G1 X132.768 Y96.486 E1.79447
G1 X134.196 Y98.764 E1.89507
G1 X135.722 Y101.05 E1.99792
G1 X137.31 Y103.291 E2.10069
G1 X138.945 Y105.463 E2.20241
G1 X140.628 Y107.574 E2.30343
G1 X142.418 Y109.693 E2.40722
G1 X144.207 Y111.693 E2.50763
G1 X145.483 Y113.053 E2.57741
G1 X145.958 Y113.55 E2.60313
G1 X146.288 Y113.925 E2.62182
G1 X146.749 Y114.507 E2.6496
G1 X147.059 Y114.946 E2.66971
G1 X147.26 Y115.272 E2.68404
G1 X148.365 Y117.112 E2.76435
G1 X149.832 Y119.408 E2.8663
G1 X151.384 Y121.689 E2.96953
G1 X152.954 Y123.862 E3.06984
G1 X154.631 Y126.049 E3.17297
G1 X155.57 Y127.221 E3.22916
G1 X156.379 Y128.214 E3.27708
G1 X156.51 Y128.385 E3.28514
G1 X156.925 Y128.965 E3.31183
G1 X157.274 Y129.523 E3.33646
G1 X157.586 Y130.111 E3.36136
G1 X157.889 Y130.844 E3.39104
G1 X158.044 Y131.346 E3.4107
G1 X158.13 Y131.851 E3.42987
G1 X158.178 Y132.481 E3.45351
G1 X158.154 Y133.084 E3.47609
G1 X158.036 Y133.921 E3.50772
G1 X157.737 Y135.692 E3.57492
G1 X157.356 Y138.41 E3.67762
G1 X157.102 Y140.627 E3.76112
G1 X157.046 Y141.172 E3.78162
G1 X156.859 Y142.598 E3.83543
G1 X156.544 Y145.279 E3.93644
G1 X156.299 Y148.048 E4.04045
G1 X156.16 Y150.428 E4.12966
G1 X156.116 Y151.009 E4.15146
G1 X156.053 Y151.617 E4.17433
G1 X155.93 Y152.343 E4.20188
G1 X155.81 Y152.856 E4.2216
G1 X155.608 Y153.492 E4.24657
G1 X155.252 Y154.27 E4.27858
G1 X155.034 Y154.654 E4.2951
G1 X154.642 Y155.192 E4.32001
G1 X154.223 Y155.664 E4.34362
G1 X152.462 Y157.71 E4.44463
G1 X150.711 Y159.863 E4.54847
G1 X149.062 Y162.014 E4.64989
G1 X148.682 Y162.541 E4.6742
G1 X147.851 Y163.665 E4.7265
G1 X147.454 Y164.125 E4.74924
G1 X147.04 Y164.537 E4.77109
G1 X146.585 Y164.914 E4.7932
G1 X146.156 Y165.209 E4.81268
G1 X145.96 Y165.337 E4.82144
G1 X145.43 Y165.62 E4.84392
G1 X144.504 Y166.016 E4.88161
G1 X143.272 Y166.53 E4.93156
G1 X140.76 Y167.659 E5.03461
G1 X138.292 Y168.854 E5.13721
G1 X135.864 Y170.116 E5.2396
G1 X134.209 Y171.039 E5.31051
G1 X134.119 Y171.08 E5.31421
G1 X132.446 Y172.016 E5.38594
G1 X131.682 Y172.416 E5.41821
G1 X130.794 Y172.853 E5.45524
G1 X130.016 Y173.21 E5.48727
G1 X129.036 Y173.629 E5.52715
G1 X128.107 Y173.997 E5.56454
G1 X127.414 Y174.251 E5.59215
G1 X126.254 Y174.639 E5.63792
G1 X126.13 Y174.678 E5.64279
G1 X124.792 Y175.07 E5.69495
G1 X124.658 Y175.106 E5.70015
G1 X123.353 Y175.432 E5.75048
G1 X123.222 Y175.462 E5.75551
G1 X121.967 Y175.724 E5.80348
G1 X121.831 Y175.75 E5.80866
G1 X120.51 Y175.971 E5.85877
G1 X120.366 Y175.992 E5.86422
G1 X119.046 Y176.156 E5.91399
G1 X118.909 Y176.17 E5.91914
G1 X117.499 Y176.288 E5.97209
G1 X117.371 Y176.296 E5.97688
G1 X116.222 Y176.348 E6.01992
G1 X115.708 Y176.358 E6.03916
G1 X114.952 Y176.358 E6.06745
G1 X114.226 Y176.342 E6.09462
G1 X113.509 Y176.313 E6.12147
G1 X112.756 Y176.266 E6.1497
G1 X111.986 Y176.203 E6.17861
G1 X111.26 Y176.127 E6.20592
G1 X110.669 Y176.055 E6.2282
G1 X109.743 Y175.921 E6.26321
G1 X109.066 Y175.808 E6.28889
G1 X108.397 Y175.683 E6.31435
G1 X107.587 Y175.515 E6.34531
G1 X106.918 Y175.36 E6.371
G1 X106.149 Y175.166 E6.40068
G1 X105.46 Y174.977 E6.42741
G1 X104.726 Y174.759 E6.45606
G1 X104.028 Y174.536 E6.48348
G1 X103.314 Y174.293 E6.5117
G1 X102.445 Y173.974 E6.54634
G1 X101.656 Y173.664 E6.57806
G1 X100.855 Y173.325 E6.6106
G1 X100.544 Y173.185 E6.62337
G1 X98.034 Y172.1 E6.72568
G1 X95.465 Y171.073 E6.82921
G1 X92.939 Y170.145 E6.9299
G1 X90.327 Y169.268 E7.033
G1 X88.02 Y168.565 E7.12324
G1 X87.526 Y168.394 E7.1428
G1 X87.227 Y168.271 E7.1549
G1 X86.76 Y168.032 E7.17452
G1 X86.312 Y167.711 E7.19515
G1 X86.006 Y167.457 E7.21003
G1 X85.631 Y167.09 E7.22966
G1 X85.213 Y166.542 E7.25545
G1 X84.935 Y166.097 E7.27508
G1 X84.686 Y165.537 E7.29801
G1 X84.572 Y165.25 E7.30957
G1 X84.421 Y164.76 E7.32875
G1 X84.284 Y164.155 E7.35197
G1 X84.141 Y163.429 E7.37965
G1 X83.58 Y160.773 E7.48123
G1 X82.934 Y158.095 E7.58431
G1 X82.218 Y155.453 E7.68673
G1 X81.278 Y152.378 E7.80704
G1 X80.816 Y150.945 E7.86338
G1 X80.592 Y150.189 E7.89288
G1 X80.342 Y149.264 E7.92874
G1 X80.147 Y148.473 E7.95922
G1 X79.971 Y147.679 E7.98965
G1 X79.823 Y146.936 E8.018
G1 X79.667 Y146.04 E8.05203
G1 X79.65 Y145.933 E8.05608
G1 X79.47 Y144.661 E8.10415
G1 X79.455 Y144.538 E8.10879
G1 X79.334 Y143.384 E8.15221
G1 X79.323 Y143.262 E8.15679
G1 X79.222 Y141.785 E8.21219
G1 X79.198 Y141.434 E8.22535
G1 X79.158 Y140.565 E8.2579
G1 X78.957 Y137.864 E8.35924
G1 X78.679 Y135.155 E8.46114
G1 X78.563 Y134.224 E8.49625
G1 X78.507 Y133.535 E8.52211
G1 X78.497 Y132.437 E8.5632
G1 X78.513 Y130.88 E8.62146
G1 X78.463 Y128.18 E8.72251
G1 X78.334 Y125.441 E8.82511
G1 X78.131 Y122.741 E8.92642
G1 X77.848 Y120.005 E9.02934
G1 X77.546 Y117.769 E9.11377
G1 X77.451 Y116.991 E9.14309
G1 X77.435 Y116.808 E9.14997
G1 X77.366 Y115.801 E9.18773
G1 X77.356 Y115.729 E9.19045
G1 X77.239 Y114.003 E9.25519
G1 X76.97 Y111.23 E9.35943
G1 X76.878 Y110.453 E9.38871
G1 X76.862 Y110.28 E9.39521
G1 X76.821 Y109.668 E9.41816
G1 X76.816 Y109.164 E9.43702
G1 X76.853 Y108.619 E9.45746
G1 X76.965 Y107.795 E9.48857
G1 X77.086 Y107.267 E9.50884
G1 X77.267 Y106.704 E9.53097
G1 X77.622 Y105.924 E9.56304
G1 X77.871 Y105.487 E9.58186
G1 X78.151 Y105.068 E9.60071
G1 X78.559 Y104.559 E9.62512
G1 X79.041 Y104.068 E9.65087
G1 X79.49 Y103.679 E9.6731
G1 X80.792 Y102.685 E9.73439
G1 X82.974 Y100.971 E9.83821
G1 X85.081 Y99.215 E9.94084
G1 X87.113 Y97.423 E10.04222
G1 X89.116 Y95.554 E10.14472
G1 X91.049 Y93.645 E10.24638
G1 X92.948 Y91.66 E10.34917
G1 X94.782 Y89.63 E10.45153
G1 X96.557 Y87.552 E10.55379
G1 X98.268 Y85.43 E10.65579
G1 X99.915 Y83.261 E10.75769
G1 X101.515 Y81.029 E10.86045
G1 X103.037 Y78.773 E10.96228
G1 X104.493 Y76.477 E11.06401
G1 X105.895 Y74.121 E11.16659
G1 X107.24 Y71.71 E11.26989
G1 X108.471 Y69.349 E11.36952
G1 X109.689 Y66.839 E11.47392
G1 X110.801 Y64.373 E11.57514
G1 X111.868 Y61.821 E11.67864
G1 X112.599 Y59.939 E11.75418
G1 X112.988 Y58.908 E11.79541
G1 X113.21 Y58.432 E11.81507
G0 F2160 X113.482 Y58.56
G1 F900 X113.766 Y58.146 E11.83385
G1 X114.111 Y57.783 E11.85259
G1 X114.51 Y57.478 E11.87138
G1 X114.952 Y57.241 E11.89015
G1 X115.426 Y57.077 E11.90892
G1 X115.92 Y56.991 E11.92768
G1 X116.421 Y56.984 E11.94643
G1 X116.918 Y57.056 E11.96522
G1 X117.396 Y57.207 E11.98397
G1 X117.845 Y57.431 E12.00275
G1 X118.252 Y57.724 E12.02151
G1 X118.608 Y58.078 E12.0403
G1 X118.902 Y58.484 E12.05906
G1 X119.129 Y58.931 E12.07781
G1 X119.282 Y59.409 E12.09659
G1 X119.33 Y59.656 E12.10601
G1 X119.497 Y60.763 E12.1479
G1 X119.951 Y63.508 E12.25201
G1 X120.479 Y66.215 E12.3552
G1 X121.075 Y68.867 E12.45691
G1 X121.74 Y71.489 E12.55813
G1 X122.506 Y74.177 E12.66271
G1 X123.329 Y76.79 E12.76522
G1 X124.213 Y79.334 E12.86599
G1 X125.191 Y81.914 E12.96923
G1 X126.229 Y84.439 E13.07138
G1 X127.357 Y86.973 E13.17517
G1 X128.523 Y89.405 E13.27609
G1 X129.794 Y91.874 E13.37999
G1 X131.109 Y94.261 E13.48197
G1 X132.499 Y96.621 E13.58445
G1 X133.952 Y98.94 E13.68685
G1 X135.471 Y101.215 E13.7892
G1 X137.066 Y103.465 E13.8924
G1 X138.702 Y105.639 E13.99421
G1 X140.421 Y107.795 E14.09738
G1 X142.178 Y109.874 E14.19923
G1 X144.007 Y111.918 E14.30186
G1 X145.286 Y113.281 E14.3718
G1 X145.807 Y113.829 E14.40009
G1 X146.054 Y114.112 E14.41415
G1 X146.446 Y114.605 E14.43772
G1 X146.803 Y115.103 E14.46064
G1 X147.003 Y115.426 E14.47486
G1 X148.115 Y117.279 E14.55572
G1 X149.576 Y119.563 E14.65717
G1 X151.137 Y121.858 E14.76103
G1 X152.73 Y124.063 E14.86281
G1 X154.393 Y126.232 E14.96508
G1 X155.337 Y127.41 E15.02157
G1 X156.146 Y128.403 E15.06949
G1 X156.266 Y128.56 E15.07688
G1 X156.681 Y129.14 E15.10357
G1 X157.012 Y129.668 E15.12689
G1 X157.312 Y130.233 E15.15082
G1 X157.61 Y130.955 E15.18005
G1 X157.796 Y131.648 E15.2069
G1 X157.864 Y132.209 E15.22804
G1 X157.878 Y132.496 E15.2388
G1 X157.857 Y133.046 E15.25939
G1 X157.739 Y133.875 E15.29072
G1 X157.437 Y135.667 E15.35872
G1 X157.063 Y138.329 E15.4593
G1 X156.804 Y140.593 E15.54457
G1 X156.748 Y141.141 E15.56518
G1 X156.562 Y142.559 E15.61869
G1 X156.245 Y145.254 E15.72023
G1 X156.001 Y148.004 E15.82353
G1 X155.861 Y150.407 E15.9136
G1 X155.817 Y150.978 E15.93503
G1 X155.742 Y151.689 E15.96178
G1 X155.636 Y152.285 E15.98443
G1 X155.522 Y152.774 E16.00322
G1 X155.324 Y153.395 E16.02761
G1 X154.985 Y154.134 E16.05803
G1 X154.776 Y154.502 E16.07387
G1 X154.418 Y154.993 E16.0966
G1 X153.999 Y155.465 E16.12022
G1 X152.215 Y157.537 E16.22253
G1 X150.484 Y159.665 E16.32517
G1 X148.825 Y161.83 E16.42723
G1 X148.441 Y162.363 E16.45181
G1 X147.61 Y163.487 E16.50411
G1 X147.234 Y163.921 E16.5256
G1 X146.83 Y164.323 E16.54692
G1 X146.414 Y164.667 E16.56712
G1 X145.992 Y164.957 E16.58628
G1 X145.796 Y165.085 E16.59504
G1 X145.313 Y165.344 E16.61555
G1 X144.389 Y165.739 E16.65315
G1 X143.139 Y166.26 E16.70382
G1 X140.612 Y167.397 E16.8075
G1 X138.198 Y168.565 E16.90785
G1 X135.714 Y169.857 E17.01261
G1 X134.063 Y170.777 E17.08333
G1 X133.97 Y170.82 E17.08717
G1 X132.306 Y171.75 E17.15849
G1 X131.549 Y172.147 E17.19048
G1 X130.669 Y172.58 E17.22718
G1 X129.817 Y172.97 E17.26224
G1 X129.002 Y173.319 E17.29541
G1 X128.004 Y173.716 E17.3356
G1 X127.41 Y173.935 E17.35929
G1 X126.159 Y174.354 E17.40865
G1 X126.046 Y174.39 E17.41309
G1 X124.708 Y174.782 E17.46526
G1 X124.585 Y174.815 E17.47003
G1 X123.28 Y175.141 E17.52036
G1 X123.161 Y175.169 E17.52493
G1 X121.906 Y175.431 E17.5729
G1 X121.782 Y175.454 E17.57762
G1 X120.461 Y175.675 E17.62774
G1 X120.329 Y175.694 E17.63273
G1 X119.009 Y175.858 E17.6825
G1 X118.884 Y175.871 E17.6872
G1 X117.474 Y175.989 E17.74014
G1 X117.357 Y175.997 E17.74453
G1 X116.299 Y176.046 E17.78416
G1 X115.708 Y176.058 E17.80628
G1 X114.959 Y176.058 E17.83431
G1 X114.238 Y176.043 E17.86129
G1 X113.528 Y176.014 E17.88788
G1 X112.781 Y175.967 E17.91589
G1 X112.017 Y175.904 E17.94457
G1 X111.296 Y175.829 E17.97169
G1 X110.635 Y175.748 E17.99661
G1 X109.792 Y175.625 E18.02849
G1 X109.121 Y175.513 E18.05394
G1 X108.458 Y175.389 E18.07918
G1 X107.654 Y175.223 E18.1099
G1 X106.991 Y175.069 E18.13537
G1 X106.229 Y174.877 E18.16477
G1 X105.545 Y174.689 E18.19131
G1 X104.817 Y174.473 E18.21973
G1 X104.125 Y174.252 E18.24691
G1 X103.417 Y174.011 E18.27489
G1 X102.554 Y173.695 E18.30928
G1 X101.772 Y173.387 E18.34073
G1 X100.978 Y173.052 E18.37298
G1 X100.65 Y172.905 E18.38642
G1 X98.129 Y171.814 E18.48921
G1 X95.594 Y170.801 E18.59136
G1 X93.002 Y169.848 E18.69469
G1 X90.446 Y168.991 E18.79556
G1 X88.112 Y168.28 E18.88686
G1 X87.632 Y168.114 E18.90586
G1 X87.343 Y167.994 E18.91757
G1 X86.897 Y167.764 E18.93635
G1 X86.406 Y167.401 E18.95919
G1 X86.199 Y167.227 E18.96931
G1 X85.688 Y166.682 E18.99727
G1 X85.455 Y166.365 E19.01199
G1 X85.093 Y165.729 E19.03937
G1 X84.851 Y165.141 E19.06316
G1 X84.713 Y164.693 E19.0807
G1 X84.578 Y164.097 E19.10357
G1 X84.435 Y163.371 E19.13126
G1 X83.866 Y160.68 E19.23417
G1 X83.23 Y158.044 E19.33564
G1 X82.501 Y155.352 E19.43999
G1 X81.564 Y152.285 E19.55999
G1 X81.104 Y150.86 E19.61602
G1 X80.859 Y150.031 E19.64836
G1 X80.633 Y149.192 E19.68088
G1 X80.44 Y148.408 E19.71109
G1 X80.266 Y147.62 E19.74128
G1 X80.103 Y146.801 E19.77253
G1 X79.962 Y145.989 E19.80337
G1 X79.767 Y144.619 E19.85515
G1 X79.753 Y144.506 E19.85941
G1 X79.632 Y143.352 E19.90282
G1 X79.622 Y143.241 E19.90699
G1 X79.521 Y141.769 E19.9622
G1 X79.497 Y141.42 E19.97529
G1 X79.456 Y140.53 E20.00863
G1 X79.258 Y137.864 E20.10866
G1 X78.969 Y135.05 E20.21451
G1 X78.853 Y134.115 E20.24976
G1 X78.807 Y133.532 E20.27164
G1 X78.797 Y132.44 E20.3125
G1 X78.813 Y130.878 E20.37095
G1 X78.764 Y128.207 E20.47091
G1 X78.632 Y125.403 E20.57595
G1 X78.428 Y122.689 E20.67779
G1 X78.15 Y119.998 E20.77901
G1 X77.844 Y117.732 E20.86457
G1 X77.75 Y116.963 E20.89356
G1 X77.734 Y116.787 E20.90017
G1 X77.663 Y115.751 E20.93903
G1 X77.655 Y115.709 E20.94063
G1 X77.536 Y113.953 E21.00648
G1 X77.272 Y111.233 E21.10874
G1 X77.176 Y110.418 E21.13944
G1 X77.161 Y110.26 E21.14538
G1 X77.12 Y109.648 E21.16833
G1 X77.126 Y108.962 E21.194
G1 X77.195 Y108.235 E21.22133
G1 X77.258 Y107.862 E21.23548
G1 X77.379 Y107.334 E21.25575
G1 X77.544 Y106.82 E21.27595
G1 X77.893 Y106.053 E21.30748
G1 X78.12 Y105.654 E21.32466
G1 X78.4 Y105.235 E21.34351
G1 X78.784 Y104.757 E21.36646
G1 X79.253 Y104.28 E21.39149
G1 X79.672 Y103.917 E21.41223
G1 X80.99 Y102.911 E21.47427
G1 X83.156 Y101.21 E21.57732
G1 X85.279 Y99.44 E21.68075
G1 X87.323 Y97.637 E21.78273
G1 X89.337 Y95.758 E21.88579
G1 X91.248 Y93.872 E21.98626
G1 X93.175 Y91.856 E22.09061
G1 X95.005 Y89.831 E22.19274
G1 X96.788 Y87.743 E22.29547
G1 X98.509 Y85.608 E22.39808
G1 X100.154 Y83.444 E22.49979
G1 X101.752 Y81.214 E22.60245
G1 X103.289 Y78.935 E22.7053
G1 X104.76 Y76.617 E22.80803
G1 X106.143 Y74.291 E22.90928
G1 X107.499 Y71.861 E23.01341
G1 X108.745 Y69.47 E23.11429
G1 X109.95 Y66.988 E23.21753
G1 X111.083 Y64.476 E23.32064
G1 X112.149 Y61.927 E23.42402
G1 X112.878 Y60.047 E23.49947
G1 X113.268 Y59.014 E23.54079
G1 X113.482 Y58.56 E23.55957
G1 F1500 E18.05957
;MESH:Salvador.stl
G0 F2160 X98.244 Y104.991
G0 X97.517 Y105.571
G0 X97.204 Y107.468
;TYPE:WALL-INNER
G1 F1500 E23.55957
G1 F900 X97.205 Y107.469 E23.55962
G1 X97.206 Y107.685 E23.5677
G1 X97.407 Y107.605 E23.57245
G1 X98.74 Y107.074 E23.62614
G1 X99.255 Y106.926 E23.64619
G1 X99.906 Y106.803 E23.67098
G1 X100.623 Y106.722 E23.69798
G1 X101.21 Y106.688 E23.71998
G1 X101.811 Y106.671 E23.74248
G1 X102.803 Y106.691 E23.77961
G1 X103.335 Y106.715 E23.79953
G1 X104.082 Y106.762 E23.82754
G1 X104.647 Y106.855 E23.84896
G1 X105.001 Y106.978 E23.86299
G1 X105.376 Y107.187 E23.87905
G1 X105.587 Y107.358 E23.88921
G1 X105.693 Y107.542 E23.89716
G1 X105.652 Y107.761 E23.90549
G1 X105.502 Y107.884 E23.91275
G1 X104.956 Y108.045 E23.93405
G1 X104.626 Y108.441 E23.95334
G1 X104.077 Y108.821 E23.97832
G1 X104.644 Y109.978 E24.02654
G1 X105.989 Y109.557 E24.07927
G1 X106.712 Y109.346 E24.10745
G1 X107.435 Y109.151 E24.13547
G1 X108.166 Y108.973 E24.16362
G1 X108.9 Y108.81 E24.19176
G1 X109.621 Y108.671 E24.21923
