;FLAVOR:Marlin
;TIME:4405
;Filament used: 6.70971m, 0m
;Layer height: 0.28
;MINX:106.974
;MINY:64.8
;MINZ:0.26
;MAXX:169.474
;MAXY:170.2
;MAXZ:29.94
;Generated with Cura_SteamEngine 4.8.0
T0
M140 S60
M105
M190 S60
M104 S200
M105
M109 S200
M82 ;absolute extrusion mode
M201 X500.00 Y500.00 Z100.00 E5000.00 	;Setup machine max acceleration
M203 X500.00 Y500.00 Z10.00 E50.00 	;Setup machine max feedrate
M204 P500.00 R1000.00 T500.00 		;Setup Print/Retract/Travel acceleration
M205 X8.00 Y8.00 Z0.40 E5.00 		;Setup Jerk
M220 S100 				;Reset Feedrate
M221 S100 				;Reset Flowrate
G28				;Home the Machine
#G29 				;Bed Level
G92 E0
M300 P150 S587
G92 E0
G1 F1500 E-5.5
;LAYER_COUNT:107
;LAYER:0
M107
G0 F2160 X107.631 Y66.247 Z0.26
;TYPE:SKIRT
G1 F1500 E0
G1 F900 X107.968 Y65.845 E0.01701
G1 X108.363 Y65.499 E0.03404
G1 X108.806 Y65.217 E0.05107
G1 X109.287 Y65.005 E0.06812
G1 X109.794 Y64.869 E0.08514
G1 X110.336 Y64.81 E0.10282
G1 X110.754 Y64.8 E0.11638
G1 X112.566 Y64.8 E0.17514
G1 X113.268 Y64.81 E0.1979
G1 X113.791 Y64.858 E0.21494
G1 X114.301 Y64.984 E0.23197
G1 X114.785 Y65.186 E0.24898
G1 X115.233 Y65.459 E0.26599
G1 X115.636 Y65.798 E0.28307
G1 X116.208 Y66.36 E0.30907
G1 X118.218 Y68.282 E0.39926
G1 X120.243 Y70.113 E0.48779
G1 X122.328 Y71.893 E0.57669
G1 X124.447 Y73.603 E0.66499
G1 X126.602 Y75.241 E0.75277
G1 X128.86 Y76.858 E0.84284
G1 X131.078 Y78.356 E0.92963
G1 X133.398 Y79.829 E1.01875
G1 X135.753 Y81.23 E1.10761
G1 X138.161 Y82.572 E1.19701
G1 X140.555 Y83.821 E1.28457
G1 X143.024 Y85.02 E1.37358
G1 X145.51 Y86.142 E1.46203
G1 X148.042 Y87.2 E1.55102
G1 X150.586 Y88.177 E1.63939
G1 X153.129 Y89.074 E1.72684
G1 X155.773 Y89.923 E1.81689
G1 X158.358 Y90.673 E1.90417
G1 X161.017 Y91.365 E1.99327
G1 X163.709 Y91.985 E2.08286
G1 X166.703 Y92.582 E2.18186
G1 X167.161 Y92.705 E2.19724
G1 X167.642 Y92.917 E2.21428
G1 X168.085 Y93.199 E2.23131
G1 X168.479 Y93.545 E2.24832
G1 X168.817 Y93.946 E2.26533
G1 X169.09 Y94.395 E2.28237
G1 X169.292 Y94.88 E2.2994
G1 X169.418 Y95.389 E2.31641
G1 X169.473 Y96.183 E2.34222
G1 X169.474 Y120.292 E3.12404
G1 X169.464 Y120.995 E3.14684
G1 X169.416 Y121.518 E3.16387
G1 X169.29 Y122.027 E3.18088
G1 X169.088 Y122.512 E3.19791
G1 X168.815 Y122.96 E3.21493
G1 X168.419 Y123.42 E3.23461
G1 X168 Y123.793 E3.2528
G1 X167.116 Y124.467 E3.28885
G1 X166.659 Y124.805 E3.30728
G1 X164.523 Y126.482 E3.39535
G1 X162.409 Y128.241 E3.48453
G1 X160.374 Y130.033 E3.57246
G1 X158.372 Y131.898 E3.66119
G1 X156.436 Y133.808 E3.74938
G1 X154.537 Y135.789 E3.83837
G1 X152.701 Y137.818 E3.92711
G1 X150.934 Y139.885 E4.01529
G1 X149.226 Y142 E4.10345
G1 X147.555 Y144.195 E4.19291
G1 X145.975 Y146.397 E4.2808
G1 X144.44 Y148.67 E4.36974
G1 X142.975 Y150.975 E4.45831
G1 X141.586 Y153.305 E4.54628
G1 X140.246 Y155.702 E4.63533
G1 X138.978 Y158.134 E4.72427
G1 X137.791 Y160.572 E4.81221
G1 X136.659 Y163.077 E4.90135
G1 X135.603 Y165.599 E4.99002
G1 X134.749 Y167.819 E5.06715
G1 X134.662 Y168.034 E5.07467
G1 X134.429 Y168.504 E5.09168
G1 X134.127 Y168.934 E5.10872
G1 X133.763 Y169.312 E5.12574
G1 X133.346 Y169.631 E5.14277
G1 X132.886 Y169.883 E5.15977
G1 X132.392 Y170.063 E5.17682
G1 X131.877 Y170.165 E5.19385
G1 X131.248 Y170.198 E5.21428
G1 X131.141 Y170.2 E5.21775
G1 X112.187 Y170.2 E5.8324
G1 X111.489 Y170.191 E5.85504
G1 X110.966 Y170.144 E5.87206
G1 X110.456 Y170.019 E5.88909
G1 X109.971 Y169.817 E5.90613
G1 X109.522 Y169.545 E5.92315
G1 X109.12 Y169.207 E5.94019
G1 X108.774 Y168.812 E5.95721
G1 X108.492 Y168.37 E5.97422
G1 X108.28 Y167.89 E5.99123
G1 X108.143 Y167.383 E6.00826
G1 X108.084 Y166.834 E6.02617
G1 X108.074 Y166.408 E6.03999
G1 X108.074 Y164.603 E6.09852
G1 X108.085 Y163.897 E6.12142
G1 X108.143 Y163.323 E6.14013
G1 X108.257 Y162.705 E6.16051
G1 X108.727 Y159.959 E6.25085
G1 X109.112 Y157.251 E6.33955
G1 X109.417 Y154.559 E6.42741
G1 X109.651 Y151.799 E6.51723
G1 X109.803 Y149.129 E6.60396
G1 X109.88 Y146.359 E6.69382
G1 X109.88 Y143.655 E6.7815
G1 X109.8 Y140.862 E6.87211
G1 X109.651 Y138.233 E6.95751
G1 X109.414 Y135.45 E7.04808
G1 X109.108 Y132.761 E7.13585
G1 X108.715 Y130.004 E7.22616
G1 X108.264 Y127.378 E7.31256
G1 X107.729 Y124.706 E7.40093
G1 X107.381 Y123.239 E7.44982
G1 X107.342 Y122.993 E7.4579
G1 X107.073 Y121.83 E7.49661
G1 X106.986 Y121.156 E7.51865
G1 X106.974 Y120.72 E7.53279
G1 X106.974 Y68.877 E9.21399
G1 X106.983 Y68.212 E9.23556
G1 X107.03 Y67.689 E9.25258
G1 X107.156 Y67.18 E9.26959
G1 X107.358 Y66.695 E9.28663
G1 X107.631 Y66.247 E9.30364
G0 F2160 X107.928 Y66.35
G1 F900 X108.262 Y65.976 E9.3199
G1 X108.652 Y65.661 E9.33616
G1 X109.087 Y65.411 E9.35243
G1 X109.556 Y65.233 E9.36869
G1 X110.048 Y65.133 E9.38498
G1 X110.666 Y65.101 E9.40504
G1 X112.562 Y65.1 E9.46653
G1 X113.264 Y65.11 E9.4893
G1 X113.763 Y65.157 E9.50555
G1 X114.249 Y65.283 E9.52183
G1 X114.708 Y65.484 E9.53808
G1 X115.13 Y65.756 E9.55436
G1 X115.426 Y66.012 E9.56705
G1 X116.03 Y66.605 E9.5945
G1 X118.003 Y68.493 E9.68306
G1 X120.039 Y70.334 E9.77207
G1 X122.141 Y72.128 E9.86169
G1 X124.246 Y73.827 E9.94941
G1 X126.442 Y75.496 E10.03886
G1 X128.667 Y77.09 E10.12762
G1 X130.949 Y78.63 E10.21689
G1 X133.233 Y80.08 E10.30462
G1 X135.602 Y81.49 E10.39403
G1 X138.009 Y82.832 E10.48339
G1 X140.419 Y84.088 E10.57152
G1 X142.888 Y85.288 E10.66055
G1 X145.393 Y86.419 E10.74967
G1 X147.925 Y87.477 E10.83866
G1 X150.464 Y88.451 E10.92685
G1 X153.074 Y89.372 E11.0166
G1 X155.661 Y90.203 E11.10472
G1 X158.272 Y90.961 E11.19289
G1 X160.948 Y91.657 E11.28255
G1 X163.648 Y92.278 E11.3724
G1 X166.645 Y92.876 E11.4715
G1 X167.083 Y92.995 E11.48622
G1 X167.54 Y93.202 E11.50249
G1 X167.958 Y93.479 E11.51875
G1 X168.327 Y93.819 E11.53502
G1 X168.637 Y94.213 E11.55128
G1 X168.881 Y94.652 E11.56757
G1 X169.052 Y95.123 E11.58382
G1 X169.146 Y95.616 E11.60009
G1 X169.173 Y96.192 E11.61879
G1 X169.174 Y120.288 E12.40019
G1 X169.164 Y120.991 E12.42299
G1 X169.117 Y121.49 E12.43924
G1 X168.991 Y121.976 E12.45552
G1 X168.79 Y122.435 E12.47177
G1 X168.518 Y122.857 E12.48806
G1 X168.102 Y123.309 E12.50798
G1 X167.818 Y123.554 E12.52014
G1 X166.937 Y124.226 E12.55607
G1 X166.487 Y124.559 E12.57423
G1 X164.32 Y126.259 E12.66354
G1 X162.231 Y127.998 E12.75169
G1 X160.164 Y129.818 E12.841
G1 X158.17 Y131.677 E12.9294
G1 X156.221 Y133.598 E13.01815
G1 X154.309 Y135.594 E13.10778
G1 X152.48 Y137.615 E13.19617
G1 X150.709 Y139.687 E13.28456
G1 X148.968 Y141.843 E13.37443
G1 X147.316 Y144.013 E13.46287
G1 X145.726 Y146.229 E13.55132
G1 X144.214 Y148.467 E13.6389
G1 X142.715 Y150.826 E13.72954
G1 X141.312 Y153.18 E13.81841
G1 X139.987 Y155.551 E13.90649
G1 X138.71 Y157.998 E13.99599
G1 X137.523 Y160.436 E14.08393
G1 X136.37 Y162.988 E14.17474
G1 X135.327 Y165.481 E14.26238
G1 X134.471 Y167.707 E14.33971
G1 X134.384 Y167.922 E14.34724
G1 X134.159 Y168.37 E14.36349
G1 X133.866 Y168.777 E14.37976
G1 X133.513 Y169.133 E14.39601
G1 X133.107 Y169.428 E14.41229
G1 X132.659 Y169.654 E14.42856
G1 X132.182 Y169.807 E14.44481
G1 X131.561 Y169.888 E14.46511
G1 X131.141 Y169.9 E14.47874
G1 X112.19 Y169.9 E15.09329
G1 X111.492 Y169.891 E15.11593
G1 X110.993 Y169.844 E15.13219
G1 X110.507 Y169.719 E15.14846
G1 X110.047 Y169.519 E15.16472
G1 X109.625 Y169.248 E15.18099
G1 X109.252 Y168.913 E15.19725
G1 X108.936 Y168.523 E15.21352
G1 X108.686 Y168.089 E15.22977
G1 X108.508 Y167.62 E15.24603
G1 X108.407 Y167.128 E15.26232
G1 X108.375 Y166.493 E15.28294
G1 X108.374 Y164.608 E15.34407
G1 X108.385 Y163.902 E15.36697
G1 X108.438 Y163.377 E15.38408
G1 X108.553 Y162.756 E15.40456
G1 X109.021 Y160.02 E15.49457
G1 X109.409 Y157.29 E15.58399
G1 X109.716 Y154.585 E15.67227
G1 X109.949 Y151.84 E15.76161
G1 X110.103 Y149.12 E15.84996
G1 X110.18 Y146.367 E15.93927
G1 X110.18 Y143.646 E16.02751
G1 X110.101 Y140.888 E16.11698
G1 X109.947 Y138.173 E16.20517
G1 X109.714 Y135.432 E16.29437
G1 X109.405 Y132.718 E16.38295
G1 X109.017 Y129.998 E16.47205
G1 X108.554 Y127.3 E16.56082
G1 X108.021 Y124.637 E16.64889
G1 X107.673 Y123.17 E16.69779
G1 X107.637 Y122.936 E16.70546
G1 X107.365 Y121.762 E16.74454
G1 X107.285 Y121.147 E16.76466
G1 X107.274 Y120.72 E16.77851
G1 X107.274 Y68.881 E18.45958
G1 X107.283 Y68.216 E18.48114
G1 X107.33 Y67.717 E18.4974
G1 X107.455 Y67.231 E18.51367
G1 X107.656 Y66.772 E18.52992
G1 X107.928 Y66.35 E18.5462
G1 F1500 E13.0462
G0 F2160 X110.913 Y166.886
G0 X111.388 Y167.361
G0 X131.607 Y167.361
G0 X132.082 Y166.886
G0 X135.041 Y142.312
G1 F1500 E18.5462
G1 F900 X135.191 Y142.203 E18.55221
G1 X135.371 Y142.203 E18.55805
G1 X135.521 Y142.312 E18.56406
G1 X135.577 Y142.485 E18.56996
G1 X135.521 Y142.658 E18.57586
G1 X135.371 Y142.767 E18.58187
G1 X135.191 Y142.767 E18.58771
G1 X135.041 Y142.658 E18.59372
G1 X134.985 Y142.485 E18.59962
G1 X135.041 Y142.312 E18.60551
G0 F2160 X134.786 Y142.128
G1 F900 X135.095 Y141.903 E18.61791
G1 X135.467 Y141.903 E18.62997
G1 X135.776 Y142.128 E18.64237
G1 X135.892 Y142.485 E18.65454
G1 X135.776 Y142.842 E18.66671
G1 X135.467 Y143.067 E18.67911
G1 X135.095 Y143.067 E18.69117
G1 X134.786 Y142.842 E18.70357
G1 X134.67 Y142.485 E18.71574
G1 X134.786 Y142.128 E18.72791
G0 F2160 X134.531 Y141.941
G1 F900 X134.996 Y141.603 E18.74655
G1 X135.566 Y141.603 E18.76504
G1 X136.031 Y141.941 E18.78368
G1 X136.208 Y142.485 E18.80223
G1 X136.031 Y143.029 E18.82078
G1 X135.566 Y143.367 E18.83943
G1 X134.996 Y143.367 E18.85791
G1 X134.531 Y143.029 E18.87655
G1 X134.354 Y142.485 E18.8951
G1 X134.531 Y141.941 E18.91366
G0 F2160 X134.275 Y141.757
G1 F900 X134.898 Y141.303 E18.93865
G1 X135.664 Y141.303 E18.96349
G1 X136.287 Y141.757 E18.98849
G1 X136.524 Y142.485 E19.01332
G1 X136.287 Y143.213 E19.03815
G1 X135.664 Y143.667 E19.06315
G1 X134.898 Y143.667 E19.08799
G1 X134.275 Y143.213 E19.11298
G1 X134.038 Y142.485 E19.13781
G1 X134.275 Y141.757 E19.16264
G0 F2160 X134.021 Y141.571
G1 F900 X134.801 Y141.003 E19.19393
G1 X135.761 Y141.003 E19.22506
G1 X136.541 Y141.571 E19.25635
G1 X136.839 Y142.485 E19.28753
G1 X136.541 Y143.399 E19.3187
G1 X135.761 Y143.967 E19.34999
G1 X134.801 Y143.967 E19.38112
G1 X134.021 Y143.399 E19.41241
G1 X133.723 Y142.485 E19.44359
G1 X134.021 Y141.571 E19.47477
G0 F2160 X133.766 Y141.385
G1 F900 X134.703 Y140.703 E19.51235
G1 X135.859 Y140.703 E19.54984
G1 X136.796 Y141.385 E19.58742
G1 X137.154 Y142.485 E19.62493
G1 X136.796 Y143.585 E19.66244
G1 X135.859 Y144.267 E19.70003
G1 X134.703 Y144.267 E19.73751
G1 X133.766 Y143.585 E19.7751
G1 X133.408 Y142.485 E19.81261
G1 X133.766 Y141.385 E19.85012
G0 F2160 X133.51 Y141.201
G1 F900 X134.606 Y140.403 E19.89409
G1 X135.956 Y140.403 E19.93786
G1 X137.052 Y141.201 E19.98183
G1 X137.47 Y142.485 E20.02562
G1 X137.052 Y143.769 E20.06941
G1 X135.956 Y144.567 E20.11337
G1 X134.606 Y144.567 E20.15715
G1 X133.51 Y143.769 E20.20112
G1 X133.092 Y142.485 E20.24491
G1 X133.51 Y141.201 E20.28869
G0 F2160 X133.255 Y141.015
G1 F900 X134.507 Y140.103 E20.33892
G1 X136.055 Y140.103 E20.38912
G1 X137.307 Y141.015 E20.43935
G1 X137.786 Y142.485 E20.48949
G1 X137.307 Y143.955 E20.53963
G1 X136.055 Y144.867 E20.58986
G1 X134.507 Y144.867 E20.64006
G1 X133.255 Y143.955 E20.69029
G1 X132.776 Y142.485 E20.74043
G1 X133.255 Y141.015 E20.79056
G0 F2160 X133 Y140.83
G1 F900 X134.411 Y139.803 E20.84716
G1 X136.151 Y139.803 E20.90358
G1 X137.562 Y140.83 E20.96018
G1 X138.101 Y142.485 E21.01662
G1 X137.562 Y144.14 E21.07306
G1 X136.151 Y145.167 E21.12966
G1 X134.411 Y145.167 E21.18608
G1 X133 Y144.14 E21.24268
G1 X132.461 Y142.485 E21.29912
G1 X133 Y140.83 E21.35557
G0 F2160 X132.745 Y140.644
G1 F900 X134.312 Y139.503 E21.41842
G1 X136.25 Y139.503 E21.48127
G1 X137.817 Y140.644 E21.54413
G1 X138.416 Y142.485 E21.60691
G1 X137.817 Y144.326 E21.66969
G1 X136.25 Y145.467 E21.73255
G1 X134.312 Y145.467 E21.7954
G1 X132.745 Y144.326 E21.85826
G1 X132.146 Y142.485 E21.92104
G1 X132.745 Y140.644 E21.98382
G1 F1500 E16.48382
;MESH:Headphone_Lack_Holder.stl
G0 F2160 X131.251 Y140.644
G0 X130.878 Y164.278
G0 X130.121 Y165.3
;TYPE:WALL-INNER
G1 F1500 E21.98382
G1 F900 X130.121 Y165.4 E21.98707
G1 X112.874 Y165.4 E22.54636
G1 X112.874 Y165.3 E22.54961
G1 X130.121 Y165.3 E22.73666
G0 F2160 X130.421 Y165
G1 F900 X130.421 Y165.7 E22.75936
G1 X112.574 Y165.7 E23.33812
G1 X112.574 Y165 E23.36082
G1 X130.421 Y165 E23.93957
G0 F2160 X130.721 Y164.7
G1 F900 X130.721 Y166 E23.98173
G1 X112.274 Y166 E24.57994
G1 X112.274 Y164.7 E24.62209
G1 X130.721 Y164.7 E25.22031
G0 F2160 X131.021 Y164.4
G1 F900 X131.021 Y166.3 E25.28192
G1 X111.974 Y166.3 E25.89959
G1 X111.974 Y164.4 E25.9612
G1 X131.021 Y164.4 E26.57887
G0 F2160 X130.85 Y164.15
;TYPE:WALL-OUTER
G1 F900 X130.85 Y121.35 E27.96682
G1 X131.271 Y121.35 E27.98047
G1 X131.271 Y166.55 E29.44624
G1 X111.724 Y166.55 E30.08013
G1 X111.724 Y164.15 E30.15795
G1 X130.85 Y164.15 E30.77818
G0 F2160 X130.85 Y163.95
G0 X131.059 Y163.94
;TYPE:SKIN
G1 F900 X131.059 Y164.152 E30.78096
G1 X131.059 Y121.726 E31.33551
G1 X131.082 Y121.537 E31.338
G0 F2160 X131.15 Y121.65
G1 F1500 E25.838
G0 F2160 X130.864 Y120.58
G0 X111.874 Y119.6
;TYPE:WALL-INNER
G1 F1500 E31.338
G1 F900 X164.574 Y119.6 E33.04564
G1 X164.574 Y97.3 E33.7688
G1 X164.674 Y97.3 E33.77204
G1 X164.674 Y119.6 E34.0139
G1 X164.574 Y119.6 E34.01579
G1 X164.574 Y119.7 E34.01769
G1 X111.874 Y119.7 E34.58925
G1 X111.774 Y119.7 E34.5925
G1 X111.774 Y119.6 E34.59477
G1 X111.774 Y69.6 E36.2162
G1 X111.874 Y69.6 E36.21945
G1 X111.874 Y119.6 E36.76173
G0 F2160 X112.174 Y119.3
G1 F900 X164.274 Y119.3 E38.45126
G1 X164.274 Y97 E39.17442
G1 X164.974 Y97 E39.19712
G1 X164.974 Y119.9 E39.93974
G1 X164.874 Y119.9 E39.94298
G1 X164.874 Y120 E39.94525
G1 X111.474 Y120 E41.67694
G1 X111.474 Y69.3 E43.32107
G1 X112.174 Y69.3 E43.34377
G1 X112.174 Y119.3 E44.96521
G0 F2160 X112.474 Y119
G1 F900 X163.974 Y119 E46.63528
G1 X163.974 Y96.7 E47.35844
G1 X165.274 Y96.7 E47.4006
G1 X165.274 Y120.2 E48.16267
G1 X165.174 Y120.2 E48.16591
G1 X165.174 Y120.3 E48.16819
G1 X111.174 Y120.3 E49.91933
G1 X111.174 Y69 E51.58292
G1 X112.474 Y69 E51.62508
G1 X112.474 Y119 E53.24651
G0 F2160 X112.774 Y118.7
G1 F900 X163.674 Y118.7 E54.89713
G1 X163.674 Y96.4 E55.62029
G1 X165.574 Y96.4 E55.6819
G1 X165.574 Y120.5 E56.46343
G1 X165.474 Y120.5 E56.46667
G1 X165.474 Y120.6 E56.46895
G1 X110.874 Y120.6 E58.23955
G1 X110.874 Y68.7 E59.9226
G1 X112.774 Y68.7 E59.98421
G1 X112.774 Y118.7 E61.60564
G0 F2160 X113.024 Y118.45
;TYPE:WALL-OUTER
G1 F900 X163.424 Y118.45 E63.24005
G1 X163.424 Y96.15 E63.96321
G1 X165.824 Y96.15 E64.04103
G1 X165.824 Y120.75 E64.83878
G1 X165.724 Y120.75 E64.84202
G1 X165.724 Y120.85 E64.84429
G1 X110.624 Y120.85 E66.63111
G1 X110.624 Y68.45 E68.33037
G1 X113.024 Y68.45 E68.4082
G1 X113.024 Y118.45 E70.02963
G0 F2160 X113.224 Y118.45
G0 X113.224 Y118.78
G0 X113.224 Y119
G1 F1500 E64.52963
;MESH:NONMESH
G0 F600 X113.224 Y119 Z0.54
G0 F2160 X132.764 Y120.58
G0 X132.764 Y121.665
G0 X132.764 Y140.658
;TIME_ELAPSED:165.656320
;LAYER:1
M106 S255
;TYPE:SUPPORT
G1 F1500 E70.02963
G1 F1950 X134.319 Y139.526 E70.0968
G1 X136.243 Y139.526 E70.164
G1 X137.798 Y140.658 E70.23117
G1 X138.392 Y142.485 E70.29826
G1 X137.798 Y144.312 E70.36535
G1 X136.243 Y145.444 E70.43252
G1 X134.319 Y145.444 E70.49971
G1 X132.764 Y144.312 E70.56689
G1 X132.17 Y142.485 E70.63398
G1 X132.764 Y140.658 E70.70107
G1 F1500 E65.20107
G0 F4680 X132.285 Y140
G0 X134.056 Y138.713
G0 X135.856 Y138.711
G0 X135.856 Y139.796
G1 F1500 E70.70107
G1 F1950 X135.943 Y139.872 E70.7051
G1 X136.415 Y140.436 E70.73079
G1 X136.616 Y141 E70.7517
G1 X136.638 Y141.564 E70.77141
G1 X136.54 Y142.128 E70.7914
G1 X136.329 Y142.692 E70.81243
