;FLAVOR:Marlin
;TIME:5179
;Filament used: 1.89971m, 0m
;Layer height: 0.2
;MINX:76.55
;MINY:98.3
;MINZ:0.3
;MAXX:158.45
;MAXY:136.7
;MAXZ:4.5
;Generated with Cura_SteamEngine 4.8.0
T0
M140 S60
M105
M190 S60
M104 S200
M105
M109 S200
M82 ;absolute extrusion mode
M201 X500.00 Y500.00 Z100.00 E5000.00 	;Setup machine max acceleration
M203 X500.00 Y500.00 Z10.00 E50.00 	;Setup machine max feedrate
M204 P500.00 R1000.00 T500.00 		;Setup Print/Retract/Travel acceleration
M205 X8.00 Y8.00 Z0.40 E5.00 		;Setup Jerk
M220 S100 				;Reset Feedrate
M221 S100 				;Reset Flowrate
G28				;Home the Machine
#G29 				;Bed Level
G92 E0
M300 P150 S587
G92 E0
G1 F1500 E-5.5
;LAYER_COUNT:22
;LAYER:0
M107
G0 F2160 X77.939 Y98.999 Z0.3
;TYPE:SKIRT
G1 F1500 E0
G1 F900 X78.382 Y98.717 E0.01965
G1 X78.863 Y98.505 E0.03932
G1 X79.37 Y98.369 E0.05896
G1 X79.912 Y98.31 E0.07936
G1 X80.33 Y98.3 E0.095
G1 X154.342 Y98.3 E2.86436
G1 X155.04 Y98.31 E2.89048
G1 X155.563 Y98.358 E2.91013
G1 X156.073 Y98.484 E2.92979
G1 X156.557 Y98.686 E2.94941
G1 X157.006 Y98.959 E2.96907
G1 X157.407 Y99.297 E2.9887
G1 X157.753 Y99.693 E3.00838
G1 X158.035 Y100.136 E3.02802
G1 X158.246 Y100.616 E3.04764
G1 X158.382 Y101.123 E3.06729
G1 X158.44 Y101.663 E3.08761
G1 X158.45 Y102.08 E3.10321
G1 X158.45 Y132.557 E4.24359
G1 X158.441 Y133.284 E4.2708
G1 X158.394 Y133.807 E4.29045
G1 X158.269 Y134.316 E4.31006
G1 X158.068 Y134.801 E4.3297
G1 X157.796 Y135.25 E4.34934
G1 X157.458 Y135.652 E4.369
G1 X157.064 Y135.999 E4.38864
G1 X156.621 Y136.281 E4.40829
G1 X156.141 Y136.494 E4.42794
G1 X155.634 Y136.63 E4.44758
G1 X155.088 Y136.69 E4.46813
G1 X154.67 Y136.7 E4.48378
G1 X80.663 Y136.7 E7.25295
G1 X79.965 Y136.691 E7.27907
G1 X79.442 Y136.644 E7.29872
G1 X78.932 Y136.519 E7.31836
G1 X78.447 Y136.317 E7.33802
G1 X77.998 Y136.045 E7.35767
G1 X77.596 Y135.707 E7.37732
G1 X77.25 Y135.312 E7.39697
G1 X76.968 Y134.87 E7.41658
G1 X76.756 Y134.39 E7.43622
G1 X76.619 Y133.883 E7.45587
G1 X76.56 Y133.334 E7.47653
G1 X76.55 Y132.908 E7.49247
G1 X76.55 Y102.377 E8.63487
G1 X76.559 Y101.712 E8.65976
G1 X76.606 Y101.189 E8.67941
G1 X76.732 Y100.68 E8.69903
G1 X76.934 Y100.195 E8.71868
G1 X77.207 Y99.747 E8.73832
G1 X77.544 Y99.345 E8.75794
G1 X77.939 Y98.999 E8.77759
G0 F2160 X78.228 Y99.161
G1 F900 X78.663 Y98.911 E8.79636
G1 X79.132 Y98.733 E8.81514
G1 X79.624 Y98.633 E8.83392
G1 X80.242 Y98.601 E8.85708
G1 X154.338 Y98.6 E11.62957
G1 X155.036 Y98.61 E11.65569
G1 X155.536 Y98.657 E11.67449
G1 X156.021 Y98.783 E11.69324
G1 X156.481 Y98.984 E11.71202
G1 X156.902 Y99.256 E11.73077
G1 X157.275 Y99.591 E11.74953
G1 X157.591 Y99.981 E11.76832
G1 X157.84 Y100.416 E11.78707
G1 X158.017 Y100.886 E11.80586
G1 X158.118 Y101.377 E11.82462
G1 X158.149 Y101.991 E11.84762
G1 X158.15 Y132.553 E12.99118
G1 X158.141 Y133.28 E13.01839
G1 X158.095 Y133.779 E13.03714
G1 X157.97 Y134.265 E13.05591
G1 X157.769 Y134.725 E13.0747
G1 X157.499 Y135.147 E13.09344
G1 X157.164 Y135.521 E13.11223
G1 X156.775 Y135.837 E13.13098
G1 X156.34 Y136.088 E13.14977
G1 X155.871 Y136.266 E13.16854
G1 X155.38 Y136.367 E13.1873
G1 X154.758 Y136.399 E13.21061
G1 X80.666 Y136.4 E15.98295
G1 X79.968 Y136.391 E16.00907
G1 X79.469 Y136.344 E16.02783
G1 X78.983 Y136.219 E16.0466
G1 X78.523 Y136.019 E16.06537
G1 X78.101 Y135.748 E16.08414
G1 X77.728 Y135.413 E16.1029
G1 X77.412 Y135.023 E16.12168
G1 X77.162 Y134.589 E16.14042
G1 X76.984 Y134.12 E16.15919
G1 X76.883 Y133.628 E16.17799
G1 X76.851 Y132.993 E16.20178
G1 X76.85 Y102.381 E17.3472
G1 X76.859 Y101.716 E17.37209
G1 X76.906 Y101.217 E17.39084
G1 X77.031 Y100.731 E17.40962
G1 X77.232 Y100.272 E17.42837
G1 X77.504 Y99.85 E17.44716
G1 X77.838 Y99.476 E17.46592
G1 X78.228 Y99.161 E17.48468
G1 F1500 E11.98468
;MESH:Body1.stl
G0 F2160 X80.464 Y101.135
G0 X80.464 Y102.214
G0 X154.25 Y132.5
;TYPE:WALL-INNER
G1 F1500 E17.48468
G1 F900 X80.75 Y132.5 E20.23487
G1 X80.75 Y102.5 E21.3574
G1 X154.25 Y102.5 E24.1076
G1 X154.25 Y132.5 E25.23013
G0 F2160 X154.55 Y132.8
G1 F900 X80.45 Y132.8 E28.00278
G1 X80.45 Y102.2 E29.14776
G1 X154.55 Y102.2 E31.92041
G1 X154.55 Y132.8 E33.06539
G0 F2160 X154.8 Y133.05
;TYPE:WALL-OUTER
G1 F900 X80.2 Y133.05 E35.85674
G1 X80.2 Y101.95 E37.02043
G1 X154.8 Y101.95 E39.81179
G1 X154.8 Y133.05 E40.97548
G0 F2160 X154.6 Y133.05
G0 X154.47 Y132.72
G0 X153.96 Y132.21
;TYPE:SKIN
G1 F900 X81.04 Y132.21 E43.70397
G1 X81.04 Y102.79 E44.8048
G1 X153.96 Y102.79 E47.5333
G1 X153.96 Y132.21 E48.63412
G0 F2160 X153.824 Y103.336
G1 F900 X153.412 Y102.925 E48.6559
G0 F2160 X152.988 Y102.925
G1 F900 X153.824 Y103.76 E48.70011
G0 F2160 X153.824 Y104.185
G1 F900 X152.563 Y102.925 E48.76681
G0 F2160 X152.139 Y102.925
G1 F900 X153.824 Y104.609 E48.85595
G0 F2160 X153.824 Y105.033
G1 F900 X151.715 Y102.925 E48.96752
G0 F2160 X151.291 Y102.925
G1 F900 X153.824 Y105.457 E49.10154
G0 F2160 X153.824 Y105.882
G1 F900 X150.866 Y102.925 E49.25804
G0 F2160 X150.442 Y102.925
G1 F900 X153.824 Y106.306 E49.43697
G0 F2160 X153.824 Y106.73
G1 F900 X150.018 Y102.925 E49.63835
G0 F2160 X149.594 Y102.925
G1 F900 X153.824 Y107.154 E49.86216
G0 F2160 X153.824 Y107.579
G1 F900 X149.169 Y102.925 E50.10846
G0 F2160 X148.745 Y102.925
G1 F900 X153.824 Y108.003 E50.37719
G0 F2160 X153.824 Y108.427
G1 F900 X148.321 Y102.925 E50.66837
G0 F2160 X147.897 Y102.925
G1 F900 X153.824 Y108.852 E50.982
G0 F2160 X153.824 Y109.276
G1 F900 X147.472 Y102.925 E51.3181
G0 F2160 X147.048 Y102.925
G1 F900 X153.824 Y109.7 E51.67664
G0 F2160 X153.824 Y110.124
G1 F900 X146.624 Y102.925 E52.05761
G0 F2160 X146.199 Y102.925
G1 F900 X153.824 Y110.549 E52.46107
G0 F2160 X153.824 Y110.973
G1 F900 X145.775 Y102.925 E52.88697
G0 F2160 X145.351 Y102.925
G1 F900 X153.824 Y111.397 E53.33531
G0 F2160 X153.824 Y111.821
G1 F900 X144.927 Y102.925 E53.80608
G0 F2160 X144.502 Y102.925
G1 F900 X153.824 Y112.246 E54.29934
G0 F2160 X153.824 Y112.67
G1 F900 X144.078 Y102.925 E54.81504
G0 F2160 X143.654 Y102.925
G1 F900 X153.824 Y113.094 E55.35318
G0 F2160 X153.824 Y113.518
G1 F900 X143.23 Y102.925 E55.91375
G0 F2160 X142.805 Y102.925
G1 F900 X153.824 Y113.943 E56.49681
G0 F2160 X153.824 Y114.367
G1 F900 X142.381 Y102.925 E57.10231
G0 F2160 X141.957 Y102.925
G1 F900 X153.824 Y114.791 E57.73024
G0 F2160 X153.824 Y115.215
G1 F900 X141.533 Y102.925 E58.38061
G0 F2160 X141.108 Y102.925
G1 F900 X153.824 Y115.64 E59.05347
G0 F2160 X153.824 Y116.064
G1 F900 X140.684 Y102.925 E59.74877
G0 F2160 X140.26 Y102.925
G1 F900 X153.824 Y116.488 E60.4665
G0 F2160 X153.824 Y116.913
G1 F900 X139.836 Y102.925 E61.2067
G0 F2160 X139.411 Y102.925
G1 F900 X153.824 Y117.337 E61.96936
G0 F2160 X153.824 Y117.761
G1 F900 X138.987 Y102.925 E62.75446
G0 F2160 X138.563 Y102.925
G1 F900 X153.824 Y118.185 E63.56199
G0 F2160 X153.824 Y118.61
G1 F900 X138.138 Y102.925 E64.39201
G0 F2160 X137.714 Y102.925
G1 F900 X153.824 Y119.034 E65.24447
G0 F2160 X153.824 Y119.458
G1 F900 X137.29 Y102.925 E66.11937
G0 F2160 X136.866 Y102.925
G1 F900 X153.824 Y119.882 E67.0167
G0 F2160 X153.824 Y120.307
G1 F900 X136.441 Y102.925 E67.93652
G0 F2160 X136.017 Y102.925
G1 F900 X153.824 Y120.731 E68.87878
G0 F2160 X153.824 Y121.155
G1 F900 X135.593 Y102.925 E69.84347
G0 F2160 X135.169 Y102.925
G1 F900 X153.824 Y121.579 E70.83061
G0 F2160 X153.824 Y122.004
G1 F900 X134.744 Y102.925 E71.84023
G0 F2160 X134.32 Y102.925
G1 F900 X153.824 Y122.428 E72.87229
G0 F2160 X153.824 Y122.852
G1 F900 X133.896 Y102.925 E73.92678
G0 F2160 X133.472 Y102.925
G1 F900 X153.824 Y123.276 E75.00371
G0 F2160 X153.824 Y123.701
G1 F900 X133.047 Y102.925 E76.10313
G0 F2160 X132.623 Y102.925
G1 F900 X153.824 Y124.125 E77.22499
G0 F2160 X153.824 Y124.549
G1 F900 X132.199 Y102.925 E78.36928
G0 F2160 X131.775 Y102.925
G1 F900 X153.824 Y124.974 E79.53604
G0 F2160 X153.824 Y125.398
G1 F900 X131.35 Y102.925 E80.72526
G0 F2160 X130.926 Y102.925
G1 F900 X153.824 Y125.822 E81.93692
G0 F2160 X153.824 Y126.246
G1 F900 X130.502 Y102.925 E83.17101
G0 F2160 X130.077 Y102.925
G1 F900 X153.824 Y126.671 E84.42759
G0 F2160 X153.824 Y127.095
G1 F900 X129.653 Y102.925 E85.70661
G0 F2160 X129.229 Y102.925
G1 F900 X153.824 Y127.519 E87.00807
G0 F2160 X153.824 Y127.943
G1 F900 X128.805 Y102.925 E88.33196
G0 F2160 X128.38 Y102.925
G1 F900 X153.824 Y128.368 E89.67834
G0 F2160 X153.824 Y128.792
G1 F900 X127.956 Y102.925 E91.04716
G0 F2160 X127.532 Y102.925
G1 F900 X153.824 Y129.216 E92.43842
G0 F2160 X153.824 Y129.64
G1 F900 X127.108 Y102.925 E93.85211
G0 F2160 X126.683 Y102.925
G1 F900 X153.824 Y130.065 E95.28829
G0 F2160 X153.824 Y130.489
G1 F900 X126.259 Y102.925 E96.74691
G0 F2160 X125.835 Y102.925
G1 F900 X153.824 Y130.913 E98.22796
G0 F2160 X153.824 Y131.338
G1 F900 X125.411 Y102.925 E99.73148
G0 F2160 X124.986 Y102.925
G1 F900 X153.824 Y131.762 E101.25746
G0 F2160 X153.711 Y132.074
G1 F900 X124.562 Y102.925 E102.79993
G0 F2160 X124.138 Y102.925
G1 F900 X153.287 Y132.074 E104.34239
G0 F2160 X152.863 Y132.074
G1 F900 X123.713 Y102.925 E105.88488
G0 F2160 X123.289 Y102.925
G1 F900 X152.438 Y132.074 E107.42735
G0 F2160 X152.014 Y132.074
G1 F900 X122.865 Y102.925 E108.96981
G0 F2160 X122.441 Y102.925
G1 F900 X151.59 Y132.074 E110.51228
G0 F2160 X151.165 Y132.074
G1 F900 X122.016 Y102.925 E112.05474
G0 F2160 X121.592 Y102.925
G1 F900 X150.741 Y132.074 E113.59721
G0 F2160 X150.317 Y132.074
G1 F900 X121.168 Y102.925 E115.13967
G0 F2160 X120.744 Y102.925
G1 F900 X149.893 Y132.074 E116.68214
G0 F2160 X149.468 Y132.074
G1 F900 X120.319 Y102.925 E118.2246
G0 F2160 X119.895 Y102.925
G1 F900 X149.044 Y132.074 E119.76706
G0 F2160 X148.62 Y132.074
G1 F900 X119.471 Y102.925 E121.30953
G0 F2160 X119.047 Y102.925
G1 F900 X148.196 Y132.074 E122.85199
G0 F2160 X147.771 Y132.074
G1 F900 X118.622 Y102.925 E124.39446
G0 F2160 X118.198 Y102.925
G1 F900 X147.347 Y132.074 E125.93692
G0 F2160 X146.923 Y132.074
G1 F900 X117.774 Y102.925 E127.47939
G0 F2160 X117.35 Y102.925
G1 F900 X146.499 Y132.074 E129.02185
G0 F2160 X146.074 Y132.074
G1 F900 X116.925 Y102.925 E130.56432
G0 F2160 X116.501 Y102.925
G1 F900 X145.65 Y132.074 E132.10678
G0 F2160 X145.226 Y132.074
G1 F900 X116.077 Y102.925 E133.64925
G0 F2160 X115.652 Y102.925
G1 F900 X144.802 Y132.074 E135.19174
G0 F2160 X144.377 Y132.074
G1 F900 X115.228 Y102.925 E136.7342
G0 F2160 X114.804 Y102.925
G1 F900 X143.953 Y132.074 E138.27667
G0 F2160 X143.529 Y132.074
G1 F900 X114.38 Y102.925 E139.81913
G0 F2160 X113.955 Y102.925
G1 F900 X143.104 Y132.074 E141.36159
G0 F2160 X142.68 Y132.074
G1 F900 X113.531 Y102.925 E142.90406
G0 F2160 X113.107 Y102.925
G1 F900 X142.256 Y132.074 E144.44652
G0 F2160 X141.832 Y132.074
G1 F900 X112.683 Y102.925 E145.98899
G0 F2160 X112.258 Y102.925
G1 F900 X141.407 Y132.074 E147.53145
G0 F2160 X140.983 Y132.074
G1 F900 X111.834 Y102.925 E149.07392
G0 F2160 X111.41 Y102.925
G1 F900 X140.559 Y132.074 E150.61638
G0 F2160 X140.135 Y132.074
G1 F900 X110.986 Y102.925 E152.15885
G0 F2160 X110.561 Y102.925
G1 F900 X139.71 Y132.074 E153.70131
G0 F2160 X139.286 Y132.074
G1 F900 X110.137 Y102.925 E155.24378
G0 F2160 X109.713 Y102.925
G1 F900 X138.862 Y132.074 E156.78624
G0 F2160 X138.438 Y132.074
G1 F900 X109.289 Y102.925 E158.3287
G0 F2160 X108.864 Y102.925
G1 F900 X138.013 Y132.074 E159.87117
G0 F2160 X137.589 Y132.074
G1 F900 X108.44 Y102.925 E161.41363
G0 F2160 X108.016 Y102.925
G1 F900 X137.165 Y132.074 E162.9561
G0 F2160 X136.741 Y132.074
G1 F900 X107.591 Y102.925 E164.49859
G0 F2160 X107.167 Y102.925
G1 F900 X136.316 Y132.074 E166.04105
G0 F2160 X135.892 Y132.074
G1 F900 X106.743 Y102.925 E167.58352
G0 F2160 X106.319 Y102.925
G1 F900 X135.468 Y132.074 E169.12598
G0 F2160 X135.043 Y132.074
G1 F900 X105.894 Y102.925 E170.66845
G0 F2160 X105.47 Y102.925
G1 F900 X134.619 Y132.074 E172.21091
G0 F2160 X134.195 Y132.074
G1 F900 X105.046 Y102.925 E173.75338
G0 F2160 X104.622 Y102.925
G1 F900 X133.771 Y132.074 E175.29584
G0 F2160 X133.346 Y132.074
G1 F900 X104.197 Y102.925 E176.83831
G0 F2160 X103.773 Y102.925
G1 F900 X132.922 Y132.074 E178.38077
G0 F2160 X132.498 Y132.074
G1 F900 X103.349 Y102.925 E179.92323
G0 F2160 X102.925 Y102.925
G1 F900 X132.074 Y132.074 E181.4657
G0 F2160 X131.649 Y132.074
G1 F900 X102.5 Y102.925 E183.00816
G0 F2160 X102.076 Y102.925
G1 F900 X131.225 Y132.074 E184.55063
G0 F2160 X130.801 Y132.074
G1 F900 X101.652 Y102.925 E186.09309
G0 F2160 X101.227 Y102.925
G1 F900 X130.377 Y132.074 E187.63558
G0 F2160 X129.952 Y132.074
G1 F900 X100.803 Y102.925 E189.17805
G0 F2160 X100.379 Y102.925
G1 F900 X129.528 Y132.074 E190.72051
G0 F2160 X129.104 Y132.074
G1 F900 X99.955 Y102.925 E192.26298
G0 F2160 X99.53 Y102.925
G1 F900 X128.679 Y132.074 E193.80544
G0 F2160 X128.255 Y132.074
G1 F900 X99.106 Y102.925 E195.34791
G0 F2160 X98.682 Y102.925
G1 F900 X127.831 Y132.074 E196.89037
G0 F2160 X127.407 Y132.074
G1 F900 X98.258 Y102.925 E198.43284
G0 F2160 X97.833 Y102.925
G1 F900 X126.982 Y132.074 E199.9753
G0 F2160 X126.558 Y132.074
G1 F900 X97.409 Y102.925 E201.51776
G0 F2160 X96.985 Y102.925
G1 F900 X126.134 Y132.074 E203.06023
G0 F2160 X125.71 Y132.074
G1 F900 X96.561 Y102.925 E204.60269
G0 F2160 X96.136 Y102.925
G1 F900 X125.285 Y132.074 E206.14516
G0 F2160 X124.861 Y132.074
G1 F900 X95.712 Y102.925 E207.68762
G0 F2160 X95.288 Y102.925
G1 F900 X124.437 Y132.074 E209.23009
G0 F2160 X124.013 Y132.074
G1 F900 X94.864 Y102.925 E210.77255
G0 F2160 X94.439 Y102.925
G1 F900 X123.588 Y132.074 E212.31502
G0 F2160 X123.164 Y132.074
G1 F900 X94.015 Y102.925 E213.85748
G0 F2160 X93.591 Y102.925
G1 F900 X122.74 Y132.074 E215.39995
G0 F2160 X122.316 Y132.074
G1 F900 X93.166 Y102.925 E216.94244
G0 F2160 X92.742 Y102.925
G1 F900 X121.891 Y132.074 E218.4849
G0 F2160 X121.467 Y132.074
G1 F900 X92.318 Y102.925 E220.02737
G0 F2160 X91.894 Y102.925
G1 F900 X121.043 Y132.074 E221.56983
G0 F2160 X120.618 Y132.074
G1 F900 X91.469 Y102.925 E223.11229
G0 F2160 X91.045 Y102.925
G1 F900 X120.194 Y132.074 E224.65476
G0 F2160 X119.77 Y132.074
G1 F900 X90.621 Y102.925 E226.19722
G0 F2160 X90.197 Y102.925
G1 F900 X119.346 Y132.074 E227.73969
G0 F2160 X118.921 Y132.074
G1 F900 X89.772 Y102.925 E229.28215
G0 F2160 X89.348 Y102.925
G1 F900 X118.497 Y132.074 E230.82462
G0 F2160 X118.073 Y132.074
G1 F900 X88.924 Y102.925 E232.36708
G0 F2160 X88.5 Y102.925
G1 F900 X117.649 Y132.074 E233.90955
G0 F2160 X117.224 Y132.074
G1 F900 X88.075 Y102.925 E235.45201
G0 F2160 X87.651 Y102.925
G1 F900 X116.8 Y132.074 E236.99448
G0 F2160 X116.376 Y132.074
G1 F900 X87.227 Y102.925 E238.53694
G0 F2160 X86.803 Y102.925
G1 F900 X115.952 Y132.074 E240.0794
G0 F2160 X115.527 Y132.074
G1 F900 X86.378 Y102.925 E241.62187
G0 F2160 X85.954 Y102.925
G1 F900 X115.103 Y132.074 E243.16433
G0 F2160 X114.679 Y132.074
G1 F900 X85.53 Y102.925 E244.7068
G0 F2160 X85.105 Y102.925
G1 F900 X114.255 Y132.074 E246.24929
G0 F2160 X113.83 Y132.074
G1 F900 X84.681 Y102.925 E247.79175
G0 F2160 X84.257 Y102.925
G1 F900 X113.406 Y132.074 E249.33422
G0 F2160 X112.982 Y132.074
G1 F900 X83.833 Y102.925 E250.87668
G0 F2160 X83.408 Y102.925
G1 F900 X112.557 Y132.074 E252.41915
G0 F2160 X112.133 Y132.074
G1 F900 X82.984 Y102.925 E253.96161
G0 F2160 X82.56 Y102.925
G1 F900 X111.709 Y132.074 E255.50408
G0 F2160 X111.285 Y132.074
G1 F900 X82.136 Y102.925 E257.04654
G0 F2160 X81.711 Y102.925
G1 F900 X110.86 Y132.074 E258.58901
G0 F2160 X110.436 Y132.074
G1 F900 X81.287 Y102.925 E260.13147
G0 F2160 X81.175 Y103.236
G1 F900 X110.012 Y132.074 E261.65745
G0 F2160 X109.588 Y132.074
G1 F900 X81.175 Y103.661 E263.16097
G0 F2160 X81.175 Y104.085
G1 F900 X109.163 Y132.074 E264.64202
G0 F2160 X108.739 Y132.074
G1 F900 X81.175 Y104.509 E266.10064
G0 F2160 X81.175 Y104.933
