;FLAVOR:Marlin
;TIME:2200
;Filament used: 0.71097m, 0m
;Layer height: 0.1
;MINX:79.05
;MINY:100.05
;MINZ:0.16
;MAXX:155.95
;MAXY:134.95
;MAXZ:0.86
;Generated with Cura_SteamEngine 4.8.0
T0
M140 S60
M105
M190 S60
M104 S200
M105
M109 S200
M82 ;absolute extrusion mode
M201 X500.00 Y500.00 Z100.00 E5000.00 	;Setup machine max acceleration
M203 X500.00 Y500.00 Z10.00 E50.00 	;Setup machine max feedrate
M204 P500.00 R1000.00 T500.00 		;Setup Print/Retract/Travel acceleration
M205 X8.00 Y8.00 Z0.40 E5.00 		;Setup Jerk
M220 S100 				;Reset Feedrate
M221 S100 				;Reset Flowrate
G28				;Home the Machine
#G29 				;Bed Level
G92 E0
M300 P150 S587
G92 E0
G1 F1500 E-5.5
;LAYER_COUNT:38
;LAYER:0
M107
G0 F2160 X80.439 Y100.749 Z0.16
;TYPE:SKIRT
G1 F1500 E0
G1 F900 X80.882 Y100.467 E0.01048
G1 X81.363 Y100.255 E0.02097
G1 X81.87 Y100.119 E0.03145
G1 X82.412 Y100.06 E0.04233
G1 X82.83 Y100.05 E0.05067
G1 X151.842 Y100.05 E1.42788
G1 X152.54 Y100.06 E1.44181
G1 X153.063 Y100.108 E1.45229
G1 X153.573 Y100.234 E1.46277
G1 X154.057 Y100.436 E1.47324
G1 X154.506 Y100.709 E1.48373
G1 X154.907 Y101.047 E1.49419
G1 X155.253 Y101.443 E1.50469
G1 X155.535 Y101.886 E1.51517
G1 X155.746 Y102.366 E1.52563
G1 X155.882 Y102.873 E1.53611
G1 X155.94 Y103.413 E1.54694
G1 X155.95 Y103.83 E1.55527
G1 X155.95 Y130.807 E2.09362
G1 X155.941 Y131.534 E2.10813
G1 X155.894 Y132.057 E2.11861
G1 X155.769 Y132.566 E2.12907
G1 X155.568 Y133.051 E2.13955
G1 X155.296 Y133.5 E2.15002
G1 X154.958 Y133.902 E2.1605
G1 X154.564 Y134.249 E2.17098
G1 X154.121 Y134.531 E2.18146
G1 X153.641 Y134.744 E2.19194
G1 X153.134 Y134.88 E2.20242
G1 X152.588 Y134.94 E2.21338
G1 X152.17 Y134.95 E2.22172
G1 X83.163 Y134.95 E3.59883
G1 X82.465 Y134.941 E3.61276
G1 X81.942 Y134.894 E3.62324
G1 X81.432 Y134.769 E3.63372
G1 X80.947 Y134.567 E3.6442
G1 X80.498 Y134.295 E3.65468
G1 X80.096 Y133.957 E3.66516
G1 X79.75 Y133.562 E3.67564
G1 X79.468 Y133.12 E3.6861
G1 X79.256 Y132.64 E3.69658
G1 X79.119 Y132.133 E3.70706
G1 X79.06 Y131.584 E3.71808
G1 X79.05 Y131.158 E3.72658
G1 X79.05 Y104.127 E4.26601
G1 X79.059 Y103.462 E4.27928
G1 X79.106 Y102.939 E4.28976
G1 X79.232 Y102.43 E4.30023
G1 X79.434 Y101.945 E4.31071
G1 X79.707 Y101.497 E4.32118
G1 X80.044 Y101.095 E4.33165
G1 X80.439 Y100.749 E4.34213
G0 F2160 X80.728 Y100.911
G1 F900 X81.163 Y100.661 E4.35214
G1 X81.632 Y100.483 E4.36215
G1 X82.124 Y100.383 E4.37217
G1 X82.742 Y100.351 E4.38452
G1 X151.838 Y100.35 E5.76341
G1 X152.536 Y100.36 E5.77734
G1 X153.036 Y100.407 E5.78736
G1 X153.521 Y100.533 E5.79736
G1 X153.981 Y100.734 E5.80738
G1 X154.402 Y101.006 E5.81738
G1 X154.775 Y101.341 E5.82738
G1 X155.091 Y101.731 E5.8374
G1 X155.34 Y102.166 E5.8474
G1 X155.517 Y102.636 E5.85743
G1 X155.618 Y103.127 E5.86743
G1 X155.649 Y103.741 E5.8797
G1 X155.65 Y130.803 E6.41975
G1 X155.641 Y131.53 E6.43426
G1 X155.595 Y132.029 E6.44426
G1 X155.47 Y132.515 E6.45427
G1 X155.269 Y132.975 E6.46429
G1 X154.999 Y133.397 E6.47429
G1 X154.664 Y133.771 E6.48431
G1 X154.275 Y134.087 E6.49431
G1 X153.84 Y134.338 E6.50433
G1 X153.371 Y134.516 E6.51434
G1 X152.88 Y134.617 E6.52435
G1 X152.258 Y134.649 E6.53678
G1 X83.166 Y134.65 E7.91558
G1 X82.468 Y134.641 E7.92951
G1 X81.969 Y134.594 E7.93951
G1 X81.483 Y134.469 E7.94953
G1 X81.023 Y134.269 E7.95954
G1 X80.601 Y133.998 E7.96955
G1 X80.228 Y133.663 E7.97955
G1 X79.912 Y133.273 E7.98957
G1 X79.662 Y132.839 E7.99956
G1 X79.484 Y132.37 E8.00958
G1 X79.383 Y131.878 E8.0196
G1 X79.351 Y131.243 E8.03229
G1 X79.35 Y104.131 E8.57334
G1 X79.359 Y103.466 E8.58661
G1 X79.406 Y102.967 E8.59661
G1 X79.531 Y102.481 E8.60662
G1 X79.732 Y102.022 E8.61662
G1 X80.004 Y101.6 E8.62664
G1 X80.338 Y101.226 E8.63665
G1 X80.728 Y100.911 E8.64665
G1 F1500 E3.14665
;MESH:Body1.stl
G0 F2160 X82.964 Y102.885
G0 X82.964 Y103.964
G0 X150.55 Y129.55
;TYPE:WALL-INNER
G1 F1500 E8.64665
G1 F900 X84.45 Y129.55 E9.96575
G1 X84.45 Y105.45 E10.44669
G1 X150.55 Y105.45 E11.76579
G1 X150.55 Y129.55 E12.24673
G0 F2160 X150.85 Y129.85
G1 F900 X84.15 Y129.85 E13.5778
G1 X84.15 Y105.15 E14.07072
G1 X150.85 Y105.15 E15.40179
G1 X150.85 Y129.85 E15.8947
G0 F2160 X151.15 Y130.15
G1 F900 X83.85 Y130.15 E17.23775
G1 X83.85 Y104.85 E17.74264
G1 X151.15 Y104.85 E19.08568
G1 X151.15 Y130.15 E19.59057
G0 F2160 X151.45 Y130.45
G1 F900 X83.55 Y130.45 E20.94559
G1 X83.55 Y104.55 E21.46245
G1 X151.45 Y104.55 E22.81747
G1 X151.45 Y130.45 E23.33433
G0 F2160 X151.75 Y130.75
G1 F900 X83.25 Y130.75 E24.70132
G1 X83.25 Y104.25 E25.23016
G1 X151.75 Y104.25 E26.59715
G1 X151.75 Y130.75 E27.12599
G0 F2160 X152.05 Y131.05
G1 F900 X82.95 Y131.05 E28.50495
G1 X82.95 Y103.95 E29.04576
G1 X152.05 Y103.95 E30.42473
G1 X152.05 Y131.05 E30.96554
G0 F2160 X152.3 Y131.3
;TYPE:WALL-OUTER
G1 F900 X82.7 Y131.3 E32.35448
G1 X82.7 Y103.7 E32.90527
G1 X152.3 Y103.7 E34.29421
G1 X152.3 Y131.3 E34.845
G0 F2160 X152.1 Y131.3
G0 X151.97 Y130.97
G0 X151.95 Y130.97
G0 X150.26 Y129.26
;TYPE:SKIN
G1 F900 X84.74 Y129.26 E36.15252
G1 X84.74 Y105.74 E36.62189
G1 X150.26 Y105.74 E37.92941
G1 X150.26 Y129.26 E38.39878
G0 F2160 X150.124 Y106
G1 F900 X149.998 Y105.875 E38.40232
G0 F2160 X149.574 Y105.875
G1 F900 X150.124 Y106.425 E38.41784
G0 F2160 X150.124 Y106.849
G1 F900 X149.15 Y105.875 E38.44533
G0 F2160 X148.725 Y105.875
G1 F900 X150.124 Y107.273 E38.4848
G0 F2160 X150.124 Y107.698
G1 F900 X148.301 Y105.875 E38.53625
G0 F2160 X147.877 Y105.875
G1 F900 X150.124 Y108.122 E38.59966
G0 F2160 X150.124 Y108.546
G1 F900 X147.452 Y105.875 E38.67506
G0 F2160 X147.028 Y105.875
G1 F900 X150.124 Y108.97 E38.76242
G0 F2160 X150.124 Y109.395
G1 F900 X146.604 Y105.875 E38.86176
G0 F2160 X146.18 Y105.875
G1 F900 X150.124 Y109.819 E38.97307
G0 F2160 X150.124 Y110.243
G1 F900 X145.755 Y105.875 E39.09636
G0 F2160 X145.331 Y105.875
G1 F900 X150.124 Y110.667 E39.23161
G0 F2160 X150.124 Y111.092
G1 F900 X144.907 Y105.875 E39.37885
G0 F2160 X144.483 Y105.875
G1 F900 X150.124 Y111.516 E39.53805
G0 F2160 X150.124 Y111.94
G1 F900 X144.058 Y105.875 E39.70923
G0 F2160 X143.634 Y105.875
G1 F900 X150.124 Y112.364 E39.89238
G0 F2160 X150.124 Y112.789
G1 F900 X143.21 Y105.875 E40.08751
G0 F2160 X142.786 Y105.875
G1 F900 X150.124 Y113.213 E40.2946
G0 F2160 X150.124 Y113.637
G1 F900 X142.361 Y105.875 E40.51367
G0 F2160 X141.937 Y105.875
G1 F900 X150.124 Y114.061 E40.74472
G0 F2160 X150.124 Y114.486
G1 F900 X141.513 Y105.875 E40.98774
G0 F2160 X141.089 Y105.875
G1 F900 X150.124 Y114.91 E41.24272
G0 F2160 X150.124 Y115.334
G1 F900 X140.664 Y105.875 E41.50969
G0 F2160 X140.24 Y105.875
G1 F900 X150.124 Y115.759 E41.78864
G0 F2160 X150.124 Y116.183
G1 F900 X139.816 Y105.875 E42.07955
G0 F2160 X139.391 Y105.875
G1 F900 X150.124 Y116.607 E42.38245
G0 F2160 X150.124 Y117.031
G1 F900 X138.967 Y105.875 E42.69731
G0 F2160 X138.543 Y105.875
G1 F900 X150.124 Y117.456 E43.02415
G0 F2160 X150.124 Y117.88
G1 F900 X138.119 Y105.875 E43.36296
G0 F2160 X137.694 Y105.875
G1 F900 X150.124 Y118.304 E43.71374
G0 F2160 X150.124 Y118.728
G1 F900 X137.27 Y105.875 E44.0765
G0 F2160 X136.846 Y105.875
G1 F900 X150.124 Y119.153 E44.45123
G0 F2160 X150.124 Y119.577
G1 F900 X136.422 Y105.875 E44.83793
G0 F2160 X135.997 Y105.875
G1 F900 X150.124 Y120.001 E45.23661
G0 F2160 X150.124 Y120.425
G1 F900 X135.573 Y105.875 E45.64726
G0 F2160 X135.149 Y105.875
G1 F900 X150.124 Y120.85 E46.06988
G0 F2160 X150.124 Y121.274
G1 F900 X134.725 Y105.875 E46.50448
G0 F2160 X134.3 Y105.875
G1 F900 X150.124 Y121.698 E46.95105
G0 F2160 X150.124 Y122.122
G1 F900 X133.876 Y105.875 E47.40959
G0 F2160 X133.452 Y105.875
G1 F900 X150.124 Y122.547 E47.88011
G0 F2160 X150.124 Y122.971
G1 F900 X133.027 Y105.875 E48.36261
G0 F2160 X132.603 Y105.875
G1 F900 X150.124 Y123.395 E48.85708
G0 F2160 X150.124 Y123.82
G1 F900 X132.179 Y105.875 E49.36352
G0 F2160 X131.755 Y105.875
G1 F900 X150.124 Y124.244 E49.88194
G0 F2160 X150.124 Y124.668
G1 F900 X131.33 Y105.875 E50.41233
G0 F2160 X130.906 Y105.875
G1 F900 X150.124 Y125.092 E50.95469
G0 F2160 X150.124 Y125.517
G1 F900 X130.482 Y105.875 E51.50903
G0 F2160 X130.058 Y105.875
G1 F900 X150.124 Y125.941 E52.07533
G0 F2160 X150.124 Y126.365
G1 F900 X129.633 Y105.875 E52.65362
G0 F2160 X129.209 Y105.875
G1 F900 X150.124 Y126.789 E53.24387
G0 F2160 X150.124 Y127.214
G1 F900 X128.785 Y105.875 E53.84611
G0 F2160 X128.361 Y105.875
G1 F900 X150.124 Y127.638 E54.4603
G0 F2160 X150.124 Y128.062
G1 F900 X127.936 Y105.875 E55.08648
G0 F2160 X127.512 Y105.875
G1 F900 X150.124 Y128.486 E55.72463
G0 F2160 X150.124 Y128.911
G1 F900 X127.088 Y105.875 E56.37475
G0 F2160 X126.664 Y105.875
G1 F900 X149.913 Y129.124 E57.03089
G0 F2160 X149.488 Y129.124
G1 F900 X126.239 Y105.875 E57.68703
G0 F2160 X125.815 Y105.875
G1 F900 X149.064 Y129.124 E58.34317
G0 F2160 X148.64 Y129.124
G1 F900 X125.391 Y105.875 E58.9993
G0 F2160 X124.966 Y105.875
G1 F900 X148.215 Y129.124 E59.65544
G0 F2160 X147.791 Y129.124
G1 F900 X124.542 Y105.875 E60.31158
G0 F2160 X124.118 Y105.875
G1 F900 X147.367 Y129.124 E60.96771
G0 F2160 X146.943 Y129.124
G1 F900 X123.694 Y105.875 E61.62385
G0 F2160 X123.269 Y105.875
G1 F900 X146.518 Y129.124 E62.27999
G0 F2160 X146.094 Y129.124
G1 F900 X122.845 Y105.875 E62.93612
G0 F2160 X122.421 Y105.875
G1 F900 X145.67 Y129.124 E63.59226
G0 F2160 X145.246 Y129.124
G1 F900 X121.997 Y105.875 E64.2484
G0 F2160 X121.572 Y105.875
G1 F900 X144.821 Y129.124 E64.90454
G0 F2160 X144.397 Y129.124
G1 F900 X121.148 Y105.875 E65.56067
G0 F2160 X120.724 Y105.875
G1 F900 X143.973 Y129.124 E66.21681
G0 F2160 X143.549 Y129.124
G1 F900 X120.3 Y105.875 E66.87295
G0 F2160 X119.875 Y105.875
G1 F900 X143.124 Y129.124 E67.52908
G0 F2160 X142.7 Y129.124
G1 F900 X119.451 Y105.875 E68.18522
G0 F2160 X119.027 Y105.875
G1 F900 X142.276 Y129.124 E68.84136
G0 F2160 X141.851 Y129.124
G1 F900 X118.603 Y105.875 E69.49748
G0 F2160 X118.178 Y105.875
G1 F900 X141.427 Y129.124 E70.15362
G0 F2160 X141.003 Y129.124
G1 F900 X117.754 Y105.875 E70.80975
G0 F2160 X117.33 Y105.875
G1 F900 X140.579 Y129.124 E71.46589
G0 F2160 X140.154 Y129.124
G1 F900 X116.905 Y105.875 E72.12203
G0 F2160 X116.481 Y105.875
G1 F900 X139.73 Y129.124 E72.77817
G0 F2160 X139.306 Y129.124
G1 F900 X116.057 Y105.875 E73.4343
G0 F2160 X115.633 Y105.875
G1 F900 X138.882 Y129.124 E74.09044
G0 F2160 X138.457 Y129.124
G1 F900 X115.208 Y105.875 E74.74658
G0 F2160 X114.784 Y105.875
G1 F900 X138.033 Y129.124 E75.40271
G0 F2160 X137.609 Y129.124
G1 F900 X114.36 Y105.875 E76.05885
G0 F2160 X113.936 Y105.875
G1 F900 X137.185 Y129.124 E76.71499
G0 F2160 X136.76 Y129.124
G1 F900 X113.511 Y105.875 E77.37112
G0 F2160 X113.087 Y105.875
G1 F900 X136.336 Y129.124 E78.02726
G0 F2160 X135.912 Y129.124
G1 F900 X112.663 Y105.875 E78.6834
G0 F2160 X112.239 Y105.875
G1 F900 X135.488 Y129.124 E79.33954
G0 F2160 X135.063 Y129.124
G1 F900 X111.814 Y105.875 E79.99567
G0 F2160 X111.39 Y105.875
G1 F900 X134.639 Y129.124 E80.65181
G0 F2160 X134.215 Y129.124
G1 F900 X110.966 Y105.875 E81.30795
G0 F2160 X110.542 Y105.875
G1 F900 X133.79 Y129.124 E81.96407
G0 F2160 X133.366 Y129.124
G1 F900 X110.117 Y105.875 E82.62021
G0 F2160 X109.693 Y105.875
G1 F900 X132.942 Y129.124 E83.27634
G0 F2160 X132.518 Y129.124
G1 F900 X109.269 Y105.875 E83.93248
G0 F2160 X108.844 Y105.875
G1 F900 X132.093 Y129.124 E84.58862
G0 F2160 X131.669 Y129.124
G1 F900 X108.42 Y105.875 E85.24475
G0 F2160 X107.996 Y105.875
G1 F900 X131.245 Y129.124 E85.90089
G0 F2160 X130.821 Y129.124
G1 F900 X107.572 Y105.875 E86.55703
G0 F2160 X107.147 Y105.875
G1 F900 X130.396 Y129.124 E87.21317
G0 F2160 X129.972 Y129.124
G1 F900 X106.723 Y105.875 E87.8693
G0 F2160 X106.299 Y105.875
G1 F900 X129.548 Y129.124 E88.52544
G0 F2160 X129.124 Y129.124
G1 F900 X105.875 Y105.875 E89.18158
G0 F2160 X105.45 Y105.875
G1 F900 X128.699 Y129.124 E89.83771
G0 F2160 X128.275 Y129.124
G1 F900 X105.026 Y105.875 E90.49385
G0 F2160 X104.602 Y105.875
G1 F900 X127.851 Y129.124 E91.14999
G0 F2160 X127.427 Y129.124
G1 F900 X104.178 Y105.875 E91.80612
G0 F2160 X103.753 Y105.875
G1 F900 X127.002 Y129.124 E92.46226
G0 F2160 X126.578 Y129.124
G1 F900 X103.329 Y105.875 E93.1184
G0 F2160 X102.905 Y105.875
G1 F900 X126.154 Y129.124 E93.77454
G0 F2160 X125.729 Y129.124
G1 F900 X102.48 Y105.875 E94.43067
G0 F2160 X102.056 Y105.875
G1 F900 X125.305 Y129.124 E95.08681
G0 F2160 X124.881 Y129.124
G1 F900 X101.632 Y105.875 E95.74295
G0 F2160 X101.208 Y105.875
G1 F900 X124.457 Y129.124 E96.39908
G0 F2160 X124.032 Y129.124
G1 F900 X100.783 Y105.875 E97.05522
G0 F2160 X100.359 Y105.875
G1 F900 X123.608 Y129.124 E97.71136
G0 F2160 X123.184 Y129.124
G1 F900 X99.935 Y105.875 E98.36749
G0 F2160 X99.511 Y105.875
G1 F900 X122.76 Y129.124 E99.02363
G0 F2160 X122.335 Y129.124
G1 F900 X99.086 Y105.875 E99.67977
G0 F2160 X98.662 Y105.875
G1 F900 X121.911 Y129.124 E100.33591
G0 F2160 X121.487 Y129.124
G1 F900 X98.238 Y105.875 E100.99204
G0 F2160 X97.814 Y105.875
G1 F900 X121.063 Y129.124 E101.64818
G0 F2160 X120.638 Y129.124
G1 F900 X97.389 Y105.875 E102.30432
G0 F2160 X96.965 Y105.875
G1 F900 X120.214 Y129.124 E102.96045
G0 F2160 X119.79 Y129.124
G1 F900 X96.541 Y105.875 E103.61659
G0 F2160 X96.117 Y105.875
G1 F900 X119.365 Y129.124 E104.27271
G0 F2160 X118.941 Y129.124
G1 F900 X95.692 Y105.875 E104.92885
G0 F2160 X95.268 Y105.875
G1 F900 X118.517 Y129.124 E105.58499
G0 F2160 X118.093 Y129.124
G1 F900 X94.844 Y105.875 E106.24112
G0 F2160 X94.419 Y105.875
G1 F900 X117.668 Y129.124 E106.89726
G0 F2160 X117.244 Y129.124
G1 F900 X93.995 Y105.875 E107.5534
G0 F2160 X93.571 Y105.875
G1 F900 X116.82 Y129.124 E108.20954
G0 F2160 X116.396 Y129.124
G1 F900 X93.147 Y105.875 E108.86567
G0 F2160 X92.722 Y105.875
G1 F900 X115.971 Y129.124 E109.52181
G0 F2160 X115.547 Y129.124
G1 F900 X92.298 Y105.875 E110.17795
G0 F2160 X91.874 Y105.875
G1 F900 X115.123 Y129.124 E110.83408
G0 F2160 X114.699 Y129.124
G1 F900 X91.45 Y105.875 E111.49022
G0 F2160 X91.025 Y105.875
G1 F900 X114.274 Y129.124 E112.14636
G0 F2160 X113.85 Y129.124
G1 F900 X90.601 Y105.875 E112.80249
G0 F2160 X90.177 Y105.875
G1 F900 X113.426 Y129.124 E113.45863
G0 F2160 X113.002 Y129.124
G1 F900 X89.753 Y105.875 E114.11477
G0 F2160 X89.328 Y105.875
G1 F900 X112.577 Y129.124 E114.77091
G0 F2160 X112.153 Y129.124
G1 F900 X88.904 Y105.875 E115.42704
G0 F2160 X88.48 Y105.875
G1 F900 X111.729 Y129.124 E116.08318
G0 F2160 X111.304 Y129.124
G1 F900 X88.056 Y105.875 E116.7393
G0 F2160 X87.631 Y105.875
G1 F900 X110.88 Y129.124 E117.39544
G0 F2160 X110.456 Y129.124
G1 F900 X87.207 Y105.875 E118.05158
G0 F2160 X86.783 Y105.875
G1 F900 X110.032 Y129.124 E118.70771
G0 F2160 X109.607 Y129.124
G1 F900 X86.358 Y105.875 E119.36385
G0 F2160 X85.934 Y105.875
G1 F900 X109.183 Y129.124 E120.01999
G0 F2160 X108.759 Y129.124
G1 F900 X85.51 Y105.875 E120.67612
G0 F2160 X85.086 Y105.875
G1 F900 X108.335 Y129.124 E121.33226
G0 F2160 X107.91 Y129.124
G1 F900 X84.874 Y106.087 E121.9824
G0 F2160 X84.874 Y106.512
G1 F900 X107.486 Y129.124 E122.62056
G0 F2160 X107.062 Y129.124
G1 F900 X84.874 Y106.936 E123.24675
G0 F2160 X84.874 Y107.36
G1 F900 X106.638 Y129.124 E123.86098
G0 F2160 X106.213 Y129.124
G1 F900 X84.874 Y107.784 E124.46323
G0 F2160 X84.874 Y108.209
G1 F900 X105.789 Y129.124 E125.05349
G0 F2160 X105.365 Y129.124
G1 F900 X84.874 Y108.633 E125.63179
G0 F2160 X84.874 Y109.057
G1 F900 X104.941 Y129.124 E126.19813
G0 F2160 X104.516 Y129.124
G1 F900 X84.874 Y109.482 E126.75247
G0 F2160 X84.874 Y109.906
G1 F900 X104.092 Y129.124 E127.29484
G0 F2160 X103.668 Y129.124
G1 F900 X84.874 Y110.33 E127.82525
G0 F2160 X84.874 Y110.754
G1 F900 X103.243 Y129.124 E128.34368
G0 F2160 X102.819 Y129.124
