;FLAVOR:Marlin
;TIME:2372
;Filament used: 2.88994m, 0m
;Layer height: 0.28
;MINX:81.45
;MINY:95.9
;MINZ:0.3
;MAXX:153.55
;MAXY:139.1
;MAXZ:10.94
;Generated with Cura_SteamEngine 4.7.1
T0
M140 S60
M105
M190 S60
M104 S190
M105
M109 S190
M82 ;absolute extrusion mode
M201 X500.00 Y500.00 Z100.00 E5000.00 	;Setup machine max acceleration
M203 X500.00 Y500.00 Z10.00 E50.00 	;Setup machine max feedrate
M204 P500.00 R1000.00 T500.00 		;Setup Print/Retract/Travel acceleration
M205 X8.00 Y8.00 Z0.40 E5.00 		;Setup Jerk
M220 S100 				;Reset Feedrate
M221 S100 				;Reset Flowrate
G28				;Home the Machine
#G29 				;Bed Level
G92 E0
M300 P150 S587
G92 E0
;LAYER_COUNT:39
;LAYER:0
M107
G0 F1440 X84.377 Y97.629 Z0.3
;TYPE:SKIRT
G1 F600 X84.916 Y97.232 E0.0334
G1 X85.582 Y96.835 E0.07208
G1 X86.19 Y96.54 E0.1058
G1 X86.948 Y96.265 E0.14602
G1 X87.572 Y96.097 E0.17826
G1 X88.286 Y95.979 E0.21437
G1 X89.086 Y95.918 E0.2544
G1 X89.264 Y95.912 E0.26328
G1 X90.036 Y95.9 E0.3018
G1 X145.162 Y95.9 E3.05205
G1 X145.86 Y95.91 E3.08688
G1 X146.511 Y95.954 E3.11943
G1 X146.81 Y95.989 E3.13445
G1 X147.508 Y96.123 E3.16991
G1 X148.05 Y96.27 E3.19792
G1 X148.68 Y96.489 E3.2312
G1 X149.255 Y96.752 E3.26275
G1 X149.594 Y96.931 E3.28187
G1 X150.174 Y97.293 E3.31598
G1 X150.792 Y97.77 E3.35493
G1 X151.282 Y98.219 E3.38809
G1 X151.763 Y98.758 E3.42413
G1 X152.183 Y99.33 E3.45953
G1 X152.482 Y99.807 E3.48762
G1 X152.779 Y100.357 E3.5188
G1 X153.036 Y100.965 E3.55173
G1 X153.161 Y101.32 E3.57051
G1 X153.325 Y101.903 E3.60073
G1 X153.466 Y102.695 E3.64086
G1 X153.521 Y103.314 E3.67186
G1 X153.527 Y103.477 E3.68
G1 X153.55 Y104.657 E3.73888
G1 X153.55 Y130.712 E5.03877
G1 X153.54 Y131.41 E5.0736
G1 X153.499 Y132.035 E5.10485
G1 X153.461 Y132.366 E5.12147
G1 X153.325 Y133.072 E5.15734
G1 X153.203 Y133.523 E5.18065
G1 X153.03 Y134.045 E5.20809
G1 X152.719 Y134.763 E5.24712
G1 X152.549 Y135.091 E5.26555
G1 X152.211 Y135.647 E5.29802
G1 X151.699 Y136.318 E5.34012
G1 X151.304 Y136.757 E5.36959
G1 X150.635 Y137.359 E5.41449
G1 X150.086 Y137.767 E5.44861
G1 X149.415 Y138.167 E5.48759
G1 X148.81 Y138.46 E5.52112
G1 X148.092 Y138.724 E5.55929
G1 X147.444 Y138.9 E5.59279
G1 X146.714 Y139.021 E5.62971
G1 X145.914 Y139.082 E5.66973
G1 X145.736 Y139.088 E5.67862
G1 X144.964 Y139.1 E5.71714
G1 X89.838 Y139.1 E8.46739
G1 X89.14 Y139.09 E8.50221
G1 X88.489 Y139.046 E8.53477
G1 X88.19 Y139.011 E8.54979
G1 X87.492 Y138.877 E8.58524
G1 X86.95 Y138.73 E8.61326
G1 X86.32 Y138.511 E8.64654
G1 X85.745 Y138.248 E8.67808
G1 X85.406 Y138.069 E8.69721
G1 X84.822 Y137.705 E8.73154
G1 X84.202 Y137.226 E8.77063
G1 X83.717 Y136.78 E8.8035
G1 X83.178 Y136.172 E8.84404
G1 X82.782 Y135.634 E8.87737
G1 X82.383 Y134.964 E8.91627
G1 X82.093 Y134.367 E8.94938
G1 X81.812 Y133.595 E8.99037
G1 X81.647 Y132.978 E9.02223
G1 X81.529 Y132.264 E9.05834
G1 X81.468 Y131.464 E9.09837
G1 X81.462 Y131.283 E9.1074
G1 X81.45 Y130.486 E9.14717
G1 X81.451 Y104.248 E10.45619
G1 X81.461 Y103.577 E10.48967
G1 X81.506 Y102.912 E10.52292
G1 X81.541 Y102.619 E10.53764
G1 X81.676 Y101.925 E10.57292
G1 X81.811 Y101.43 E10.59851
G1 X81.999 Y100.878 E10.62761
G1 X82.307 Y100.187 E10.66535
G1 X82.49 Y99.842 E10.68483
G1 X82.849 Y99.266 E10.71869
G1 X83.305 Y98.675 E10.75594
G1 X83.755 Y98.182 E10.78924
G1 X84.377 Y97.629 E10.83076
G0 F1440 X84.637 Y97.934
G1 F600 X85.13 Y97.57 E10.86133
G1 X85.781 Y97.182 E10.89914
G1 X86.339 Y96.912 E10.93007
G1 X87.077 Y96.643 E10.96926
G1 X87.65 Y96.49 E10.99885
G1 X88.343 Y96.375 E11.03389
G1 X89.107 Y96.317 E11.07212
G1 X89.27 Y96.312 E11.08026
G1 X90.036 Y96.3 E11.11848
G1 X145.156 Y96.3 E13.86842
G1 X145.854 Y96.31 E13.90325
G1 X146.465 Y96.351 E13.9338
G1 X146.764 Y96.386 E13.94882
G1 X147.404 Y96.509 E13.98134
G1 X147.946 Y96.656 E14.00935
G1 X148.523 Y96.857 E14.03984
G1 X149.068 Y97.106 E14.06973
G1 X149.407 Y97.285 E14.08886
G1 X149.939 Y97.616 E14.12011
G1 X150.543 Y98.083 E14.15821
G1 X150.992 Y98.494 E14.18857
G1 X151.459 Y99.018 E14.22359
G1 X151.844 Y99.542 E14.25603
G1 X152.143 Y100.019 E14.28412
G1 X152.415 Y100.523 E14.31269
G1 X152.658 Y101.098 E14.34383
G1 X152.783 Y101.453 E14.36261
G1 X152.934 Y101.987 E14.3903
G1 X153.07 Y102.755 E14.42921
G1 X153.122 Y103.336 E14.45831
G1 X153.127 Y103.485 E14.46575
G1 X153.15 Y104.657 E14.52423
G1 X153.15 Y130.706 E15.82382
G1 X153.14 Y131.404 E15.85865
G1 X153.101 Y131.99 E15.88795
G1 X153.063 Y132.321 E15.90457
G1 X152.939 Y132.968 E15.93744
G1 X152.817 Y133.419 E15.96075
G1 X152.658 Y133.897 E15.98588
G1 X152.363 Y134.579 E16.02295
G1 X152.193 Y134.907 E16.04138
G1 X151.884 Y135.416 E16.07109
G1 X151.386 Y136.069 E16.11206
G1 X151.024 Y136.471 E16.13905
G1 X150.374 Y137.056 E16.18268
G1 X149.871 Y137.43 E16.21395
G1 X149.216 Y137.82 E16.25198
G1 X148.661 Y138.088 E16.28273
G1 X147.96 Y138.346 E16.32
G1 X147.366 Y138.507 E16.3507
G1 X146.657 Y138.625 E16.38656
G1 X145.893 Y138.683 E16.42478
G1 X145.73 Y138.688 E16.43292
G1 X144.964 Y138.7 E16.47114
G1 X89.844 Y138.7 E19.22109
G1 X89.146 Y138.69 E19.25592
G1 X88.535 Y138.649 E19.28647
G1 X88.236 Y138.614 E19.30149
G1 X87.596 Y138.491 E19.334
G1 X87.054 Y138.344 E19.36202
G1 X86.477 Y138.143 E19.3925
G1 X85.932 Y137.894 E19.42239
G1 X85.593 Y137.715 E19.44152
G1 X85.057 Y137.381 E19.47303
G1 X84.452 Y136.913 E19.51119
G1 X84.007 Y136.505 E19.54131
G1 X83.483 Y135.912 E19.58079
G1 X83.12 Y135.42 E19.61129
G1 X82.73 Y134.765 E19.64932
G1 X82.464 Y134.218 E19.67967
G1 X82.191 Y133.466 E19.71958
G1 X82.04 Y132.9 E19.74881
G1 X81.925 Y132.207 E19.78386
G1 X81.867 Y131.443 E19.82208
G1 X81.862 Y131.277 E19.83037
G1 X81.85 Y130.486 E19.86983
G1 X81.85 Y104.254 E21.17855
G1 X81.86 Y103.583 E21.21203
G1 X81.903 Y102.959 E21.24324
G1 X81.938 Y102.666 E21.25796
G1 X82.062 Y102.03 E21.29029
G1 X82.197 Y101.535 E21.31589
G1 X82.369 Y101.029 E21.34255
G1 X82.66 Y100.374 E21.37831
G1 X82.843 Y100.029 E21.39779
G1 X83.173 Y99.501 E21.42886
G1 X83.618 Y98.923 E21.46525
G1 X84.031 Y98.471 E21.49579
G1 X84.637 Y97.934 E21.53619
G0 F1440 X84.896 Y98.238
G1 F600 X85.344 Y97.907 E21.56398
G1 X85.981 Y97.528 E21.60096
G1 X86.487 Y97.283 E21.62901
G1 X87.207 Y97.022 E21.66722
G1 X87.727 Y96.882 E21.69408
G1 X88.399 Y96.771 E21.72806
G1 X89.128 Y96.717 E21.76453
G1 X89.277 Y96.711 E21.77197
G1 X89.973 Y96.7 E21.8067
G1 X145.15 Y96.7 E24.55949
G1 X145.848 Y96.71 E24.59432
G1 X146.418 Y96.748 E24.62282
G1 X146.717 Y96.783 E24.63784
G1 X147.299 Y96.895 E24.66741
G1 X147.841 Y97.042 E24.69542
G1 X148.366 Y97.225 E24.72316
G1 X148.882 Y97.46 E24.75145
G1 X149.221 Y97.639 E24.77058
G1 X149.704 Y97.94 E24.79897
G1 X150.294 Y98.396 E24.83617
G1 X150.702 Y98.77 E24.86378
G1 X151.155 Y99.278 E24.89774
G1 X151.505 Y99.755 E24.92726
G1 X151.804 Y100.232 E24.95534
G1 X152.052 Y100.69 E24.98133
G1 X152.281 Y101.23 E25.01059
G1 X152.406 Y101.585 E25.02937
G1 X152.543 Y102.071 E25.05456
G1 X152.675 Y102.814 E25.09221
G1 X152.722 Y103.357 E25.1194
G1 X152.727 Y103.493 E25.12619
G1 X152.75 Y104.657 E25.18427
G1 X152.75 Y130.7 E26.48356
G1 X152.74 Y131.398 E26.51839
G1 X152.704 Y131.944 E26.54569
G1 X152.666 Y132.275 E26.56231
G1 X152.553 Y132.863 E26.59219
G1 X152.287 Y133.749 E26.63834
G1 X152.008 Y134.395 E26.67344
G1 X151.838 Y134.723 E26.69188
G1 X151.557 Y135.186 E26.7189
G1 X151.073 Y135.82 E26.75869
G1 X150.636 Y136.292 E26.79078
G1 X150.113 Y136.752 E26.82553
G1 X149.656 Y137.093 E26.85398
G1 X149.017 Y137.473 E26.89107
G1 X148.513 Y137.717 E26.919
G1 X147.829 Y137.968 E26.95535
G1 X147.288 Y138.115 E26.98332
G1 X146.601 Y138.229 E27.01807
G1 X145.872 Y138.283 E27.05454
G1 X145.723 Y138.289 E27.06198
G1 X145.027 Y138.3 E27.0967
G1 X89.85 Y138.3 E29.8495
G1 X89.152 Y138.29 E29.88432
G1 X88.582 Y138.252 E29.91282
G1 X88.283 Y138.217 E29.92784
G1 X87.701 Y138.105 E29.95741
G1 X87.159 Y137.958 E29.98543
G1 X86.634 Y137.775 E30.01317
G1 X86.118 Y137.54 E30.04145
G1 X85.779 Y137.361 E30.06058
G1 X85.293 Y137.058 E30.08915
G1 X84.702 Y136.6 E30.12646
G1 X84.297 Y136.229 E30.15386
G1 X83.788 Y135.653 E30.19221
G1 X83.457 Y135.206 E30.21996
G1 X83.077 Y134.566 E30.25709
G1 X82.835 Y134.068 E30.28471
G1 X82.57 Y133.337 E30.32351
G1 X82.432 Y132.823 E30.35006
G1 X82.321 Y132.151 E30.38404
G1 X82.267 Y131.422 E30.42051
G1 X82.261 Y131.271 E30.42805
G1 X82.25 Y130.547 E30.46417
G1 X82.25 Y104.26 E31.77563
G1 X82.26 Y103.589 E31.80911
G1 X82.3 Y103.007 E31.83822
G1 X82.335 Y102.714 E31.85294
G1 X82.448 Y102.136 E31.88232
G1 X82.583 Y101.641 E31.90792
G1 X82.844 Y100.923 E31.94604
G1 X83.196 Y100.217 E31.98539
G1 X83.496 Y99.737 E32.01363
G1 X83.932 Y99.172 E32.04924
G1 X84.307 Y98.761 E32.077
G1 X84.896 Y98.238 E32.11629
G0 F1440 X85.155 Y98.543
G1 F600 X85.559 Y98.245 E32.14134
G1 X86.18 Y97.875 E32.1774
G1 X86.636 Y97.654 E32.20268
G1 X87.337 Y97.4 E32.23988
G1 X87.977 Y97.24 E32.27279
G1 X88.772 Y97.136 E32.3128
G1 X89.283 Y97.111 E32.33832
G1 X89.979 Y97.1 E32.37305
G1 X145.145 Y97.1 E35.12529
G1 X145.843 Y97.11 E35.16012
G1 X146.372 Y97.145 E35.18657
G1 X146.671 Y97.18 E35.20159
G1 X147.194 Y97.282 E35.22817
G1 X147.736 Y97.429 E35.25619
G1 X148.428 Y97.687 E35.29303
G1 X149.034 Y97.993 E35.3269
G1 X149.469 Y98.264 E35.35247
G1 X150.045 Y98.709 E35.38879
G1 X150.525 Y99.164 E35.42178
G1 X150.851 Y99.538 E35.44653
G1 X151.166 Y99.967 E35.47309
G1 X151.465 Y100.444 E35.50117
G1 X151.781 Y101.06 E35.53571
G1 X152.029 Y101.718 E35.5708
G1 X152.191 Y102.337 E35.60272
G1 X152.279 Y102.873 E35.62982
G1 X152.323 Y103.379 E35.65516
G1 X152.327 Y103.501 E35.66125
G1 X152.35 Y104.657 E35.71893
G1 X152.35 Y130.695 E37.01797
G1 X152.34 Y131.393 E37.0528
G1 X152.307 Y131.899 E37.0781
G1 X152.269 Y132.23 E37.09472
G1 X152.167 Y132.759 E37.1216
G1 X151.915 Y133.601 E37.16545
G1 X151.653 Y134.211 E37.19857
G1 X151.23 Y134.955 E37.24127
G1 X150.76 Y135.571 E37.27992
G1 X150.356 Y136.006 E37.30954
G1 X149.853 Y136.449 E37.34298
G1 X149.441 Y136.755 E37.36858
G1 X148.818 Y137.126 E37.40476
G1 X148.364 Y137.346 E37.42993
G1 X147.697 Y137.59 E37.46536
G1 X147.211 Y137.723 E37.4905
G1 X146.544 Y137.833 E37.52423
G1 X145.851 Y137.884 E37.55889
G1 X145.717 Y137.889 E37.56558
G1 X145.021 Y137.9 E37.60031
G1 X89.855 Y137.9 E40.35255
G1 X89.157 Y137.89 E40.38738
G1 X88.628 Y137.855 E40.41383
G1 X88.329 Y137.82 E40.42885
G1 X87.806 Y137.718 E40.45543
G1 X87.264 Y137.571 E40.48345
G1 X86.572 Y137.313 E40.5203
G1 X85.966 Y137.007 E40.55417
G1 X85.528 Y136.735 E40.57989
G1 X84.951 Y136.288 E40.6163
G1 X84.474 Y135.835 E40.64912
G1 X84.092 Y135.394 E40.67823
G1 X83.795 Y134.991 E40.70321
G1 X83.424 Y134.367 E40.73942
G1 X83.14 Y133.755 E40.77308
G1 X82.948 Y133.208 E40.80201
G1 X82.79 Y132.573 E40.83465
G1 X82.686 Y131.778 E40.87465
G1 X82.661 Y131.265 E40.90028
G1 X82.65 Y130.541 E40.9364
G1 X82.65 Y104.266 E42.24727
G1 X82.66 Y103.595 E42.28075
G1 X82.697 Y103.054 E42.3078
G1 X82.732 Y102.761 E42.32252
G1 X82.834 Y102.241 E42.34896
G1 X82.969 Y101.746 E42.37456
G1 X83.214 Y101.074 E42.41024
G1 X83.55 Y100.404 E42.44764
G1 X83.82 Y99.972 E42.47305
G1 X84.245 Y99.42 E42.50781
G1 X84.583 Y99.051 E42.53277
G1 X85.155 Y98.543 E42.57094
G0 F1440 X85.415 Y98.847
G1 F600 X85.921 Y98.489 E42.60187
G1 X86.379 Y98.222 E42.62831
G1 X86.95 Y97.96 E42.65966
G1 X87.466 Y97.779 E42.68694
G1 X88.054 Y97.633 E42.71716
G1 X88.793 Y97.535 E42.75436
G1 X89.289 Y97.511 E42.77913
G1 X89.985 Y97.5 E42.81386
G1 X145.139 Y97.5 E45.5655
G1 X145.837 Y97.51 E45.60033
G1 X146.624 Y97.578 E45.63974
G1 X147.09 Y97.668 E45.66342
G1 X147.632 Y97.815 E45.69144
G1 X148.271 Y98.054 E45.72547
G1 X148.847 Y98.346 E45.75769
G1 X149.362 Y98.68 E45.78831
G1 X149.795 Y99.021 E45.81581
G1 X150.234 Y99.44 E45.84609
G1 X150.827 Y100.179 E45.89336
G1 X151.126 Y100.656 E45.92145
G1 X151.417 Y101.226 E45.95337
G1 X151.651 Y101.851 E45.98667
G1 X151.8 Y102.421 E46.01606
G1 X151.884 Y102.933 E46.04195
G1 X151.927 Y103.509 E46.07077
G1 X151.95 Y104.657 E46.12805
G1 X151.95 Y130.689 E47.42679
G1 X151.94 Y131.387 E47.46162
G1 X151.871 Y132.184 E47.50153
G1 X151.659 Y133.106 E47.54873
G1 X151.43 Y133.737 E47.58222
G1 X151.128 Y134.355 E47.61654
G1 X150.81 Y134.857 E47.64618
G1 X150.447 Y135.322 E47.67561
G1 X150.075 Y135.721 E47.70283
G1 X149.592 Y136.146 E47.73493
G1 X149.088 Y136.506 E47.76583
G1 X148.619 Y136.779 E47.7929
G1 X148.05 Y137.04 E47.82413
G1 X147.565 Y137.213 E47.84982
G1 X146.946 Y137.367 E47.88165
G1 X146.207 Y137.465 E47.91884
G1 X145.711 Y137.489 E47.94361
G1 X145.015 Y137.5 E47.97834
G1 X89.861 Y137.5 E50.72998
G1 X89.163 Y137.49 E50.76481
G1 X88.376 Y137.422 E50.80422
G1 X87.91 Y137.332 E50.8279
G1 X87.368 Y137.185 E50.85592
G1 X86.729 Y136.946 E50.88995
G1 X86.153 Y136.654 E50.92217
G1 X85.628 Y136.312 E50.95343
G1 X85.201 Y135.975 E50.98057
G1 X84.765 Y135.559 E51.01064
G1 X84.397 Y135.135 E51.03864
G1 X84.039 Y134.629 E51.06957
G1 X83.771 Y134.168 E51.09617
G1 X83.511 Y133.606 E51.12707
G1 X83.327 Y133.079 E51.15491
G1 X83.183 Y132.496 E51.18487
G1 X83.085 Y131.757 E51.22207
G1 X83.061 Y131.259 E51.24694
G1 X83.05 Y130.535 E51.28306
G1 X83.05 Y104.272 E52.59333
G1 X83.06 Y103.601 E52.62681
G1 X83.095 Y103.101 E52.65182
G1 X83.22 Y102.346 E52.69
G1 X83.355 Y101.851 E52.71559
G1 X83.585 Y101.226 E52.74882
G1 X83.903 Y100.592 E52.78421
G1 X84.234 Y100.083 E52.8145
G1 X84.559 Y99.669 E52.84076
G1 X84.986 Y99.219 E52.87171
G1 X85.415 Y98.847 E52.90003
;MESH:bottom_no_pins.stl
G0 F1440 X89 Y100.044
G0 X89.27 Y101.319
G0 X145.964 Y102.526
;TYPE:WALL-INNER
G1 F900 X146.188 Y102.592 E52.91169
G1 X146.394 Y102.697 E52.92322
G1 X146.559 Y102.825 E52.93364
G1 X146.71 Y102.996 E52.94502
G1 X146.824 Y103.186 E52.95607
G1 X146.901 Y103.397 E52.96728
G1 X146.946 Y103.672 E52.98118
G1 X146.95 Y103.768 E52.98598
G1 X146.95 Y131.249 E54.35701
G1 X146.92 Y131.531 E54.37116
G1 X146.866 Y131.721 E54.38101
G1 X146.758 Y131.935 E54.39297
G1 X146.624 Y132.111 E54.40401
G1 X146.448 Y132.266 E54.41571
G1 X146.253 Y132.382 E54.42703
G1 X146.05 Y132.455 E54.43779
G1 X145.778 Y132.498 E54.45153
G1 X145.694 Y132.5 E54.45572
G1 X89.294 Y132.5 E57.26953
G1 X89.036 Y132.474 E57.28247
G1 X88.809 Y132.407 E57.29427
G1 X88.61 Y132.306 E57.30541
G1 X88.43 Y132.166 E57.31678
G1 X88.291 Y132.009 E57.32725
G1 X88.17 Y131.802 E57.33921
G1 X88.095 Y131.596 E57.35014
G1 X88.052 Y131.326 E57.36378
G1 X88.05 Y131.272 E57.36648
G1 X88.05 Y103.741 E58.74001
G1 X88.076 Y103.486 E58.7528
G1 X88.143 Y103.259 E58.7646
G1 X88.244 Y103.06 E58.77574
G1 X88.386 Y102.878 E58.78725
G1 X88.544 Y102.739 E58.79775
G1 X88.748 Y102.617 E58.80961
G1 X88.948 Y102.545 E58.82022
G1 X89.222 Y102.502 E58.83405
G1 X89.306 Y102.5 E58.83825
G1 X145.706 Y102.5 E61.65205
G1 X145.964 Y102.526 E61.66499
G0 F1440 X146.043 Y102.132
G1 F900 X146.335 Y102.218 E61.68018
G1 X146.609 Y102.358 E61.69553
G1 X146.835 Y102.533 E61.70979
G1 X147.034 Y102.758 E61.72477
G1 X147.187 Y103.013 E61.73961
G1 X147.29 Y103.296 E61.75464
G1 X147.345 Y103.631 E61.77157
G1 X147.35 Y103.751 E61.77756
G1 X147.35 Y131.272 E63.15059
G1 X147.315 Y131.603 E63.1672
G1 X147.238 Y131.871 E63.18111
G1 X147.099 Y132.148 E63.19657
G1 X146.918 Y132.385 E63.21145
G1 X146.686 Y132.59 E63.2269
G1 X146.426 Y132.744 E63.24197
G1 X146.389 Y132.757 E63.24393
G1 X146.186 Y132.83 E63.25469
G1 X146.148 Y132.844 E63.25671
G1 X145.812 Y132.897 E63.27368
G1 X145.705 Y132.9 E63.27902
G1 X89.274 Y132.9 E66.09438
G1 X88.957 Y132.868 E66.11027
G1 X88.665 Y132.782 E66.12546
G1 X88.39 Y132.642 E66.14085
G1 X88.159 Y132.462 E66.15546
G1 X88.132 Y132.431 E66.15751
G1 X87.964 Y132.242 E66.17013
G1 X87.807 Y131.975 E66.18558
G1 X87.706 Y131.696 E66.20039
