;FLAVOR:Marlin
;TIME:11561
;Filament used: 16.0836m, 0m
;Layer height: 0.28
;MINX:78.141
;MINY:85.01
;MINZ:0.26
;MAXX:154.974
;MAXY:150.037
;MAXZ:79.22
;Generated with Cura_SteamEngine 4.8.0
T0
M140 S60
M105
M190 S60
M104 S200
M105
M109 S200
M82 ;absolute extrusion mode
M201 X500.00 Y500.00 Z100.00 E5000.00 	;Setup machine max acceleration
M203 X500.00 Y500.00 Z10.00 E50.00 	;Setup machine max feedrate
M204 P500.00 R1000.00 T500.00 		;Setup Print/Retract/Travel acceleration
M205 X8.00 Y8.00 Z0.40 E5.00 		;Setup Jerk
M220 S100 				;Reset Feedrate
M221 S100 				;Reset Flowrate
G28				;Home the Machine
#G29 				;Bed Level
G92 E0
M300 P150 S587
G92 E0
G1 F1500 E-5.5
;LAYER_COUNT:283
;LAYER:0
M107
G0 F2160 X85.746 Y86.342 Z0.26
;TYPE:SKIRT
G1 F1500 E0
G1 F900 X86.149 Y86.005 E0.01704
G1 X86.598 Y85.734 E0.03404
G1 X87.084 Y85.534 E0.05109
G1 X87.594 Y85.409 E0.06811
G1 X88.375 Y85.356 E0.0935
G1 X100.574 Y85.355 E0.4891
G1 X101.377 Y85.368 E0.51514
G1 X102.083 Y85.398 E0.53805
G1 X104.872 Y85.478 E0.62854
G1 X107.576 Y85.478 E0.71622
G1 X110.347 Y85.401 E0.80612
G1 X113.014 Y85.249 E0.89274
G1 X115.205 Y85.071 E0.96403
G1 X115.807 Y85.015 E0.98364
G1 X116.395 Y85.01 E1.0027
G1 X117.607 Y85.105 E1.04213
G1 X117.949 Y85.137 E1.05327
G1 X120.672 Y85.311 E1.14175
G1 X123.41 Y85.407 E1.23059
G1 X126.163 Y85.428 E1.31987
G1 X128.308 Y85.388 E1.38944
G1 X129.395 Y85.356 E1.42471
G1 X138.38 Y85.355 E1.71608
G1 X139.632 Y85.373 E1.75669
G1 X142.35 Y85.373 E1.84483
G1 X145.085 Y85.297 E1.93355
G1 X145.496 Y85.274 E1.9469
G1 X146.687 Y85.223 E1.98556
G1 X147.414 Y85.222 E2.00914
G1 X148.505 Y85.244 E2.04452
G1 X149.213 Y85.267 E2.06749
G1 X149.735 Y85.324 E2.08452
G1 X150.242 Y85.459 E2.10154
G1 X150.723 Y85.67 E2.11857
G1 X151.255 Y86.012 E2.13908
G1 X151.755 Y86.387 E2.15935
G1 X151.977 Y86.569 E2.16866
G1 X152.573 Y87.102 E2.19459
G1 X153.632 Y88.076 E2.24124
G1 X153.956 Y88.409 E2.25631
G1 X154.26 Y88.837 E2.27334
G1 X154.568 Y89.5 E2.29704
G1 X154.733 Y89.987 E2.31372
G1 X154.821 Y90.273 E2.32342
G1 X154.937 Y90.785 E2.34044
G1 X154.974 Y91.309 E2.35748
G1 X154.931 Y91.832 E2.3745
G1 X154.866 Y92.146 E2.3849
G1 X154.152 Y94.93 E2.4781
G1 X153.54 Y97.626 E2.56775
G1 X153.025 Y100.26 E2.65478
G1 X152.567 Y102.995 E2.74471
G1 X152.197 Y105.672 E2.83235
G1 X151.902 Y108.359 E2.92001
G1 X151.678 Y111.124 E3.00997
G1 X151.535 Y113.827 E3.09774
G1 X151.468 Y116.563 E3.1865
G1 X151.479 Y119.303 E3.27535
G1 X151.566 Y122.005 E3.36302
G1 X151.734 Y124.775 E3.45301
G1 X151.974 Y127.469 E3.54072
G1 X152.289 Y130.153 E3.62836
G1 X152.692 Y132.903 E3.71849
G1 X153.159 Y135.571 E3.80632
G1 X153.708 Y138.255 E3.89516
G1 X154.318 Y140.86 E3.98192
G1 X154.424 Y141.262 E3.99541
G1 X154.725 Y142.472 E4.03584
G1 X154.813 Y142.99 E4.05288
G1 X154.821 Y143.515 E4.06991
G1 X154.749 Y144.035 E4.08693
G1 X154.573 Y144.627 E4.10696
G1 X154.097 Y145.978 E4.15341
G1 X153.674 Y147.217 E4.19586
G1 X153.467 Y147.7 E4.21291
G1 X153.19 Y148.145 E4.2299
G1 X152.848 Y148.543 E4.24692
G1 X152.241 Y149.027 E4.2721
G1 X151.81 Y149.287 E4.28842
G1 X151.249 Y149.601 E4.30927
G1 X150.772 Y149.821 E4.3263
G1 X150.267 Y149.966 E4.34334
G1 X149.672 Y150.035 E4.36276
G1 X148.823 Y150.037 E4.3903
G1 X148.634 Y150.029 E4.39643
G1 X147.629 Y149.958 E4.4291
G1 X146.692 Y149.878 E4.4596
G1 X143.966 Y149.726 E4.54814
G1 X141.218 Y149.649 E4.63729
G1 X139.199 Y149.642 E4.70276
G1 X138.795 Y149.645 E4.71586
G1 X129.814 Y149.645 E5.0071
G1 X129.108 Y149.635 E5.03
G1 X128.914 Y149.626 E5.0363
G1 X128.016 Y149.563 E5.06549
G1 X125.238 Y149.407 E5.15572
G1 X122.496 Y149.329 E5.24467
G1 X119.794 Y149.329 E5.3323
G1 X117.046 Y149.407 E5.42145
G1 X115.138 Y149.52 E5.48343
G1 X114.34 Y149.557 E5.50933
G1 X113.623 Y149.567 E5.53259
G1 X113.273 Y149.561 E5.54394
G1 X112.028 Y149.508 E5.58435
G1 X109.239 Y149.428 E5.67483
G1 X106.535 Y149.428 E5.76252
G1 X103.783 Y149.505 E5.8518
G1 X102.264 Y149.581 E5.90112
G1 X101.412 Y149.63 E5.92879
G1 X100.902 Y149.645 E5.94534
G1 X88.8 Y149.645 E6.33779
G1 X88.101 Y149.635 E6.36046
G1 X87.578 Y149.587 E6.37749
G1 X87.068 Y149.461 E6.39453
G1 X86.584 Y149.259 E6.41153
G1 X86.135 Y148.986 E6.42857
G1 X85.734 Y148.648 E6.44558
G1 X85.388 Y148.253 E6.46261
G1 X85.106 Y147.81 E6.47964
G1 X84.895 Y147.329 E6.49667
G1 X84.742 Y146.721 E6.517
G1 X84.317 Y144.021 E6.60564
G1 X83.819 Y141.352 E6.69368
G1 X83.245 Y138.694 E6.78187
G1 X82.591 Y136.041 E6.87048
G1 X81.862 Y133.392 E6.95957
G1 X81.065 Y130.794 E7.0477
G1 X80.185 Y128.193 E7.13674
G1 X79.433 Y126.159 E7.20706
G1 X78.978 Y124.941 E7.24923
G1 X78.915 Y124.759 E7.25547
G1 X78.607 Y123.767 E7.28916
G1 X78.468 Y123.293 E7.30518
G1 X78.268 Y122.573 E7.32941
G1 X78.166 Y122.058 E7.34643
G1 X78.141 Y121.53 E7.36358
G1 X78.147 Y121.003 E7.38067
G1 X78.193 Y118.907 E7.44865
G1 X78.215 Y116.142 E7.53832
G1 X78.181 Y114.13 E7.60358
G1 X78.151 Y113.001 E7.6402
G1 X78.142 Y112.295 E7.6631
G1 X78.176 Y111.771 E7.68013
G1 X78.297 Y111.23 E7.6981
G1 X78.514 Y110.53 E7.72187
G1 X78.686 Y110.002 E7.73988
G1 X78.935 Y109.276 E7.76477
G1 X79.081 Y108.883 E7.77836
G1 X79.845 Y106.92 E7.84667
G1 X80.773 Y104.318 E7.93626
G1 X81.605 Y101.759 E8.02352
G1 X82.38 Y99.123 E8.11262
G1 X83.078 Y96.478 E8.20133
G1 X83.709 Y93.774 E8.29137
G1 X84.243 Y91.155 E8.37805
G1 X84.735 Y88.314 E8.47155
G1 X84.764 Y88.163 E8.47654
G1 X84.902 Y87.657 E8.49354
G1 X85.115 Y87.177 E8.51057
G1 X85.399 Y86.735 E8.52761
G1 X85.746 Y86.342 E8.54461
G0 F2160 X86.02 Y86.495
G1 F900 X86.415 Y86.186 E8.56088
G1 X86.854 Y85.944 E8.57713
G1 X87.326 Y85.774 E8.5934
G1 X88.063 Y85.665 E8.61756
G1 X88.472 Y85.655 E8.63083
G1 X100.57 Y85.655 E9.02315
G1 X101.275 Y85.665 E9.04601
G1 X102.071 Y85.698 E9.07185
G1 X104.863 Y85.778 E9.16243
G1 X107.584 Y85.778 E9.25066
G1 X110.338 Y85.701 E9.34001
G1 X113.054 Y85.547 E9.42823
G1 X115.229 Y85.371 E9.49899
G1 X115.835 Y85.314 E9.51873
G1 X116.372 Y85.309 E9.53614
G1 X117.579 Y85.404 E9.5754
G1 X117.901 Y85.434 E9.58589
G1 X120.678 Y85.611 E9.67613
G1 X123.397 Y85.707 E9.76436
G1 X126.166 Y85.728 E9.85415
G1 X128.317 Y85.688 E9.92392
G1 X129.404 Y85.656 E9.95919
G1 X138.375 Y85.655 E10.2501
G1 X139.627 Y85.673 E10.29071
G1 X142.358 Y85.673 E10.37927
G1 X145.111 Y85.596 E10.46858
G1 X145.509 Y85.574 E10.48151
G1 X146.799 Y85.52 E10.52338
G1 X147.411 Y85.522 E10.54322
G1 X148.495 Y85.544 E10.57838
G1 X149.203 Y85.567 E10.60136
G1 X149.702 Y85.623 E10.61764
G1 X150.185 Y85.757 E10.63389
G1 X150.641 Y85.967 E10.65017
G1 X151.082 Y86.257 E10.66729
G1 X151.575 Y86.627 E10.68728
G1 X151.778 Y86.793 E10.69578
G1 X152.37 Y87.323 E10.72155
G1 X153.431 Y88.299 E10.7683
G1 X153.739 Y88.618 E10.78268
G1 X154.026 Y89.03 E10.79896
G1 X154.285 Y89.597 E10.81918
G1 X154.447 Y90.076 E10.83557
G1 X154.535 Y90.362 E10.84528
G1 X154.644 Y90.851 E10.86152
G1 X154.673 Y91.352 E10.8778
G1 X154.575 Y92.071 E10.90133
G1 X153.861 Y94.854 E10.9945
G1 X153.244 Y97.574 E11.08495
G1 X152.735 Y100.175 E11.1709
G1 X152.273 Y102.937 E11.26171
G1 X151.899 Y105.635 E11.35004
G1 X151.603 Y108.336 E11.43815
G1 X151.38 Y111.085 E11.52759
G1 X151.235 Y113.839 E11.61702
G1 X151.168 Y116.557 E11.70519
G1 X151.179 Y119.314 E11.7946
G1 X151.266 Y122.032 E11.88278
G1 X151.431 Y124.75 E11.97109
G1 X151.679 Y127.529 E12.06156
G1 X151.992 Y130.199 E12.14874
G1 X152.392 Y132.927 E12.23815
G1 X152.868 Y135.645 E12.32763
G1 X153.414 Y138.311 E12.41588
G1 X154.029 Y140.94 E12.50344
G1 X154.133 Y141.335 E12.51669
G1 X154.434 Y142.545 E12.55712
G1 X154.516 Y143.039 E12.57336
G1 X154.518 Y143.541 E12.58964
G1 X154.441 Y144.037 E12.60592
G1 X154.288 Y144.532 E12.62272
G1 X153.814 Y145.878 E12.66899
G1 X153.39 Y147.12 E12.71155
G1 X153.191 Y147.581 E12.72784
G1 X152.921 Y148.003 E12.74408
G1 X152.588 Y148.378 E12.76035
G1 X152.081 Y148.772 E12.78117
G1 X151.577 Y149.075 E12.80024
G1 X151.103 Y149.339 E12.81783
G1 X150.646 Y149.547 E12.83411
G1 X150.163 Y149.681 E12.85037
G1 X149.663 Y149.736 E12.86668
G1 X148.828 Y149.737 E12.89376
G1 X148.655 Y149.729 E12.89938
G1 X147.654 Y149.659 E12.93192
G1 X146.698 Y149.577 E12.96303
G1 X143.992 Y149.426 E13.05092
G1 X141.227 Y149.349 E13.14062
G1 X139.198 Y149.342 E13.20642
G1 X138.793 Y149.345 E13.21955
G1 X129.818 Y149.345 E13.5106
G1 X129.112 Y149.335 E13.5335
G1 X128.935 Y149.327 E13.53924
G1 X128.02 Y149.262 E13.56899
G1 X125.263 Y149.107 E13.65854
G1 X122.505 Y149.029 E13.74801
G1 X119.785 Y149.029 E13.83622
G1 X117.02 Y149.107 E13.92592
G1 X115.124 Y149.22 E13.98751
G1 X114.335 Y149.257 E14.01312
G1 X113.626 Y149.267 E14.03612
G1 X113.286 Y149.261 E14.04715
G1 X112.04 Y149.208 E14.08759
G1 X109.248 Y149.128 E14.17817
G1 X106.527 Y149.128 E14.2664
G1 X103.759 Y149.205 E14.3562
G1 X102.273 Y149.28 E14.40445
G1 X101.303 Y149.335 E14.43596
G1 X100.902 Y149.345 E14.44897
G1 X88.804 Y149.345 E14.84129
G1 X88.105 Y149.335 E14.86396
G1 X87.606 Y149.288 E14.88021
G1 X87.12 Y149.162 E14.89649
G1 X86.661 Y148.961 E14.91274
G1 X86.239 Y148.689 E14.92902
G1 X85.866 Y148.354 E14.94528
G1 X85.55 Y147.964 E14.96156
G1 X85.301 Y147.529 E14.97781
G1 X85.124 Y147.059 E14.9941
G1 X85.038 Y146.675 E15.00686
G1 X84.615 Y143.986 E15.09513
G1 X84.108 Y141.272 E15.18467
G1 X83.538 Y138.631 E15.27228
G1 X82.878 Y135.954 E15.36169
G1 X82.147 Y133.298 E15.45103
G1 X81.351 Y130.705 E15.53899
G1 X80.473 Y128.109 E15.62786
G1 X79.715 Y126.055 E15.69886
G1 X79.259 Y124.836 E15.74106
G1 X79.202 Y124.67 E15.74675
G1 X78.894 Y123.683 E15.78028
G1 X78.757 Y123.213 E15.79616
G1 X78.557 Y122.493 E15.82039
G1 X78.462 Y122.001 E15.83664
G1 X78.446 Y121.047 E15.86758
G1 X78.493 Y118.914 E15.93677
G1 X78.515 Y116.139 E16.02676
G1 X78.481 Y114.125 E16.09208
G1 X78.451 Y112.997 E16.12867
G1 X78.442 Y112.291 E16.15157
G1 X78.476 Y111.791 E16.16782
G1 X78.583 Y111.318 E16.18355
G1 X78.799 Y110.622 E16.20718
G1 X78.97 Y110.099 E16.22503
G1 X79.216 Y109.38 E16.24967
G1 X79.361 Y108.992 E16.2631
G1 X80.127 Y107.025 E16.33155
G1 X81.049 Y104.438 E16.42062
G1 X81.896 Y101.831 E16.50951
G1 X82.667 Y99.212 E16.59804
G1 X83.367 Y96.558 E16.68705
G1 X83.996 Y93.863 E16.77679
G1 X84.54 Y91.195 E16.86509
G1 X85.03 Y88.371 E16.95804
G1 X85.059 Y88.22 E16.96303
G1 X85.192 Y87.736 E16.9793
G1 X85.401 Y87.28 E16.99557
G1 X85.679 Y86.863 E17.01182
G1 X86.02 Y86.495 E17.02809
G1 F1500 E11.52809
G0 F2160 X101.368 Y88.194
G0 X127.467 Y117.148
G1 F1500 E17.02809
G1 F900 X127.739 Y116.95 E17.039
G1 X128.063 Y116.95 E17.04951
G1 X128.335 Y117.148 E17.06042
G1 X128.436 Y117.46 E17.07105
G1 X128.335 Y117.772 E17.08169
G1 X128.063 Y117.97 E17.0926
G1 X127.739 Y117.97 E17.10311
G1 X127.467 Y117.772 E17.11402
G1 X127.366 Y117.46 E17.12465
G1 X127.467 Y117.148 E17.13529
G0 F2160 X127.212 Y116.963
G1 F900 X127.642 Y116.65 E17.15253
G1 X128.16 Y116.65 E17.16933
G1 X128.59 Y116.963 E17.18658
G1 X128.751 Y117.46 E17.20352
G1 X128.59 Y117.957 E17.22046
G1 X128.16 Y118.27 E17.23771
G1 X127.642 Y118.27 E17.25451
G1 X127.212 Y117.957 E17.27175
G1 X127.051 Y117.46 E17.2887
G1 X127.212 Y116.963 E17.30564
G0 F2160 X126.956 Y116.778
G1 F900 X127.544 Y116.35 E17.32922
G1 X128.258 Y116.35 E17.35238
G1 X128.846 Y116.778 E17.37596
G1 X129.068 Y117.46 E17.39922
G1 X128.846 Y118.142 E17.42248
G1 X128.258 Y118.57 E17.44606
G1 X127.544 Y118.57 E17.46922
G1 X126.956 Y118.142 E17.4928
G1 X126.734 Y117.46 E17.51606
G1 X126.956 Y116.778 E17.53932
G0 F2160 X126.701 Y116.593
G1 F900 X127.447 Y116.05 E17.56924
G1 X128.355 Y116.05 E17.59868
G1 X129.101 Y116.593 E17.62861
G1 X129.383 Y117.46 E17.65817
G1 X129.101 Y118.327 E17.68774
G1 X128.355 Y118.87 E17.71766
G1 X127.447 Y118.87 E17.7471
G1 X126.701 Y118.327 E17.77703
G1 X126.419 Y117.46 E17.80659
G1 X126.701 Y116.593 E17.83616
G0 F2160 X126.447 Y116.407
G1 F900 X127.348 Y115.75 E17.87232
G1 X128.454 Y115.75 E17.90818
G1 X129.355 Y116.407 E17.94434
G1 X129.698 Y117.46 E17.98026
G1 X129.355 Y118.513 E18.01617
G1 X128.454 Y119.17 E18.05233
G1 X127.348 Y119.17 E18.0882
G1 X126.447 Y118.513 E18.12436
G1 X126.104 Y117.46 E18.16027
G1 X126.447 Y116.407 E18.19619
G0 F2160 X126.191 Y116.222
G1 F900 X127.252 Y115.45 E18.23874
G1 X128.55 Y115.45 E18.28083
G1 X129.611 Y116.222 E18.32338
G1 X130.014 Y117.46 E18.3656
G1 X129.611 Y118.698 E18.40782
G1 X128.55 Y119.47 E18.45037
G1 X127.252 Y119.47 E18.49246
G1 X126.191 Y118.698 E18.53501
G1 X125.788 Y117.46 E18.57723
G1 X126.191 Y116.222 E18.61946
G0 F2160 X125.936 Y116.036
G1 F900 X127.153 Y115.15 E18.66827
G1 X128.649 Y115.15 E18.71678
G1 X129.866 Y116.036 E18.7656
G1 X130.329 Y117.46 E18.81416
G1 X129.866 Y118.884 E18.86272
G1 X128.649 Y119.77 E18.91153
G1 X127.153 Y119.77 E18.96005
G1 X125.936 Y118.884 E19.00886
G1 X125.473 Y117.46 E19.05742
G1 X125.936 Y116.036 E19.10598
G0 F2160 X125.681 Y115.851
G1 F900 X127.056 Y114.85 E19.16113
G1 X128.746 Y114.85 E19.21594
G1 X130.121 Y115.851 E19.27109
G1 X130.645 Y117.46 E19.32597
G1 X130.121 Y119.069 E19.38084
G1 X128.746 Y120.07 E19.43599
G1 X127.056 Y120.07 E19.4908
G1 X125.681 Y119.069 E19.54595
G1 X125.157 Y117.46 E19.60083
G1 X125.681 Y115.851 E19.6557
G0 F2160 X125.426 Y115.666
G1 F900 X126.958 Y114.55 E19.71717
G1 X128.844 Y114.55 E19.77833
G1 X130.376 Y115.666 E19.83979
G1 X130.96 Y117.46 E19.90097
G1 X130.376 Y119.254 E19.96216
G1 X128.844 Y120.37 E20.02362
G1 X126.958 Y120.37 E20.08478
G1 X125.426 Y119.254 E20.14625
G1 X124.842 Y117.46 E20.20743
G1 X125.426 Y115.666 E20.26861
G0 F2160 X125.171 Y115.48
G1 F900 X126.86 Y114.25 E20.33637
G1 X128.942 Y114.25 E20.40388
G1 X130.631 Y115.48 E20.47164
G1 X131.275 Y117.46 E20.53916
G1 X130.631 Y119.44 E20.60668
G1 X128.942 Y120.67 E20.67444
G1 X126.86 Y120.67 E20.74195
G1 X125.171 Y119.44 E20.80971
G1 X124.527 Y117.46 E20.87723
G1 X125.171 Y115.48 E20.94475
G0 F2160 X124.915 Y115.296
G1 F900 X126.763 Y113.95 E21.01889
G1 X129.039 Y113.95 E21.09269
G1 X130.887 Y115.296 E21.16683
G1 X131.592 Y117.46 E21.24064
G1 X130.887 Y119.624 E21.31444
G1 X129.039 Y120.97 E21.38858
G1 X126.763 Y120.97 E21.46239
G1 X124.915 Y119.624 E21.53653
G1 X124.21 Y117.46 E21.61034
G1 X124.915 Y115.296 E21.68414
G0 F2160 X124.66 Y115.111
G1 F900 X126.665 Y113.65 E21.76459
G1 X129.137 Y113.65 E21.84476
G1 X131.142 Y115.111 E21.92521
G1 X131.907 Y117.46 E22.00532
G1 X131.142 Y119.809 E22.08543
G1 X129.137 Y121.27 E22.16588
G1 X126.665 Y121.27 E22.24605
G1 X124.66 Y119.809 E22.3265
G1 X123.895 Y117.46 E22.40661
G1 X124.66 Y115.111 E22.48672
G0 F2160 X124.405 Y114.924
G1 F900 X126.567 Y113.35 E22.57344
G1 X129.235 Y113.35 E22.65996
G1 X131.397 Y114.924 E22.74669
G1 X132.222 Y117.46 E22.83317
G1 X131.397 Y119.996 E22.91965
G1 X129.235 Y121.57 E23.00637
G1 X126.567 Y121.57 E23.09289
G1 X124.405 Y119.996 E23.17961
G1 X123.58 Y117.46 E23.2661
G1 X124.405 Y114.924 E23.35258
G0 F2160 X124.149 Y114.741
G1 F900 X126.47 Y113.05 E23.4457
G1 X129.332 Y113.05 E23.53851
G1 X131.653 Y114.741 E23.63164
G1 X132.538 Y117.46 E23.72436
G1 X131.653 Y120.179 E23.81709
G1 X129.332 Y121.87 E23.91021
G1 X126.47 Y121.87 E24.00302
G1 X124.149 Y120.179 E24.09615
G1 X123.264 Y117.46 E24.18888
G1 X124.149 Y114.741 E24.2816
G0 F2160 X123.895 Y114.554
G1 F900 X126.372 Y112.75 E24.38097
G1 X129.43 Y112.75 E24.48014
G1 X131.907 Y114.554 E24.57951
G1 X132.853 Y117.46 E24.67862
G1 X131.907 Y120.366 E24.77772
G1 X129.43 Y122.17 E24.87709
G1 X126.372 Y122.17 E24.97626
G1 X123.895 Y120.366 E25.07563
G1 X122.949 Y117.46 E25.17474
G1 X123.895 Y114.554 E25.27384
G0 F2160 X123.64 Y114.369
G1 F900 X126.274 Y112.45 E25.37952
G1 X129.528 Y112.45 E25.48505
G1 X132.162 Y114.369 E25.59073
G1 X133.169 Y117.46 E25.69615
G1 X132.162 Y120.551 E25.80157
