;FLAVOR:Marlin
;TIME:775
;Filament used: 0.288573m, 0m
;Layer height: 0.1
;MINX:95.821
;MINY:80.179
;MINZ:0.26
;MAXX:139.157
;MAXY:122.504
;MAXZ:1.06
;Generated with Cura_SteamEngine 4.8.0
T0
M140 S60
M105
M190 S60
M104 S200
M105
M109 S200
M82 ;absolute extrusion mode
M201 X500.00 Y500.00 Z100.00 E5000.00 	;Setup machine max acceleration
M203 X500.00 Y500.00 Z10.00 E50.00 	;Setup machine max feedrate
M204 P500.00 R1000.00 T500.00 		;Setup Print/Retract/Travel acceleration
M205 X8.00 Y8.00 Z0.40 E5.00 		;Setup Jerk
M220 S100 				;Reset Feedrate
M221 S100 				;Reset Flowrate
G28				;Home the Machine
#G29 				;Bed Level
G92 E0
M300 P150 S587
G92 E0
G1 F1500 E-5.5
;LAYER_COUNT:9
;LAYER:0
M107
G0 F2160 X96.481 Y81.611 Z0.26
;TYPE:SKIRT
G1 F1500 E0
G1 F900 X96.819 Y81.21 E0.01701
G1 X97.214 Y80.864 E0.03404
G1 X97.658 Y80.583 E0.05108
G1 X98.138 Y80.372 E0.06808
G1 X98.645 Y80.236 E0.0851
G1 X99.167 Y80.179 E0.10213
G1 X99.668 Y80.199 E0.11839
G1 X99.963 Y80.232 E0.12802
G1 X102.228 Y80.519 E0.20205
G1 X104.956 Y80.787 E0.29094
G1 X107.687 Y80.977 E0.37972
G1 X110.387 Y81.087 E0.46735
G1 X113.127 Y81.123 E0.55621
G1 X115.868 Y81.081 E0.64511
G1 X118.603 Y80.962 E0.73389
G1 X121.302 Y80.767 E0.82164
G1 X124.026 Y80.493 E0.91042
G1 X125.754 Y80.271 E0.96692
G1 X126.282 Y80.211 E0.98415
G1 X126.894 Y80.181 E1.00402
G1 X127.552 Y80.18 E1.02536
G1 X128.998 Y80.201 E1.07226
G1 X130.328 Y80.239 E1.1154
G1 X132.264 Y80.235 E1.17819
G1 X132.877 Y80.241 E1.19807
G1 X133.092 Y80.25 E1.20504
G1 X133.672 Y80.292 E1.2239
G1 X134.294 Y80.395 E1.24435
G1 X134.823 Y80.533 E1.26208
G1 X135.392 Y80.736 E1.28167
G1 X135.905 Y80.988 E1.3002
G1 X136.413 Y81.305 E1.31962
G1 X136.821 Y81.614 E1.33622
G1 X137.018 Y81.772 E1.34441
G1 X137.492 Y82.233 E1.36585
G1 X137.875 Y82.706 E1.38558
G1 X138.237 Y83.257 E1.40696
G1 X138.393 Y83.537 E1.41736
G1 X138.609 Y84.008 E1.43416
G1 X138.831 Y84.608 E1.45491
G1 X139.003 Y85.231 E1.47587
G1 X139.09 Y85.726 E1.49217
G1 X139.157 Y86.425 E1.51494
G1 X139.149 Y87.214 E1.54052
G1 X139.145 Y87.32 E1.54396
G1 X139.072 Y88.667 E1.58771
G1 X138.964 Y91.378 E1.67569
G1 X138.93 Y94.135 E1.76511
G1 X138.971 Y96.048 E1.82716
G1 X138.992 Y97.733 E1.8818
G1 X138.992 Y104.67 E2.10676
G1 X138.982 Y105.399 E2.1304
G1 X138.935 Y105.922 E2.14743
G1 X138.809 Y106.432 E2.16447
G1 X138.607 Y106.916 E2.18147
G1 X138.334 Y107.365 E2.19852
G1 X137.996 Y107.767 E2.21555
G1 X137.601 Y108.113 E2.23258
G1 X137.158 Y108.395 E2.24961
G1 X136.631 Y108.631 E2.26833
G1 X136.279 Y108.769 E2.28059
G1 X101.092 Y122.075 E3.50052
G1 X100.455 Y122.304 E3.52247
G1 X99.949 Y122.443 E3.53949
G1 X99.428 Y122.504 E3.5565
G1 X98.903 Y122.485 E3.57353
G1 X98.387 Y122.387 E3.59056
G1 X97.892 Y122.212 E3.60759
G1 X97.43 Y121.964 E3.62459
G1 X97.01 Y121.648 E3.64164
G1 X96.644 Y121.273 E3.65863
G1 X96.338 Y120.846 E3.67567
G1 X96.101 Y120.377 E3.69271
G1 X95.937 Y119.879 E3.70971
G1 X95.839 Y119.121 E3.7345
G1 X95.821 Y118.139 E3.76635
G1 X95.821 Y111.706 E3.97496
G1 X95.831 Y111.008 E3.9976
G1 X95.863 Y110.49 E4.01443
G1 X96.049 Y108.273 E4.08657
G1 X96.203 Y105.532 E4.1756
G1 X96.28 Y102.795 E4.26439
G1 X96.28 Y100.09 E4.35211
G1 X96.201 Y97.316 E4.44211
G1 X96.048 Y94.648 E4.52877
G1 X95.854 Y92.354 E4.60343
G1 X95.83 Y91.929 E4.61723
G1 X95.821 Y91.242 E4.63951
G1 X95.821 Y84.258 E4.86599
G1 X95.831 Y83.576 E4.88811
G1 X95.879 Y83.054 E4.90511
G1 X96.005 Y82.544 E4.92215
G1 X96.208 Y82.06 E4.93917
G1 X96.481 Y81.611 E4.95621
G0 F2160 X96.778 Y81.715
G1 F900 X97.113 Y81.342 E4.97246
G1 X97.503 Y81.027 E4.98872
G1 X97.938 Y80.777 E5.00499
G1 X98.408 Y80.6 E5.02128
G1 X98.899 Y80.5 E5.03753
G1 X99.634 Y80.497 E5.06136
G1 X99.926 Y80.53 E5.07089
G1 X102.202 Y80.819 E5.14529
G1 X104.939 Y81.087 E5.23447
G1 X107.653 Y81.276 E5.3227
G1 X110.371 Y81.387 E5.41091
G1 X113.128 Y81.423 E5.50033
G1 X115.885 Y81.38 E5.58974
G1 X118.604 Y81.262 E5.678
G1 X121.352 Y81.064 E5.76734
G1 X124.061 Y80.792 E5.85563
G1 X125.788 Y80.569 E5.9121
G1 X126.316 Y80.509 E5.92934
G1 X126.902 Y80.481 E5.94836
G1 X127.548 Y80.48 E5.96931
G1 X128.99 Y80.501 E6.01608
G1 X130.321 Y80.539 E6.05926
G1 X132.261 Y80.535 E6.12217
G1 X132.874 Y80.541 E6.14205
G1 X133.071 Y80.549 E6.14844
G1 X133.651 Y80.591 E6.1673
G1 X134.218 Y80.685 E6.18594
G1 X134.747 Y80.823 E6.20367
G1 X135.267 Y81.008 E6.22157
G1 X135.769 Y81.255 E6.23971
G1 X136.233 Y81.545 E6.25745
G1 X136.633 Y81.848 E6.27373
G1 X136.83 Y82.006 E6.28191
G1 X137.263 Y82.427 E6.3015
G1 X137.639 Y82.892 E6.32089
G1 X137.978 Y83.409 E6.34094
G1 X138.327 Y84.112 E6.36639
G1 X138.549 Y84.712 E6.38714
G1 X138.708 Y85.284 E6.40639
G1 X138.824 Y85.983 E6.42937
G1 X138.858 Y86.783 E6.45533
G1 X138.845 Y87.303 E6.4722
G1 X138.772 Y88.65 E6.51595
G1 X138.664 Y91.363 E6.604
G1 X138.63 Y94.135 E6.6939
G1 X138.671 Y96.052 E6.75608
G1 X138.692 Y97.737 E6.81072
G1 X138.692 Y104.666 E7.03542
G1 X138.682 Y105.395 E7.05906
G1 X138.635 Y105.895 E7.07535
G1 X138.509 Y106.38 E7.0916
G1 X138.308 Y106.84 E7.10788
G1 X138.037 Y107.262 E7.12414
G1 X137.702 Y107.635 E7.1404
G1 X137.312 Y107.951 E7.15668
G1 X136.755 Y108.255 E7.17726
G1 X136.208 Y108.475 E7.19637
G1 X100.991 Y121.792 E8.41734
G1 X100.354 Y122.021 E8.43929
G1 X99.87 Y122.153 E8.45556
G1 X99.371 Y122.206 E8.47183
G1 X98.87 Y122.179 E8.4881
G1 X98.38 Y122.073 E8.50436
G1 X97.912 Y121.891 E8.52064
G1 X97.48 Y121.636 E8.53691
G1 X97.094 Y121.317 E8.55315
G1 X96.763 Y120.94 E8.56942
G1 X96.496 Y120.515 E8.58569
G1 X96.3 Y120.053 E8.60197
G1 X96.179 Y119.566 E8.61824
G1 X96.139 Y119.115 E8.63292
G1 X96.121 Y118.139 E8.66458
G1 X96.121 Y111.71 E8.87306
G1 X96.131 Y111.012 E8.8957
G1 X96.162 Y110.511 E8.91198
G1 X96.35 Y108.278 E8.98465
G1 X96.503 Y105.558 E9.07299
G1 X96.58 Y102.803 E9.16237
G1 X96.58 Y100.081 E9.25064
G1 X96.501 Y97.326 E9.34002
G1 X96.346 Y94.604 E9.42843
G1 X96.154 Y92.333 E9.50234
G1 X96.13 Y91.925 E9.51559
G1 X96.121 Y91.238 E9.53787
G1 X96.121 Y84.263 E9.76406
G1 X96.131 Y83.581 E9.78618
G1 X96.179 Y83.081 E9.80247
G1 X96.305 Y82.596 E9.81872
G1 X96.506 Y82.137 E9.83497
G1 X96.778 Y81.715 E9.85125
G1 F1500 E4.35125
;MESH:AA-Label.stl
G0 F2160 X98.656 Y84.28
G0 X99.732 Y84.28
G0 X107.83 Y94.295
G0 X112.242 Y107.397
;TYPE:WALL-INNER
G1 F1500 E9.85125
G1 F900 X112.242 Y107.398 E9.85128
G1 X112.242 Y107.608 E9.85809
G1 X112.44 Y107.538 E9.86213
G1 X127.652 Y102.138 E10.38559
G1 X127.652 Y100.546 E10.43722
G1 X112.439 Y95.32 E10.95886
G1 X112.242 Y95.253 E10.9656
G1 X112.242 Y95.461 E10.96961
G1 X112.242 Y95.462 E10.96964
G1 X112.242 Y107.397 E11.35668
G0 F2160 X112.542 Y107.183
G1 F900 X112.74 Y107.113 E11.36349
G1 X127.352 Y101.926 E11.8663
G1 X127.352 Y100.76 E11.90412
G1 X112.739 Y95.74 E12.40518
G1 X112.542 Y95.673 E12.41192
G1 X112.542 Y95.881 E12.41593
G1 X112.542 Y95.882 E12.41596
G1 X112.542 Y106.972 E12.7756
G1 X112.542 Y106.973 E12.77563
G1 X112.542 Y107.183 E12.77967
G0 F2160 X112.842 Y106.758
G1 F900 X113.04 Y106.688 E12.78648
G1 X127.052 Y101.714 E13.26865
G1 X127.052 Y100.974 E13.29264
G1 X113.039 Y96.16 E13.77313
G1 X112.842 Y96.093 E13.77988
G1 X112.842 Y96.301 E13.78389
G1 X112.842 Y96.302 E13.78392
G1 X112.842 Y106.547 E14.11615
G1 X112.842 Y106.548 E14.11618
G1 X112.842 Y106.758 E14.12022
G0 F2160 X113.092 Y106.404
;TYPE:WALL-OUTER
G1 F900 X113.291 Y106.334 E14.12706
G1 X126.802 Y101.537 E14.592
G1 X126.802 Y101.152 E14.60448
G1 X113.29 Y96.511 E15.06779
G1 X113.092 Y96.443 E15.07458
G1 X113.092 Y96.652 E15.0786
G1 X113.092 Y96.653 E15.07863
G1 X113.092 Y106.192 E15.38797
G1 X113.092 Y106.194 E15.38803
G1 X113.092 Y106.404 E15.39206
G0 F2160 X113.281 Y106.338
G0 X113.39 Y106.648
G0 X113.396 Y106.667
G0 X108.398 Y93.888
;TYPE:WALL-INNER
G1 F900 X100.321 Y91.145 E15.66868
G1 X100.321 Y85.343 E15.85683
G1 X100.321 Y85.342 E15.85686
G1 X100.321 Y85.128 E15.8638
G1 X100.522 Y85.203 E15.8679
G1 X134.492 Y97.907 E17.04401
G1 X134.492 Y104.632 E17.26209
G1 X100.523 Y117.478 E18.4398
G1 X100.321 Y117.554 E18.4468
G1 X100.321 Y117.339 E18.4509
G1 X100.321 Y117.338 E18.45093
G1 X100.321 Y111.793 E18.63075
G1 X108.398 Y108.947 E18.90846
G1 X108.398 Y93.888 E19.3968
G0 F2160 X108.098 Y94.103
G1 F900 X100.021 Y91.36 E19.67342
G1 X100.021 Y84.911 E19.88255
G1 X100.021 Y84.91 E19.88259
G1 X100.021 Y84.696 E19.88953
G1 X100.222 Y84.771 E19.89362
G1 X134.792 Y97.699 E21.09051
G1 X134.792 Y104.84 E21.32208
G1 X100.223 Y117.913 E22.52059
G1 X100.021 Y117.989 E22.52759
G1 X100.021 Y117.774 E22.53169
G1 X100.021 Y117.773 E22.53172
G1 X100.021 Y111.58 E22.73255
G1 X108.098 Y108.735 E23.01025
G1 X108.098 Y94.103 E23.48475
G0 F2160 X107.798 Y94.318
G1 F900 X99.721 Y91.575 E23.76137
G1 X99.721 Y84.479 E23.99148
G1 X99.721 Y84.478 E23.99151
G1 X99.721 Y84.264 E23.99845
G1 X99.922 Y84.339 E24.00255
G1 X135.092 Y97.491 E25.2202
G1 X135.092 Y105.048 E25.46526
G1 X99.923 Y118.348 E26.68457
G1 X99.721 Y118.424 E26.69157
G1 X99.721 Y118.209 E26.69568
G1 X99.721 Y118.208 E26.69571
G1 X99.721 Y111.367 E26.91755
G1 X107.798 Y108.523 E27.19524
G1 X107.798 Y94.318 E27.65589
G0 F2160 X107.548 Y94.497
;TYPE:WALL-OUTER
G1 F900 X99.471 Y91.754 E27.93251
G1 X99.471 Y84.12 E28.18007
G1 X99.471 Y84.119 E28.1801
G1 X99.471 Y83.904 E28.18707
G1 X99.673 Y83.979 E28.19119
G1 X135.342 Y97.318 E29.42613
G1 X135.342 Y105.221 E29.68241
G1 X99.673 Y118.71 E30.91905
G1 X99.471 Y118.786 E30.92605
G1 X99.471 Y118.571 E30.93016
G1 X99.471 Y118.569 E30.93022
G1 X99.471 Y111.19 E31.16951
G1 X107.548 Y108.346 E31.4472
G1 X107.548 Y94.497 E31.8963
G0 F2160 X107.359 Y94.433
G0 X107.466 Y94.121
G0 X107.473 Y94.103
G0 X108.688 Y93.681
;TYPE:SKIN
G1 F900 X100.611 Y90.937 E32.17293
G1 X100.611 Y85.546 E32.34776
G1 X134.202 Y98.108 E33.51075
G1 X134.202 Y104.432 E33.71582
G1 X100.611 Y117.134 E34.88041
G1 X100.611 Y111.998 E35.04697
G1 X108.688 Y109.152 E35.32468
G1 X108.688 Y93.681 E35.82638
G0 F2160 X111.952 Y94.847
G1 F900 X111.952 Y108.018 E36.2535
G1 X127.942 Y102.343 E36.80372
G1 X127.942 Y100.339 E36.86871
G1 X111.952 Y94.847 E37.41697
G0 F2160 X134.066 Y98.427
G1 F900 X133.704 Y98.066 E37.43355
G0 F2160 X133.027 Y97.813
G1 F900 X134.066 Y98.852 E37.4812
G0 F2160 X134.066 Y99.276
G1 F900 X132.349 Y97.559 E37.55995
G1 X132.296 Y97.506
G0 F2160 X131.671 Y97.306
G1 F900 X134.066 Y99.7 E37.66976
G0 F2160 X134.066 Y100.124
G1 F900 X130.994 Y97.053 E37.81062
G1 X130.941 Y97
G0 F2160 X130.316 Y96.799
G1 F900 X134.066 Y100.549 E37.9826
G0 F2160 X134.066 Y100.973
G1 F900 X129.638 Y96.546 E38.18565
G1 X129.585 Y96.493
G0 F2160 X128.96 Y96.292
G1 F900 X134.066 Y101.397 E38.41979
G0 F2160 X134.066 Y101.821
G1 F900 X128.283 Y96.039 E38.68499
G1 X128.23 Y95.986
G0 F2160 X127.605 Y95.785
G1 F900 X134.066 Y102.246 E38.98129
G0 F2160 X134.066 Y102.67
G1 F900 X126.927 Y95.532 E39.30867
G1 X126.874 Y95.479
G0 F2160 X126.25 Y95.279
G1 F900 X134.066 Y103.094 E39.6671
G0 F2160 X134.066 Y103.519
G1 F900 X125.572 Y95.025 E40.05664
G1 X125.519 Y94.972
G0 F2160 X124.894 Y94.772
G1 F900 X134.066 Y103.943 E40.47726
G0 F2160 X134.044 Y104.346
G1 F900 X124.216 Y94.518 E40.92798
G1 X124.163 Y94.465
G0 F2160 X123.539 Y94.265
G1 F900 X133.737 Y104.463 E41.39567
G0 F2160 X133.429 Y104.579
G1 F900 X122.861 Y94.011 E41.88033
G1 X122.808 Y93.958
G0 F2160 X122.183 Y93.758
G1 F900 X133.121 Y104.695 E42.38193
G0 F2160 X132.813 Y104.812
G1 F900 X121.506 Y93.504 E42.90051
G1 X121.453 Y93.451
G0 F2160 X120.828 Y93.251
G1 F900 X127.685 Y100.108 E43.21498
G0 F2160 X128.076 Y100.498
G1 F900 X132.506 Y104.928 E43.41814
G0 F2160 X132.197 Y105.044
G1 F900 X128.076 Y100.923 E43.60713
G0 F2160 X128.076 Y101.347
G1 F900 X131.89 Y105.161 E43.78205
G0 F2160 X131.581 Y105.277
G1 F900 X128.076 Y101.771 E43.94281
G0 F2160 X128.076 Y102.196
G1 F900 X131.274 Y105.394 E44.08948
G0 F2160 X130.966 Y105.51
G1 F900 X127.943 Y102.487 E44.22811
G0 F2160 X127.629 Y102.598
G1 F900 X130.658 Y105.626 E44.367
G0 F2160 X130.35 Y105.743
G1 F900 X127.316 Y102.709 E44.50615
G0 F2160 X127.003 Y102.82
G1 F900 X130.043 Y105.86 E44.64556
G0 F2160 X129.735 Y105.976
G1 F900 X126.69 Y102.931 E44.78521
G0 F2160 X126.376 Y103.042
G1 F900 X129.427 Y106.092 E44.92511
G0 F2160 X129.119 Y106.208
G1 F900 X126.063 Y103.153 E45.06524
G0 F2160 X125.75 Y103.264
G1 F900 X128.811 Y106.325 E45.20562
G0 F2160 X128.503 Y106.442
G1 F900 X125.437 Y103.376 E45.34623
G0 F2160 X125.124 Y103.487
G1 F900 X128.195 Y106.558 E45.48707
G0 F2160 X127.888 Y106.674
G1 F900 X124.811 Y103.598 E45.62816
G0 F2160 X124.498 Y103.709
G1 F900 X127.58 Y106.791 E45.7695
G0 F2160 X127.272 Y106.907
G1 F900 X124.184 Y103.82 E45.9111
G0 F2160 X123.871 Y103.931
G1 F900 X126.964 Y107.024 E46.05295
G0 F2160 X126.656 Y107.14
G1 F900 X123.558 Y104.042 E46.19502
G0 F2160 X123.245 Y104.154
G1 F900 X126.348 Y107.256 E46.33731
G0 F2160 X126.041 Y107.373
G1 F900 X122.932 Y104.265 E46.47987
G0 F2160 X122.619 Y104.376
G1 F900 X125.732 Y107.489 E46.62263
G0 F2160 X125.425 Y107.606
G1 F900 X122.306 Y104.487 E46.76567
G0 F2160 X121.992 Y104.598
G1 F900 X125.117 Y107.722 E46.90897
G0 F2160 X124.809 Y107.838
G1 F900 X121.679 Y104.709 E47.05249
G0 F2160 X121.366 Y104.82
G1 F900 X124.501 Y107.955 E47.19626
G0 F2160 X124.194 Y108.072
G1 F900 X121.053 Y104.931 E47.34031
G0 F2160 X120.74 Y105.042
G1 F900 X123.885 Y108.188 E47.48457
G0 F2160 X123.578 Y108.304
G1 F900 X120.427 Y105.153 E47.62907
G0 F2160 X120.114 Y105.264
G1 F900 X123.269 Y108.42 E47.77379
G0 F2160 X122.962 Y108.537
G1 F900 X119.8 Y105.375 E47.9188
G0 F2160 X119.487 Y105.486
G1 F900 X122.654 Y108.654 E48.06407
G0 F2160 X122.346 Y108.769
G1 F900 X119.174 Y105.597 E48.20954
G0 F2160 X118.861 Y105.708
G1 F900 X122.038 Y108.886 E48.35526
G0 F2160 X121.731 Y109.003
G1 F900 X118.548 Y105.82 E48.50124
G0 F2160 X118.235 Y105.931
G1 F900 X121.422 Y109.119 E48.64742
G0 F2160 X121.115 Y109.235
G1 F900 X117.922 Y106.042 E48.79385
G0 F2160 X117.608 Y106.153
G1 F900 X120.807 Y109.351 E48.94054
G0 F2160 X120.499 Y109.468
G1 F900 X117.295 Y106.264 E49.08748
G0 F2160 X116.982 Y106.375
G1 F900 X120.191 Y109.585 E49.23467
G0 F2160 X119.883 Y109.701
G1 F900 X116.669 Y106.486 E49.38209
G0 F2160 X116.356 Y106.598
G1 F900 X119.575 Y109.817 E49.52972
G0 F2160 X119.268 Y109.934
G1 F900 X116.043 Y106.709 E49.67762
G0 F2160 X115.73 Y106.82
G1 F900 X118.96 Y110.05 E49.82575
G0 F2160 X118.652 Y110.167
G1 F900 X115.416 Y106.931 E49.97415
G0 F2160 X115.103 Y107.042
G1 F900 X118.344 Y110.283 E50.12279
G0 F2160 X118.036 Y110.399
G1 F900 X114.79 Y107.153 E50.27165
G0 F2160 X114.477 Y107.264
G1 F900 X117.729 Y110.516 E50.42079
G0 F2160 X117.42 Y110.632
G1 F900 X114.164 Y107.376 E50.57012
G0 F2160 X113.851 Y107.487
G1 F900 X117.113 Y110.749 E50.71972
G0 F2160 X116.805 Y110.865
G1 F900 X113.538 Y107.598 E50.86954
G0 F2160 X113.224 Y107.709
G1 F900 X116.497 Y110.981 E51.01963
G0 F2160 X116.189 Y111.098
G1 F900 X112.911 Y107.82 E51.16996
G0 F2160 X112.598 Y107.931
G1 F900 X115.881 Y111.214 E51.32052
G0 F2160 X115.573 Y111.331
G1 F900 X112.285 Y108.042 E51.47133
G0 F2160 X111.971 Y108.153
G1 F900 X115.266 Y111.447 E51.62242
G0 F2160 X114.957 Y111.563
G1 F900 X108.822 Y105.428 E51.90378
G0 F2160 X108.822 Y105.852
G1 F900 X114.65 Y111.68 E52.17106
G0 F2160 X114.342 Y111.797
G1 F900 X108.822 Y106.276 E52.42423
G0 F2160 X108.822 Y106.7
G1 F900 X114.034 Y111.913 E52.66328
G0 F2160 X113.726 Y112.029
G1 F900 X108.822 Y107.125 E52.88819
G0 F2160 X108.822 Y107.549
G1 F900 X113.418 Y112.145 E53.09896
G0 F2160 X113.11 Y112.262
G1 F900 X108.822 Y107.973 E53.29564
G0 F2160 X108.822 Y108.398
G1 F900 X112.803 Y112.379 E53.47821
G0 F2160 X112.495 Y112.495
G1 F900 X108.822 Y108.822 E53.64666
