;FLAVOR:Marlin
;TIME:6150
;Filament used: 8.21219m, 0m
;Layer height: 0.2
;MINX:71.102
;MINY:104.377
;MINZ:0.3
;MAXX:165.652
;MAXY:137.053
;MAXZ:70.5
;Generated with Cura_SteamEngine 4.8.0
T0
M140 S60
M105
M190 S60
M104 S200
M105
M109 S200
M82 ;absolute extrusion mode
M201 X500.00 Y500.00 Z100.00 E5000.00 	;Setup machine max acceleration
M203 X500.00 Y500.00 Z10.00 E50.00 	;Setup machine max feedrate
M204 P500.00 R1000.00 T500.00 		;Setup Print/Retract/Travel acceleration
M205 X8.00 Y8.00 Z0.40 E5.00 		;Setup Jerk
M220 S100 				;Reset Feedrate
M221 S100 				;Reset Flowrate
G28				;Home the Machine
#G29 				;Bed Level
G92 E0
M300 P150 S587
G92 E0
;LAYER_COUNT:352
;LAYER:0
M107
G0 F2160 X87.551 Y112.812 Z0.3
;TYPE:SKIRT
G1 F900 X88.007 Y112.528 E0.0268
G1 X88.499 Y112.316 E0.05353
G1 X89.018 Y112.179 E0.08031
G1 X89.337 Y112.135 E0.09637
G1 X92.162 Y111.869 E0.23794
G1 X94.883 Y111.534 E0.37471
G1 X97.575 Y111.126 E0.51055
G1 X100.241 Y110.643 E0.64572
G1 X102.88 Y110.089 E0.78025
G1 X105.598 Y109.437 E0.9197
G1 X108.202 Y108.734 E1.05427
G1 X110.804 Y107.953 E1.1898
G1 X111.327 Y107.837 E1.21653
G1 X111.656 Y107.806 E1.23302
G1 X112.352 Y107.771 E1.26779
G1 X113.44 Y107.735 E1.3221
G1 X116.125 Y107.572 E1.4563
G1 X118.884 Y107.324 E1.5945
G1 X121.578 Y107.006 E1.72984
G1 X123.422 Y106.733 E1.82284
G1 X124.062 Y106.646 E1.85506
G1 X124.482 Y106.614 E1.87607
G1 X125.488 Y106.597 E1.92627
G1 X126.097 Y106.606 E1.95666
G1 X126.707 Y106.644 E1.98715
G1 X129.424 Y106.799 E2.12292
G1 X132.187 Y106.878 E2.26083
G1 X134.882 Y106.878 E2.39528
G1 X137.65 Y106.801 E2.53343
G1 X140.343 Y106.649 E2.668
G1 X143.056 Y106.42 E2.80383
G1 X145.774 Y106.111 E2.94031
G1 X148.46 Y105.729 E3.07566
G1 X149.517 Y105.545 E3.12919
G1 X150.879 Y105.326 E3.19801
G1 X151.293 Y105.283 E3.21877
G1 X152.386 Y105.236 E3.27336
G1 X156.522 Y105.132 E3.47977
G1 X157.251 Y105.123 E3.51614
G1 X157.786 Y105.157 E3.54288
G1 X158.31 Y105.269 E3.56962
G1 X158.812 Y105.458 E3.59638
G1 X159.366 Y105.778 E3.6283
G1 X160.082 Y106.283 E3.67201
G1 X162.339 Y107.928 E3.81135
G1 X162.893 Y108.343 E3.84588
G1 X163.297 Y108.695 E3.87261
G1 X163.645 Y109.104 E3.8994
G1 X163.927 Y109.56 E3.92615
G1 X164.14 Y110.055 E3.95304
G1 X164.43 Y110.902 E3.9977
G1 X165.277 Y113.504 E4.13422
G1 X165.49 Y114.19 E4.17006
G1 X165.611 Y114.713 E4.19684
G1 X165.652 Y115.248 E4.22361
G1 X165.614 Y115.783 E4.25037
G1 X165.495 Y116.31 E4.27732
G1 X165.239 Y117.147 E4.32099
G1 X164.386 Y119.767 E4.45846
G1 X164.151 Y120.458 E4.49487
G1 X163.941 Y120.952 E4.52165
G1 X163.66 Y121.408 E4.54837
G1 X163.315 Y121.818 E4.5751
G1 X162.908 Y122.176 E4.60215
G1 X162.167 Y122.732 E4.64837
G1 X159.934 Y124.358 E4.78618
G1 X159.377 Y124.751 E4.82019
G1 X158.917 Y125.026 E4.84692
G1 X158.422 Y125.23 E4.87363
G1 X157.697 Y125.387 E4.91064
G1 X157.053 Y125.458 E4.94297
G1 X155.364 Y125.614 E5.02759
G1 X152.648 Y125.944 E5.16409
G1 X149.972 Y126.346 E5.29909
G1 X147.254 Y126.832 E5.43685
G1 X144.642 Y127.376 E5.56995
G1 X141.973 Y128.012 E5.70684
G1 X139.365 Y128.71 E5.84153
G1 X137.163 Y129.332 E5.95569
G1 X136.762 Y129.44 E5.97641
G1 X133.254 Y130.508 E6.15935
G1 X132.853 Y130.637 E6.18037
G1 X132.135 Y130.859 E6.21786
G1 X131.941 Y130.913 E6.22791
G1 X130.697 Y131.223 E6.29187
G1 X128.013 Y131.932 E6.43037
G1 X125.374 Y132.708 E6.56761
G1 X122.794 Y133.547 E6.70296
G1 X120.242 Y134.458 E6.83815
G1 X117.345 Y135.592 E6.99336
G1 X116.06 Y136.119 E7.06265
G1 X115.55 Y136.285 E7.08941
G1 X114.758 Y136.387 E7.12924
G1 X113.788 Y136.403 E7.17764
G1 X113.166 Y136.393 E7.20868
G1 X112.632 Y136.344 E7.23543
G1 X112.073 Y136.204 E7.26418
G1 X110.852 Y135.792 E7.32847
G1 X110.76 Y135.769 E7.33321
G1 X108.872 Y135.143 E7.43244
G1 X106.236 Y134.355 E7.5697
G1 X103.614 Y133.649 E7.70517
G1 X100.928 Y133.006 E7.84296
G1 X98.299 Y132.458 E7.97694
G1 X95.624 Y131.978 E8.11253
G1 X92.9 Y131.567 E8.24997
G1 X91.797 Y131.425 E8.30545
G1 X90.848 Y131.296 E8.35324
G1 X90.07 Y131.1 E8.39326
G1 X89.42 Y130.856 E8.4279
G1 X89.181 Y130.763 E8.4407
G1 X88.301 Y130.405 E8.48809
G1 X87.821 Y130.166 E8.51484
G1 X87.382 Y129.859 E8.54157
G1 X86.993 Y129.49 E8.56832
G1 X86.663 Y129.067 E8.59509
G1 X86.399 Y128.6 E8.62185
G1 X86.208 Y128.099 E8.6486
G1 X86.091 Y127.558 E8.67621
G1 X86.03 Y127.098 E8.69937
G1 X85.844 Y125.375 E8.78583
G1 X85.671 Y123.516 E8.87897
G1 X85.604 Y122.831 E8.91331
G1 X85.575 Y122.393 E8.93521
G1 X85.554 Y121.497 E8.97992
G1 X85.546 Y120.515 E9.02892
G1 X85.403 Y117.159 E9.1965
G1 X85.391 Y116.773 E9.21577
G1 X85.414 Y116.237 E9.24253
G1 X85.517 Y115.711 E9.26927
G1 X85.696 Y115.205 E9.29605
G1 X86.002 Y114.652 E9.32758
G1 X86.364 Y114.136 E9.35903
G1 X86.791 Y113.564 E9.39464
G1 X87.143 Y113.159 E9.42141
G1 X87.551 Y112.812 E9.44813
G0 F2160 X87.834 Y113.101
G1 F900 X88.269 Y112.844 E9.47334
G1 X88.74 Y112.658 E9.4986
G1 X89.375 Y112.533 E9.53089
G1 X92.212 Y112.266 E9.67306
G1 X94.92 Y111.933 E9.80918
G1 X97.635 Y111.521 E9.94618
G1 X100.323 Y111.034 E10.08247
G1 X102.984 Y110.476 E10.21811
G1 X105.699 Y109.824 E10.35742
G1 X108.307 Y109.12 E10.49219
G1 X110.919 Y108.336 E10.62824
G1 X111.413 Y108.229 E10.65346
G1 X111.676 Y108.205 E10.66664
G1 X112.365 Y108.171 E10.70105
G1 X113.441 Y108.136 E10.75476
G1 X116.186 Y107.968 E10.89197
G1 X118.895 Y107.725 E11.02766
G1 X121.618 Y107.403 E11.16446
G1 X123.476 Y107.129 E11.25816
G1 X124.116 Y107.042 E11.29038
G1 X124.489 Y107.014 E11.30904
G1 X125.482 Y106.997 E11.35859
G1 X126.091 Y107.006 E11.38898
G1 X126.658 Y107.041 E11.41732
G1 X129.424 Y107.199 E11.55554
G1 X132.176 Y107.278 E11.6929
G1 X134.894 Y107.278 E11.8285
G1 X137.646 Y107.201 E11.96585
G1 X140.365 Y107.048 E12.10171
G1 X143.098 Y106.817 E12.23855
G1 X145.843 Y106.506 E12.37638
G1 X148.521 Y106.125 E12.51133
G1 X149.581 Y105.94 E12.56501
G1 X150.943 Y105.721 E12.63383
G1 X151.311 Y105.683 E12.65229
G1 X152.396 Y105.636 E12.70647
G1 X156.526 Y105.532 E12.91258
G1 X157.255 Y105.523 E12.94896
G1 X157.76 Y105.557 E12.97421
G1 X158.253 Y105.67 E12.99944
G1 X158.722 Y105.859 E13.02467
G1 X159.136 Y106.105 E13.04869
G1 X159.847 Y106.606 E13.09209
G1 X162.1 Y108.248 E13.23118
G1 X162.654 Y108.663 E13.26571
G1 X163.033 Y108.997 E13.29091
G1 X163.355 Y109.387 E13.31614
G1 X163.612 Y109.822 E13.34135
G1 X163.761 Y110.185 E13.36093
G1 X164.05 Y111.026 E13.40529
G1 X164.895 Y113.623 E13.54154
G1 X165.108 Y114.309 E13.57738
G1 X165.219 Y114.802 E13.60259
G1 X165.252 Y115.307 E13.62784
G1 X165.204 Y115.81 E13.65305
G1 X165.112 Y116.193 E13.6727
G1 X164.858 Y117.024 E13.71605
G1 X164.008 Y119.638 E13.85319
G1 X163.773 Y120.329 E13.8896
G1 X163.573 Y120.794 E13.91485
G1 X163.302 Y121.221 E13.94009
G1 X162.967 Y121.6 E13.96532
G1 X162.667 Y121.856 E13.985
G1 X161.932 Y122.409 E14.03089
G1 X159.704 Y124.031 E14.16838
G1 X159.147 Y124.424 E14.20239
G1 X158.712 Y124.682 E14.22762
G1 X158.242 Y124.868 E14.25284
G1 X157.653 Y124.99 E14.28285
G1 X157.017 Y125.059 E14.31476
G1 X155.347 Y125.213 E14.39843
G1 X152.572 Y125.55 E14.5379
G1 X149.913 Y125.95 E14.67205
G1 X147.214 Y126.432 E14.80883
G1 X144.532 Y126.991 E14.94551
G1 X141.848 Y127.631 E15.08317
G1 X139.271 Y128.32 E15.21625
G1 X137.013 Y128.959 E15.33333
G1 X136.632 Y129.061 E15.35301
G1 X133.124 Y130.129 E15.53595
G1 X132.735 Y130.255 E15.55635
G1 X132.017 Y130.477 E15.59385
G1 X131.845 Y130.525 E15.60276
G1 X130.595 Y130.836 E15.66702
G1 X127.903 Y131.547 E15.80593
G1 X125.275 Y132.32 E15.9426
G1 X122.684 Y133.163 E16.07853
G1 X120.088 Y134.089 E16.21604
G1 X117.182 Y135.227 E16.37174
G1 X115.908 Y135.749 E16.44043
G1 X115.427 Y135.903 E16.46563
G1 X114.751 Y135.987 E16.49961
G1 X113.795 Y136.003 E16.54731
G1 X113.173 Y135.993 E16.57835
G1 X112.669 Y135.945 E16.60361
G1 X112.2 Y135.825 E16.62776
G1 X110.954 Y135.404 E16.69338
G1 X110.886 Y135.39 E16.69684
G1 X108.976 Y134.757 E16.79723
G1 X106.349 Y133.971 E16.93403
G1 X103.706 Y133.26 E17.07058
G1 X101.037 Y132.621 E17.2075
G1 X98.373 Y132.066 E17.34326
G1 X95.649 Y131.577 E17.48133
G1 X92.966 Y131.172 E17.6167
G1 X91.851 Y131.029 E17.67279
G1 X90.902 Y130.9 E17.72057
G1 X90.21 Y130.725 E17.75618
G1 X89.566 Y130.484 E17.79048
G1 X89.332 Y130.392 E17.80303
G1 X88.452 Y130.034 E17.85042
G1 X88 Y129.807 E17.87566
G1 X87.59 Y129.512 E17.90086
G1 X87.231 Y129.156 E17.92608
G1 X86.933 Y128.748 E17.95129
G1 X86.703 Y128.297 E17.97655
G1 X86.546 Y127.817 E18.00174
G1 X86.439 Y127.146 E18.03564
G1 X86.427 Y127.055 E18.04022
G1 X86.243 Y125.338 E18.12637
G1 X86.07 Y123.479 E18.21952
G1 X86.003 Y122.8 E18.25356
G1 X85.975 Y122.384 E18.27436
G1 X85.954 Y121.493 E18.31883
G1 X85.945 Y120.495 E18.36862
G1 X85.803 Y117.146 E18.53585
G1 X85.791 Y116.76 E18.55512
G1 X85.815 Y116.255 E18.58034
G1 X85.918 Y115.761 E18.60552
G1 X86.098 Y115.288 E18.63076
G1 X86.371 Y114.82 E18.6578
G1 X86.69 Y114.368 E18.6854
G1 X87.111 Y113.803 E18.72055
G1 X87.445 Y113.423 E18.74579
G1 X87.834 Y113.101 E18.77098
G0 F2160 X153.006 Y114.95
G1 F900 X153.47 Y114.611 E18.79965
G1 X155.48 Y114.561 E18.89996
G1 X155.816 Y114.805 E18.92068
G1 X155.966 Y115.267 E18.94491
G1 X155.816 Y115.729 E18.96915
G1 X155.349 Y116.069 E18.99797
G1 X152.619 Y116.138 E19.13421
G1 X153.006 Y114.95 E19.19655
G0 F2160 X153.346 Y115.196
G1 F900 X153.604 Y115.008 E19.21247
G1 X155.356 Y114.964 E19.29991
G1 X155.475 Y115.051 E19.30726
G1 X155.545 Y115.267 E19.31859
G1 X155.475 Y115.483 E19.32992
G1 X155.216 Y115.672 E19.34591
G1 X153.174 Y115.724 E19.44782
G1 X153.346 Y115.196 E19.47553
G0 F2160 X152.665 Y114.702
G1 F900 X153.334 Y114.215 E19.51681
G1 X155.607 Y114.157 E19.63025
G1 X156.155 Y114.556 E19.66407
G1 X156.386 Y115.267 E19.70136
G1 X156.155 Y115.978 E19.73866
G1 X155.485 Y116.466 E19.78001
G1 X152.063 Y116.553 E19.95079
G1 X152.665 Y114.702 E20.0479
G0 F2160 X152.325 Y114.456
G1 F900 X153.201 Y113.818 E20.10197
G1 X155.732 Y113.754 E20.22828
G1 X156.495 Y114.31 E20.27538
G1 X156.807 Y115.267 E20.3256
G1 X156.495 Y116.224 E20.37582
G1 X155.619 Y116.863 E20.42991
G1 X151.481 Y116.968 E20.63643
G1 X151.635 Y116.576 E20.65744
G1 X152.325 Y114.456 E20.76867
G0 F2160 X151.983 Y114.21
G1 F900 X153.066 Y113.422 E20.83549
G1 X155.858 Y113.351 E20.97482
G1 X156.837 Y114.064 E21.03525
G1 X157.228 Y115.267 E21.09836
G1 X156.837 Y116.47 E21.16146
G1 X155.754 Y117.258 E21.22828
G1 X151.443 Y117.368 E21.44343
G1 X150.839 Y117.424 E21.47369
G1 X150.81 Y117.421 E21.47515
G1 X151.09 Y116.883 E21.50541
G1 X151.254 Y116.453 E21.52837
G1 X151.983 Y114.21 E21.64603
G0 F2160 X151.644 Y113.961
G1 F900 X152.93 Y113.025 E21.72539
G1 X155.985 Y112.948 E21.87785
G1 X157.176 Y113.815 E21.95134
G1 X157.648 Y115.267 E22.02752
G1 X157.176 Y116.719 E22.10369
G1 X155.89 Y117.655 E22.18304
G1 X151.453 Y117.768 E22.40448
G1 X150.877 Y117.823 E22.43334
G1 X150.313 Y117.956 E22.46225
G1 X150.208 Y117.997 E22.46788
G1 X149.908 Y117.997 E22.48284
G1 X149.943 Y117.89 E22.48846
G1 X150.182 Y117.625 E22.50626
G1 X150.508 Y117.146 E22.53517
G1 X150.765 Y116.627 E22.56407
G1 X150.874 Y116.329 E22.5799
G1 X151.644 Y113.961 E22.70412
G0 F2160 X151.304 Y113.715
G1 F900 X152.797 Y112.628 E22.79626
G1 X156.109 Y112.545 E22.96155
G1 X157.516 Y113.569 E23.04837
G1 X158.068 Y115.267 E23.13744
G1 X157.516 Y116.965 E23.22652
G1 X156.023 Y118.052 E23.31866
G1 X151.463 Y118.168 E23.54623
G1 X150.915 Y118.222 E23.5737
G1 X150.38 Y118.355 E23.60121
G1 X150.277 Y118.397 E23.60676
G1 X149.763 Y118.397 E23.6324
G1 X149.417 Y118.145 E23.65376
G1 X149.589 Y117.688 E23.67812
G1 X149.901 Y117.336 E23.70158
G1 X150.202 Y116.875 E23.72905
G1 X150.494 Y116.205 E23.76551
G1 X151.304 Y113.715 E23.89615
G0 F2160 X150.963 Y113.468
G1 F900 X152.662 Y112.231 E24.001
G1 X156.235 Y112.141 E24.17931
G1 X157.857 Y113.322 E24.27941
G1 X158.49 Y115.267 E24.38146
G1 X157.857 Y117.212 E24.4835
G1 X156.158 Y118.449 E24.58835
G1 X151.474 Y118.568 E24.82212
G1 X150.955 Y118.621 E24.84814
G1 X150.451 Y118.753 E24.87414
G1 X150.349 Y118.797 E24.87968
G1 X149.633 Y118.797 E24.9154
G1 X148.93 Y118.285 E24.95879
G1 X149.128 Y117.811 E24.98442
G1 X149.276 Y117.442 E25.00425
G1 X149.617 Y117.048 E25.03025
G1 X149.893 Y116.606 E25.05625
G1 X150.113 Y116.082 E25.0846
G1 X150.963 Y113.468 E25.22173
G0 F2160 X150.623 Y113.22
G1 F900 X152.527 Y111.834 E25.33923
G1 X156.361 Y111.738 E25.53057
G1 X158.197 Y113.075 E25.64388
G1 X158.91 Y115.267 E25.75888
G1 X158.197 Y117.459 E25.87388
G1 X156.293 Y118.846 E25.9914
G1 X151.484 Y118.968 E26.2314
G1 X150.997 Y119.02 E26.25583
G1 X150.426 Y119.197 E26.28566
G1 X149.502 Y119.197 E26.33176
G1 X148.403 Y118.397 E26.39957
G1 X148.439 Y118.348 E26.40261
G1 X148.747 Y117.687 E26.43899
G1 X148.891 Y117.244 E26.46223
G1 X149.329 Y116.762 E26.49472
G1 X149.578 Y116.341 E26.51912
G1 X149.733 Y115.958 E26.53974
G1 X150.623 Y113.22 E26.68337
G0 F2160 X150.283 Y112.973
G1 F900 X152.392 Y111.438 E26.81351
G1 X156.486 Y111.334 E27.01782
G1 X158.538 Y112.828 E27.14446
G1 X159.331 Y115.267 E27.27241
G1 X158.538 Y117.706 E27.40036
G1 X156.427 Y119.243 E27.53064
G1 X151.494 Y119.368 E27.77683
G1 X151.041 Y119.419 E27.79957
G1 X150.517 Y119.597 E27.82718
G1 X149.372 Y119.597 E27.8843
G1 X147.92 Y118.54 E27.97391
G1 X147.827 Y118.484 E27.97932
G1 X148.179 Y118 E28.00918
G1 X148.367 Y117.563 E28.03291
G1 X148.546 Y117.014 E28.06172
G1 X148.752 Y116.834 E28.07537
G1 X149.039 Y116.479 E28.09815
G1 X149.353 Y115.834 E28.13394
G1 X150.283 Y112.973 E28.28402
G0 F2160 X149.942 Y112.728
G1 F900 X152.259 Y111.041 E28.42701
G1 X156.611 Y110.931 E28.6442
G1 X158.878 Y112.581 E28.78409
G1 X159.751 Y115.267 E28.925
G1 X158.878 Y117.953 E29.0659
G1 X156.561 Y119.639 E29.20886
G1 X151.504 Y119.768 E29.46124
G1 X151.088 Y119.818 E29.48214
G1 X150.601 Y119.997 E29.50803
G1 X149.243 Y119.997 E29.57578
G1 X147.685 Y118.863 E29.67192
G1 X147.324 Y118.65 E29.69283
G1 X147.124 Y118.579 E29.70342
G1 X147.423 Y118.341 E29.72248
G1 X147.695 Y118.022 E29.7434
G1 X147.987 Y117.439 E29.77593
G1 X148.2 Y116.786 E29.8102
G1 X148.488 Y116.532 E29.82935
G1 X148.743 Y116.2 E29.85024
G1 X148.972 Y115.71 E29.87722
G1 X149.942 Y112.728 E30.03367
G0 F2160 X149.603 Y112.479
G1 F900 X152.123 Y110.644 E30.18919
G1 X156.738 Y110.527 E30.41951
G1 X159.217 Y112.333 E30.57253
G1 X160.172 Y115.267 E30.72646
G1 X159.217 Y118.201 E30.8804
G1 X156.697 Y120.036 E31.03592
G1 X151.514 Y120.168 E31.29459
G1 X151.139 Y120.217 E31.31346
G1 X150.693 Y120.397 E31.33745
G1 X149.111 Y120.397 E31.41638
G1 X147.449 Y119.187 E31.51894
G1 X147.121 Y118.997 E31.53785
G1 X146.761 Y118.881 E31.55672
G1 X146.202 Y118.852 E31.58465
G1 X145.48 Y118.928 E31.62087
G1 X145.109 Y119.007 E31.63979
G1 X144.608 Y119.263 E31.66786
G1 X144.525 Y119.324 E31.673
G1 X142.937 Y118.331 E31.76644
G1 X142.677 Y118.205 E31.78086
G1 X143.06 Y118.218 E31.79998
G1 X143.58 Y118.547 E31.83067
G1 X143.92 Y118.715 E31.84959
G1 X144.287 Y118.808 E31.86848
G1 X144.892 Y118.792 E31.89868
G1 X146.245 Y118.524 E31.96749
G1 X146.607 Y118.411 E31.98641
G1 X146.937 Y118.226 E32.00528
G1 X147.221 Y117.975 E32.02419
G1 X147.447 Y117.67 E32.04313
G1 X147.606 Y117.316 E32.06249
G1 X147.857 Y116.545 E32.10295
G1 X148.22 Y116.232 E32.12686
G1 X148.442 Y115.925 E32.14576
G1 X148.592 Y115.587 E32.16421
G1 X149.603 Y112.479 E32.32726
G0 F2160 X149.261 Y112.233
G1 F900 X151.988 Y110.248 E32.49554
G1 X156.864 Y110.125 E32.73888
G1 X159.559 Y112.087 E32.90519
G1 X160.593 Y115.267 E33.07202
G1 X159.559 Y118.447 E33.23885
G1 X156.832 Y120.432 E33.40713
G1 X151.524 Y120.567 E33.67203
G1 X151.194 Y120.616 E33.68867
G1 X150.796 Y120.797 E33.71049
G1 X148.982 Y120.797 E33.80099
G1 X147.214 Y119.51 E33.91009
