;FLAVOR:Marlin
;TIME:2649
;Filament used: 4.71574m, 0m
;Layer height: 0.28
;MINX:67.374
;MINY:71.449
;MINZ:0.3
;MAXX:167.631
;MAXY:163.56
;MAXZ:11.78
;Generated with Cura_SteamEngine 4.8.0
T0
M140 S60
M105
M190 S60
M104 S200
M105
M109 S200
M82 ;absolute extrusion mode
M201 X500.00 Y500.00 Z100.00 E5000.00 	;Setup machine max acceleration
M203 X500.00 Y500.00 Z10.00 E50.00 	;Setup machine max feedrate
M204 P500.00 R1000.00 T500.00 		;Setup Print/Retract/Travel acceleration
M205 X8.00 Y8.00 Z0.40 E5.00 		;Setup Jerk
M220 S100 				;Reset Feedrate
M221 S100 				;Reset Flowrate
G28				;Home the Machine
#G29 				;Bed Level
G92 E0
M300 P150 S587
G92 E0
G1 F1500 E-6.5
;LAYER_COUNT:42
;LAYER:0
M107
G0 F2160 X119.442 Y77.257 Z0.3
;TYPE:SKIRT
G1 F1500 E0
G1 F900 X119.936 Y76.553 E0.04291
G1 X120.32 Y76.099 E0.07257
G1 X120.458 Y75.951 E0.08267
G1 X121.003 Y75.4 E0.12133
G1 X121.57 Y74.88 E0.15972
G1 X122.04 Y74.482 E0.19044
G1 X122.514 Y74.108 E0.22056
G1 X122.641 Y74.014 E0.22845
G1 X123.494 Y73.415 E0.28045
G1 X124.001 Y73.089 E0.31052
G1 X124.492 Y72.81 E0.3387
G1 X125.18 Y72.455 E0.37732
G1 X125.726 Y72.222 E0.40694
G1 X126.547 Y71.921 E0.45056
G1 X126.963 Y71.812 E0.47202
G1 X127.567 Y71.676 E0.50291
G1 X128.168 Y71.58 E0.53327
G1 X128.667 Y71.53 E0.55829
G1 X128.788 Y71.521 E0.56434
G1 X129.884 Y71.456 E0.61912
G1 X130.418 Y71.449 E0.64576
G1 X131.527 Y71.489 E0.70113
G1 X131.971 Y71.522 E0.72334
G1 X132.534 Y71.587 E0.75161
G1 X132.72 Y71.613 E0.76098
G1 X133.299 Y71.712 E0.79029
G1 X133.804 Y71.818 E0.81603
G1 X134.491 Y71.999 E0.85148
G1 X135.136 Y72.205 E0.88526
G1 X135.366 Y72.287 E0.89744
G1 X136.023 Y72.547 E0.93269
G1 X136.576 Y72.801 E0.96305
G1 X137.114 Y73.09 E0.99352
G1 X137.721 Y73.467 E1.02917
G1 X138.216 Y73.817 E1.05941
G1 X138.599 Y74.119 E1.08375
G1 X139.073 Y74.534 E1.11518
G1 X139.813 Y75.222 E1.16559
G1 X140.698 Y76.068 E1.22667
G1 X142.718 Y77.892 E1.36245
G1 X144.798 Y79.665 E1.49881
G1 X146.864 Y81.328 E1.63113
G1 X147.854 Y82.103 E1.69385
G1 X148.354 Y82.529 E1.72662
G1 X148.718 Y82.9 E1.75255
G1 X149.154 Y83.442 E1.78726
G1 X149.397 Y83.792 E1.80851
G1 X150.1 Y84.947 E1.87597
G1 X157.522 Y97.647 E2.60984
G1 X158.039 Y98.562 E2.66227
G1 X159.116 Y100.531 E2.77424
G1 X160.488 Y102.881 E2.91
G1 X161.056 Y103.785 E2.96327
G1 X162.403 Y106 E3.09261
G1 X166.658 Y113.283 E3.51342
G1 X167.012 Y113.908 E3.54926
G1 X167.27 Y114.471 E3.58016
G1 X167.385 Y114.793 E3.59721
G1 X167.528 Y115.315 E3.62422
G1 X167.567 Y115.515 E3.63438
G1 X167.631 Y116.048 E3.66116
G1 X167.616 Y116.642 E3.69081
G1 X167.549 Y117.174 E3.71756
G1 X167.403 Y117.69 E3.74431
G1 X167.177 Y118.19 E3.77169
G1 X166.936 Y118.592 E3.79507
G1 X166.441 Y119.217 E3.83485
G1 X165.924 Y119.724 E3.87098
G1 X165.487 Y120.098 E3.89967
G1 X164.846 Y120.585 E3.93983
G1 X162.638 Y122.256 E4.07798
G1 X160.49 Y123.978 E4.21533
G1 X158.429 Y125.728 E4.35022
G1 X156.389 Y127.564 E4.48715
G1 X154.433 Y129.427 E4.62191
G1 X152.486 Y131.387 E4.75974
G1 X150.649 Y133.346 E4.89373
G1 X148.821 Y135.41 E5.03128
G1 X147.088 Y137.48 E5.16597
G1 X145.376 Y139.646 E5.30371
G1 X143.773 Y141.799 E5.43762
G1 X142.185 Y144.062 E5.57555
G1 X140.689 Y146.326 E5.71093
G1 X139.253 Y148.637 E5.84667
G1 X137.887 Y150.984 E5.98215
G1 X136.58 Y153.381 E6.11836
G1 X134.954 Y156.616 E6.299
G1 X134.404 Y157.762 E6.36242
G1 X134.201 Y158.127 E6.38325
G1 X133.911 Y158.586 E6.41034
G1 X133.489 Y159.169 E6.44625
G1 X133.11 Y159.608 E6.47518
G1 X132.557 Y160.175 E6.51469
G1 X131.925 Y160.707 E6.55591
G1 X131.665 Y160.9 E6.57206
G1 X131.089 Y161.29 E6.60677
G1 X130.609 Y161.59 E6.63501
G1 X130.145 Y161.836 E6.66121
G1 X129.618 Y162.095 E6.6905
G1 X129.223 Y162.271 E6.71208
G1 X128.758 Y162.457 E6.73707
G1 X128.222 Y162.645 E6.7654
G1 X128.048 Y162.699 E6.77449
G1 X126.963 Y163.008 E6.83078
G1 X126.681 Y163.074 E6.84523
G1 X125.928 Y163.223 E6.88352
G1 X125.792 Y163.247 E6.89041
G1 X125.23 Y163.336 E6.9188
G1 X125.096 Y163.354 E6.92554
G1 X124.21 Y163.459 E6.97006
G1 X123.646 Y163.505 E6.99829
G1 X122.925 Y163.542 E7.03431
G1 X122.813 Y163.546 E7.0399
G1 X122.085 Y163.56 E7.07622
G1 X121.826 Y163.558 E7.08915
G1 X120.967 Y163.539 E7.13201
G1 X120.295 Y163.506 E7.16558
G1 X119.348 Y163.437 E7.21295
G1 X118.751 Y163.377 E7.24288
G1 X117.676 Y163.245 E7.29692
G1 X117.221 Y163.177 E7.31987
G1 X116.229 Y163.011 E7.37005
G1 X115.742 Y162.916 E7.39481
G1 X114.736 Y162.7 E7.44614
G1 X114.275 Y162.586 E7.46983
G1 X113.435 Y162.364 E7.51318
G1 X112.963 Y162.226 E7.53771
G1 X112.328 Y162.024 E7.57096
G1 X111.64 Y161.784 E7.60731
G1 X111.161 Y161.603 E7.63286
G1 X110.351 Y161.263 E7.67668
G1 X109.939 Y161.075 E7.69928
G1 X109.179 Y160.698 E7.7416
G1 X109.017 Y160.612 E7.75075
G1 X106.327 Y159.103 E7.90463
G1 X103.901 Y157.828 E8.04136
G1 X101.471 Y156.638 E8.17635
G1 X98.968 Y155.5 E8.31353
G1 X96.449 Y154.438 E8.44991
G1 X93.937 Y153.465 E8.58431
G1 X91.333 Y152.539 E8.72219
G1 X88.751 Y151.701 E8.85762
G1 X86.146 Y150.937 E8.99306
G1 X84.386 Y150.465 E9.08397
G1 X81.883 Y149.82 E9.21293
G1 X81.761 Y149.787 E9.21923
G1 X81.023 Y149.569 E9.25762
G1 X80.72 Y149.471 E9.27351
G1 X79.876 Y149.181 E9.31804
G1 X79.388 Y148.999 E9.34402
G1 X78.522 Y148.651 E9.39058
G1 X78.168 Y148.498 E9.40982
G1 X77.355 Y148.124 E9.45447
G1 X76.812 Y147.855 E9.4847
G1 X76.161 Y147.511 E9.52144
G1 X75.498 Y147.135 E9.55946
G1 X75.042 Y146.86 E9.58603
G1 X74.314 Y146.394 E9.62915
G1 X74.221 Y146.333 E9.6347
G1 X73.533 Y145.86 E9.67636
G1 X73.107 Y145.549 E9.70267
G1 X72.39 Y145.002 E9.74766
G1 X72.023 Y144.705 E9.77122
G1 X71.216 Y144.023 E9.82393
G1 X71.015 Y143.844 E9.83736
G1 X70.333 Y143.211 E9.88378
G1 X70.09 Y142.972 E9.90078
G1 X69.662 Y142.531 E9.93144
G1 X69.227 Y142.059 E9.96347
G1 X68.811 Y141.569 E9.99554
G1 X68.495 Y141.157 E10.02144
G1 X68.105 Y140.575 E10.05639
G1 X67.895 Y140.198 E10.07792
G1 X67.671 Y139.714 E10.10453
G1 X67.598 Y139.52 E10.11487
G1 X67.447 Y139.005 E10.14165
G1 X67.374 Y138.474 E10.16839
G1 X67.379 Y137.957 E10.19418
G1 X67.396 Y137.75 E10.20454
G1 X67.48 Y137.221 E10.23127
G1 X67.641 Y136.709 E10.25804
G1 X67.869 Y136.231 E10.28446
G1 X67.969 Y136.05 E10.29478
G1 X68.263 Y135.601 E10.32156
G1 X68.834 Y134.972 E10.36394
G1 X69.343 Y134.506 E10.39837
G1 X69.928 Y134.067 E10.43486
G1 X70.111 Y133.946 E10.4458
G1 X70.73 Y133.562 E10.48215
G1 X71.071 Y133.366 E10.50177
G1 X71.835 Y132.955 E10.54505
G1 X73.664 Y131.991 E10.6482
G1 X76.018 Y130.663 E10.78304
G1 X78.362 Y129.253 E10.91951
G1 X80.652 Y127.785 E11.05522
G1 X82.927 Y126.234 E11.19258
G1 X85.115 Y124.65 E11.32735
G1 X87.271 Y122.994 E11.46298
G1 X89.408 Y121.256 E11.6004
G1 X91.45 Y119.497 E11.73486
G1 X93.485 Y117.64 E11.87231
G1 X95.428 Y115.763 E12.00709
G1 X97.352 Y113.796 E12.14436
G1 X99.198 Y111.802 E12.27993
G1 X100.979 Y109.761 E12.41507
G1 X102.725 Y107.644 E12.55198
G1 X104.389 Y105.506 E12.68714
G1 X106.009 Y103.3 E12.82369
G1 X107.573 Y101.036 E12.96097
G1 X109.051 Y98.766 E13.09611
G1 X110.466 Y96.446 E13.23168
G1 X111.821 Y94.08 E13.36771
G1 X113.111 Y91.67 E13.50409
G1 X114.328 Y89.236 E13.63985
G1 X115.487 Y86.742 E13.77706
G1 X116.551 Y84.272 E13.91124
G1 X117.563 Y81.728 E14.04783
G1 X118.168 Y80.102 E14.13438
G1 X118.528 Y79.106 E14.18722
G1 X118.744 Y78.586 E14.21531
G1 X119.037 Y77.96 E14.2498
G1 X119.442 Y77.257 E14.29027
G0 F2160 X119.786 Y77.462
G1 F900 X120.257 Y76.792 E14.33113
G1 X120.62 Y76.363 E14.35917
G1 X120.743 Y76.232 E14.36813
G1 X121.28 Y75.689 E14.40624
G1 X121.838 Y75.178 E14.44398
G1 X122.29 Y74.795 E14.47354
G1 X122.758 Y74.425 E14.50331
G1 X122.871 Y74.341 E14.51033
G1 X123.724 Y73.742 E14.56233
G1 X124.2 Y73.436 E14.59056
G1 X124.681 Y73.162 E14.61818
G1 X125.338 Y72.822 E14.65509
G1 X125.874 Y72.593 E14.68417
G1 X126.651 Y72.307 E14.72547
G1 X127.051 Y72.202 E14.74611
G1 X127.655 Y72.066 E14.77699
G1 X128.222 Y71.977 E14.80563
G1 X128.812 Y71.92 E14.8352
G1 X129.783 Y71.861 E14.88373
G1 X130.403 Y71.849 E14.91467
G1 X131.615 Y71.894 E14.97518
G1 X131.925 Y71.919 E14.9907
G1 X132.488 Y71.984 E15.01897
G1 X132.653 Y72.008 E15.02729
G1 X133.223 Y72.105 E15.05613
G1 X133.717 Y72.209 E15.08132
G1 X134.37 Y72.38 E15.115
G1 X135.015 Y72.586 E15.14878
G1 X135.219 Y72.659 E15.15959
G1 X135.876 Y72.919 E15.19484
G1 X136.39 Y73.155 E15.22306
G1 X136.91 Y73.435 E15.25252
G1 X137.506 Y73.804 E15.28749
G1 X137.982 Y74.142 E15.31662
G1 X138.336 Y74.42 E15.33908
G1 X138.801 Y74.828 E15.36994
G1 X139.537 Y75.511 E15.42003
G1 X140.428 Y76.363 E15.48154
G1 X142.457 Y78.194 E15.61789
G1 X144.53 Y79.962 E15.75382
G1 X146.618 Y81.643 E15.88755
G1 X147.608 Y82.418 E15.95028
G1 X148.09 Y82.829 E15.98188
G1 X148.505 Y83.266 E16.01194
G1 X148.84 Y83.689 E16.03887
G1 X149.056 Y84 E16.05776
G1 X149.755 Y85.148 E16.12481
G1 X157.173 Y97.844 E16.85841
G1 X157.688 Y98.754 E16.91058
G1 X158.768 Y100.729 E17.02288
G1 X160.136 Y103.071 E17.15819
G1 X160.715 Y103.993 E17.21251
G1 X162.058 Y106.202 E17.34149
G1 X166.31 Y113.48 E17.76202
G1 X166.664 Y114.105 E17.79785
G1 X166.894 Y114.606 E17.82535
G1 X167.136 Y115.392 E17.86638
G1 X167.175 Y115.592 E17.87655
G1 X167.232 Y116.094 E17.90176
G1 X167.217 Y116.621 E17.92806
G1 X167.151 Y117.122 E17.95327
G1 X167.007 Y117.607 E17.97851
G1 X166.707 Y118.204 E18.01184
G1 X166.597 Y118.38 E18.0222
G1 X166.157 Y118.936 E18.05757
G1 X165.648 Y119.435 E18.09313
G1 X165.241 Y119.783 E18.11985
G1 X164.605 Y120.266 E18.15969
G1 X162.37 Y121.957 E18.29952
G1 X160.248 Y123.659 E18.43523
G1 X158.168 Y125.425 E18.57136
G1 X156.146 Y127.244 E18.70705
G1 X154.138 Y129.156 E18.84538
G1 X152.193 Y131.115 E18.98311
G1 X150.341 Y133.09 E19.11818
G1 X148.534 Y135.13 E19.25414
G1 X146.766 Y137.242 E19.39156
G1 X145.074 Y139.383 E19.5277
G1 X143.441 Y141.576 E19.66411
G1 X141.857 Y143.833 E19.80168
G1 X140.359 Y146.1 E19.93724
G1 X138.895 Y148.457 E20.07567
G1 X137.554 Y150.76 E20.20863
G1 X136.216 Y153.215 E20.34812
G1 X134.593 Y156.443 E20.52837
G1 X134.043 Y157.589 E20.59179
G1 X133.863 Y157.913 E20.61028
G1 X133.573 Y158.372 E20.63737
G1 X133.186 Y158.907 E20.67031
G1 X132.737 Y159.425 E20.70451
G1 X132.296 Y159.872 E20.73584
G1 X131.672 Y160.397 E20.77652
G1 X131.441 Y160.569 E20.79089
G1 X130.865 Y160.959 E20.8256
G1 X130.412 Y161.242 E20.85224
G1 X129.96 Y161.482 E20.87778
G1 X129.442 Y161.735 E20.90654
G1 X129.074 Y161.899 E20.92664
G1 X128.609 Y162.085 E20.95162
G1 X128.092 Y162.266 E20.97895
G1 X127.938 Y162.315 E20.98701
G1 X126.97 Y162.592 E21.03725
G1 X126.603 Y162.681 E21.05609
G1 X125.85 Y162.83 E21.09438
G1 X125.73 Y162.852 E21.10047
G1 X125.168 Y162.941 E21.12886
G1 X124.281 Y163.049 E21.17344
G1 X123.737 Y163.098 E21.20069
G1 X123.625 Y163.106 E21.20629
G1 X122.904 Y163.143 E21.24231
G1 X122.168 Y163.159 E21.27903
G1 X121.835 Y163.158 E21.29565
G1 X120.884 Y163.136 E21.34311
G1 X120.243 Y163.102 E21.37513
G1 X119.281 Y163.03 E21.42326
G1 X118.734 Y162.972 E21.4507
G1 X117.63 Y162.835 E21.5062
G1 X117.287 Y162.782 E21.52352
G1 X116.21 Y162.601 E21.578
G1 X115.825 Y162.525 E21.59758
G1 X114.831 Y162.311 E21.64831
G1 X114.377 Y162.199 E21.67164
G1 X113.547 Y161.98 E21.71446
G1 X113.084 Y161.844 E21.73854
G1 X112.359 Y161.612 E21.77652
G1 X111.692 Y161.377 E21.8118
G1 X111.201 Y161.188 E21.83805
G1 X110.506 Y160.895 E21.87568
G1 X110.117 Y160.717 E21.89702
G1 X109.357 Y160.34 E21.93934
G1 X109.213 Y160.264 E21.94747
G1 X106.503 Y158.743 E22.10251
G1 X104.084 Y157.473 E22.23881
G1 X101.647 Y156.279 E22.37421
G1 X99.139 Y155.139 E22.51165
G1 X96.582 Y154.061 E22.65009
G1 X94.067 Y153.087 E22.78465
G1 X91.475 Y152.164 E22.92192
G1 X88.892 Y151.327 E23.05738
G1 X86.235 Y150.547 E23.19553
G1 X84.485 Y150.078 E23.28592
G1 X81.982 Y149.433 E23.41488
G1 X81.874 Y149.403 E23.42047
G1 X81.136 Y149.185 E23.45886
G1 X80.849 Y149.092 E23.47391
G1 X80.015 Y148.806 E23.5179
G1 X79.537 Y148.628 E23.54335
G1 X78.679 Y148.283 E23.58948
G1 X78.335 Y148.135 E23.60817
G1 X77.611 Y147.803 E23.6479
G1 X77.075 Y147.54 E23.67769
G1 X76.441 Y147.208 E23.71339
G1 X75.784 Y146.839 E23.75099
G1 X75.248 Y146.517 E23.78218
G1 X74.53 Y146.058 E23.8247
G1 X73.836 Y145.584 E23.86663
G1 X73.412 Y145.278 E23.89271
G1 X72.704 Y144.739 E23.93711
G1 X72.281 Y144.399 E23.96418
G1 X71.48 Y143.723 E24.01648
G1 X71.286 Y143.551 E24.02941
G1 X70.612 Y142.925 E24.0753
G1 X70.376 Y142.692 E24.09185
G1 X69.956 Y142.26 E24.12191
G1 X69.521 Y141.788 E24.15393
G1 X69.127 Y141.325 E24.18426
G1 X68.819 Y140.922 E24.20957
G1 X68.454 Y140.38 E24.24217
G1 X68.045 Y139.573 E24.2873
G1 X67.972 Y139.379 E24.29765
G1 X67.832 Y138.893 E24.32288
G1 X67.77 Y138.391 E24.34811
G1 X67.795 Y137.783 E24.37847
G1 X67.876 Y137.284 E24.40369
G1 X68.114 Y136.63 E24.43842
G1 X68.319 Y136.244 E24.46022
G1 X68.598 Y135.822 E24.48546
G1 X69.124 Y135.248 E24.5243
G1 X69.607 Y134.807 E24.55693
G1 X70.159 Y134.394 E24.59133
G1 X70.322 Y134.286 E24.60108
G1 X70.941 Y133.902 E24.63742
G1 X71.261 Y133.718 E24.65584
G1 X72.022 Y133.309 E24.69894
G1 X73.853 Y132.344 E24.8022
G1 X76.215 Y131.012 E24.93749
G1 X78.578 Y129.59 E25.07508
G1 X80.888 Y128.109 E25.21198
G1 X83.141 Y126.573 E25.34802
G1 X85.348 Y124.976 E25.48393
G1 X87.526 Y123.303 E25.62094
G1 X89.655 Y121.571 E25.75787
G1 X91.735 Y119.779 E25.89484
G1 X93.75 Y117.94 E26.03094
G1 X95.709 Y116.048 E26.16682
G1 X97.631 Y114.084 E26.30392
G1 X99.494 Y112.071 E26.44076
G1 X101.305 Y109.995 E26.5782
G1 X103.034 Y107.899 E26.71375
G1 X104.712 Y105.744 E26.85002
G1 X106.328 Y103.542 E26.98628
G1 X107.905 Y101.261 E27.12463
G1 X109.374 Y99.002 E27.25907
G1 X110.821 Y96.631 E27.39765
G1 X112.178 Y94.262 E27.53385
G1 X113.464 Y91.859 E27.66983
G1 X114.684 Y89.419 E27.80593
G1 X115.846 Y86.919 E27.94347
G1 X116.931 Y84.399 E28.08035
G1 X117.935 Y81.875 E28.21587
G1 X118.542 Y80.242 E28.30279
G1 X118.904 Y79.242 E28.35585
G1 X119.111 Y78.744 E28.38275
G1 X119.39 Y78.148 E28.41558
G1 X119.786 Y77.462 E28.4551
G1 F1500 E21.9551
;MESH:50mm_e_egg_bunny.stl
G0 F2160 X121.637 Y79.307
G0 X122.576 Y79.846
G0 X137.439 Y91.771
G0 X138.916 Y93.237
G0 X145.992 Y101.73
G0 X147.137 Y110.21
G0 X147.571 Y111.078
G0 X148.634 Y111.468
G0 X149.907 Y111.382
G0 X151.743 Y110.9
G0 X161.378 Y114.948
;TYPE:WALL-INNER
G1 F1500 E28.4551
G1 F900 X161.676 Y115.458 E28.48457
G1 X161.82 Y115.704 E28.49879
G1 X161.985 Y115.985 E28.51505
G1 X161.76 Y115.74 E28.51671
G1 X161.617 Y115.493 E28.5192
G1 X161.378 Y114.948 E28.52189
G0 F2160 X158.463 Y113.726
G0 X157.432 Y113.758
G0 X156.171 Y114.23
G0 X149.146 Y117.404
G0 X148.197 Y118.071
G0 X135.339 Y132.983
G0 X133.515 Y134.7
G0 X132.057 Y135.764
G0 X130.475 Y136.645
G0 X129.307 Y137.107
G0 X103.4 Y145.093
G0 X100.167 Y145.56
G1 F900 X100.06 Y145.568 E28.52724
G1 X99.273 Y145.633 E28.56664
G1 X98.699 Y145.679 E28.59537
G1 X95.929 Y145.906 E28.73403
G1 X94.96 Y145.948 E28.78241
G1 X94.124 Y145.942 E28.82412
G1 X92.203 Y145.875 E28.92002
G1 X90.263 Y145.764 E29.01697
G1 X89.192 Y145.674 E29.07059
G1 X88.141 Y145.565 E29.1233
G1 X87.698 Y145.505 E29.14561
G1 X87.624 Y145.496 E29.14933
G1 X87.135 Y145.429 E29.17395
G1 X86.329 Y145.298 E29.21469
G1 X86.033 Y145.249 E29.22966
G1 X85.286 Y145.103 E29.26763
G1 X85.024 Y145.051 E29.28096
G1 X84.397 Y144.902 E29.31311
G1 X84.157 Y144.845 E29.32542
G1 X84.402 Y144.88 E29.32578
G1 X85.034 Y144.946 E29.33068
G1 X85.31 Y144.975 E29.33493
G1 X86.049 Y145.029 E29.35088
G1 X86.368 Y145.053 E29.36044
G1 X87.149 Y145.086 E29.38911
G1 X87.676 Y145.109 E29.41335
G1 X87.751 Y145.109 E29.41707
G1 X89.046 Y145.127 E29.48168
G1 X89.186 Y145.127 E29.48866
G1 X91.59 Y145.093 E29.60861
G1 X94.468 Y145.021 E29.75224
