;FLAVOR:Marlin
;TIME:5044
;Filament used: 5.08728m, 0m
;Layer height: 0.2
;MINX:49.541
;MINY:48.877
;MINZ:0.3
;MAXX:185.459
;MAXY:186.1
;MAXZ:2.3
;POSTPROCESSED
;Generated with Cura_SteamEngine 4.7.1
T0
M140 S60
M105
M190 S60
M104 S190
M105
M109 S190
M82 ;absolute extrusion mode
M201 X500.00 Y500.00 Z100.00 E5000.00 	;Setup machine max acceleration
M203 X500.00 Y500.00 Z10.00 E50.00 	;Setup machine max feedrate
M204 P500.00 R1000.00 T500.00 		;Setup Print/Retract/Travel acceleration
M205 X8.00 Y8.00 Z0.40 E5.00 		;Setup Jerk
M220 S100 				;Reset Feedrate
M221 S100 				;Reset Flowrate
G28				;Home the Machine
G29 				;Bed Level
G92 E0
M300 P150 S587
G92 E0
G1 F1500 E-6.5
;LAYER_COUNT:11
;LAYER:0
M107
G0 F3600 X60.976 Y60.875 Z0.3
;TYPE:SKIRT
G1 F1500 E0
G1 X61.838 Y60.022 E0.0605
G1 X61.964 Y59.902 E0.06918
G1 X62.861 Y59.074 E0.13009
G1 X62.992 Y58.957 E0.13885
G1 X63.906 Y58.171 E0.19899
G1 X64.034 Y58.064 E0.20731
G1 X64.981 Y57.303 E0.26792
G1 X65.124 Y57.193 E0.27693
G1 X66.103 Y56.463 E0.33785
G1 X66.24 Y56.362 E0.34634
G1 X67.23 Y55.675 E0.40646
G1 X67.372 Y55.581 E0.41496
G1 X68.391 Y54.924 E0.47545
G1 X68.546 Y54.828 E0.48454
G1 X69.596 Y54.204 E0.54548
G1 X69.737 Y54.123 E0.55359
G1 X70.793 Y53.541 E0.61375
G1 X70.95 Y53.458 E0.62261
G1 X72.04 Y52.907 E0.68354
G1 X72.198 Y52.83 E0.69231
G1 X73.295 Y52.323 E0.7526
G1 X73.454 Y52.253 E0.76127
G1 X74.571 Y51.783 E0.82173
G1 X74.726 Y51.721 E0.83006
G1 X75.865 Y51.286 E0.89089
G1 X76.036 Y51.224 E0.89996
G1 X77.186 Y50.832 E0.96058
G1 X77.344 Y50.781 E0.96886
G1 X78.498 Y50.43 E1.02904
G1 X78.668 Y50.382 E1.03785
G1 X79.841 Y50.07 E1.09841
G1 X80.011 Y50.028 E1.10714
G1 X81.2 Y49.756 E1.16799
G1 X81.37 Y49.72 E1.17666
G1 X82.555 Y49.492 E1.23687
G1 X82.727 Y49.462 E1.24558
G1 X83.929 Y49.274 E1.30627
G1 X84.09 Y49.252 E1.31438
G1 X85.298 Y49.103 E1.37511
G1 X85.479 Y49.084 E1.38419
G1 X86.682 Y48.98 E1.44443
G1 X86.851 Y48.968 E1.45288
G1 X88.07 Y48.904 E1.51378
G1 X88.245 Y48.898 E1.52252
G1 X89.454 Y48.877 E1.58284
G1 X89.628 Y48.877 E1.59152
G1 X90.837 Y48.898 E1.65185
G1 X91.016 Y48.904 E1.66078
G1 X92.234 Y48.969 E1.72164
G1 X92.398 Y48.981 E1.72984
G1 X93.602 Y49.085 E1.79013
G1 X93.781 Y49.103 E1.79911
G1 X94.987 Y49.251 E1.85973
G1 X95.146 Y49.273 E1.86774
G1 X96.349 Y49.46 E1.92847
G1 X96.529 Y49.492 E1.9376
G1 X97.715 Y49.721 E1.99786
G1 X97.887 Y49.757 E2.00662
G1 X99.075 Y50.03 E2.06744
G1 X99.24 Y50.071 E2.07592
G1 X100.413 Y50.383 E2.13648
G1 X100.583 Y50.431 E2.14529
G1 X101.737 Y50.782 E2.20547
G1 X101.898 Y50.834 E2.21391
G1 X103.046 Y51.226 E2.27443
G1 X103.211 Y51.286 E2.28319
G1 X104.352 Y51.721 E2.34411
G1 X104.513 Y51.785 E2.35275
G1 X105.633 Y52.257 E2.41339
G1 X105.793 Y52.328 E2.42212
G1 X106.887 Y52.835 E2.48228
G1 X107.037 Y52.908 E2.4906
G1 X108.125 Y53.457 E2.5514
G1 X108.283 Y53.54 E2.56031
G1 X109.341 Y54.122 E2.62055
G1 X109.495 Y54.21 E2.6294
G1 X110.543 Y54.836 E2.6903
G1 X110.681 Y54.922 E2.69841
G1 X111.696 Y55.574 E2.7586
G1 X111.849 Y55.676 E2.76777
G1 X112.844 Y56.368 E2.82824
G1 X112.977 Y56.464 E2.83642
G1 X113.951 Y57.19 E2.89703
G1 X114.092 Y57.299 E2.90592
G1 X115.038 Y58.058 E2.96643
G1 X115.173 Y58.17 E2.97518
G1 X116.092 Y58.962 E3.03571
G1 X116.216 Y59.073 E3.04401
G1 X117.108 Y59.895 E3.10453
G1 X117.241 Y60.022 E3.1137
G1 X118.108 Y60.882 E3.17463
G1 X118.221 Y60.997 E3.18267
G1 X119.05 Y61.874 E3.24288
G1 X119.173 Y62.009 E3.25199
G1 X119.974 Y62.921 E3.31255
G1 X120.084 Y63.052 E3.32108
G1 X120.856 Y63.994 E3.38184
G1 X120.965 Y64.131 E3.39058
G1 X121.698 Y65.092 E3.45088
G1 X121.797 Y65.226 E3.45919
G1 X122.499 Y66.213 E3.51961
G1 X122.599 Y66.359 E3.52844
G1 X123.268 Y67.374 E3.58909
G1 X123.363 Y67.524 E3.59795
G1 X123.998 Y68.566 E3.65883
G1 X124.082 Y68.709 E3.6671
G1 X124.675 Y69.759 E3.72726
G1 X124.761 Y69.918 E3.73628
G1 X125.32 Y70.997 E3.79691
G1 X125.395 Y71.148 E3.80532
G1 X125.919 Y72.249 E3.86615
G1 X125.991 Y72.407 E3.87482
G1 X126.471 Y73.513 E3.93497
G1 X126.538 Y73.677 E3.94381
G1 X126.982 Y74.808 E4.00442
G1 X127.042 Y74.967 E4.0129
G1 X127.446 Y76.109 E4.07334
G1 X127.501 Y76.274 E4.08201
G1 X127.866 Y77.432 E4.14259
G1 X127.915 Y77.599 E4.15127
G1 X128.241 Y78.775 E4.21216
G1 X128.284 Y78.938 E4.22057
G1 X128.567 Y80.111 E4.28077
G1 X128.605 Y80.282 E4.28951
G1 X128.848 Y81.47 E4.35
G1 X128.88 Y81.645 E4.35888
G1 X129.081 Y82.843 E4.41948
G1 X129.107 Y83.014 E4.42811
G1 X129.266 Y84.216 E4.4886
G1 X129.286 Y84.391 E4.49739
G1 X129.403 Y85.601 E4.55804
G1 X129.416 Y85.765 E4.56625
G1 X129.493 Y86.976 E4.62678
G1 X129.501 Y87.153 E4.63562
G1 X129.535 Y88.366 E4.69616
G1 X129.537 Y88.539 E4.7048
G1 X129.529 Y89.751 E4.76526
G1 X129.525 Y89.927 E4.77405
G1 X129.474 Y91.146 E4.83492
G1 X129.463 Y91.318 E4.84352
G1 X129.371 Y92.521 E4.90371
G1 X129.355 Y92.692 E4.91228
G1 X129.221 Y93.898 E4.97281
G1 X129.199 Y94.072 E4.98156
G1 X129.023 Y95.272 E5.04207
G1 X128.996 Y95.438 E5.05046
G1 X128.778 Y96.64 E5.11141
G1 X128.743 Y96.813 E5.12022
G1 X128.486 Y97.992 E5.18042
G1 X128.446 Y98.164 E5.18923
G1 X128.146 Y99.339 E5.24973
G1 X128.1 Y99.507 E5.25842
G1 X127.759 Y100.672 E5.31898
G1 X127.709 Y100.832 E5.32734
G1 X127.333 Y101.972 E5.38723
G1 X127.956 Y101.657 E5.42206
G1 X128.114 Y101.581 E5.43081
G1 X129.217 Y101.071 E5.49143
G1 X129.376 Y101 E5.50012
G1 X130.493 Y100.53 E5.56058
G1 X130.649 Y100.468 E5.56896
G1 X131.789 Y100.033 E5.62983
G1 X131.958 Y99.972 E5.6388
G1 X133.107 Y99.58 E5.69936
G1 X133.266 Y99.528 E5.70771
G1 X134.42 Y99.177 E5.76789
G1 X134.591 Y99.129 E5.77675
G1 X135.765 Y98.817 E5.83735
G1 X135.933 Y98.775 E5.84599
G1 X137.121 Y98.503 E5.90679
G1 X137.292 Y98.467 E5.91551
G1 X138.477 Y98.239 E5.97572
G1 X138.65 Y98.209 E5.98448
G1 X139.853 Y98.021 E6.04522
G1 X140.012 Y97.999 E6.05323
G1 X141.219 Y97.85 E6.11391
G1 X141.401 Y97.831 E6.12304
G1 X142.603 Y97.727 E6.18323
G1 X142.776 Y97.715 E6.19188
G1 X143.995 Y97.652 E6.25278
G1 X144.166 Y97.646 E6.26131
G1 X145.376 Y97.625 E6.32169
G1 X145.55 Y97.625 E6.33037
G1 X146.76 Y97.646 E6.39075
G1 X146.935 Y97.652 E6.39948
G1 X148.153 Y97.716 E6.46033
G1 X148.322 Y97.728 E6.46878
G1 X149.525 Y97.832 E6.52903
G1 X149.703 Y97.85 E6.53795
G1 X150.91 Y97.998 E6.59862
G1 X151.07 Y98.02 E6.60668
G1 X152.272 Y98.207 E6.66737
G1 X152.451 Y98.239 E6.67644
G1 X153.637 Y98.468 E6.7367
G1 X153.808 Y98.504 E6.74542
G1 X154.997 Y98.777 E6.80628
G1 X155.164 Y98.818 E6.81486
G1 X156.336 Y99.13 E6.87537
G1 X156.505 Y99.178 E6.88414
G1 X157.659 Y99.529 E6.94431
G1 X157.818 Y99.581 E6.95266
G1 X158.967 Y99.973 E7.01323
G1 X159.136 Y100.034 E7.02219
G1 X160.276 Y100.469 E7.08307
G1 X160.436 Y100.533 E7.09166
G1 X161.555 Y101.005 E7.15225
G1 X161.709 Y101.073 E7.16065
G1 X162.804 Y101.579 E7.22083
G1 X162.966 Y101.657 E7.2298
G1 X164.048 Y102.205 E7.29031
G1 X164.195 Y102.283 E7.29862
G1 X165.259 Y102.867 E7.35917
G1 X165.415 Y102.956 E7.36813
G1 X166.464 Y103.582 E7.42907
G1 X166.606 Y103.67 E7.43741
G1 X167.62 Y104.322 E7.49755
G1 X167.771 Y104.423 E7.50662
G1 X168.766 Y105.115 E7.56708
G1 X168.899 Y105.211 E7.57527
G1 X169.873 Y105.937 E7.63587
G1 X170.014 Y106.046 E7.64476
G1 X170.96 Y106.805 E7.70527
G1 X171.095 Y106.917 E7.71402
G1 X172.014 Y107.709 E7.77455
G1 X172.138 Y107.82 E7.78285
G1 X173.03 Y108.642 E7.84337
G1 X173.163 Y108.769 E7.85254
G1 X174.03 Y109.629 E7.91347
G1 X174.143 Y109.744 E7.92151
G1 X174.972 Y110.621 E7.98172
G1 X175.095 Y110.756 E7.99083
G1 X175.896 Y111.668 E8.05139
G1 X176.006 Y111.799 E8.05992
G1 X176.778 Y112.741 E8.12069
G1 X176.885 Y112.875 E8.12924
G1 X177.619 Y113.836 E8.18957
G1 X177.723 Y113.978 E8.19835
G1 X178.424 Y114.966 E8.25879
G1 X178.52 Y115.105 E8.26722
G1 X179.189 Y116.119 E8.32783
G1 X179.285 Y116.271 E8.33679
G1 X179.92 Y117.313 E8.39767
G1 X180.005 Y117.458 E8.40606
G1 X180.598 Y118.509 E8.46626
G1 X180.682 Y118.664 E8.47506
G1 X181.241 Y119.742 E8.53564
G1 X181.317 Y119.895 E8.54416
G1 X181.841 Y120.996 E8.605
G1 X181.913 Y121.154 E8.61366
G1 X182.393 Y122.26 E8.67381
G1 X182.46 Y122.424 E8.68265
G1 X182.904 Y123.555 E8.74327
G1 X182.964 Y123.714 E8.75175
G1 X183.368 Y124.856 E8.81218
G1 X183.423 Y125.022 E8.8209
G1 X183.788 Y126.181 E8.88153
G1 X183.835 Y126.341 E8.88985
G1 X184.163 Y127.518 E8.9508
G1 X184.209 Y127.693 E8.95983
G1 X184.49 Y128.864 E9.01991
G1 X184.527 Y129.029 E9.02835
G1 X184.77 Y130.217 E9.08885
G1 X184.802 Y130.392 E9.09772
G1 X185.003 Y131.59 E9.15832
G1 X185.028 Y131.757 E9.16675
G1 X185.188 Y132.959 E9.22725
G1 X185.209 Y133.142 E9.23644
G1 X185.325 Y134.352 E9.29708
G1 X185.338 Y134.512 E9.30509
G1 X185.415 Y135.723 E9.36563
G1 X185.423 Y135.9 E9.37447
G1 X185.457 Y137.113 E9.43501
G1 X185.459 Y137.286 E9.44364
G1 X185.451 Y138.498 E9.50411
G1 X185.447 Y138.67 E9.51269
G1 X185.397 Y139.891 E9.57366
G1 X185.386 Y140.072 E9.5827
G1 X185.293 Y141.273 E9.6428
G1 X185.277 Y141.439 E9.65112
G1 X185.143 Y142.645 E9.71166
G1 X185.121 Y142.819 E9.72041
G1 X184.945 Y144.019 E9.78092
G1 X184.918 Y144.185 E9.78931
G1 X184.7 Y145.387 E9.85026
G1 X184.665 Y145.56 E9.85906
G1 X184.408 Y146.739 E9.91926
G1 X184.368 Y146.911 E9.92807
G1 X184.068 Y148.086 E9.98858
G1 X184.023 Y148.25 E9.99706
G1 X183.683 Y149.415 E10.05761
G1 X183.631 Y149.583 E10.06638
G1 X183.25 Y150.736 E10.12696
G1 X183.194 Y150.896 E10.13542
G1 X182.775 Y152.033 E10.19587
G1 X182.711 Y152.196 E10.20461
G1 X182.249 Y153.326 E10.26552
G1 X182.18 Y153.486 E10.27421
G1 X181.684 Y154.588 E10.3345
G1 X181.612 Y154.742 E10.34298
G1 X181.077 Y155.83 E10.40347
G1 X180.998 Y155.985 E10.41215
G1 X180.426 Y157.053 E10.47259
G1 X180.339 Y157.208 E10.48146
G1 X179.724 Y158.264 E10.54243
G1 X179.633 Y158.414 E10.55118
G1 X178.989 Y159.436 E10.61145
G1 X178.899 Y159.574 E10.61967
G1 X178.215 Y160.584 E10.68052
G1 X178.11 Y160.733 E10.68962
G1 X177.398 Y161.706 E10.74977
G1 X177.297 Y161.839 E10.7581
G1 X176.548 Y162.794 E10.81865
G1 X176.438 Y162.929 E10.82734
G1 X175.652 Y163.862 E10.8882
G1 X175.535 Y163.996 E10.89708
G1 X174.725 Y164.891 E10.9573
G1 X174.611 Y165.013 E10.96563
G1 X173.767 Y165.885 E11.02618
G1 X173.643 Y166.009 E11.03493
G1 X172.769 Y166.851 E11.09547
G1 X172.64 Y166.971 E11.10426
G1 X171.799 Y167.726 E11.16065
G1 X171.665 Y167.848 E11.16969
G1 X170.673 Y168.677 E11.23419
G1 X170.541 Y168.783 E11.24263
G1 X169.584 Y169.529 E11.30317
G1 X169.448 Y169.632 E11.31168
G1 X168.466 Y170.345 E11.37223
G1 X168.324 Y170.444 E11.38086
G1 X167.319 Y171.122 E11.44134
G1 X167.173 Y171.217 E11.45003
G1 X166.138 Y171.864 E11.51093
G1 X165.989 Y171.954 E11.51961
G1 X164.945 Y172.557 E11.57976
G1 X164.793 Y172.641 E11.58843
G1 X163.72 Y173.212 E11.64907
G1 X163.568 Y173.29 E11.65759
G1 X162.472 Y173.826 E11.71846
G1 X162.313 Y173.9 E11.72721
G1 X161.206 Y174.394 E11.78769
G1 X161.046 Y174.462 E11.79636
G1 X159.928 Y174.915 E11.85654
G1 X159.769 Y174.976 E11.86504
G1 X158.622 Y175.396 E11.92598
G1 X158.454 Y175.454 E11.93485
G1 X157.299 Y175.831 E11.99546
G1 X157.135 Y175.882 E12.00403
G1 X155.978 Y176.216 E12.06411
G1 X155.808 Y176.262 E12.0729
G1 X154.949 Y176.477 E12.11707
G1 X154.958 Y176.779 E12.13215
G1 X154.917 Y177.415 E12.16394
G1 X154.81 Y178.249 E12.20589
G1 X154.69 Y178.87 E12.23745
G1 X154.599 Y179.18 E12.25357
G1 X154.327 Y180.004 E12.29686
G1 X154.14 Y180.486 E12.32265
G1 X153.928 Y180.907 E12.34617
G1 X153.516 Y181.639 E12.38807
G1 X153.268 Y182.036 E12.41143
G1 X152.953 Y182.447 E12.43726
G1 X152.404 Y183.091 E12.47948
G1 X152.011 Y183.502 E12.50785
G1 X151.707 Y183.766 E12.52794
G1 X151.048 Y184.293 E12.57004
G1 X150.742 Y184.519 E12.58902
G1 X150.221 Y184.833 E12.61936
G1 X149.473 Y185.223 E12.66145
G1 X148.998 Y185.439 E12.68748
G1 X148.557 Y185.592 E12.71077
G1 X147.727 Y185.837 E12.75395
G1 X147.11 Y185.978 E12.78552
G1 X146.79 Y186.019 E12.80162
G1 X145.949 Y186.1 E12.84377
G1 X144.973 Y186.1 E12.89246
G1 X144.132 Y186.019 E12.93461
G1 X143.508 Y185.919 E12.96614
G1 X143.195 Y185.837 E12.98229
G1 X142.365 Y185.592 E13.02546
G1 X141.904 Y185.431 E13.04982
G1 X141.449 Y185.223 E13.07478
G1 X140.701 Y184.833 E13.11687
G1 X140.18 Y184.519 E13.14722
G1 X139.874 Y184.293 E13.1662
G1 X139.215 Y183.766 E13.20829
G1 X138.911 Y183.502 E13.22838
G1 X138.518 Y183.091 E13.25675
G1 X137.969 Y182.447 E13.29897
G1 X137.643 Y182.02 E13.32577
G1 X137.406 Y181.639 E13.34816
G1 X136.994 Y180.907 E13.39006
G1 X136.595 Y180.004 E13.43932
G1 X136.323 Y179.18 E13.48261
G1 X136.163 Y178.569 E13.51412
G1 X136.112 Y178.252 E13.53014
G1 X136.005 Y177.421 E13.57194
G1 X135.964 Y176.782 E13.60388
G1 X135.973 Y176.477 E13.61911
G1 X135.105 Y176.258 E13.66377
G1 X134.946 Y176.215 E13.67199
G1 X133.788 Y175.882 E13.7321
G1 X133.612 Y175.828 E13.74129
G1 X132.459 Y175.45 E13.80182
G1 X132.301 Y175.395 E13.81017
G1 X131.154 Y174.976 E13.87109
G1 X130.992 Y174.914 E13.87974
G1 X129.872 Y174.46 E13.94004
G1 X129.711 Y174.391 E13.94878
G1 X128.605 Y173.897 E14.00921
G1 X128.447 Y173.824 E14.01789
G1 X127.351 Y173.288 E14.07876
G1 X127.201 Y173.211 E14.08717
G1 X126.129 Y172.641 E14.14775
G1 X125.973 Y172.554 E14.15666
G1 X124.927 Y171.949 E14.21694
G1 X124.779 Y171.86 E14.22556
G1 X123.746 Y171.214 E14.28634
G1 X123.603 Y171.121 E14.29485
G1 X122.597 Y170.443 E14.35538
G1 X122.453 Y170.343 E14.36412
G1 X121.471 Y169.63 E14.42467
G1 X121.335 Y169.527 E14.43318
G1 X120.378 Y168.781 E14.49372
G1 X120.245 Y168.674 E14.50223
G1 X119.256 Y167.847 E14.56655
G1 X119.12 Y167.723 E14.57573
G1 X118.277 Y166.965 E14.63229
G1 X118.153 Y166.85 E14.64073
G1 X117.277 Y166.007 E14.70138
G1 X117.149 Y165.879 E14.71041
G1 X116.307 Y165.008 E14.77085
G1 X116.195 Y164.888 E14.77904
G1 X115.384 Y163.992 E14.83934
G1 X115.267 Y163.858 E14.84821
G1 X114.482 Y162.926 E14.909
G1 X114.372 Y162.791 E14.91769
G1 X113.622 Y161.835 E14.97831
G1 X113.518 Y161.698 E14.98689
G1 X112.808 Y160.726 E15.04695
G1 X112.71 Y160.587 E15.05543
G1 X112.023 Y159.576 E15.11641
G1 X111.924 Y159.425 E15.12542
G1 X111.283 Y158.404 E15.18557
G1 X111.194 Y158.255 E15.19423
G1 X110.581 Y157.199 E15.25514
G1 X110.502 Y157.058 E15.26321
G1 X109.927 Y155.989 E15.32377
G1 X109.846 Y155.831 E15.33262
G1 X109.31 Y154.744 E15.39309
G1 X109.231 Y154.578 E15.40226
G1 X108.737 Y153.476 E15.46251
G1 X108.673 Y153.326 E15.47065
G1 X108.211 Y152.198 E15.53146
G1 X108.145 Y152.028 E15.54056
G1 X107.726 Y150.888 E15.60115
G1 X107.67 Y150.728 E15.60961
G1 X107.29 Y149.575 E15.67018
G1 X107.241 Y149.416 E15.67848
G1 X106.9 Y148.252 E15.73899
G1 X106.851 Y148.075 E15.74815
G1 X106.553 Y146.9 E15.80863
G1 X106.515 Y146.739 E15.81688
G1 X106.257 Y145.559 E15.87714
G1 X106.223 Y145.389 E15.88579
G1 X106.004 Y144.189 E15.94665
G1 X105.976 Y144.016 E15.95539
G1 X105.8 Y142.815 E16.01595
G1 X105.778 Y142.642 E16.02465
G1 X105.644 Y141.435 E16.08524
G1 X105.627 Y141.261 E16.09396
G1 X105.536 Y140.06 E16.15405
G1 X105.526 Y139.891 E16.1625
G1 X105.475 Y138.672 E16.22337
G1 X105.471 Y138.496 E16.23215
G1 X105.463 Y137.289 E16.29237
G1 X105.465 Y137.116 E16.301
G1 X105.499 Y135.903 E16.36154
G1 X105.507 Y135.728 E16.37028
G1 X105.584 Y134.51 E16.43117
G1 X105.597 Y134.344 E16.43948
G1 X105.713 Y133.144 E16.49962
G1 X105.733 Y132.97 E16.50836
G1 X105.892 Y131.766 E16.56895
G1 X105.919 Y131.588 E16.57793
G1 X106.121 Y130.392 E16.63845
G1 X106.152 Y130.226 E16.64687
G1 X106.396 Y129.029 E16.70782
G1 X106.434 Y128.856 E16.71666
G1 X106.717 Y127.682 E16.7769
G1 X106.76 Y127.519 E16.78531
G1 X107.084 Y126.35 E16.84584
G1 X107.134 Y126.178 E16.85477
G1 X107.499 Y125.023 E16.9152
G1 X107.67 Y124.53 E16.94124
G1 X106.552 Y125.076 E17.00331
G1 X106.403 Y125.146 E17.01152
