;FLAVOR:Marlin
;TIME:16453
;Filament used: 12.4342m, 0m
;Layer height: 0.15
;MINX:38.098
;MINY:17.509
;MINZ:0.3
;MAXX:196.902
;MAXY:209.487
;MAXZ:8.25
;POSTPROCESSED
;Generated with Cura_SteamEngine 4.7.1
T0
M140 S60
M105
M190 S60
M104 S190
M105
M109 S190
M82 ;absolute extrusion mode
M201 X500.00 Y500.00 Z100.00 E5000.00 	;Setup machine max acceleration
M203 X500.00 Y500.00 Z10.00 E50.00 	;Setup machine max feedrate
M204 P500.00 R1000.00 T500.00 		;Setup Print/Retract/Travel acceleration
M205 X8.00 Y8.00 Z0.40 E5.00 		;Setup Jerk
M220 S100 				;Reset Feedrate
M221 S100 				;Reset Flowrate
G28				;Home the Machine
G29 				;Bed Level
G92 E0
M300 P150 S587
G92 E0
G1 F1500 E-6.5
;LAYER_COUNT:54
;LAYER:0
M107
G0 F3600 X43.409 Y53.749 Z0.3
;TYPE:SKIRT
G1 F1500 E0
G1 X43.762 Y53.476 E0.02226
G1 X44.461 Y52.968 E0.06537
G1 X44.757 Y52.764 E0.08331
G1 X45.542 Y52.247 E0.1302
G1 X45.804 Y52.081 E0.14568
G1 X46.678 Y51.554 E0.19659
G1 X46.914 Y51.418 E0.21018
G1 X47.874 Y50.884 E0.26499
G1 X48.067 Y50.78 E0.27593
G1 X49.117 Y50.234 E0.33497
G1 X49.295 Y50.144 E0.34492
G1 X50.43 Y49.59 E0.40793
G1 X50.592 Y49.514 E0.41686
G1 X51.951 Y48.89 E0.49147
G1 X53.262 Y48.317 E0.56285
G1 X53.391 Y48.262 E0.56984
G1 X54.788 Y47.681 E0.64533
G1 X55.453 Y47.439 E0.68063
G1 X57.386 Y46.834 E0.78168
G1 X59.567 Y46.184 E0.89522
G1 X61.697 Y45.579 E1.00569
G1 X63.871 Y44.992 E1.11804
G1 X66.092 Y44.419 E1.23247
G1 X68.358 Y43.862 E1.34889
G1 X70.679 Y43.317 E1.46783
G1 X73.047 Y42.788 E1.58889
G1 X75.458 Y42.275 E1.71186
G1 X77.923 Y41.774 E1.83736
G1 X80.432 Y41.289 E1.96485
G1 X82.995 Y40.817 E2.09487
G1 X85.6 Y40.361 E2.22681
G1 X86.782 Y40.163 E2.2866
G1 X86.756 Y39.449 E2.32225
G1 X86.751 Y39.243 E2.33253
G1 X86.744 Y38.531 E2.36805
G1 X86.75 Y38.157 E2.38671
G1 X86.776 Y37.475 E2.42076
G1 X86.802 Y37.067 E2.44116
G1 X86.867 Y36.351 E2.47703
G1 X86.911 Y35.969 E2.49621
G1 X87.004 Y35.308 E2.52951
G1 X87.068 Y34.923 E2.54898
G1 X87.201 Y34.231 E2.58414
G1 X87.293 Y33.817 E2.6053
G1 X87.457 Y33.159 E2.63913
G1 X87.561 Y32.781 E2.65869
G1 X87.756 Y32.138 E2.69221
G1 X87.874 Y31.779 E2.71106
G1 X88.099 Y31.149 E2.74444
G1 X88.239 Y30.788 E2.76376
G1 X88.485 Y30.194 E2.79583
G1 X88.645 Y29.832 E2.81558
G1 X88.938 Y29.215 E2.84965
G1 X89.12 Y28.857 E2.86969
G1 X89.433 Y28.277 E2.90257
G1 X89.623 Y27.944 E2.9217
G1 X89.963 Y27.382 E2.95447
G1 X90.165 Y27.065 E2.97322
G1 X90.531 Y26.521 E3.00593
G1 X90.767 Y26.189 E3.02626
G1 X91.16 Y25.666 E3.05889
G1 X91.396 Y25.368 E3.07786
G1 X91.813 Y24.866 E3.11042
G1 X92.053 Y24.591 E3.12863
G1 X92.494 Y24.108 E3.16126
G1 X92.775 Y23.816 E3.18148
G1 X93.239 Y23.358 E3.214
G1 X93.509 Y23.103 E3.23253
G1 X93.995 Y22.667 E3.2651
G1 X94.292 Y22.416 E3.2845
G1 X94.8 Y22.004 E3.31714
G1 X95.108 Y21.767 E3.33653
G1 X95.637 Y21.38 E3.36923
G1 X95.959 Y21.156 E3.38879
G1 X96.507 Y20.796 E3.42151
G1 X96.836 Y20.591 E3.44085
G1 X97.404 Y20.257 E3.47372
G1 X97.743 Y20.069 E3.49306
G1 X98.328 Y19.763 E3.526
G1 X98.691 Y19.585 E3.54617
G1 X99.295 Y19.308 E3.57932
G1 X99.646 Y19.157 E3.59838
G1 X100.265 Y18.909 E3.63165
G1 X100.637 Y18.771 E3.65144
G1 X101.273 Y18.553 E3.68499
G1 X101.667 Y18.43 E3.70558
G1 X102.31 Y18.247 E3.73893
G1 X102.691 Y18.146 E3.7586
G1 X103.334 Y17.997 E3.79153
G1 X103.744 Y17.911 E3.81243
G1 X104.377 Y17.798 E3.84451
G1 X104.816 Y17.729 E3.86668
G1 X105.483 Y17.645 E3.90022
G1 X105.908 Y17.601 E3.92153
G1 X106.587 Y17.551 E3.9555
G1 X107.002 Y17.529 E3.97623
G1 X107.689 Y17.513 E4.01052
G1 X107.895 Y17.509 E4.0208
G1 X125.779 Y17.509 E4.91303
G1 X125.96 Y17.511 E4.92206
G1 X126.651 Y17.527 E4.95655
G1 X127.044 Y17.546 E4.97618
G1 X127.749 Y17.598 E5.01145
G1 X128.144 Y17.637 E5.03125
G1 X128.839 Y17.724 E5.06619
G1 X129.225 Y17.783 E5.08567
G1 X129.911 Y17.904 E5.12043
G1 X130.286 Y17.979 E5.13951
G1 X130.963 Y18.133 E5.17414
G1 X131.34 Y18.229 E5.19355
G1 X132.003 Y18.415 E5.22791
G1 X132.376 Y18.53 E5.24738
G1 X133.047 Y18.755 E5.28269
G1 X133.389 Y18.878 E5.30082
G1 X134.028 Y19.126 E5.33502
G1 X134.379 Y19.273 E5.354
G1 X135.001 Y19.55 E5.38797
G1 X135.33 Y19.705 E5.40612
G1 X135.939 Y20.011 E5.44012
G1 X136.275 Y20.19 E5.45911
G1 X136.866 Y20.524 E5.49298
G1 X137.162 Y20.701 E5.51019
G1 X137.738 Y21.061 E5.54408
G1 X138.06 Y21.273 E5.56331
G1 X138.616 Y21.66 E5.59711
G1 X138.89 Y21.859 E5.614
G1 X139.429 Y22.27 E5.64782
G1 X139.728 Y22.51 E5.66695
G1 X140.245 Y22.946 E5.70069
G1 X140.484 Y23.157 E5.71659
G1 X140.983 Y23.614 E5.75035
G1 X141.271 Y23.891 E5.77029
G1 X141.747 Y24.374 E5.80412
G1 X141.981 Y24.623 E5.82117
G1 X142.435 Y25.126 E5.85497
G1 X142.67 Y25.398 E5.8729
G1 X143.1 Y25.921 E5.90668
G1 X143.323 Y26.206 E5.92474
G1 X143.728 Y26.748 E5.95849
G1 X143.943 Y27.051 E5.97703
G1 X144.324 Y27.615 E6.01099
G1 X144.519 Y27.917 E6.02892
G1 X144.873 Y28.497 E6.06282
G1 X145.046 Y28.796 E6.08006
G1 X145.375 Y29.393 E6.11406
G1 X145.557 Y29.743 E6.13374
G1 X145.856 Y30.357 E6.16782
G1 X146.009 Y30.691 E6.18614
G1 X146.279 Y31.319 E6.22025
G1 X146.411 Y31.646 E6.23784
G1 X146.654 Y32.29 E6.27218
G1 X146.788 Y32.676 E6.29257
G1 X146.998 Y33.335 E6.32707
G1 X147.104 Y33.697 E6.34589
G1 X147.282 Y34.366 E6.38043
G1 X147.367 Y34.72 E6.39859
G1 X147.515 Y35.403 E6.43346
G1 X147.591 Y35.801 E6.45367
G1 X147.704 Y36.495 E6.48875
G1 X147.756 Y36.878 E6.50804
G1 X147.835 Y37.581 E6.54333
G1 X147.869 Y37.972 E6.56291
G1 X147.913 Y38.686 E6.5986
G1 X147.923 Y38.888 E6.60869
G1 X147.967 Y40.122 E6.67029
G1 X149.653 Y40.405 E6.75559
G1 X152.183 Y40.851 E6.88375
G1 X154.721 Y41.32 E7.01252
G1 X157.288 Y41.819 E7.14299
G1 X159.675 Y42.304 E7.26451
G1 X162.147 Y42.833 E7.39063
G1 X164.503 Y43.361 E7.51108
G1 X166.808 Y43.904 E7.62923
G1 X169.064 Y44.461 E7.74516
G1 X171.278 Y45.033 E7.85924
G1 X173.439 Y45.619 E7.97095
G1 X175.553 Y46.22 E8.0806
G1 X177.566 Y46.82 E8.18539
G1 X179.542 Y47.438 E8.28869
G1 X180.208 Y47.68 E8.32404
G1 X181.738 Y48.317 E8.40672
G1 X183.049 Y48.89 E8.4781
G1 X183.187 Y48.952 E8.48565
G1 X184.41 Y49.515 E8.55282
G1 X184.565 Y49.588 E8.56137
G1 X185.702 Y50.142 E8.62447
G1 X185.884 Y50.234 E8.63464
G1 X186.932 Y50.779 E8.69357
G1 X187.127 Y50.884 E8.70462
G1 X188.088 Y51.419 E8.7595
G1 X188.328 Y51.558 E8.77333
G1 X189.2 Y52.085 E8.82417
G1 X189.449 Y52.242 E8.83885
G1 X190.236 Y52.759 E8.88583
G1 X190.54 Y52.969 E8.90426
G1 X191.24 Y53.478 E8.94744
G1 X191.591 Y53.749 E8.96957
G1 X192.2 Y54.247 E9.00882
G1 X192.595 Y54.593 E9.03501
G1 X193.119 Y55.084 E9.07084
G1 X193.56 Y55.532 E9.1022
G1 X193.995 Y56.011 E9.13448
G1 X194.482 Y56.603 E9.17273
G1 X194.832 Y57.074 E9.202
G1 X195.365 Y57.894 E9.2508
G1 X195.625 Y58.355 E9.2772
G1 X195.978 Y59.062 E9.31663
G1 X196.224 Y59.701 E9.35079
G1 X196.449 Y60.37 E9.386
G1 X196.663 Y61.13 E9.42539
G1 X196.815 Y62.058 E9.47231
G1 X196.861 Y62.505 E9.49472
G1 X196.902 Y63.293 E9.53409
G1 X196.858 Y64.127 E9.57576
G1 X196.812 Y64.56 E9.59748
G1 X196.689 Y65.34 E9.63688
G1 X196.494 Y66.086 E9.67535
G1 X196.361 Y66.507 E9.69737
G1 X196.085 Y67.247 E9.73678
G1 X195.648 Y68.109 E9.78499
G1 X195.296 Y68.708 E9.81965
G1 X194.975 Y69.209 E9.84934
G1 X194.405 Y69.936 E9.89543
G1 X194.053 Y70.334 E9.92194
G1 X193.39 Y70.998 E9.96875
G1 X192.951 Y71.388 E9.99805
G1 X192.335 Y71.882 E10.03744
G1 X191.807 Y72.263 E10.06992
G1 X191.262 Y72.623 E10.10251
G1 X190.65 Y72.991 E10.13814
G1 X190.214 Y73.235 E10.16306
G1 X189.512 Y73.598 E10.20249
G1 X189.107 Y73.792 E10.2249
G1 X188.318 Y74.144 E10.268
G1 X187.984 Y74.284 E10.28607
G1 X187.108 Y74.627 E10.333
G1 X186.818 Y74.734 E10.34842
G1 X185.854 Y75.068 E10.39932
G1 X185.602 Y75.15 E10.41254
G1 X184.55 Y75.475 E10.46748
G1 X184.329 Y75.54 E10.47897
G1 X183.191 Y75.855 E10.53788
G1 X182.997 Y75.906 E10.54789
G1 X181.77 Y76.212 E10.61098
G1 X181.604 Y76.252 E10.6195
G1 X180.65 Y76.468 E10.6683
G1 X180.086 Y76.674 E10.69825
G1 X179.666 Y76.852 E10.72101
G1 X179.197 Y77.071 E10.74683
G1 X178.767 Y77.291 E10.77093
G1 X178.206 Y77.6 E10.80288
G1 X177.714 Y77.892 E10.83143
G1 X177.119 Y78.266 E10.86649
G1 X176.571 Y78.631 E10.89934
G1 X175.975 Y79.051 E10.93571
G1 X175.392 Y79.482 E10.97189
G1 X174.728 Y79.994 E11.01372
G1 X174.149 Y80.46 E11.0508
G1 X173.454 Y81.04 E11.09596
G1 X172.855 Y81.56 E11.13553
G1 X172.18 Y82.166 E11.18079
G1 X170.819 Y83.443 E11.2739
G1 X169.41 Y84.846 E11.3731
G1 X168.478 Y85.822 E11.44043
G1 X168.534 Y85.839 E11.44335
G1 X169.23 Y86.091 E11.48028
G1 X170.503 Y86.621 E11.54907
G1 X171.584 Y87.092 E11.6079
G1 X172.738 Y87.622 E11.67126
G1 X172.889 Y87.693 E11.67958
G1 X173.826 Y88.149 E11.73157
G1 X174.01 Y88.242 E11.74186
G1 X174.874 Y88.691 E11.79043
G1 X175.068 Y88.795 E11.80142
G1 X175.861 Y89.236 E11.84668
G1 X176.094 Y89.371 E11.86012
G1 X176.813 Y89.804 E11.90199
G1 X177.069 Y89.965 E11.91708
G1 X177.718 Y90.391 E11.95581
G1 X178.021 Y90.601 E11.9742
G1 X178.598 Y91.02 E12.00978
G1 X178.955 Y91.295 E12.03226
G1 X179.456 Y91.705 E12.06456
G1 X179.837 Y92.038 E12.0898
G1 X180.27 Y92.442 E12.11935
G1 X180.715 Y92.892 E12.15092
G1 X181.074 Y93.286 E12.17752
G1 X181.571 Y93.89 E12.21654
G1 X181.859 Y94.278 E12.24065
G1 X182.392 Y95.1 E12.28952
G1 X182.606 Y95.48 E12.31128
G1 X182.959 Y96.186 E12.35066
G1 X183.196 Y96.8 E12.3835
G1 X183.383 Y97.351 E12.41253
G1 X183.599 Y98.111 E12.45195
G1 X183.737 Y98.889 E12.49137
G1 X183.787 Y99.456 E12.51976
G1 X183.815 Y99.999 E12.54689
G1 X183.815 Y100.789 E12.5863
G1 X183.736 Y101.575 E12.62571
G1 X183.58 Y102.34 E12.66467
G1 X183.446 Y102.862 E12.69155
G1 X183.211 Y103.616 E12.73095
G1 X182.901 Y104.343 E12.77038
G1 X182.615 Y104.877 E12.80061
G1 X182.321 Y105.377 E12.82954
G1 X181.887 Y106.036 E12.86891
G1 X181.456 Y106.572 E12.90323
G1 X181.159 Y106.91 E12.92567
G1 X180.484 Y107.589 E12.97344
G1 X180.122 Y107.911 E12.99761
G1 X179.496 Y108.412 E13.03761
G1 X179.06 Y108.726 E13.06442
G1 X178.521 Y109.082 E13.09665
G1 X178.017 Y109.385 E13.12598
G1 X177.567 Y109.635 E13.15167
G1 X176.988 Y109.933 E13.18415
G1 X176.606 Y110.117 E13.20531
G1 X175.956 Y110.408 E13.24084
G1 X175.603 Y110.556 E13.25993
G1 X174.88 Y110.838 E13.29865
G1 X174.599 Y110.941 E13.31358
G1 X173.805 Y111.216 E13.3555
G1 X173.561 Y111.296 E13.36832
G1 X172.693 Y111.565 E13.41365
G1 X172.462 Y111.633 E13.42567
G1 X171.525 Y111.892 E13.47417
G1 X171.324 Y111.945 E13.48454
G1 X170.344 Y112.188 E13.53491
G1 X170.157 Y112.234 E13.54452
G1 X169.482 Y112.387 E13.57905
G1 X168.795 Y112.653 E13.6158
G1 X168.259 Y112.909 E13.64544
G1 X167.696 Y113.216 E13.67743
G1 X167.091 Y113.581 E13.71268
G1 X166.39 Y114.044 E13.75459
G1 X165.715 Y114.528 E13.79603
G1 X164.971 Y115.099 E13.84282
G1 X164.192 Y115.735 E13.89299
G1 X163.416 Y116.407 E13.94421
G1 X162.607 Y117.142 E13.99874
G1 X161.759 Y117.95 E14.05718
G1 X160.9 Y118.807 E14.11771
G1 X160.055 Y119.68 E14.17833
G1 X159.164 Y120.636 E14.24352
G1 X158.279 Y121.618 E14.30948
G1 X157.39 Y122.634 E14.37683
G1 X156.509 Y123.673 E14.44479
G1 X155.593 Y124.78 E14.51648
G1 X154.659 Y125.94 E14.59078
G1 X153.71 Y127.147 E14.66738
G1 X152.866 Y128.246 E14.73651
G1 X150.951 Y130.819 E14.89653
G1 X149.884 Y132.308 E14.98792
G1 X150.096 Y132.373 E14.99898
G1 X150.802 Y132.627 E15.03642
G1 X151.519 Y132.925 E15.07515
G1 X152.317 Y133.273 E15.11859
G1 X152.456 Y133.335 E15.12618
G1 X153.082 Y133.623 E15.16056
G1 X153.233 Y133.694 E15.16888
G1 X153.815 Y133.977 E15.20117
G1 X154 Y134.07 E15.2115
G1 X154.537 Y134.349 E15.24169
G1 X154.742 Y134.46 E15.25332
G1 X155.233 Y134.734 E15.28137
G1 X155.447 Y134.858 E15.29371
G1 X155.895 Y135.127 E15.31978
G1 X156.305 Y135.391 E15.34411
G1 X157.051 Y135.905 E15.38931
G1 X157.744 Y136.442 E15.43305
G1 X158.327 Y136.949 E15.47159
G1 X158.896 Y137.497 E15.51101
G1 X159.207 Y137.849 E15.53444
G1 X159.611 Y138.335 E15.56597
G1 X160.085 Y138.967 E15.60538
G1 X160.657 Y139.971 E15.66303
G1 X160.881 Y140.442 E15.68905
G1 X161.184 Y141.171 E15.72844
G1 X161.411 Y141.928 E15.76787
G1 X161.544 Y142.593 E15.8017
G1 X161.598 Y142.94 E15.81922
G1 X161.68 Y143.725 E15.8586
G1 X161.682 Y144.515 E15.89801
G1 X161.595 Y145.36 E15.94039
G1 X161.543 Y145.688 E15.95696
G1 X161.38 Y146.461 E15.99637
G1 X161.14 Y147.213 E16.03576
G1 X160.712 Y148.155 E16.08738
G1 X160.485 Y148.578 E16.11133
G1 X160.077 Y149.254 E16.15072
G1 X159.602 Y149.886 E16.19016
G1 X159.127 Y150.405 E16.22526
G1 X158.733 Y150.799 E16.25306
G1 X158.147 Y151.329 E16.29248
G1 X157.508 Y151.798 E16.33203
G1 X156.925 Y152.182 E16.36685
G1 X156.023 Y152.694 E16.4186
G1 X155.262 Y153.061 E16.46075
G1 X154.741 Y153.289 E16.48912
G1 X153.962 Y153.589 E16.53077
G1 X153.468 Y153.76 E16.55685
G1 X153.217 Y153.842 E16.57002
G1 X152.679 Y154.008 E16.59811
G1 X152.461 Y154.072 E16.60945
G1 X151.876 Y154.234 E16.63973
G1 X151.689 Y154.283 E16.64938
G1 X151.062 Y154.44 E16.68162
G1 X150.643 Y154.543 E16.70315
G1 X150.003 Y154.879 E16.73921
G1 X149.506 Y155.206 E16.76889
G1 X148.929 Y155.633 E16.80471
G1 X148.28 Y156.163 E16.84651
G1 X147.619 Y156.753 E16.89071
G1 X146.875 Y157.468 E16.94219
G1 X146.072 Y158.288 E16.99945
G1 X145.32 Y159.1 E17.05467
G1 X144.474 Y160.063 E17.11862
G1 X143.659 Y161.033 E17.18183
G1 X142.82 Y162.074 E17.24853
G1 X141.951 Y163.19 E17.3191
G1 X141.097 Y164.327 E17.39004
G1 X140.239 Y165.504 E17.46271
G1 X138.507 Y167.981 E17.6135
G1 X136.786 Y170.566 E17.76843
G1 X135.168 Y173.1 E17.91843
G1 X133.559 Y175.717 E18.07169
G1 X132.887 Y176.838 E18.1369
G1 X132.928 Y176.942 E18.14248
G1 X133.143 Y177.702 E18.18188
G1 X133.28 Y178.48 E18.22129
G1 X133.338 Y179.267 E18.26066
G1 X133.316 Y180.056 E18.30004
G1 X133.179 Y181.02 E18.34862
G1 X132.359 Y184.99 E18.55086
G1 X135.054 Y187.72 E18.74225
G1 X135.58 Y188.309 E18.78165
G1 X136.043 Y188.949 E18.82106
G1 X136.439 Y189.632 E18.86044
G1 X136.765 Y190.351 E18.89983
G1 X137.015 Y191.1 E18.93922
G1 X137.189 Y191.87 E18.97861
G1 X137.284 Y192.654 E19.01801
G1 X137.299 Y193.444 E19.05743
G1 X137.234 Y194.231 E19.09683
G1 X137.09 Y195.007 E19.1362
G1 X136.869 Y195.765 E19.17559
G1 X136.571 Y196.497 E19.21502
G1 X136.202 Y197.195 E19.25441
G1 X135.763 Y197.852 E19.29383
G1 X135.261 Y198.461 E19.33321
G1 X134.699 Y199.016 E19.37262
G1 X134.085 Y199.512 E19.41199
G1 X133.423 Y199.943 E19.4514
G1 X132.721 Y200.304 E19.49079
G1 X131.986 Y200.593 E19.53019
G1 X131.226 Y200.806 E19.56957
G1 X130.622 Y200.918 E19.60021
G1 X126.415 Y201.528 E19.8123
G1 X124.368 Y205.363 E20.02918
G1 X123.961 Y206.04 E20.06858
G1 X123.488 Y206.673 E20.10801
G1 X122.954 Y207.254 E20.14738
G1 X122.363 Y207.778 E20.18678
G1 X121.723 Y208.24 E20.22616
G1 X121.039 Y208.635 E20.26557
G1 X120.318 Y208.959 E20.30501
G1 X119.569 Y209.208 E20.34438
G1 X118.798 Y209.38 E20.38379
G1 X118.014 Y209.473 E20.42318
G1 X117.225 Y209.487 E20.46255
G1 X116.438 Y209.42 E20.50196
G1 X115.662 Y209.275 E20.54134
G1 X114.904 Y209.051 E20.58078
G1 X114.173 Y208.753 E20.62016
G1 X113.476 Y208.381 E20.65958
G1 X112.82 Y207.942 E20.69896
G1 X112.212 Y207.438 E20.73836
G1 X111.658 Y206.875 E20.77776
G1 X111.164 Y206.259 E20.81716
G1 X110.593 Y205.341 E20.87109
G1 X108.573 Y201.526 E21.08646
G1 X104.378 Y200.918 E21.29793
G1 X103.604 Y200.766 E21.33729
G1 X102.848 Y200.535 E21.37673
G1 X102.12 Y200.23 E21.4161
G1 X101.426 Y199.853 E21.45551
G1 X100.774 Y199.407 E21.49492
G1 X100.171 Y198.898 E21.53429
G1 X99.622 Y198.33 E21.5737
G1 X99.133 Y197.709 E21.61313
G1 X98.71 Y197.043 E21.65249
G1 X98.356 Y196.337 E21.6919
G1 X98.075 Y195.599 E21.73129
G1 X97.871 Y194.836 E21.7707
G1 X97.744 Y194.057 E21.81007
G1 X97.697 Y193.268 E21.84951
G1 X97.73 Y192.479 E21.88891
G1 X97.843 Y191.698 E21.92828
