;FLAVOR:Marlin
;TIME:4434
;Filament used: 3.15041m, 0m
;Layer height: 0.15
;MINX:74.702
;MINY:68.451
;MINZ:0.3
;MAXX:160.298
;MAXY:162.55
;MAXZ:3.9
;POSTPROCESSED
;Generated with Cura_SteamEngine 4.7.1
T0
M140 S60
M105
M190 S60
M104 S190
M105
M109 S190
M82 ;absolute extrusion mode
M201 X500.00 Y500.00 Z100.00 E5000.00 	;Setup machine max acceleration
M203 X500.00 Y500.00 Z10.00 E50.00 	;Setup machine max feedrate
M204 P500.00 R1000.00 T500.00 		;Setup Print/Retract/Travel acceleration
M205 X8.00 Y8.00 Z0.40 E5.00 		;Setup Jerk
M220 S100 				;Reset Feedrate
M221 S100 				;Reset Flowrate
G28				;Home the Machine
G29 				;Bed Level
G92 E0
M300 P150 S587
G92 E0
G1 F1500 E-6.5
;LAYER_COUNT:25
;LAYER:0
M107
G0 F3600 X86.777 Y81.452 Z0.3
;TYPE:SKIRT
G1 F1500 E0
G1 X86.971 Y81.254 E0.01383
G1 X87.834 Y80.401 E0.07437
G1 X88.025 Y80.218 E0.08756
G1 X88.916 Y79.395 E0.14808
G1 X89.122 Y79.211 E0.16186
G1 X90.043 Y78.419 E0.22246
G1 X90.245 Y78.252 E0.23554
G1 X91.19 Y77.493 E0.29601
G1 X91.409 Y77.322 E0.30987
G1 X92.382 Y76.596 E0.37043
G1 X92.604 Y76.437 E0.38406
G1 X93.601 Y75.746 E0.44458
G1 X93.816 Y75.602 E0.45749
G1 X94.836 Y74.944 E0.51805
G1 X95.078 Y74.794 E0.53225
G1 X96.121 Y74.174 E0.59278
G1 X96.341 Y74.048 E0.60543
G1 X97.404 Y73.462 E0.66599
G1 X97.651 Y73.332 E0.67992
G1 X98.735 Y72.784 E0.74052
G1 X98.978 Y72.666 E0.75399
G1 X100.078 Y72.157 E0.81446
G1 X100.331 Y72.046 E0.82825
G1 X101.449 Y71.576 E0.88875
G1 X101.692 Y71.478 E0.90182
G1 X102.827 Y71.045 E0.96243
G1 X103.083 Y70.953 E0.976
G1 X104.232 Y70.56 E1.03659
G1 X104.491 Y70.476 E1.05017
G1 X105.651 Y70.124 E1.11065
G1 X105.913 Y70.05 E1.12423
G1 X107.087 Y69.738 E1.18483
G1 X107.345 Y69.674 E1.1981
G1 X108.526 Y69.403 E1.25855
G1 X108.792 Y69.346 E1.27212
G1 X109.983 Y69.116 E1.33264
G1 X110.247 Y69.07 E1.34601
G1 X111.446 Y68.881 E1.40656
G1 X111.717 Y68.843 E1.42022
G1 X112.923 Y68.696 E1.48083
G1 X113.192 Y68.668 E1.49432
G1 X114.4 Y68.563 E1.55482
G1 X114.67 Y68.544 E1.56832
G1 X115.883 Y68.481 E1.62892
G1 X116.153 Y68.472 E1.6424
G1 X117.365 Y68.451 E1.70287
G1 X117.635 Y68.451 E1.71634
G1 X118.848 Y68.472 E1.77687
G1 X119.118 Y68.482 E1.79035
G1 X120.329 Y68.545 E1.85085
G1 X120.598 Y68.563 E1.8643
G1 X121.808 Y68.668 E1.92489
G1 X122.079 Y68.696 E1.93848
G1 X123.283 Y68.843 E1.999
G1 X123.553 Y68.881 E2.0126
G1 X124.752 Y69.07 E2.07316
G1 X125.007 Y69.115 E2.08608
G1 X126.2 Y69.344 E2.14668
G1 X126.481 Y69.403 E2.16101
G1 X127.662 Y69.675 E2.22147
G1 X127.918 Y69.739 E2.23463
G1 X129.09 Y70.051 E2.29514
G1 X129.344 Y70.123 E2.30831
G1 X130.506 Y70.475 E2.36889
G1 X130.773 Y70.561 E2.38288
G1 X131.92 Y70.954 E2.44337
G1 X132.167 Y71.043 E2.45647
G1 X133.302 Y71.475 E2.51706
G1 X133.556 Y71.577 E2.53071
G1 X134.676 Y72.049 E2.59135
G1 X134.923 Y72.158 E2.60482
G1 X136.023 Y72.667 E2.66529
G1 X136.266 Y72.785 E2.67877
G1 X137.348 Y73.332 E2.73925
G1 X137.587 Y73.458 E2.75273
G1 X138.651 Y74.043 E2.81331
G1 X138.888 Y74.179 E2.82694
G1 X139.931 Y74.801 E2.88753
G1 X140.155 Y74.94 E2.90068
G1 X141.175 Y75.596 E2.96119
G1 X141.407 Y75.75 E2.97508
G1 X142.403 Y76.442 E3.03558
G1 X142.617 Y76.596 E3.04874
G1 X143.59 Y77.322 E3.10931
G1 X143.802 Y77.487 E3.12271
G1 X144.748 Y78.245 E3.18319
G1 X144.964 Y78.424 E3.19718
G1 X145.884 Y79.217 E3.25778
G1 X146.077 Y79.389 E3.27068
G1 X146.969 Y80.211 E3.33119
G1 X147.173 Y80.406 E3.34527
G1 X148.035 Y81.26 E3.40581
G1 X148.216 Y81.445 E3.41872
G1 X149.049 Y82.327 E3.47925
G1 X149.239 Y82.536 E3.49334
G1 X150.04 Y83.448 E3.5539
G1 X150.214 Y83.654 E3.56735
G1 X150.982 Y84.592 E3.62783
G1 X151.143 Y84.795 E3.64076
G1 X151.881 Y85.76 E3.70137
G1 X152.049 Y85.988 E3.7155
G1 X152.75 Y86.977 E3.77598
G1 X152.897 Y87.192 E3.78897
G1 X153.566 Y88.206 E3.84958
G1 X153.716 Y88.442 E3.86353
G1 X154.348 Y89.479 E3.92411
G1 X154.48 Y89.704 E3.93713
G1 X155.076 Y90.76 E3.99762
G1 X155.206 Y91.001 E4.01129
G1 X155.765 Y92.078 E4.07182
G1 X155.887 Y92.322 E4.08543
G1 X156.408 Y93.418 E4.14598
G1 X156.52 Y93.665 E4.15951
G1 X157.002 Y94.777 E4.21997
G1 X157.103 Y95.021 E4.23315
G1 X157.548 Y96.151 E4.29374
G1 X157.644 Y96.41 E4.30752
G1 X158.048 Y97.553 E4.368
G1 X158.134 Y97.809 E4.38147
G1 X158.499 Y98.968 E4.4421
G1 X158.576 Y99.228 E4.45562
G1 X158.9 Y100.397 E4.51614
G1 X158.966 Y100.655 E4.52943
G1 X159.25 Y101.835 E4.58998
G1 X159.309 Y102.097 E4.60338
G1 X159.552 Y103.285 E4.66388
G1 X159.602 Y103.556 E4.67763
G1 X159.803 Y104.753 E4.73818
G1 X159.844 Y105.022 E4.75176
G1 X160.003 Y106.224 E4.81225
G1 X160.033 Y106.489 E4.82555
G1 X160.151 Y107.698 E4.88616
G1 X160.173 Y107.967 E4.89962
G1 X160.249 Y109.178 E4.96016
G1 X160.261 Y109.448 E4.97364
G1 X160.295 Y110.661 E5.03418
G1 X160.298 Y110.931 E5.04765
G1 X160.29 Y112.144 E5.10817
G1 X160.283 Y112.414 E5.12165
G1 X160.233 Y113.627 E5.18221
G1 X160.217 Y113.904 E5.19606
G1 X160.124 Y115.114 E5.2566
G1 X160.099 Y115.377 E5.26978
G1 X159.965 Y116.583 E5.33032
G1 X159.93 Y116.854 E5.34395
G1 X159.754 Y118.054 E5.40446
G1 X159.711 Y118.317 E5.41776
G1 X159.494 Y119.511 E5.4783
G1 X159.442 Y119.774 E5.49168
G1 X159.184 Y120.96 E5.55223
G1 X159.12 Y121.23 E5.56607
G1 X158.82 Y122.406 E5.62662
G1 X158.748 Y122.669 E5.64023
G1 X158.407 Y123.834 E5.70079
G1 X158.328 Y124.086 E5.71396
G1 X157.948 Y125.238 E5.77448
G1 X157.858 Y125.498 E5.78821
G1 X157.438 Y126.635 E5.84868
G1 X157.343 Y126.879 E5.86174
G1 X156.884 Y128.004 E5.92236
G1 X156.772 Y128.265 E5.93653
G1 X156.273 Y129.371 E5.99707
G1 X156.164 Y129.602 E6.00981
G1 X155.629 Y130.691 E6.07034
G1 X155.501 Y130.94 E6.08431
G1 X154.928 Y132.008 E6.14478
G1 X154.797 Y132.243 E6.1582
G1 X154.186 Y133.293 E6.21881
G1 X154.046 Y133.523 E6.23224
G1 X153.4 Y134.55 E6.29277
G1 X153.253 Y134.775 E6.30618
G1 X152.572 Y135.779 E6.36671
G1 X152.415 Y136.002 E6.38031
G1 X151.699 Y136.982 E6.44086
G1 X151.539 Y137.195 E6.45416
G1 X150.79 Y138.15 E6.51471
G1 X150.617 Y138.362 E6.52836
G1 X149.835 Y139.29 E6.5889
G1 X149.655 Y139.496 E6.60255
G1 X148.841 Y140.396 E6.66309
G1 X148.658 Y140.592 E6.67647
G1 X147.814 Y141.463 E6.73698
G1 X147.624 Y141.652 E6.75035
G1 X146.75 Y142.494 E6.8109
G1 X146.55 Y142.68 E6.82452
G1 X145.647 Y143.491 E6.88508
G1 X145.444 Y143.667 E6.89848
G1 X144.514 Y144.446 E6.959
G1 X144.304 Y144.616 E6.97248
G1 X143.347 Y145.363 E7.03305
G1 X143.131 Y145.526 E7.04655
G1 X142.149 Y146.239 E7.1071
G1 X141.925 Y146.395 E7.12071
G1 X140.919 Y147.073 E7.18124
G1 X140.693 Y147.22 E7.19469
G1 X139.664 Y147.863 E7.25523
G1 X139.43 Y148.004 E7.26885
G1 X138.38 Y148.61 E7.32934
G1 X138.148 Y148.738 E7.34256
G1 X137.076 Y149.309 E7.40315
G1 X136.835 Y149.432 E7.41665
G1 X135.745 Y149.965 E7.47719
G1 X135.501 Y150.08 E7.49064
G1 X134.393 Y150.575 E7.55119
G1 X134.143 Y150.681 E7.56474
G1 X133.019 Y151.137 E7.62525
G1 X132.761 Y151.236 E7.63904
G1 X131.621 Y151.652 E7.69958
G1 X131.367 Y151.74 E7.71299
G1 X130.212 Y152.117 E7.77361
G1 X129.615 Y152.294 E7.80467
G1 X129.482 Y153.028 E7.84189
G1 X129.288 Y153.716 E7.87755
G1 X129.015 Y154.536 E7.92067
G1 X128.728 Y155.272 E7.96008
G1 X128.412 Y155.897 E7.99502
G1 X127.99 Y156.647 E8.03796
G1 X127.568 Y157.315 E8.07738
G1 X127.14 Y157.868 E8.11226
G1 X126.581 Y158.527 E8.15538
G1 X126.041 Y159.102 E8.19473
G1 X125.496 Y159.58 E8.2309
G1 X124.82 Y160.119 E8.27403
G1 X124.178 Y160.579 E8.31343
G1 X123.571 Y160.932 E8.34846
G1 X122.802 Y161.334 E8.39176
G1 X122.084 Y161.664 E8.43118
G1 X121.404 Y161.901 E8.46711
G1 X120.577 Y162.146 E8.51014
G1 X119.809 Y162.331 E8.54955
G1 X119.109 Y162.431 E8.58483
G1 X118.248 Y162.514 E8.62798
G1 X117.46 Y162.55 E8.66734
G1 X116.752 Y162.514 E8.7027
G1 X115.891 Y162.431 E8.74586
G1 X115.109 Y162.316 E8.78529
G1 X114.423 Y162.146 E8.82055
G1 X113.596 Y161.901 E8.86358
G1 X112.852 Y161.638 E8.90295
G1 X112.198 Y161.334 E8.93893
G1 X111.429 Y160.932 E8.98223
G1 X110.749 Y160.532 E9.02159
G1 X110.18 Y160.119 E9.05666
G1 X109.504 Y159.58 E9.0998
G1 X108.913 Y159.057 E9.13917
G1 X108.419 Y158.527 E9.17532
G1 X107.86 Y157.868 E9.21843
G1 X107.38 Y157.24 E9.25786
G1 X107.01 Y156.647 E9.29273
G1 X106.588 Y155.897 E9.33567
G1 X106.236 Y155.19 E9.37507
G1 X105.985 Y154.536 E9.41002
G1 X105.712 Y153.716 E9.45314
G1 X105.501 Y152.955 E9.49254
G1 X105.385 Y152.294 E9.52602
G1 X104.783 Y152.116 E9.55734
G1 X103.63 Y151.739 E9.61786
G1 X103.38 Y151.652 E9.63106
G1 X102.24 Y151.236 E9.69161
G1 X101.986 Y151.139 E9.70517
G1 X100.86 Y150.683 E9.76578
G1 X100.604 Y150.574 E9.77966
G1 X99.497 Y150.079 E9.84016
G1 X99.255 Y149.965 E9.85351
G1 X98.165 Y149.432 E9.91404
G1 X97.926 Y149.311 E9.9274
G1 X96.855 Y148.741 E9.98793
G1 X96.617 Y148.608 E10.00153
G1 X95.565 Y148 E10.06215
G1 X95.336 Y147.863 E10.07547
G1 X94.308 Y147.221 E10.13593
G1 X94.081 Y147.073 E10.14945
G1 X93.075 Y146.395 E10.20998
G1 X92.851 Y146.239 E10.2236
G1 X91.869 Y145.526 E10.28414
G1 X91.653 Y145.363 E10.29764
G1 X90.696 Y144.616 E10.35821
G1 X90.486 Y144.446 E10.37169
G1 X89.556 Y143.667 E10.43221
G1 X89.353 Y143.491 E10.44562
G1 X88.45 Y142.68 E10.50617
G1 X88.25 Y142.494 E10.5198
G1 X87.376 Y141.652 E10.58034
G1 X87.186 Y141.463 E10.59371
G1 X86.342 Y140.592 E10.65422
G1 X86.159 Y140.396 E10.6676
G1 X85.345 Y139.496 E10.72814
G1 X85.165 Y139.29 E10.74179
G1 X84.383 Y138.362 E10.80233
G1 X84.21 Y138.15 E10.81599
G1 X83.461 Y137.195 E10.87654
G1 X83.301 Y136.982 E10.88983
G1 X82.585 Y136.002 E10.95038
G1 X82.428 Y135.779 E10.96399
G1 X81.747 Y134.775 E11.02451
G1 X81.6 Y134.55 E11.03792
G1 X80.954 Y133.523 E11.09845
G1 X80.813 Y133.291 E11.11199
G1 X80.203 Y132.242 E11.17253
G1 X80.074 Y132.011 E11.18573
G1 X79.5 Y130.942 E11.24627
G1 X79.374 Y130.696 E11.26006
G1 X78.838 Y129.607 E11.32061
G1 X78.721 Y129.36 E11.33425
G1 X78.224 Y128.254 E11.39474
G1 X78.12 Y128.011 E11.40793
G1 X77.66 Y126.887 E11.46852
G1 X77.563 Y126.637 E11.4819
G1 X77.142 Y125.498 E11.54248
G1 X77.049 Y125.234 E11.55645
G1 X76.67 Y124.083 E11.6169
G1 X76.593 Y123.834 E11.62991
G1 X76.252 Y122.669 E11.69047
G1 X76.179 Y122.4 E11.70437
G1 X75.88 Y121.224 E11.76491
G1 X75.819 Y120.966 E11.77814
G1 X75.56 Y119.78 E11.8387
G1 X75.506 Y119.512 E11.85234
G1 X75.289 Y118.319 E11.91284
G1 X75.245 Y118.053 E11.92629
G1 X75.069 Y116.851 E11.98689
G1 X75.035 Y116.583 E12.00037
G1 X74.901 Y115.378 E12.06086
G1 X74.876 Y115.114 E12.07409
G1 X74.783 Y113.904 E12.13464
G1 X74.767 Y113.628 E12.14843
G1 X74.717 Y112.416 E12.20895
G1 X74.71 Y112.145 E12.22247
G1 X74.702 Y110.932 E12.28299
G1 X74.705 Y110.663 E12.29641
G1 X74.739 Y109.449 E12.357
G1 X74.751 Y109.178 E12.37053
G1 X74.827 Y107.968 E12.43102
G1 X74.849 Y107.699 E12.44449
G1 X74.967 Y106.49 E12.50509
G1 X74.997 Y106.226 E12.51835
G1 X75.156 Y105.023 E12.57889
G1 X75.197 Y104.752 E12.59256
G1 X75.398 Y103.556 E12.65306
G1 X75.448 Y103.288 E12.66667
G1 X75.691 Y102.098 E12.72726
G1 X75.75 Y101.832 E12.74085
G1 X76.034 Y100.653 E12.80136
G1 X76.101 Y100.395 E12.81466
G1 X76.425 Y99.227 E12.87513
G1 X76.501 Y98.969 E12.88855
G1 X76.866 Y97.81 E12.94917
G1 X76.951 Y97.556 E12.96253
G1 X77.355 Y96.412 E13.02306
G1 X77.451 Y96.154 E13.03679
G1 X77.895 Y95.025 E13.09732
G1 X78 Y94.772 E13.11099
G1 X78.484 Y93.658 E13.17158
G1 X78.592 Y93.42 E13.18462
G1 X79.112 Y92.325 E13.2451
G1 X79.234 Y92.08 E13.25875
G1 X79.792 Y91.004 E13.31922
G1 X79.923 Y90.762 E13.33295
G1 X80.52 Y89.704 E13.39356
G1 X80.656 Y89.472 E13.40698
G1 X81.288 Y88.437 E13.46748
G1 X81.431 Y88.211 E13.48082
G1 X82.099 Y87.197 E13.5414
G1 X82.25 Y86.976 E13.55475
G1 X82.952 Y85.986 E13.6153
G1 X83.118 Y85.761 E13.62925
G1 X83.855 Y84.797 E13.68979
G1 X84.017 Y84.592 E13.70283
G1 X84.786 Y83.653 E13.76338
G1 X84.963 Y83.445 E13.77701
G1 X85.764 Y82.534 E13.83753
G1 X85.945 Y82.335 E13.85095
G1 X86.777 Y81.452 E13.91147
G0 F3600 X87.068 Y81.726
G1 F1500 X87.252 Y81.538 E13.9246
G1 X88.115 Y80.685 E13.98514
G1 X88.296 Y80.512 E13.99763
G1 X89.187 Y79.689 E14.05814
G1 X89.383 Y79.514 E14.07125
G1 X90.304 Y78.722 E14.13185
G1 X90.495 Y78.564 E14.14422
G1 X91.44 Y77.805 E14.20469
G1 X91.649 Y77.643 E14.21788
G1 X92.622 Y76.917 E14.27845
G1 X92.832 Y76.766 E14.29135
G1 X93.829 Y76.075 E14.35187
G1 X94.033 Y75.939 E14.3641
G1 X95.053 Y75.281 E14.42466
G1 X95.283 Y75.138 E14.43817
G1 X96.326 Y74.518 E14.49871
G1 X96.534 Y74.398 E14.51069
G1 X97.597 Y73.812 E14.57125
G1 X97.831 Y73.689 E14.58443
G1 X98.915 Y73.141 E14.64503
G1 X99.146 Y73.029 E14.65784
G1 X100.246 Y72.52 E14.71831
G1 X100.486 Y72.414 E14.7314
G1 X101.604 Y71.944 E14.79191
G1 X101.834 Y71.852 E14.80427
G1 X102.969 Y71.419 E14.86487
G1 X103.212 Y71.331 E14.87776
G1 X104.361 Y70.938 E14.93835
G1 X104.607 Y70.859 E14.95124
G1 X105.767 Y70.507 E15.01172
G1 X106.015 Y70.436 E15.02459
G1 X107.189 Y70.124 E15.08519
G1 X107.435 Y70.063 E15.09784
G1 X108.616 Y69.792 E15.15829
G1 X108.868 Y69.739 E15.17114
G1 X110.059 Y69.509 E15.23165
G1 X110.31 Y69.465 E15.24437
G1 X111.509 Y69.276 E15.30492
G1 X111.766 Y69.24 E15.31787
G1 X112.972 Y69.093 E15.37848
G1 X113.226 Y69.067 E15.39122
G1 X114.434 Y68.962 E15.45172
G1 X114.691 Y68.944 E15.46457
G1 X115.904 Y68.881 E15.52517
G1 X116.16 Y68.872 E15.53795
G1 X117.372 Y68.851 E15.59842
G1 X117.628 Y68.851 E15.6112
G1 X118.841 Y68.872 E15.67172
G1 X119.097 Y68.881 E15.6845
G1 X120.308 Y68.944 E15.745
G1 X120.564 Y68.962 E15.7578
G1 X121.774 Y69.067 E15.8184
G1 X122.031 Y69.094 E15.83129
G1 X123.235 Y69.241 E15.8918
G1 X123.49 Y69.276 E15.90464
G1 X124.689 Y69.465 E15.9652
G1 X124.932 Y69.508 E15.97751
G1 X126.125 Y69.737 E16.03812
G1 X126.391 Y69.793 E16.05168
G1 X127.572 Y70.065 E16.11214
G1 X127.815 Y70.125 E16.12463
G1 X128.987 Y70.437 E16.18514
G1 X129.228 Y70.506 E16.19765
G1 X130.39 Y70.858 E16.25822
G1 X130.644 Y70.94 E16.27154
G1 X131.791 Y71.333 E16.33202
G1 X132.024 Y71.417 E16.34438
G1 X133.159 Y71.849 E16.40497
G1 X133.401 Y71.946 E16.41798
G1 X134.521 Y72.418 E16.47861
G1 X134.755 Y72.521 E16.49137
G1 X135.855 Y73.03 E16.55184
G1 X136.086 Y73.142 E16.56465
G1 X137.168 Y73.689 E16.62513
G1 X137.394 Y73.808 E16.63788
G1 X138.458 Y74.393 E16.69845
G1 X138.683 Y74.522 E16.71139
G1 X139.726 Y75.144 E16.77198
G1 X139.939 Y75.276 E16.78448
G1 X140.959 Y75.932 E16.84498
G1 X141.178 Y76.079 E16.85814
G1 X142.174 Y76.771 E16.91865
G1 X142.377 Y76.917 E16.93113
G1 X143.35 Y77.643 E16.99169
G1 X143.552 Y77.799 E17.00443
G1 X144.498 Y78.557 E17.0649
G1 X144.702 Y78.727 E17.07815
G1 X145.622 Y79.52 E17.13875
G1 X145.806 Y79.683 E17.15101
G1 X146.698 Y80.505 E17.21153
G1 X146.891 Y80.69 E17.22487
G1 X147.753 Y81.544 E17.2854
G1 X147.925 Y81.72 E17.29768
G1 X148.758 Y82.602 E17.35821
G1 X148.938 Y82.8 E17.37156
G1 X149.739 Y83.712 E17.43211
G1 X149.905 Y83.907 E17.44489
G1 X150.673 Y84.845 E17.50537
G1 X150.825 Y85.038 E17.51763
G1 X151.563 Y86.003 E17.57824
G1 X151.722 Y86.219 E17.59162
G1 X152.423 Y87.208 E17.6521
G1 X152.563 Y87.412 E17.66444
G1 X153.232 Y88.426 E17.72505
G1 X153.374 Y88.65 E17.73828
G1 X154.006 Y89.687 E17.79887
G1 X154.131 Y89.901 E17.81123
G1 X154.727 Y90.957 E17.87173
G1 X154.851 Y91.185 E17.88468
G1 X155.41 Y92.262 E17.94522
G1 X155.525 Y92.494 E17.95813
G1 X156.046 Y93.59 E18.01868
G1 X156.153 Y93.824 E18.03151
G1 X156.635 Y94.936 E18.09198
G1 X156.73 Y95.168 E18.10449
G1 X157.175 Y96.298 E18.16508
G1 X157.267 Y96.543 E18.17813
G1 X157.671 Y97.686 E18.23861
G1 X157.752 Y97.929 E18.25139
G1 X158.117 Y99.088 E18.31202
G1 X158.19 Y99.335 E18.32487
G1 X158.514 Y100.504 E18.38539
G1 X158.578 Y100.748 E18.39797
G1 X158.862 Y101.928 E18.45852
G1 X158.917 Y102.177 E18.47124
G1 X159.16 Y103.365 E18.53174
G1 X159.208 Y103.623 E18.54483
