;FLAVOR:Marlin
;TIME:7557
;Filament used: 7.61134m, 0m
;Layer height: 0.2
;MINX:37.502
;MINY:48.251
;MINZ:0.3
;MAXX:197.498
;MAXY:194.525
;MAXZ:2.3
;POSTPROCESSED
;Generated with Cura_SteamEngine 4.7.1
T0
M140 S60
M105
M190 S60
M104 S190
M105
M109 S190
M82 ;absolute extrusion mode
M201 X500.00 Y500.00 Z100.00 E5000.00 	;Setup machine max acceleration
M203 X500.00 Y500.00 Z10.00 E50.00 	;Setup machine max feedrate
M204 P500.00 R1000.00 T500.00 		;Setup Print/Retract/Travel acceleration
M205 X8.00 Y8.00 Z0.40 E5.00 		;Setup Jerk
M220 S100 				;Reset Feedrate
M221 S100 				;Reset Flowrate
G28				;Home the Machine
G29 				;Bed Level
G92 E0
M300 P150 S587
G92 E0
G1 F1500 E-6.5
;LAYER_COUNT:11
;LAYER:0
M107
G0 F3600 X50.951 Y58.333 Z0.3
;TYPE:SKIRT
G1 F1500 E0
G1 X51.865 Y57.546 E0.06017
G1 X51.998 Y57.435 E0.06882
G1 X52.945 Y56.675 E0.1294
G1 X53.085 Y56.567 E0.13822
G1 X54.064 Y55.837 E0.19914
G1 X54.201 Y55.736 E0.20764
G1 X55.191 Y55.049 E0.26775
G1 X55.333 Y54.955 E0.27625
G1 X56.352 Y54.298 E0.33674
G1 X56.507 Y54.202 E0.34584
G1 X57.557 Y53.578 E0.40677
G1 X57.698 Y53.497 E0.41488
G1 X58.754 Y52.915 E0.47504
G1 X58.911 Y52.832 E0.4839
G1 X60.001 Y52.281 E0.54483
G1 X60.159 Y52.204 E0.5536
G1 X61.256 Y51.697 E0.61389
G1 X61.415 Y51.627 E0.62256
G1 X62.532 Y51.157 E0.68302
G1 X62.688 Y51.095 E0.6914
G1 X63.828 Y50.66 E0.75227
G1 X63.993 Y50.6 E0.76103
G1 X65.142 Y50.207 E0.82161
G1 X65.309 Y50.153 E0.83037
G1 X66.463 Y49.803 E0.89053
G1 X66.63 Y49.756 E0.89919
G1 X67.804 Y49.444 E0.95979
G1 X67.972 Y49.402 E0.96843
G1 X69.16 Y49.13 E1.02924
G1 X69.331 Y49.094 E1.03795
G1 X70.516 Y48.866 E1.09816
G1 X70.684 Y48.837 E1.10666
G1 X71.886 Y48.648 E1.16737
G1 X72.051 Y48.625 E1.17568
G1 X73.259 Y48.476 E1.2364
G1 X73.44 Y48.457 E1.24548
G1 X74.642 Y48.353 E1.30568
G1 X74.815 Y48.341 E1.31433
G1 X76.034 Y48.278 E1.37523
G1 X76.205 Y48.272 E1.38376
G1 X77.415 Y48.251 E1.44414
G1 X77.589 Y48.251 E1.45282
G1 X78.799 Y48.272 E1.5132
G1 X78.974 Y48.278 E1.52193
G1 X80.192 Y48.342 E1.58278
G1 X80.361 Y48.354 E1.59123
G1 X81.564 Y48.458 E1.65148
G1 X81.742 Y48.476 E1.6604
G1 X82.948 Y48.624 E1.72102
G1 X83.111 Y48.647 E1.72923
G1 X84.314 Y48.835 E1.78998
G1 X84.49 Y48.866 E1.7989
G1 X85.676 Y49.095 E1.85916
G1 X85.848 Y49.131 E1.86793
G1 X87.036 Y49.404 E1.92874
G1 X87.202 Y49.445 E1.93727
G1 X88.374 Y49.757 E1.99778
G1 X88.538 Y49.804 E2.00629
G1 X89.693 Y50.154 E2.0665
G1 X89.862 Y50.209 E2.07537
G1 X91.01 Y50.602 E2.1359
G1 X91.172 Y50.66 E2.14449
G1 X92.313 Y51.095 E2.20541
G1 X92.474 Y51.159 E2.21405
G1 X93.594 Y51.631 E2.27469
G1 X93.754 Y51.702 E2.28342
G1 X94.848 Y52.209 E2.34358
G1 X94.998 Y52.282 E2.3519
G1 X96.086 Y52.831 E2.4127
G1 X96.244 Y52.914 E2.42161
G1 X97.302 Y53.496 E2.48185
G1 X97.454 Y53.583 E2.49059
G1 X98.503 Y54.209 E2.55153
G1 X98.645 Y54.297 E2.55987
G1 X99.659 Y54.949 E2.62001
G1 X99.81 Y55.05 E2.62907
G1 X100.805 Y55.742 E2.68954
G1 X100.938 Y55.838 E2.69772
G1 X101.912 Y56.564 E2.75833
G1 X102.05 Y56.671 E2.76704
G1 X102.996 Y57.429 E2.82752
G1 X103.136 Y57.545 E2.83659
G1 X104.055 Y58.338 E2.89715
G1 X104.177 Y58.447 E2.90531
G1 X105.069 Y59.269 E2.96583
G1 X105.198 Y59.392 E2.97472
G1 X106.065 Y60.25 E3.03557
G1 X106.184 Y60.371 E3.04404
G1 X107.013 Y61.249 E3.10429
G1 X107.134 Y61.382 E3.11326
G1 X107.935 Y62.294 E3.17381
G1 X108.047 Y62.427 E3.18249
G1 X108.819 Y63.37 E3.24329
G1 X108.922 Y63.5 E3.25156
G1 X109.656 Y64.46 E3.31185
G1 X109.762 Y64.604 E3.32077
G1 X110.463 Y65.592 E3.38121
G1 X110.559 Y65.731 E3.38964
G1 X111.228 Y66.745 E3.45025
G1 X111.325 Y66.899 E3.45933
G1 X111.96 Y67.942 E3.52025
G1 X112.043 Y68.083 E3.52841
G1 X112.636 Y69.133 E3.58857
G1 X112.72 Y69.289 E3.59741
G1 X113.279 Y70.366 E3.65795
G1 X113.356 Y70.52 E3.66654
G1 X113.881 Y71.623 E3.72748
G1 X113.954 Y71.783 E3.73626
G1 X114.433 Y72.888 E3.79634
G1 X114.499 Y73.05 E3.80507
G1 X114.943 Y74.181 E3.86569
G1 X115.003 Y74.34 E3.87417
G1 X115.407 Y75.482 E3.9346
G1 X115.462 Y75.648 E3.94333
G1 X115.827 Y76.807 E4.00395
G1 X115.876 Y76.973 E4.01258
G1 X116.202 Y78.149 E4.07347
G1 X116.245 Y78.312 E4.08188
G1 X116.528 Y79.485 E4.14208
G1 X116.566 Y79.656 E4.15082
G1 X116.809 Y80.844 E4.21132
G1 X116.841 Y81.018 E4.22014
G1 X117.042 Y82.215 E4.2807
G1 X117.068 Y82.387 E4.28937
G1 X117.227 Y83.589 E4.34987
G1 X117.247 Y83.764 E4.35865
G1 X117.364 Y84.974 E4.4193
G1 X117.377 Y85.138 E4.42751
G1 X117.454 Y86.349 E4.48805
G1 X117.462 Y86.526 E4.49689
G1 X117.496 Y87.739 E4.55743
G1 X117.498 Y87.912 E4.56606
G1 X117.49 Y89.125 E4.62658
G1 X117.486 Y89.297 E4.63516
G1 X117.436 Y90.517 E4.69608
G1 X117.425 Y90.698 E4.70513
G1 X117.332 Y91.9 E4.76527
G1 X117.316 Y92.066 E4.77359
G1 X117.182 Y93.272 E4.83413
G1 X117.16 Y93.446 E4.84288
G1 X116.984 Y94.646 E4.90339
G1 X116.957 Y94.813 E4.91183
G1 X116.739 Y96.014 E4.97273
G1 X116.704 Y96.185 E4.98143
G1 X116.447 Y97.365 E5.04169
G1 X116.407 Y97.538 E5.05054
G1 X116.107 Y98.713 E5.11105
G1 X116.061 Y98.881 E5.11974
G1 X115.72 Y100.046 E5.1803
G1 X115.67 Y100.206 E5.18866
G1 X115.29 Y101.359 E5.24923
G1 X115.232 Y101.524 E5.25795
G1 X114.813 Y102.66 E5.31836
G1 X114.751 Y102.821 E5.32697
G1 X114.289 Y103.952 E5.38792
G1 X114.219 Y104.115 E5.39677
G1 X113.723 Y105.216 E5.45701
G1 X113.651 Y105.368 E5.46541
G1 X113.116 Y106.456 E5.52589
G1 X113.035 Y106.614 E5.53475
G1 X112.619 Y107.389 E5.57863
G1 X112.746 Y107.314 E5.58599
G1 X113.487 Y106.928 E5.62768
G1 X113.96 Y106.712 E5.65362
G1 X114.401 Y106.559 E5.67691
G1 X115.234 Y106.313 E5.72024
G1 X115.85 Y106.172 E5.75177
G1 X116.171 Y106.131 E5.76791
G1 X117.012 Y106.05 E5.81006
G1 X117.988 Y106.05 E5.85876
G1 X118.829 Y106.131 E5.90091
G1 X119.453 Y106.231 E5.93244
G1 X119.766 Y106.313 E5.94858
G1 X120.599 Y106.559 E5.99191
G1 X121.513 Y106.928 E6.04109
G1 X122.254 Y107.314 E6.08277
G1 X122.383 Y107.39 E6.09024
G1 X121.967 Y106.617 E6.13404
G1 X121.884 Y106.457 E6.14303
G1 X121.348 Y105.369 E6.20354
G1 X121.271 Y105.206 E6.21253
G1 X120.777 Y104.105 E6.27274
G1 X120.711 Y103.952 E6.28105
G1 X120.249 Y102.823 E6.34191
G1 X120.184 Y102.655 E6.3509
G1 X119.765 Y101.516 E6.41145
G1 X119.709 Y101.355 E6.41995
G1 X119.329 Y100.202 E6.48052
G1 X119.28 Y100.043 E6.48882
G1 X118.939 Y98.879 E6.54933
G1 X118.89 Y98.702 E6.55849
G1 X118.592 Y97.527 E6.61897
G1 X118.554 Y97.366 E6.62722
G1 X118.296 Y96.186 E6.68748
G1 X118.262 Y96.016 E6.69613
G1 X118.043 Y94.816 E6.75699
G1 X118.015 Y94.643 E6.76573
G1 X117.839 Y93.442 E6.82629
G1 X117.817 Y93.269 E6.83499
G1 X117.683 Y92.062 E6.89558
G1 X117.667 Y91.892 E6.9041
G1 X117.575 Y90.69 E6.96424
G1 X117.564 Y90.513 E6.97309
G1 X117.514 Y89.295 E7.03391
G1 X117.51 Y89.123 E7.04249
G1 X117.502 Y87.915 E7.10276
G1 X117.504 Y87.742 E7.11139
G1 X117.538 Y86.529 E7.17193
G1 X117.546 Y86.354 E7.18067
G1 X117.623 Y85.136 E7.24156
G1 X117.636 Y84.97 E7.24987
G1 X117.752 Y83.77 E7.31001
G1 X117.772 Y83.596 E7.31875
G1 X117.931 Y82.392 E7.37934
G1 X117.958 Y82.214 E7.38832
G1 X118.16 Y81.019 E7.44879
G1 X118.191 Y80.853 E7.45721
G1 X118.435 Y79.656 E7.51816
G1 X118.473 Y79.484 E7.52695
G1 X118.756 Y78.309 E7.58724
G1 X118.799 Y78.142 E7.59585
G1 X119.123 Y76.975 E7.65627
G1 X119.173 Y76.809 E7.66492
G1 X119.538 Y75.652 E7.72545
G1 X119.589 Y75.498 E7.73354
G1 X119.994 Y74.346 E7.79446
G1 X120.059 Y74.171 E7.80378
G1 X120.501 Y73.049 E7.86394
G1 X120.568 Y72.888 E7.87264
G1 X121.052 Y71.775 E7.93319
G1 X121.12 Y71.624 E7.94145
G1 X121.641 Y70.527 E8.00204
G1 X121.72 Y70.369 E8.01086
G1 X122.282 Y69.286 E8.07173
G1 X122.364 Y69.135 E8.0803
G1 X122.956 Y68.084 E8.14048
G1 X123.044 Y67.934 E8.14916
G1 X123.676 Y66.898 E8.2097
G1 X123.77 Y66.749 E8.21849
G1 X124.437 Y65.738 E8.27892
G1 X124.532 Y65.6 E8.28728
G1 X125.235 Y64.608 E8.34794
G1 X125.343 Y64.461 E8.35704
G1 X126.079 Y63.499 E8.41747
G1 X126.182 Y63.368 E8.42578
G1 X126.957 Y62.422 E8.48679
G1 X127.07 Y62.29 E8.49546
G1 X127.87 Y61.38 E8.55591
G1 X127.988 Y61.25 E8.56467
G1 X128.817 Y60.371 E8.62495
G1 X128.939 Y60.246 E8.63366
G1 X129.801 Y59.394 E8.69413
G1 X129.925 Y59.276 E8.70267
G1 X130.822 Y58.448 E8.76357
G1 X130.951 Y58.333 E8.7722
G1 X131.865 Y57.546 E8.83237
G1 X131.998 Y57.435 E8.84101
G1 X132.945 Y56.675 E8.90159
G1 X133.085 Y56.567 E8.91041
G1 X134.064 Y55.837 E8.97134
G1 X134.201 Y55.736 E8.97983
G1 X135.191 Y55.049 E9.03995
G1 X135.333 Y54.955 E9.04845
G1 X136.352 Y54.298 E9.10893
G1 X136.507 Y54.202 E9.11803
G1 X137.557 Y53.578 E9.17897
G1 X137.698 Y53.497 E9.18708
G1 X138.754 Y52.915 E9.24724
G1 X138.911 Y52.832 E9.2561
G1 X140.001 Y52.281 E9.31703
G1 X140.159 Y52.204 E9.3258
G1 X141.256 Y51.697 E9.38609
G1 X141.415 Y51.627 E9.39476
G1 X142.532 Y51.157 E9.45522
G1 X142.688 Y51.095 E9.46359
G1 X143.828 Y50.66 E9.52447
G1 X143.993 Y50.6 E9.53323
G1 X145.142 Y50.207 E9.59381
G1 X145.309 Y50.153 E9.60257
G1 X146.463 Y49.803 E9.66273
G1 X146.63 Y49.756 E9.67139
G1 X147.804 Y49.444 E9.73199
G1 X147.972 Y49.402 E9.74063
G1 X149.16 Y49.13 E9.80143
G1 X149.331 Y49.094 E9.81015
G1 X150.516 Y48.866 E9.87035
G1 X150.684 Y48.837 E9.87886
G1 X151.886 Y48.648 E9.93957
G1 X152.051 Y48.625 E9.94788
G1 X153.259 Y48.476 E10.0086
G1 X153.44 Y48.457 E10.01768
G1 X154.642 Y48.353 E10.07787
G1 X154.815 Y48.341 E10.08652
G1 X156.034 Y48.278 E10.14742
G1 X156.205 Y48.272 E10.15596
G1 X157.415 Y48.251 E10.21633
G1 X157.589 Y48.251 E10.22502
G1 X158.799 Y48.272 E10.28539
G1 X158.974 Y48.278 E10.29413
G1 X160.192 Y48.342 E10.35498
G1 X160.361 Y48.354 E10.36343
G1 X161.564 Y48.458 E10.42367
G1 X161.742 Y48.476 E10.4326
G1 X162.949 Y48.624 E10.49327
G1 X163.113 Y48.647 E10.50153
G1 X164.315 Y48.835 E10.56223
G1 X164.49 Y48.866 E10.57109
G1 X165.676 Y49.095 E10.63135
G1 X165.848 Y49.131 E10.64012
G1 X167.036 Y49.404 E10.70094
G1 X167.202 Y49.445 E10.70947
G1 X168.374 Y49.757 E10.76997
G1 X168.538 Y49.804 E10.77849
G1 X169.693 Y50.154 E10.8387
G1 X169.862 Y50.209 E10.84756
G1 X171.01 Y50.602 E10.9081
G1 X171.172 Y50.66 E10.91668
G1 X172.313 Y51.095 E10.97761
G1 X172.474 Y51.159 E10.98625
G1 X173.594 Y51.631 E11.04689
G1 X173.754 Y51.702 E11.05562
G1 X174.848 Y52.209 E11.11578
G1 X174.998 Y52.282 E11.1241
G1 X176.086 Y52.831 E11.1849
G1 X176.244 Y52.914 E11.1938
G1 X177.302 Y53.496 E11.25404
G1 X177.454 Y53.583 E11.26278
G1 X178.503 Y54.209 E11.32373
G1 X178.645 Y54.297 E11.33206
G1 X179.659 Y54.949 E11.39221
G1 X179.81 Y55.05 E11.40127
G1 X180.805 Y55.742 E11.46174
G1 X180.938 Y55.838 E11.46992
G1 X181.912 Y56.564 E11.53053
G1 X182.05 Y56.671 E11.53924
G1 X182.996 Y57.429 E11.59972
G1 X183.136 Y57.545 E11.60879
G1 X184.055 Y58.338 E11.66935
G1 X184.177 Y58.447 E11.67751
G1 X185.069 Y59.269 E11.73802
G1 X185.198 Y59.392 E11.74692
G1 X186.065 Y60.25 E11.80777
G1 X186.184 Y60.371 E11.81624
G1 X187.013 Y61.249 E11.87648
G1 X187.134 Y61.382 E11.88545
G1 X187.935 Y62.294 E11.94601
G1 X188.047 Y62.427 E11.95468
G1 X188.819 Y63.37 E12.01549
G1 X188.922 Y63.5 E12.02376
G1 X189.656 Y64.46 E12.08405
G1 X189.762 Y64.604 E12.09297
G1 X190.463 Y65.592 E12.15341
G1 X190.559 Y65.731 E12.16184
G1 X191.228 Y66.745 E12.22244
G1 X191.325 Y66.899 E12.23152
G1 X191.96 Y67.942 E12.29244
G1 X192.043 Y68.083 E12.30061
G1 X192.636 Y69.133 E12.36077
G1 X192.72 Y69.289 E12.36961
G1 X193.279 Y70.366 E12.43015
G1 X193.356 Y70.52 E12.43874
G1 X193.881 Y71.623 E12.49968
G1 X193.954 Y71.783 E12.50846
G1 X194.433 Y72.888 E12.56854
G1 X194.499 Y73.05 E12.57727
G1 X194.943 Y74.181 E12.63789
G1 X195.003 Y74.34 E12.64636
G1 X195.407 Y75.482 E12.7068
G1 X195.462 Y75.648 E12.71552
G1 X195.827 Y76.807 E12.77615
G1 X195.876 Y76.973 E12.78478
G1 X196.202 Y78.149 E12.84566
G1 X196.245 Y78.312 E12.85407
G1 X196.528 Y79.485 E12.91428
G1 X196.566 Y79.656 E12.92301
G1 X196.809 Y80.844 E12.98351
G1 X196.841 Y81.018 E12.99234
G1 X197.042 Y82.215 E13.05289
G1 X197.068 Y82.387 E13.06157
G1 X197.227 Y83.589 E13.12206
G1 X197.247 Y83.764 E13.13085
G1 X197.364 Y84.974 E13.1915
G1 X197.377 Y85.138 E13.19971
G1 X197.454 Y86.349 E13.26024
G1 X197.462 Y86.526 E13.26908
G1 X197.496 Y87.739 E13.32962
G1 X197.498 Y87.912 E13.33826
G1 X197.49 Y89.125 E13.39877
G1 X197.486 Y89.297 E13.40736
G1 X197.436 Y90.517 E13.46827
G1 X197.425 Y90.698 E13.47732
G1 X197.332 Y91.9 E13.53747
G1 X197.316 Y92.066 E13.54579
G1 X197.182 Y93.272 E13.60633
G1 X197.16 Y93.446 E13.61508
G1 X196.984 Y94.646 E13.67559
G1 X196.957 Y94.813 E13.68403
G1 X196.739 Y96.014 E13.74492
G1 X196.704 Y96.185 E13.75363
G1 X196.447 Y97.365 E13.81388
G1 X196.407 Y97.538 E13.82274
G1 X196.107 Y98.713 E13.88324
G1 X196.061 Y98.881 E13.89193
G1 X195.72 Y100.046 E13.95249
G1 X195.67 Y100.206 E13.96086
G1 X195.29 Y101.359 E14.02142
G1 X195.232 Y101.524 E14.03015
G1 X194.813 Y102.66 E14.09056
G1 X194.751 Y102.821 E14.09916
G1 X194.289 Y103.952 E14.16011
G1 X194.219 Y104.115 E14.16897
G1 X193.723 Y105.216 E14.22921
G1 X193.651 Y105.368 E14.2376
G1 X193.116 Y106.456 E14.29809
G1 X193.035 Y106.614 E14.30695
G1 X192.462 Y107.682 E14.36742
G1 X192.378 Y107.831 E14.37595
G1 X191.764 Y108.887 E14.43689
G1 X191.672 Y109.04 E14.4458
G1 X191.028 Y110.062 E14.50606
G1 X190.937 Y110.202 E14.51439
G1 X190.253 Y111.211 E14.57521
G1 X190.152 Y111.354 E14.58394
G1 X189.44 Y112.329 E14.64418
G1 X189.336 Y112.466 E14.65276
G1 X188.587 Y113.421 E14.71331
G1 X188.477 Y113.556 E14.722
G1 X187.691 Y114.489 E14.78286
G1 X187.574 Y114.623 E14.79174
G1 X186.764 Y115.518 E14.85196
G1 X186.648 Y115.642 E14.86043
G1 X185.804 Y116.513 E14.92094
G1 X185.682 Y116.635 E14.92955
G1 X184.808 Y117.477 E14.99009
G1 X184.679 Y117.597 E14.99888
G1 X183.838 Y118.352 E15.05527
G1 X183.704 Y118.474 E15.06431
G1 X182.712 Y119.303 E15.12881
G1 X182.583 Y119.407 E15.13707
G1 X181.626 Y120.154 E15.19764
G1 X181.487 Y120.259 E15.20633
G1 X180.505 Y120.972 E15.26688
G1 X180.361 Y121.072 E15.27562
G1 X179.355 Y121.75 E15.33615
G1 X179.21 Y121.844 E15.34477
G1 X178.176 Y122.49 E15.4056
G1 X178.028 Y122.58 E15.41424
G1 X176.984 Y123.183 E15.47439
G1 X176.832 Y123.267 E15.48305
G1 X175.759 Y123.838 E15.54369
G1 X175.606 Y123.916 E15.55226
G1 X174.516 Y124.449 E15.61279
G1 X174.364 Y124.52 E15.62116
G1 X173.25 Y125.019 E15.68206
G1 X173.08 Y125.091 E15.69127
G1 X171.962 Y125.543 E15.75144
G1 X171.805 Y125.604 E15.75984
G1 X170.659 Y126.023 E15.82071
G1 X170.493 Y126.08 E15.82947
G1 X169.344 Y126.455 E15.88977
G1 X169.183 Y126.505 E15.89818
G1 X168.019 Y126.842 E15.95864
G1 X167.843 Y126.889 E15.96773
G1 X166.988 Y127.103 E16.0117
G1 X166.997 Y127.405 E16.02677
G1 X166.956 Y128.041 E16.05857
G1 X166.849 Y128.875 E16.10052
G1 X166.729 Y129.496 E16.13207
G1 X166.638 Y129.806 E16.14819
G1 X166.366 Y130.63 E16.19148
G1 X166.179 Y131.112 E16.21728
G1 X165.967 Y131.533 E16.24079
G1 X165.555 Y132.265 E16.2827
G1 X165.307 Y132.662 E16.30605
G1 X164.995 Y133.07 E16.33168
G1 X164.446 Y133.715 E16.37393
G1 X164.05 Y134.129 E16.40252
G1 X163.742 Y134.396 E16.42285
G1 X163.083 Y134.922 E16.46492
G1 X162.781 Y135.145 E16.48365
G1 X162.26 Y135.459 E16.514
G1 X161.512 Y135.849 E16.55608
G1 X161.037 Y136.065 E16.58212
G1 X160.596 Y136.218 E16.6054
G1 X159.766 Y136.463 E16.64858
G1 X159.149 Y136.604 E16.68015
G1 X158.829 Y136.645 E16.69625
G1 X157.988 Y136.726 E16.7384
G1 X157.012 Y136.726 E16.78709
G1 X156.171 Y136.645 E16.82925
G1 X155.547 Y136.545 E16.86078
G1 X155.234 Y136.463 E16.87692
G1 X154.404 Y136.218 E16.92009
G1 X153.943 Y136.057 E16.94445
G1 X153.488 Y135.849 E16.96941
G1 X152.74 Y135.459 E17.0115
G1 X152.618 Y135.385 E17.01862
G1 X153.035 Y136.161 E17.06257
G1 X153.116 Y136.32 E17.07147
G1 X153.649 Y137.402 E17.13165
G1 X153.727 Y137.567 E17.14075
G1 X154.223 Y138.674 E17.20127
