;FLAVOR:Marlin
;TIME:4846
;Filament used: 3.40382m, 0m
;Layer height: 0.15
;MINX:74.702
;MINY:67.951
;MINZ:0.3
;MAXX:160.298
;MAXY:162.05
;MAXZ:4.95
;POSTPROCESSED
;Generated with Cura_SteamEngine 4.7.1
T0
M140 S60
M105
M190 S60
M104 S190
M105
M109 S190
M82 ;absolute extrusion mode
M201 X500.00 Y500.00 Z100.00 E5000.00 	;Setup machine max acceleration
M203 X500.00 Y500.00 Z10.00 E50.00 	;Setup machine max feedrate
M204 P500.00 R1000.00 T500.00 		;Setup Print/Retract/Travel acceleration
M205 X8.00 Y8.00 Z0.40 E5.00 		;Setup Jerk
M220 S100 				;Reset Feedrate
M221 S100 				;Reset Flowrate
G28				;Home the Machine
G29 				;Bed Level
G92 E0
M300 P150 S587
G92 E0
G1 F1500 E-6.5
;LAYER_COUNT:32
;LAYER:0
M107
G0 F3600 X86.777 Y80.952 Z0.3
;TYPE:SKIRT
G1 F1500 E0
G1 X86.971 Y80.754 E0.01383
G1 X87.834 Y79.901 E0.07437
G1 X88.025 Y79.718 E0.08756
G1 X88.916 Y78.895 E0.14808
G1 X89.122 Y78.711 E0.16186
G1 X90.043 Y77.919 E0.22246
G1 X90.245 Y77.752 E0.23554
G1 X91.19 Y76.993 E0.29601
G1 X91.409 Y76.822 E0.30987
G1 X92.382 Y76.096 E0.37043
G1 X92.604 Y75.937 E0.38406
G1 X93.601 Y75.246 E0.44458
G1 X93.816 Y75.102 E0.45749
G1 X94.836 Y74.444 E0.51805
G1 X95.078 Y74.294 E0.53225
G1 X96.121 Y73.674 E0.59278
G1 X96.341 Y73.548 E0.60543
G1 X97.404 Y72.962 E0.66599
G1 X97.651 Y72.832 E0.67992
G1 X98.735 Y72.284 E0.74052
G1 X98.978 Y72.166 E0.75399
G1 X100.078 Y71.657 E0.81446
G1 X100.331 Y71.546 E0.82825
G1 X101.449 Y71.076 E0.88875
G1 X101.692 Y70.978 E0.90182
G1 X102.827 Y70.545 E0.96243
G1 X103.083 Y70.453 E0.976
G1 X104.232 Y70.06 E1.03659
G1 X104.491 Y69.976 E1.05017
G1 X105.651 Y69.624 E1.11065
G1 X105.913 Y69.55 E1.12423
G1 X107.087 Y69.238 E1.18483
G1 X107.345 Y69.174 E1.1981
G1 X108.526 Y68.903 E1.25855
G1 X108.792 Y68.846 E1.27212
G1 X109.983 Y68.616 E1.33264
G1 X110.247 Y68.57 E1.34601
G1 X111.446 Y68.381 E1.40656
G1 X111.717 Y68.343 E1.42022
G1 X112.923 Y68.196 E1.48083
G1 X113.192 Y68.168 E1.49432
G1 X114.4 Y68.063 E1.55482
G1 X114.67 Y68.044 E1.56832
G1 X115.883 Y67.981 E1.62892
G1 X116.153 Y67.972 E1.6424
G1 X117.365 Y67.951 E1.70287
G1 X117.635 Y67.951 E1.71634
G1 X118.848 Y67.972 E1.77687
G1 X119.118 Y67.982 E1.79035
G1 X120.329 Y68.045 E1.85085
G1 X120.598 Y68.063 E1.8643
G1 X121.808 Y68.168 E1.92489
G1 X122.079 Y68.196 E1.93848
G1 X123.283 Y68.343 E1.999
G1 X123.553 Y68.381 E2.0126
G1 X124.752 Y68.57 E2.07316
G1 X125.007 Y68.615 E2.08608
G1 X126.2 Y68.844 E2.14668
G1 X126.481 Y68.903 E2.16101
G1 X127.662 Y69.175 E2.22147
G1 X127.918 Y69.239 E2.23463
G1 X129.09 Y69.551 E2.29514
G1 X129.344 Y69.623 E2.30831
G1 X130.506 Y69.975 E2.36889
G1 X130.773 Y70.061 E2.38288
G1 X131.92 Y70.454 E2.44337
G1 X132.167 Y70.543 E2.45647
G1 X133.302 Y70.975 E2.51706
G1 X133.556 Y71.077 E2.53071
G1 X134.676 Y71.549 E2.59135
G1 X134.923 Y71.658 E2.60482
G1 X136.023 Y72.167 E2.66529
G1 X136.266 Y72.285 E2.67877
G1 X137.348 Y72.832 E2.73925
G1 X137.587 Y72.958 E2.75273
G1 X138.651 Y73.543 E2.81331
G1 X138.888 Y73.679 E2.82694
G1 X139.931 Y74.301 E2.88753
G1 X140.155 Y74.44 E2.90068
G1 X141.175 Y75.096 E2.96119
G1 X141.407 Y75.25 E2.97508
G1 X142.403 Y75.942 E3.03558
G1 X142.617 Y76.096 E3.04874
G1 X143.59 Y76.822 E3.10931
G1 X143.802 Y76.987 E3.12271
G1 X144.748 Y77.745 E3.18319
G1 X144.964 Y77.924 E3.19718
G1 X145.884 Y78.717 E3.25778
G1 X146.077 Y78.889 E3.27068
G1 X146.969 Y79.711 E3.33119
G1 X147.173 Y79.906 E3.34527
G1 X148.035 Y80.76 E3.40581
G1 X148.216 Y80.945 E3.41872
G1 X149.049 Y81.827 E3.47925
G1 X149.239 Y82.036 E3.49334
G1 X150.04 Y82.948 E3.5539
G1 X150.214 Y83.154 E3.56735
G1 X150.982 Y84.092 E3.62783
G1 X151.143 Y84.295 E3.64076
G1 X151.881 Y85.26 E3.70137
G1 X152.049 Y85.488 E3.7155
G1 X152.75 Y86.477 E3.77598
G1 X152.897 Y86.692 E3.78897
G1 X153.566 Y87.706 E3.84958
G1 X153.716 Y87.942 E3.86353
G1 X154.348 Y88.979 E3.92411
G1 X154.48 Y89.204 E3.93713
G1 X155.076 Y90.26 E3.99762
G1 X155.206 Y90.501 E4.01129
G1 X155.765 Y91.578 E4.07182
G1 X155.887 Y91.822 E4.08543
G1 X156.408 Y92.918 E4.14598
G1 X156.52 Y93.165 E4.15951
G1 X157.002 Y94.277 E4.21997
G1 X157.103 Y94.521 E4.23315
G1 X157.548 Y95.651 E4.29374
G1 X157.644 Y95.91 E4.30752
G1 X158.048 Y97.053 E4.368
G1 X158.134 Y97.309 E4.38147
G1 X158.499 Y98.468 E4.4421
G1 X158.576 Y98.728 E4.45562
G1 X158.9 Y99.897 E4.51614
G1 X158.966 Y100.155 E4.52943
G1 X159.25 Y101.335 E4.58998
G1 X159.309 Y101.597 E4.60338
G1 X159.552 Y102.785 E4.66388
G1 X159.602 Y103.056 E4.67763
G1 X159.803 Y104.253 E4.73818
G1 X159.844 Y104.522 E4.75176
G1 X160.003 Y105.724 E4.81225
G1 X160.033 Y105.989 E4.82555
G1 X160.151 Y107.198 E4.88616
G1 X160.173 Y107.467 E4.89962
G1 X160.249 Y108.678 E4.96016
G1 X160.261 Y108.948 E4.97364
G1 X160.295 Y110.161 E5.03418
G1 X160.298 Y110.431 E5.04765
G1 X160.29 Y111.644 E5.10817
G1 X160.283 Y111.914 E5.12165
G1 X160.233 Y113.127 E5.18221
G1 X160.217 Y113.404 E5.19606
G1 X160.124 Y114.614 E5.2566
G1 X160.099 Y114.877 E5.26978
G1 X159.965 Y116.083 E5.33032
G1 X159.93 Y116.354 E5.34395
G1 X159.754 Y117.554 E5.40446
G1 X159.711 Y117.817 E5.41776
G1 X159.494 Y119.011 E5.4783
G1 X159.442 Y119.274 E5.49168
G1 X159.184 Y120.46 E5.55223
G1 X159.12 Y120.73 E5.56607
G1 X158.82 Y121.906 E5.62662
G1 X158.748 Y122.169 E5.64023
G1 X158.407 Y123.334 E5.70079
G1 X158.328 Y123.586 E5.71396
G1 X157.948 Y124.738 E5.77448
G1 X157.858 Y124.998 E5.78821
G1 X157.438 Y126.135 E5.84868
G1 X157.343 Y126.379 E5.86174
G1 X156.884 Y127.504 E5.92236
G1 X156.772 Y127.765 E5.93653
G1 X156.273 Y128.871 E5.99707
G1 X156.164 Y129.102 E6.00981
G1 X155.629 Y130.191 E6.07034
G1 X155.501 Y130.44 E6.08431
G1 X154.928 Y131.508 E6.14478
G1 X154.797 Y131.743 E6.1582
G1 X154.186 Y132.793 E6.21881
G1 X154.046 Y133.023 E6.23224
G1 X153.4 Y134.05 E6.29277
G1 X153.253 Y134.275 E6.30618
G1 X152.572 Y135.279 E6.36671
G1 X152.415 Y135.502 E6.38031
G1 X151.699 Y136.482 E6.44086
G1 X151.539 Y136.695 E6.45416
G1 X150.79 Y137.65 E6.51471
G1 X150.617 Y137.862 E6.52836
G1 X149.835 Y138.79 E6.5889
G1 X149.655 Y138.996 E6.60255
G1 X148.841 Y139.896 E6.66309
G1 X148.658 Y140.092 E6.67647
G1 X147.814 Y140.963 E6.73698
G1 X147.624 Y141.152 E6.75035
G1 X146.75 Y141.994 E6.8109
G1 X146.55 Y142.18 E6.82452
G1 X145.647 Y142.991 E6.88508
G1 X145.444 Y143.167 E6.89848
G1 X144.514 Y143.946 E6.959
G1 X144.304 Y144.116 E6.97248
G1 X143.347 Y144.863 E7.03305
G1 X143.131 Y145.026 E7.04655
G1 X142.149 Y145.739 E7.1071
G1 X141.925 Y145.895 E7.12071
G1 X140.919 Y146.573 E7.18124
G1 X140.693 Y146.72 E7.19469
G1 X139.664 Y147.363 E7.25523
G1 X139.43 Y147.504 E7.26885
G1 X138.38 Y148.11 E7.32934
G1 X138.148 Y148.238 E7.34256
G1 X137.076 Y148.809 E7.40315
G1 X136.835 Y148.932 E7.41665
G1 X135.745 Y149.465 E7.47719
G1 X135.501 Y149.58 E7.49064
G1 X134.393 Y150.075 E7.55119
G1 X134.143 Y150.181 E7.56474
G1 X133.019 Y150.637 E7.62525
G1 X132.761 Y150.736 E7.63904
G1 X131.621 Y151.152 E7.69958
G1 X131.367 Y151.24 E7.71299
G1 X130.212 Y151.617 E7.77361
G1 X129.615 Y151.794 E7.80467
G1 X129.482 Y152.528 E7.84189
G1 X129.288 Y153.216 E7.87755
G1 X129.015 Y154.036 E7.92067
G1 X128.728 Y154.772 E7.96008
G1 X128.412 Y155.397 E7.99502
G1 X127.99 Y156.147 E8.03796
G1 X127.568 Y156.815 E8.07738
G1 X127.14 Y157.368 E8.11226
G1 X126.581 Y158.027 E8.15538
G1 X126.041 Y158.602 E8.19473
G1 X125.496 Y159.08 E8.2309
G1 X124.82 Y159.619 E8.27403
G1 X124.178 Y160.079 E8.31343
G1 X123.571 Y160.432 E8.34846
G1 X122.802 Y160.834 E8.39176
G1 X122.084 Y161.164 E8.43118
G1 X121.404 Y161.401 E8.46711
G1 X120.577 Y161.646 E8.51014
G1 X119.809 Y161.831 E8.54955
G1 X119.109 Y161.931 E8.58483
G1 X118.248 Y162.014 E8.62798
G1 X117.46 Y162.05 E8.66734
G1 X116.752 Y162.014 E8.7027
G1 X115.891 Y161.931 E8.74586
G1 X115.109 Y161.816 E8.78529
G1 X114.423 Y161.646 E8.82055
G1 X113.596 Y161.401 E8.86358
G1 X112.852 Y161.138 E8.90295
G1 X112.198 Y160.834 E8.93893
G1 X111.429 Y160.432 E8.98223
G1 X110.749 Y160.032 E9.02159
G1 X110.18 Y159.619 E9.05666
G1 X109.504 Y159.08 E9.0998
G1 X108.913 Y158.557 E9.13917
G1 X108.419 Y158.027 E9.17532
G1 X107.86 Y157.368 E9.21843
G1 X107.38 Y156.74 E9.25786
G1 X107.01 Y156.147 E9.29273
G1 X106.588 Y155.397 E9.33567
G1 X106.236 Y154.69 E9.37507
G1 X105.985 Y154.036 E9.41002
G1 X105.712 Y153.216 E9.45314
G1 X105.501 Y152.455 E9.49254
G1 X105.385 Y151.794 E9.52602
G1 X104.783 Y151.616 E9.55734
G1 X103.63 Y151.239 E9.61786
G1 X103.38 Y151.152 E9.63106
G1 X102.24 Y150.736 E9.69161
G1 X101.986 Y150.639 E9.70517
G1 X100.86 Y150.183 E9.76578
G1 X100.604 Y150.074 E9.77966
G1 X99.497 Y149.579 E9.84016
G1 X99.255 Y149.465 E9.85351
G1 X98.165 Y148.932 E9.91404
G1 X97.926 Y148.811 E9.9274
G1 X96.855 Y148.241 E9.98793
G1 X96.617 Y148.108 E10.00153
G1 X95.565 Y147.5 E10.06215
G1 X95.336 Y147.363 E10.07547
G1 X94.308 Y146.721 E10.13593
G1 X94.081 Y146.573 E10.14945
G1 X93.075 Y145.895 E10.20998
G1 X92.851 Y145.739 E10.2236
G1 X91.869 Y145.026 E10.28414
G1 X91.653 Y144.863 E10.29764
G1 X90.696 Y144.116 E10.35821
G1 X90.486 Y143.946 E10.37169
G1 X89.556 Y143.167 E10.43221
G1 X89.353 Y142.991 E10.44562
G1 X88.45 Y142.18 E10.50617
G1 X88.25 Y141.994 E10.5198
G1 X87.376 Y141.152 E10.58034
G1 X87.186 Y140.963 E10.59371
G1 X86.342 Y140.092 E10.65422
G1 X86.159 Y139.896 E10.6676
G1 X85.345 Y138.996 E10.72814
G1 X85.165 Y138.79 E10.74179
G1 X84.383 Y137.862 E10.80233
G1 X84.21 Y137.65 E10.81599
G1 X83.461 Y136.695 E10.87654
G1 X83.301 Y136.482 E10.88983
G1 X82.585 Y135.502 E10.95038
G1 X82.428 Y135.279 E10.96399
G1 X81.747 Y134.275 E11.02451
G1 X81.6 Y134.05 E11.03792
G1 X80.954 Y133.023 E11.09845
G1 X80.813 Y132.791 E11.11199
G1 X80.203 Y131.742 E11.17253
G1 X80.074 Y131.511 E11.18573
G1 X79.5 Y130.442 E11.24627
G1 X79.374 Y130.196 E11.26006
G1 X78.838 Y129.107 E11.32061
G1 X78.721 Y128.86 E11.33425
G1 X78.224 Y127.754 E11.39474
G1 X78.12 Y127.511 E11.40793
G1 X77.66 Y126.387 E11.46852
G1 X77.563 Y126.137 E11.4819
G1 X77.142 Y124.998 E11.54248
G1 X77.049 Y124.734 E11.55645
G1 X76.67 Y123.583 E11.6169
G1 X76.593 Y123.334 E11.62991
G1 X76.252 Y122.169 E11.69047
G1 X76.179 Y121.9 E11.70437
G1 X75.88 Y120.724 E11.76491
G1 X75.819 Y120.466 E11.77814
G1 X75.56 Y119.28 E11.8387
G1 X75.506 Y119.012 E11.85234
G1 X75.289 Y117.819 E11.91284
G1 X75.245 Y117.553 E11.92629
G1 X75.069 Y116.351 E11.98689
G1 X75.035 Y116.083 E12.00037
G1 X74.901 Y114.878 E12.06086
G1 X74.876 Y114.614 E12.07409
G1 X74.783 Y113.404 E12.13464
G1 X74.767 Y113.128 E12.14843
G1 X74.717 Y111.916 E12.20895
G1 X74.71 Y111.645 E12.22247
G1 X74.702 Y110.432 E12.28299
G1 X74.705 Y110.163 E12.29641
G1 X74.739 Y108.949 E12.357
G1 X74.751 Y108.678 E12.37053
G1 X74.827 Y107.468 E12.43102
G1 X74.849 Y107.199 E12.44449
G1 X74.967 Y105.99 E12.50509
G1 X74.997 Y105.726 E12.51835
G1 X75.156 Y104.523 E12.57889
G1 X75.197 Y104.252 E12.59256
G1 X75.398 Y103.056 E12.65306
G1 X75.448 Y102.788 E12.66667
G1 X75.691 Y101.598 E12.72726
G1 X75.75 Y101.332 E12.74085
G1 X76.034 Y100.153 E12.80136
G1 X76.101 Y99.895 E12.81466
G1 X76.425 Y98.727 E12.87513
G1 X76.501 Y98.469 E12.88855
G1 X76.866 Y97.31 E12.94917
G1 X76.951 Y97.056 E12.96253
G1 X77.355 Y95.912 E13.02306
G1 X77.451 Y95.654 E13.03679
G1 X77.895 Y94.525 E13.09732
G1 X78 Y94.272 E13.11099
G1 X78.484 Y93.158 E13.17158
G1 X78.592 Y92.92 E13.18462
G1 X79.112 Y91.825 E13.2451
G1 X79.234 Y91.58 E13.25875
G1 X79.792 Y90.504 E13.31922
G1 X79.923 Y90.262 E13.33295
G1 X80.52 Y89.204 E13.39356
G1 X80.656 Y88.972 E13.40698
G1 X81.288 Y87.937 E13.46748
G1 X81.431 Y87.711 E13.48082
G1 X82.099 Y86.697 E13.5414
G1 X82.25 Y86.476 E13.55475
G1 X82.952 Y85.486 E13.6153
G1 X83.118 Y85.261 E13.62925
G1 X83.855 Y84.297 E13.68979
G1 X84.017 Y84.092 E13.70283
G1 X84.786 Y83.153 E13.76338
G1 X84.963 Y82.945 E13.77701
G1 X85.764 Y82.034 E13.83753
G1 X85.945 Y81.835 E13.85095
G1 X86.777 Y80.952 E13.91147
G0 F3600 X87.068 Y81.226
G1 F1500 X87.252 Y81.038 E13.9246
G1 X88.115 Y80.185 E13.98514
G1 X88.296 Y80.012 E13.99763
G1 X89.187 Y79.189 E14.05814
G1 X89.383 Y79.014 E14.07125
G1 X90.304 Y78.222 E14.13185
G1 X90.495 Y78.064 E14.14422
G1 X91.44 Y77.305 E14.20469
G1 X91.649 Y77.143 E14.21788
G1 X92.622 Y76.417 E14.27845
G1 X92.832 Y76.266 E14.29135
G1 X93.829 Y75.575 E14.35187
G1 X94.033 Y75.439 E14.3641
G1 X95.053 Y74.781 E14.42466
G1 X95.283 Y74.638 E14.43817
G1 X96.326 Y74.018 E14.49871
G1 X96.534 Y73.898 E14.51069
G1 X97.597 Y73.312 E14.57125
G1 X97.831 Y73.189 E14.58443
G1 X98.915 Y72.641 E14.64503
G1 X99.146 Y72.529 E14.65784
G1 X100.246 Y72.02 E14.71831
G1 X100.486 Y71.914 E14.7314
G1 X101.604 Y71.444 E14.79191
G1 X101.834 Y71.352 E14.80427
G1 X102.969 Y70.919 E14.86487
G1 X103.212 Y70.831 E14.87776
G1 X104.361 Y70.438 E14.93835
G1 X104.607 Y70.359 E14.95124
G1 X105.767 Y70.007 E15.01172
G1 X106.015 Y69.936 E15.02459
G1 X107.189 Y69.624 E15.08519
G1 X107.435 Y69.563 E15.09784
G1 X108.616 Y69.292 E15.15829
G1 X108.868 Y69.239 E15.17114
G1 X110.059 Y69.009 E15.23165
G1 X110.31 Y68.965 E15.24437
G1 X111.509 Y68.776 E15.30492
G1 X111.766 Y68.74 E15.31787
G1 X112.972 Y68.593 E15.37848
G1 X113.226 Y68.567 E15.39122
G1 X114.434 Y68.462 E15.45172
G1 X114.691 Y68.444 E15.46457
G1 X115.904 Y68.381 E15.52517
G1 X116.16 Y68.372 E15.53795
G1 X117.372 Y68.351 E15.59842
G1 X117.628 Y68.351 E15.6112
G1 X118.841 Y68.372 E15.67172
G1 X119.097 Y68.381 E15.6845
G1 X120.308 Y68.444 E15.745
G1 X120.564 Y68.462 E15.7578
G1 X121.774 Y68.567 E15.8184
G1 X122.031 Y68.594 E15.83129
G1 X123.235 Y68.741 E15.8918
G1 X123.49 Y68.776 E15.90464
G1 X124.689 Y68.965 E15.9652
G1 X124.932 Y69.008 E15.97751
G1 X126.125 Y69.237 E16.03812
G1 X126.391 Y69.293 E16.05168
G1 X127.572 Y69.565 E16.11214
G1 X127.815 Y69.625 E16.12463
G1 X128.987 Y69.937 E16.18514
G1 X129.228 Y70.006 E16.19765
G1 X130.39 Y70.358 E16.25822
G1 X130.644 Y70.44 E16.27154
G1 X131.791 Y70.833 E16.33202
G1 X132.024 Y70.917 E16.34438
G1 X133.159 Y71.349 E16.40497
G1 X133.401 Y71.446 E16.41798
G1 X134.521 Y71.918 E16.47861
G1 X134.755 Y72.021 E16.49137
G1 X135.855 Y72.53 E16.55184
G1 X136.086 Y72.642 E16.56465
G1 X137.168 Y73.189 E16.62513
G1 X137.394 Y73.308 E16.63788
G1 X138.458 Y73.893 E16.69845
G1 X138.683 Y74.022 E16.71139
G1 X139.726 Y74.644 E16.77198
G1 X139.939 Y74.776 E16.78448
G1 X140.959 Y75.432 E16.84498
G1 X141.178 Y75.579 E16.85814
G1 X142.174 Y76.271 E16.91865
G1 X142.377 Y76.417 E16.93113
G1 X143.35 Y77.143 E16.99169
G1 X143.552 Y77.299 E17.00443
G1 X144.498 Y78.057 E17.0649
G1 X144.702 Y78.227 E17.07815
G1 X145.622 Y79.02 E17.13875
G1 X145.806 Y79.183 E17.15101
G1 X146.698 Y80.005 E17.21153
G1 X146.891 Y80.19 E17.22487
G1 X147.753 Y81.044 E17.2854
G1 X147.925 Y81.22 E17.29768
G1 X148.758 Y82.102 E17.35821
G1 X148.938 Y82.3 E17.37156
G1 X149.739 Y83.212 E17.43211
G1 X149.905 Y83.407 E17.44489
G1 X150.673 Y84.345 E17.50537
G1 X150.825 Y84.538 E17.51763
G1 X151.563 Y85.503 E17.57824
G1 X151.722 Y85.719 E17.59162
G1 X152.423 Y86.708 E17.6521
G1 X152.563 Y86.912 E17.66444
G1 X153.232 Y87.926 E17.72505
G1 X153.374 Y88.15 E17.73828
G1 X154.006 Y89.187 E17.79887
G1 X154.131 Y89.401 E17.81123
G1 X154.727 Y90.457 E17.87173
G1 X154.851 Y90.685 E17.88468
G1 X155.41 Y91.762 E17.94522
G1 X155.525 Y91.994 E17.95813
G1 X156.046 Y93.09 E18.01868
G1 X156.153 Y93.324 E18.03151
G1 X156.635 Y94.436 E18.09198
G1 X156.73 Y94.668 E18.10449
G1 X157.175 Y95.798 E18.16508
G1 X157.267 Y96.043 E18.17813
G1 X157.671 Y97.186 E18.23861
G1 X157.752 Y97.429 E18.25139
G1 X158.117 Y98.588 E18.31202
G1 X158.19 Y98.835 E18.32487
G1 X158.514 Y100.004 E18.38539
G1 X158.578 Y100.248 E18.39797
G1 X158.862 Y101.428 E18.45852
G1 X158.917 Y101.677 E18.47124
G1 X159.16 Y102.865 E18.53174
G1 X159.208 Y103.123 E18.54483
