;FLAVOR:Marlin
;TIME:2490
;Filament used: 2.51512m, 0m
;Layer height: 0.2
;MINX:77.502
;MINY:72.051
;MINZ:0.3
;MAXX:157.498
;MAXY:160.526
;MAXZ:2.3
;POSTPROCESSED
;Generated with Cura_SteamEngine 4.7.1
T0
M140 S60
M105
M190 S60
M104 S190
M105
M109 S190
M82 ;absolute extrusion mode
M201 X500.00 Y500.00 Z100.00 E5000.00 	;Setup machine max acceleration
M203 X500.00 Y500.00 Z10.00 E50.00 	;Setup machine max feedrate
M204 P500.00 R1000.00 T500.00 		;Setup Print/Retract/Travel acceleration
M205 X8.00 Y8.00 Z0.40 E5.00 		;Setup Jerk
M220 S100 				;Reset Feedrate
M221 S100 				;Reset Flowrate
G28				;Home the Machine
G29 				;Bed Level
G92 E0
M300 P150 S587
G92 E0
G1 F1500 E-6.5
;LAYER_COUNT:11
;LAYER:0
M107
G0 F3600 X88.817 Y84.171 Z0.3
;TYPE:SKIRT
G1 F1500 E0
G1 X88.939 Y84.046 E0.00871
G1 X89.801 Y83.194 E0.06918
G1 X89.925 Y83.076 E0.07772
G1 X90.822 Y82.248 E0.13862
G1 X90.951 Y82.133 E0.14725
G1 X91.865 Y81.346 E0.20742
G1 X91.998 Y81.235 E0.21606
G1 X92.945 Y80.475 E0.27664
G1 X93.085 Y80.367 E0.28546
G1 X94.064 Y79.637 E0.34639
G1 X94.201 Y79.536 E0.35488
G1 X95.191 Y78.849 E0.415
G1 X95.333 Y78.755 E0.4235
G1 X96.352 Y78.098 E0.48398
G1 X96.507 Y78.002 E0.49308
G1 X97.557 Y77.378 E0.55402
G1 X97.698 Y77.297 E0.56213
G1 X98.754 Y76.715 E0.62229
G1 X98.911 Y76.632 E0.63115
G1 X100.001 Y76.081 E0.69208
G1 X100.159 Y76.004 E0.70085
G1 X101.256 Y75.497 E0.76114
G1 X101.415 Y75.427 E0.76981
G1 X102.532 Y74.957 E0.83027
G1 X102.688 Y74.895 E0.83864
G1 X103.828 Y74.46 E0.89952
G1 X103.993 Y74.4 E0.90828
G1 X105.142 Y74.007 E0.96886
G1 X105.309 Y73.953 E0.97762
G1 X106.463 Y73.603 E1.03778
G1 X106.63 Y73.556 E1.04644
G1 X107.804 Y73.244 E1.10704
G1 X107.972 Y73.202 E1.11568
G1 X109.16 Y72.93 E1.17648
G1 X109.331 Y72.894 E1.1852
G1 X110.516 Y72.666 E1.2454
G1 X110.684 Y72.637 E1.25391
G1 X111.886 Y72.448 E1.31462
G1 X112.051 Y72.425 E1.32293
G1 X113.259 Y72.276 E1.38365
G1 X113.44 Y72.257 E1.39273
G1 X114.642 Y72.153 E1.45292
G1 X114.815 Y72.141 E1.46157
G1 X116.034 Y72.078 E1.52247
G1 X116.205 Y72.072 E1.53101
G1 X117.415 Y72.051 E1.59138
G1 X117.589 Y72.051 E1.60007
G1 X118.799 Y72.072 E1.66044
G1 X118.974 Y72.078 E1.66918
G1 X120.192 Y72.142 E1.73003
G1 X120.361 Y72.154 E1.73848
G1 X121.564 Y72.258 E1.79872
G1 X121.742 Y72.276 E1.80765
G1 X122.949 Y72.424 E1.86832
G1 X123.113 Y72.447 E1.87658
G1 X124.315 Y72.635 E1.93728
G1 X124.49 Y72.666 E1.94614
G1 X125.676 Y72.895 E2.0064
G1 X125.848 Y72.931 E2.01517
G1 X127.036 Y73.204 E2.07599
G1 X127.202 Y73.245 E2.08452
G1 X128.374 Y73.557 E2.14502
G1 X128.538 Y73.604 E2.15354
G1 X129.693 Y73.954 E2.21375
G1 X129.862 Y74.009 E2.22261
G1 X131.01 Y74.402 E2.28315
G1 X131.172 Y74.46 E2.29173
G1 X132.313 Y74.895 E2.35266
G1 X132.474 Y74.959 E2.3613
G1 X133.594 Y75.431 E2.42194
G1 X133.754 Y75.502 E2.43067
G1 X134.848 Y76.009 E2.49083
G1 X134.998 Y76.082 E2.49915
G1 X136.086 Y76.631 E2.55995
G1 X136.244 Y76.714 E2.56885
G1 X137.302 Y77.296 E2.62909
G1 X137.454 Y77.383 E2.63783
G1 X138.503 Y78.009 E2.69878
G1 X138.645 Y78.097 E2.70711
G1 X139.659 Y78.749 E2.76726
G1 X139.81 Y78.85 E2.77632
G1 X140.805 Y79.542 E2.83679
G1 X140.938 Y79.638 E2.84497
G1 X141.912 Y80.364 E2.90558
G1 X142.05 Y80.471 E2.91429
G1 X142.996 Y81.229 E2.97477
G1 X143.136 Y81.345 E2.98384
G1 X144.055 Y82.138 E3.04439
G1 X144.177 Y82.247 E3.05256
G1 X145.069 Y83.069 E3.11307
G1 X145.198 Y83.192 E3.12197
G1 X146.065 Y84.05 E3.18282
G1 X146.184 Y84.171 E3.19129
G1 X147.013 Y85.049 E3.25153
G1 X147.134 Y85.182 E3.2605
G1 X147.935 Y86.094 E3.32106
G1 X148.047 Y86.227 E3.32973
G1 X148.819 Y87.17 E3.39054
G1 X148.922 Y87.3 E3.39881
G1 X149.656 Y88.26 E3.4591
G1 X149.762 Y88.404 E3.46802
G1 X150.463 Y89.392 E3.52846
G1 X150.559 Y89.531 E3.53689
G1 X151.228 Y90.545 E3.59749
G1 X151.325 Y90.699 E3.60657
G1 X151.96 Y91.742 E3.66749
G1 X152.043 Y91.883 E3.67566
G1 X152.636 Y92.933 E3.73582
G1 X152.72 Y93.089 E3.74466
G1 X153.279 Y94.166 E3.8052
G1 X153.356 Y94.32 E3.81379
G1 X153.881 Y95.423 E3.87473
G1 X153.954 Y95.583 E3.88351
G1 X154.433 Y96.688 E3.94359
G1 X154.499 Y96.85 E3.95232
G1 X154.943 Y97.981 E4.01294
G1 X155.003 Y98.14 E4.02141
G1 X155.407 Y99.282 E4.08185
G1 X155.462 Y99.448 E4.09057
G1 X155.827 Y100.607 E4.1512
G1 X155.876 Y100.773 E4.15983
G1 X156.202 Y101.949 E4.22071
G1 X156.245 Y102.112 E4.22912
G1 X156.528 Y103.285 E4.28933
G1 X156.566 Y103.456 E4.29806
G1 X156.809 Y104.644 E4.35856
G1 X156.841 Y104.818 E4.36739
G1 X157.042 Y106.015 E4.42794
G1 X157.068 Y106.187 E4.43662
G1 X157.227 Y107.389 E4.49711
G1 X157.247 Y107.564 E4.5059
G1 X157.364 Y108.774 E4.56655
G1 X157.377 Y108.938 E4.57476
G1 X157.454 Y110.149 E4.63529
G1 X157.462 Y110.326 E4.64413
G1 X157.496 Y111.539 E4.70467
G1 X157.498 Y111.712 E4.71331
G1 X157.49 Y112.925 E4.77382
G1 X157.486 Y113.097 E4.78241
G1 X157.436 Y114.317 E4.84332
G1 X157.425 Y114.498 E4.85237
G1 X157.332 Y115.7 E4.91252
G1 X157.316 Y115.866 E4.92084
G1 X157.182 Y117.072 E4.98138
G1 X157.16 Y117.246 E4.99013
G1 X156.984 Y118.446 E5.05064
G1 X156.957 Y118.613 E5.05908
G1 X156.739 Y119.814 E5.11997
G1 X156.704 Y119.985 E5.12868
G1 X156.447 Y121.165 E5.18893
G1 X156.407 Y121.338 E5.19779
G1 X156.107 Y122.513 E5.25829
G1 X156.061 Y122.681 E5.26698
G1 X155.72 Y123.846 E5.32754
G1 X155.67 Y124.006 E5.33591
G1 X155.29 Y125.159 E5.39647
G1 X155.232 Y125.324 E5.4052
G1 X154.813 Y126.46 E5.46561
G1 X154.751 Y126.621 E5.47421
G1 X154.289 Y127.752 E5.53516
G1 X154.219 Y127.915 E5.54402
G1 X153.723 Y129.016 E5.60426
G1 X153.651 Y129.168 E5.61265
G1 X153.116 Y130.256 E5.67314
G1 X153.035 Y130.414 E5.682
G1 X152.462 Y131.482 E5.74247
G1 X152.378 Y131.631 E5.751
G1 X151.764 Y132.687 E5.81194
G1 X151.672 Y132.84 E5.82085
G1 X151.028 Y133.862 E5.88111
G1 X150.937 Y134.002 E5.88944
G1 X150.253 Y135.011 E5.95026
G1 X150.152 Y135.154 E5.95899
G1 X149.44 Y136.129 E6.01923
G1 X149.336 Y136.266 E6.02781
G1 X148.587 Y137.221 E6.08836
G1 X148.477 Y137.356 E6.09705
G1 X147.691 Y138.289 E6.15791
G1 X147.574 Y138.423 E6.16679
G1 X146.764 Y139.318 E6.22701
G1 X146.648 Y139.442 E6.23548
G1 X145.804 Y140.313 E6.29599
G1 X145.682 Y140.435 E6.3046
G1 X144.808 Y141.277 E6.36514
G1 X144.679 Y141.397 E6.37393
G1 X143.838 Y142.152 E6.43032
G1 X143.704 Y142.274 E6.43936
G1 X142.712 Y143.103 E6.50386
G1 X142.583 Y143.207 E6.51212
G1 X141.626 Y143.954 E6.57269
G1 X141.487 Y144.059 E6.58138
G1 X140.505 Y144.772 E6.64193
G1 X140.361 Y144.872 E6.65067
G1 X139.355 Y145.55 E6.7112
G1 X139.21 Y145.644 E6.71982
G1 X138.176 Y146.29 E6.78065
G1 X138.028 Y146.38 E6.78929
G1 X136.984 Y146.983 E6.84944
G1 X136.832 Y147.067 E6.8581
G1 X135.759 Y147.638 E6.91874
G1 X135.606 Y147.716 E6.92731
G1 X134.516 Y148.249 E6.98784
G1 X134.364 Y148.32 E6.99621
G1 X133.25 Y148.819 E7.05711
G1 X133.08 Y148.891 E7.06632
G1 X131.962 Y149.343 E7.12649
G1 X131.805 Y149.404 E7.13489
G1 X130.659 Y149.823 E7.19576
G1 X130.493 Y149.88 E7.20452
G1 X129.344 Y150.255 E7.26482
G1 X129.183 Y150.305 E7.27323
G1 X128.019 Y150.642 E7.33369
G1 X127.843 Y150.689 E7.34278
G1 X126.988 Y150.903 E7.38675
G1 X126.997 Y151.205 E7.40182
G1 X126.956 Y151.841 E7.43362
G1 X126.849 Y152.675 E7.47557
G1 X126.729 Y153.296 E7.50712
G1 X126.638 Y153.606 E7.52324
G1 X126.366 Y154.43 E7.56653
G1 X126.179 Y154.912 E7.59233
G1 X125.967 Y155.333 E7.61584
G1 X125.555 Y156.065 E7.65775
G1 X125.307 Y156.462 E7.6811
G1 X124.995 Y156.87 E7.70673
G1 X124.446 Y157.515 E7.74898
G1 X124.05 Y157.929 E7.77757
G1 X123.742 Y158.196 E7.7979
G1 X123.083 Y158.722 E7.83997
G1 X122.781 Y158.945 E7.8587
G1 X122.26 Y159.259 E7.88905
G1 X121.512 Y159.649 E7.93113
G1 X121.037 Y159.865 E7.95717
G1 X120.596 Y160.018 E7.98045
G1 X119.766 Y160.263 E8.02363
G1 X119.149 Y160.404 E8.0552
G1 X118.829 Y160.445 E8.0713
G1 X117.988 Y160.526 E8.11345
G1 X117.012 Y160.526 E8.16214
G1 X116.171 Y160.445 E8.2043
G1 X115.547 Y160.345 E8.23583
G1 X115.234 Y160.263 E8.25197
G1 X114.404 Y160.018 E8.29514
G1 X113.943 Y159.857 E8.3195
G1 X113.488 Y159.649 E8.34446
G1 X112.74 Y159.259 E8.38655
G1 X112.219 Y158.945 E8.4169
G1 X111.917 Y158.722 E8.43563
G1 X111.258 Y158.196 E8.47769
G1 X110.95 Y157.929 E8.49803
G1 X110.554 Y157.515 E8.52661
G1 X110.005 Y156.87 E8.56887
G1 X109.682 Y156.446 E8.59546
G1 X109.445 Y156.065 E8.61785
G1 X109.033 Y155.333 E8.65975
G1 X108.634 Y154.43 E8.70901
G1 X108.362 Y153.606 E8.7523
G1 X108.202 Y152.995 E8.78381
G1 X108.151 Y152.678 E8.79983
G1 X108.044 Y151.847 E8.84163
G1 X108.003 Y151.208 E8.87357
G1 X108.012 Y150.903 E8.8888
G1 X107.148 Y150.686 E8.93324
G1 X106.979 Y150.641 E8.94197
G1 X105.815 Y150.305 E9.00241
G1 X105.643 Y150.252 E9.01139
G1 X104.497 Y149.876 E9.07156
G1 X104.344 Y149.823 E9.07964
G1 X103.197 Y149.405 E9.14055
G1 X103.029 Y149.34 E9.14953
G1 X101.91 Y148.886 E9.20978
G1 X101.748 Y148.817 E9.21856
G1 X100.635 Y148.319 E9.2794
G1 X100.481 Y148.247 E9.28788
G1 X99.391 Y147.714 E9.34841
G1 X99.24 Y147.637 E9.35687
G1 X98.168 Y147.067 E9.41744
G1 X98.015 Y146.982 E9.42617
G1 X96.969 Y146.378 E9.48643
G1 X96.818 Y146.287 E9.49523
G1 X95.785 Y145.641 E9.55601
G1 X95.642 Y145.548 E9.56452
G1 X94.636 Y144.87 E9.62505
G1 X94.492 Y144.77 E9.6338
G1 X93.51 Y144.057 E9.69434
G1 X93.371 Y143.952 E9.70303
G1 X92.414 Y143.205 E9.7636
G1 X92.284 Y143.1 E9.77194
G1 X91.295 Y142.273 E9.83625
G1 X91.159 Y142.149 E9.84544
G1 X90.316 Y141.391 E9.90199
G1 X90.19 Y141.274 E9.91057
G1 X89.315 Y140.431 E9.97119
G1 X89.193 Y140.309 E9.9798
G1 X88.35 Y139.439 E10.04024
G1 X88.234 Y139.315 E10.04871
G1 X87.423 Y138.419 E10.109
G1 X87.306 Y138.285 E10.11788
G1 X86.521 Y137.353 E10.17867
G1 X86.413 Y137.221 E10.18718
G1 X85.662 Y136.265 E10.24783
G1 X85.553 Y136.121 E10.25684
G1 X84.844 Y135.148 E10.3169
G1 X84.749 Y135.013 E10.32514
G1 X84.062 Y134.002 E10.38612
G1 X83.963 Y133.851 E10.39513
G1 X83.322 Y132.83 E10.45528
G1 X83.233 Y132.681 E10.46393
G1 X82.62 Y131.625 E10.52485
G1 X82.542 Y131.485 E10.53285
G1 X81.967 Y130.417 E10.59336
G1 X81.884 Y130.257 E10.60235
G1 X81.348 Y129.169 E10.66286
G1 X81.271 Y129.006 E10.67186
G1 X80.777 Y127.905 E10.73206
G1 X80.711 Y127.752 E10.74038
G1 X80.249 Y126.623 E10.80124
G1 X80.184 Y126.455 E10.81022
G1 X79.765 Y125.316 E10.87077
G1 X79.709 Y125.155 E10.87927
G1 X79.329 Y124.002 E10.93984
G1 X79.28 Y123.843 E10.94814
G1 X78.939 Y122.679 E11.00865
G1 X78.89 Y122.502 E11.01782
G1 X78.592 Y121.327 E11.07829
G1 X78.554 Y121.166 E11.08655
G1 X78.296 Y119.986 E11.14681
G1 X78.262 Y119.816 E11.15546
G1 X78.043 Y118.616 E11.21632
G1 X78.015 Y118.443 E11.22506
G1 X77.839 Y117.242 E11.28562
G1 X77.817 Y117.069 E11.29432
G1 X77.683 Y115.862 E11.3549
G1 X77.667 Y115.692 E11.36342
G1 X77.575 Y114.49 E11.42357
G1 X77.564 Y114.313 E11.43241
G1 X77.514 Y113.095 E11.49323
G1 X77.51 Y112.923 E11.50182
G1 X77.502 Y111.715 E11.56208
G1 X77.504 Y111.542 E11.57072
G1 X77.538 Y110.329 E11.63126
G1 X77.546 Y110.154 E11.64
G1 X77.623 Y108.936 E11.70088
G1 X77.636 Y108.77 E11.70919
G1 X77.752 Y107.57 E11.76934
G1 X77.772 Y107.396 E11.77808
G1 X77.931 Y106.192 E11.83867
G1 X77.958 Y106.014 E11.84765
G1 X78.16 Y104.819 E11.90811
G1 X78.191 Y104.653 E11.91654
G1 X78.435 Y103.456 E11.97748
G1 X78.473 Y103.284 E11.98627
G1 X78.756 Y102.109 E12.04657
G1 X78.799 Y101.942 E12.05517
G1 X79.123 Y100.775 E12.1156
G1 X79.173 Y100.609 E12.12425
G1 X79.538 Y99.452 E12.18477
G1 X79.589 Y99.298 E12.19287
G1 X79.994 Y98.146 E12.25379
G1 X80.059 Y97.971 E12.2631
G1 X80.501 Y96.849 E12.32327
G1 X80.568 Y96.688 E12.33197
G1 X81.052 Y95.575 E12.39252
G1 X81.12 Y95.424 E12.40078
G1 X81.641 Y94.327 E12.46137
G1 X81.72 Y94.169 E12.47018
G1 X82.282 Y93.086 E12.53105
G1 X82.364 Y92.935 E12.53963
G1 X82.956 Y91.884 E12.59981
G1 X83.044 Y91.734 E12.60848
G1 X83.676 Y90.698 E12.66903
G1 X83.77 Y90.549 E12.67782
G1 X84.437 Y89.538 E12.73824
G1 X84.532 Y89.4 E12.7466
G1 X85.235 Y88.408 E12.80726
G1 X85.343 Y88.261 E12.81636
G1 X86.079 Y87.299 E12.87679
G1 X86.182 Y87.168 E12.8851
G1 X86.957 Y86.222 E12.94612
G1 X87.07 Y86.09 E12.95479
G1 X87.87 Y85.18 E13.01523
G1 X87.988 Y85.05 E13.02399
G1 X88.817 Y84.171 E13.08427
G0 F3600 X89.108 Y84.446
G1 F1500 X89.22 Y84.33 E13.09232
G1 X90.082 Y83.478 E13.15279
G1 X90.196 Y83.37 E13.16062
G1 X91.093 Y82.542 E13.22152
G1 X91.212 Y82.436 E13.22947
G1 X92.126 Y81.649 E13.28965
G1 X92.248 Y81.547 E13.29758
G1 X93.195 Y80.787 E13.35816
G1 X93.324 Y80.687 E13.3663
G1 X94.303 Y79.957 E13.42723
G1 X94.429 Y79.865 E13.43501
G1 X95.419 Y79.178 E13.49513
G1 X95.549 Y79.091 E13.50294
G1 X96.568 Y78.434 E13.56343
G1 X96.711 Y78.346 E13.5718
G1 X97.761 Y77.722 E13.63274
G1 X97.891 Y77.647 E13.64023
G1 X98.947 Y77.065 E13.70038
G1 X99.092 Y76.989 E13.70855
G1 X100.182 Y76.438 E13.76948
G1 X100.327 Y76.367 E13.77754
G1 X101.424 Y75.86 E13.83783
G1 X101.57 Y75.796 E13.84578
G1 X102.687 Y75.326 E13.90624
G1 X102.831 Y75.268 E13.91399
G1 X103.971 Y74.833 E13.97486
G1 X104.122 Y74.779 E13.98286
G1 X105.271 Y74.386 E14.04345
G1 X105.425 Y74.336 E14.05153
G1 X106.579 Y73.986 E14.11169
G1 X106.733 Y73.942 E14.11968
G1 X107.907 Y73.63 E14.18028
G1 X108.061 Y73.592 E14.1882
G1 X109.249 Y73.32 E14.249
G1 X109.407 Y73.287 E14.25705
G1 X110.592 Y73.059 E14.31726
G1 X110.746 Y73.032 E14.32506
G1 X111.948 Y72.843 E14.38576
G1 X112.1 Y72.822 E14.39342
G1 X113.308 Y72.673 E14.45414
G1 X113.474 Y72.655 E14.46247
G1 X114.676 Y72.551 E14.52266
G1 X114.836 Y72.54 E14.53067
G1 X116.055 Y72.477 E14.59156
G1 X116.212 Y72.472 E14.5994
G1 X117.422 Y72.451 E14.65978
G1 X117.582 Y72.451 E14.66776
G1 X118.792 Y72.472 E14.72813
G1 X118.953 Y72.477 E14.73617
G1 X120.171 Y72.541 E14.79702
G1 X120.326 Y72.552 E14.80477
G1 X121.529 Y72.656 E14.86501
G1 X121.693 Y72.673 E14.87324
G1 X122.9 Y72.821 E14.93391
G1 X123.051 Y72.842 E14.94152
G1 X124.253 Y73.03 E15.00221
G1 X124.414 Y73.058 E15.01037
G1 X125.6 Y73.287 E15.07063
G1 X125.758 Y73.321 E15.07869
G1 X126.946 Y73.594 E15.13951
G1 X127.099 Y73.632 E15.14737
G1 X128.271 Y73.944 E15.20788
G1 X128.422 Y73.987 E15.21571
G1 X129.577 Y74.337 E15.27592
G1 X129.733 Y74.387 E15.28409
G1 X130.881 Y74.78 E15.34463
G1 X131.03 Y74.834 E15.35254
G1 X132.171 Y75.269 E15.41346
G1 X132.318 Y75.328 E15.42136
G1 X133.438 Y75.8 E15.482
G1 X133.586 Y75.865 E15.49006
G1 X134.68 Y76.372 E15.55022
G1 X134.818 Y76.439 E15.55787
G1 X135.906 Y76.988 E15.61867
G1 X136.051 Y77.065 E15.62686
G1 X137.109 Y77.647 E15.68711
G1 X137.249 Y77.727 E15.69515
G1 X138.298 Y78.353 E15.7561
G1 X138.429 Y78.434 E15.76378
G1 X139.443 Y79.086 E15.82392
G1 X139.581 Y79.179 E15.83223
G1 X140.576 Y79.871 E15.89269
G1 X140.699 Y79.959 E15.90024
G1 X141.673 Y80.685 E15.96084
G1 X141.8 Y80.783 E15.96885
G1 X142.746 Y81.541 E16.02933
G1 X142.875 Y81.648 E16.03769
G1 X143.794 Y82.441 E16.09825
G1 X143.906 Y82.541 E16.10574
G1 X144.798 Y83.363 E16.16625
G1 X144.917 Y83.476 E16.17444
G1 X145.784 Y84.334 E16.2353
G1 X145.893 Y84.446 E16.24309
G1 X146.722 Y85.324 E16.30334
G1 X146.833 Y85.446 E16.31156
G1 X147.634 Y86.358 E16.37212
G1 X147.737 Y86.48 E16.38009
G1 X148.509 Y87.423 E16.44089
G1 X148.604 Y87.543 E16.44853
G1 X149.338 Y88.503 E16.50881
G1 X149.436 Y88.635 E16.51702
G1 X150.137 Y89.623 E16.57746
G1 X150.225 Y89.752 E16.58525
G1 X150.894 Y90.766 E16.64585
G1 X150.983 Y90.907 E16.65417
G1 X151.618 Y91.95 E16.71509
G1 X151.694 Y92.08 E16.7226
G1 X152.287 Y93.13 E16.78277
G1 X152.365 Y93.273 E16.79089
G1 X152.924 Y94.35 E16.85143
G1 X152.995 Y94.492 E16.85935
G1 X153.52 Y95.595 E16.9203
G1 X153.587 Y95.742 E16.92836
G1 X154.066 Y96.847 E16.98844
G1 X154.127 Y96.996 E16.99647
G1 X154.571 Y98.127 E17.05709
G1 X154.626 Y98.274 E17.06492
G1 X155.03 Y99.416 E17.12536
