;FLAVOR:Marlin
;TIME:6458
;Filament used: 6.3869m, 0m
;Layer height: 0.2
;MINX:60.849
;MINY:62.308
;MINZ:0.3
;MAXX:174.151
;MAXY:168.692
;MAXZ:3.9
;POSTPROCESSED
;Generated with Cura_SteamEngine 4.7.1
T0
M140 S60
M105
M190 S60
M104 S190
M105
M109 S190
M82 ;absolute extrusion mode
M201 X500.00 Y500.00 Z100.00 E5000.00 	;Setup machine max acceleration
M203 X500.00 Y500.00 Z10.00 E50.00 	;Setup machine max feedrate
M204 P500.00 R1000.00 T500.00 		;Setup Print/Retract/Travel acceleration
M205 X8.00 Y8.00 Z0.40 E5.00 		;Setup Jerk
M220 S100 				;Reset Feedrate
M221 S100 				;Reset Flowrate
G28				;Home the Machine
G29 				;Bed Level
G92 E0
M300 P150 S587
G92 E0
G1 F1500 E-6.5
;LAYER_COUNT:19
;LAYER:0
M107
G0 F3600 X87.758 Y76.188 Z0.3
;TYPE:SKIRT
G1 F1500 E0
G1 X88.666 Y75.141 E0.06914
G1 X88.797 Y74.999 E0.07878
G1 X89.681 Y74.057 E0.14323
G1 X89.886 Y73.849 E0.1578
G1 X90.809 Y72.943 E0.22233
G1 X91.023 Y72.743 E0.23694
G1 X92.047 Y71.82 E0.30572
G1 X92.201 Y71.688 E0.31584
G1 X93.26 Y70.808 E0.38453
G1 X93.421 Y70.68 E0.39479
G1 X94.448 Y69.894 E0.45931
G1 X94.683 Y69.722 E0.47384
G1 X95.741 Y68.979 E0.53834
G1 X95.985 Y68.816 E0.55298
G1 X97.116 Y68.09 E0.62003
G1 X97.318 Y67.966 E0.63186
G1 X98.497 Y67.276 E0.70001
G1 X98.684 Y67.172 E0.71069
G1 X99.827 Y66.563 E0.7753
G1 X100.085 Y66.432 E0.78974
G1 X101.314 Y65.841 E0.85777
G1 X101.515 Y65.75 E0.86878
G1 X102.703 Y65.237 E0.93334
G1 X102.968 Y65.13 E0.9476
G1 X104.238 Y64.641 E1.01549
G1 X104.448 Y64.566 E1.02662
G1 X105.741 Y64.129 E1.09471
G1 X105.951 Y64.063 E1.10569
G1 X107.254 Y63.681 E1.17343
G1 X107.475 Y63.621 E1.18486
G1 X108.771 Y63.299 E1.25148
G1 X109.01 Y63.244 E1.26372
G1 X110.337 Y62.971 E1.33131
G1 X110.559 Y62.93 E1.34257
G1 X111.835 Y62.72 E1.40709
G1 X112.124 Y62.678 E1.42166
G1 X113.407 Y62.521 E1.48614
G1 X113.697 Y62.491 E1.50069
G1 X114.986 Y62.387 E1.56521
G1 X115.27 Y62.369 E1.5794
G1 X116.606 Y62.315 E1.64611
G1 X116.85 Y62.309 E1.65829
G1 X118.143 Y62.308 E1.7228
G1 X118.436 Y62.315 E1.73742
G1 X119.729 Y62.368 E1.80198
G1 X120.011 Y62.386 E1.81608
G1 X121.301 Y62.49 E1.88065
G1 X121.592 Y62.52 E1.89524
G1 X122.875 Y62.677 E1.95973
G1 X123.164 Y62.719 E1.9743
G1 X124.44 Y62.929 E2.03881
G1 X124.722 Y62.982 E2.05313
G1 X125.989 Y63.243 E2.11767
G1 X126.269 Y63.308 E2.13201
G1 X127.525 Y63.62 E2.19657
G1 X127.808 Y63.698 E2.21122
G1 X129.048 Y64.062 E2.27569
G1 X129.324 Y64.15 E2.29015
G1 X130.635 Y64.594 E2.3592
G1 X130.823 Y64.663 E2.36919
G1 X132.029 Y65.127 E2.43366
G1 X132.294 Y65.235 E2.44794
G1 X133.482 Y65.747 E2.51248
G1 X133.748 Y65.87 E2.5271
G1 X134.999 Y66.473 E2.59638
G1 X135.171 Y66.562 E2.60604
G1 X136.313 Y67.17 E2.67059
G1 X136.567 Y67.313 E2.68513
G1 X137.768 Y68.018 E2.75461
G1 X137.924 Y68.116 E2.7638
G1 X139.07 Y68.851 E2.83173
G1 X139.259 Y68.979 E2.84311
G1 X140.366 Y69.758 E2.91065
G1 X140.551 Y69.893 E2.92207
G1 X141.578 Y70.679 E2.98659
G1 X141.805 Y70.86 E3.00108
G1 X142.849 Y71.73 E3.06888
G1 X143.015 Y71.874 E3.07984
G1 X144.017 Y72.778 E3.14717
G1 X144.191 Y72.942 E3.1591
G1 X145.166 Y73.9 E3.22729
G1 X145.314 Y74.053 E3.23791
G1 X146.244 Y75.042 E3.30564
G1 X146.396 Y75.211 E3.31698
G1 X147.283 Y76.237 E3.38465
G1 X147.427 Y76.411 E3.39592
G1 X148.26 Y77.456 E3.46259
G1 X148.41 Y77.651 E3.47486
G1 X149.212 Y78.747 E3.54262
G1 X149.342 Y78.934 E3.55398
G1 X150.137 Y80.121 E3.62525
G1 X150.22 Y80.25 E3.63291
G1 X150.934 Y81.417 E3.70116
G1 X151.041 Y81.601 E3.71178
G1 X151.707 Y82.794 E3.77995
G1 X151.807 Y82.984 E3.79066
G1 X152.419 Y84.191 E3.85817
G1 X152.519 Y84.399 E3.86969
G1 X153.083 Y85.636 E3.93751
G1 X153.171 Y85.841 E3.94864
G1 X153.686 Y87.103 E4.01665
G1 X153.766 Y87.315 E4.02795
G1 X154.249 Y88.66 E4.09925
G1 X154.297 Y88.801 E4.10668
G1 X154.686 Y90.034 E4.17118
G1 X154.769 Y90.313 E4.18571
G1 X155.124 Y91.625 E4.25352
G1 X155.171 Y91.818 E4.26343
G1 X155.488 Y93.21 E4.33465
G1 X155.52 Y93.366 E4.3426
G1 X155.778 Y94.767 E4.41367
G1 X155.803 Y94.92 E4.4214
G1 X156.004 Y96.333 E4.49261
G1 X156.023 Y96.484 E4.5002
G1 X156.167 Y97.902 E4.57131
G1 X156.179 Y98.054 E4.57891
G1 X156.266 Y99.479 E4.65014
G1 X156.272 Y99.639 E4.65813
G1 X156.299 Y101.065 E4.72928
G1 X156.299 Y101.213 E4.73667
G1 X156.272 Y102.564 E4.80408
G1 X156.266 Y102.717 E4.81172
G1 X156.175 Y104.214 E4.88655
G1 X156.161 Y104.374 E4.89456
G1 X156.015 Y105.79 E4.96558
G1 X155.995 Y105.945 E4.97338
G1 X155.783 Y107.411 E5.04727
G1 X155.766 Y107.51 E5.05229
G1 X155.648 Y108.145 E5.08451
G1 X156.708 Y108.5 E5.14028
G1 X156.889 Y108.566 E5.14989
G1 X157.954 Y108.984 E5.20697
G1 X158.131 Y109.058 E5.21654
G1 X159.171 Y109.528 E5.27348
G1 X159.342 Y109.611 E5.28296
G1 X160.36 Y110.134 E5.34006
G1 X160.533 Y110.229 E5.34991
G1 X161.519 Y110.802 E5.4068
G1 X161.682 Y110.902 E5.41634
G1 X162.641 Y111.526 E5.47343
G1 X162.8 Y111.635 E5.48304
G1 X163.724 Y112.305 E5.53998
G1 X163.874 Y112.419 E5.54938
G1 X164.766 Y113.136 E5.60648
G1 X164.913 Y113.261 E5.61611
G1 X165.765 Y114.02 E5.67303
G1 X165.911 Y114.157 E5.68302
G1 X166.724 Y114.962 E5.7401
G1 X166.851 Y115.094 E5.74924
G1 X167.623 Y115.936 E5.80623
G1 X167.754 Y116.087 E5.81621
G1 X168.482 Y116.97 E5.8733
G1 X168.6 Y117.12 E5.88282
G1 X169.28 Y118.035 E5.9397
G1 X169.39 Y118.191 E5.94922
G1 X170.026 Y119.143 E6.00634
G1 X170.129 Y119.306 E6.01596
G1 X170.714 Y120.286 E6.0729
G1 X170.808 Y120.454 E6.08251
G1 X171.344 Y121.465 E6.1396
G1 X171.43 Y121.638 E6.14923
G1 X171.913 Y122.673 E6.20622
G1 X171.99 Y122.848 E6.21576
G1 X172.421 Y123.907 E6.2728
G1 X172.489 Y124.089 E6.28249
G1 X172.865 Y125.168 E6.3395
G1 X172.924 Y125.352 E6.34914
G1 X173.245 Y126.45 E6.40621
G1 X173.294 Y126.634 E6.41571
G1 X173.559 Y127.745 E6.47269
G1 X173.599 Y127.935 E6.48238
G1 X173.807 Y129.058 E6.53936
G1 X173.838 Y129.248 E6.54896
G1 X173.989 Y130.381 E6.60599
G1 X174.009 Y130.57 E6.61547
G1 X174.103 Y131.709 E6.67249
G1 X174.114 Y131.902 E6.68213
G1 X174.15 Y133.044 E6.73914
G1 X174.151 Y133.237 E6.74876
G1 X174.129 Y134.38 E6.8058
G1 X174.121 Y134.573 E6.81544
G1 X174.041 Y135.713 E6.87245
G1 X174.022 Y135.906 E6.88213
G1 X173.884 Y137.041 E6.93917
G1 X173.856 Y137.23 E6.9487
G1 X173.661 Y138.356 E7.00571
G1 X173.623 Y138.549 E7.01553
G1 X173.37 Y139.664 E7.07257
G1 X173.324 Y139.846 E7.08193
G1 X173.016 Y140.948 E7.13902
G1 X172.96 Y141.131 E7.14857
G1 X172.598 Y142.213 E7.20549
G1 X172.53 Y142.398 E7.21532
G1 X172.112 Y143.461 E7.27231
G1 X172.039 Y143.635 E7.28172
G1 X171.568 Y144.677 E7.33877
G1 X171.485 Y144.849 E7.3483
G1 X170.963 Y145.865 E7.40529
G1 X170.866 Y146.041 E7.41531
G1 X170.291 Y147.028 E7.4723
G1 X170.192 Y147.19 E7.48178
G1 X169.567 Y148.149 E7.53888
G1 X169.459 Y148.305 E7.54835
G1 X168.789 Y149.229 E7.60529
G1 X168.673 Y149.38 E7.61479
G1 X167.956 Y150.271 E7.67185
G1 X167.832 Y150.419 E7.68148
G1 X167.072 Y151.271 E7.73844
G1 X166.936 Y151.415 E7.74832
G1 X166.131 Y152.228 E7.8054
G1 X165.996 Y152.358 E7.81475
G1 X165.153 Y153.129 E7.87175
G1 X165.005 Y153.257 E7.88151
G1 X164.123 Y153.984 E7.93854
G1 X163.973 Y154.102 E7.94806
G1 X163.057 Y154.783 E8.005
G1 X162.899 Y154.894 E8.01464
G1 X161.947 Y155.529 E8.07173
G1 X161.784 Y155.632 E8.08135
G1 X160.803 Y156.217 E8.13833
G1 X160.637 Y156.31 E8.14782
G1 X159.628 Y156.845 E8.2048
G1 X159.452 Y156.933 E8.21462
G1 X158.415 Y157.416 E8.27169
G1 X158.241 Y157.492 E8.28116
G1 X157.182 Y157.922 E8.33819
G1 X157.001 Y157.99 E8.34783
G1 X155.921 Y158.366 E8.40489
G1 X155.737 Y158.425 E8.41453
G1 X154.641 Y158.745 E8.47149
G1 X154.455 Y158.794 E8.48109
G1 X153.344 Y159.058 E8.53806
G1 X153.158 Y159.097 E8.54754
G1 X152.032 Y159.306 E8.60468
G1 X151.838 Y159.337 E8.61448
G1 X150.705 Y159.487 E8.6715
G1 X150.516 Y159.507 E8.68098
G1 X149.676 Y159.576 E8.72303
G1 X149.613 Y159.931 E8.74101
G1 X149.419 Y160.735 E8.78228
G1 X149.283 Y161.178 E8.8054
G1 X148.992 Y161.954 E8.84674
G1 X148.808 Y162.368 E8.86935
G1 X148.42 Y163.117 E8.91143
G1 X148.196 Y163.494 E8.93331
G1 X147.709 Y164.216 E8.97676
G1 X147.466 Y164.538 E8.99688
G1 X146.886 Y165.227 E9.04182
G1 X146.495 Y165.634 E9.06997
G1 X146.046 Y166.039 E9.10014
G1 X145.871 Y166.188 E9.11161
G1 X145.421 Y166.547 E9.14033
G1 X145.232 Y166.688 E9.15209
G1 X144.784 Y167.002 E9.17938
G1 X144.555 Y167.15 E9.19299
G1 X144.104 Y167.42 E9.21921
G1 X143.848 Y167.56 E9.23377
G1 X143.395 Y167.786 E9.25903
G1 X142.985 Y167.962 E9.28129
G1 X142.112 Y168.276 E9.32757
G1 X141.664 Y168.406 E9.35084
G1 X141.151 Y168.522 E9.37708
G1 X140.64 Y168.602 E9.40289
G1 X139.737 Y168.68 E9.44811
G1 X139.281 Y168.692 E9.47087
G1 X138.75 Y168.674 E9.49737
G1 X138.266 Y168.626 E9.52164
G1 X137.312 Y168.47 E9.56986
G1 X136.909 Y168.382 E9.59044
G1 X136.347 Y168.226 E9.61954
G1 X136.07 Y168.137 E9.63406
G1 X135.542 Y167.946 E9.66207
G1 X135.332 Y167.863 E9.67334
G1 X134.791 Y167.63 E9.70272
G1 X134.663 Y167.572 E9.70973
G1 X133.84 Y167.181 E9.75519
G1 X133.746 Y167.135 E9.76041
G1 X132.957 Y166.733 E9.80459
G1 X132.857 Y166.68 E9.81024
G1 X132.099 Y166.265 E9.85335
G1 X131.996 Y166.206 E9.85927
G1 X131.271 Y165.779 E9.90125
G1 X131.174 Y165.72 E9.90692
G1 X130.371 Y165.213 E9.95429
G1 X129.702 Y164.76 E9.9946
G1 X129.6 Y164.688 E10.00083
G1 X128.957 Y164.221 E10.04048
G1 X128.857 Y164.146 E10.04672
G1 X128.241 Y163.667 E10.08565
G1 X128.136 Y163.582 E10.09239
G1 X127.543 Y163.086 E10.13096
G1 X127.445 Y163.001 E10.13743
G1 X126.877 Y162.492 E10.17548
G1 X126.782 Y162.403 E10.18197
G1 X126.234 Y161.877 E10.21987
G1 X126.138 Y161.782 E10.22661
G1 X125.614 Y161.242 E10.26415
G1 X125.521 Y161.143 E10.27092
G1 X125.016 Y160.584 E10.30851
G1 X124.931 Y160.487 E10.31494
G1 X124.447 Y159.913 E10.3524
G1 X124.362 Y159.808 E10.35914
G1 X123.896 Y159.214 E10.39681
G1 X123.814 Y159.106 E10.40357
G1 X123.369 Y158.495 E10.44128
G1 X123.297 Y158.392 E10.44755
G1 X122.868 Y157.76 E10.48566
G1 X122.797 Y157.651 E10.49215
G1 X122.387 Y157 E10.53053
G1 X122.319 Y156.889 E10.53703
G1 X121.926 Y156.215 E10.57595
G1 X121.87 Y156.115 E10.58167
G1 X121.493 Y155.421 E10.62107
G1 X121.438 Y155.316 E10.62699
G1 X121.076 Y154.597 E10.66715
G1 X121.023 Y154.488 E10.67319
G1 X120.679 Y153.747 E10.71395
G1 X120.634 Y153.645 E10.71951
G1 X120.264 Y152.78 E10.76645
G1 X119.949 Y151.985 E10.80911
G1 X119.577 Y150.965 E10.86328
G1 X119.293 Y150.114 E10.90804
G1 X119.073 Y149.399 E10.94536
G1 X118.494 Y149.502 E10.9747
G1 X117.88 Y149.559 E11.00547
G1 X117.251 Y149.565 E11.03685
G1 X116.637 Y149.52 E11.06756
G1 X116.004 Y149.419 E11.09954
G1 X115.927 Y149.4 E11.1035
G1 X115.707 Y150.114 E11.14077
G1 X115.423 Y150.965 E11.18553
G1 X115.088 Y151.886 E11.23443
G1 X115.052 Y151.982 E11.23954
G1 X114.738 Y152.776 E11.28214
G1 X114.363 Y153.65 E11.32959
G1 X114.32 Y153.748 E11.33493
G1 X113.976 Y154.489 E11.37569
G1 X113.923 Y154.598 E11.38173
G1 X113.562 Y155.315 E11.42178
G1 X113.509 Y155.416 E11.42747
G1 X113.132 Y156.112 E11.46696
G1 X113.071 Y156.22 E11.47315
G1 X112.678 Y156.892 E11.51199
G1 X112.614 Y156.998 E11.51817
G1 X112.203 Y157.651 E11.55666
G1 X112.133 Y157.759 E11.56308
G1 X111.706 Y158.389 E11.60105
G1 X111.63 Y158.496 E11.6076
G1 X111.183 Y159.109 E11.64545
G1 X111.104 Y159.214 E11.652
G1 X110.64 Y159.806 E11.68953
G1 X110.553 Y159.913 E11.69641
G1 X110.067 Y160.489 E11.73401
G1 X109.983 Y160.585 E11.74037
G1 X109.48 Y161.142 E11.77782
G1 X109.387 Y161.241 E11.78459
G1 X108.861 Y161.783 E11.82227
G1 X108.765 Y161.879 E11.82905
G1 X108.219 Y162.403 E11.8668
G1 X108.125 Y162.49 E11.87319
G1 X107.555 Y163.001 E11.91139
G1 X107.455 Y163.088 E11.918
G1 X106.864 Y163.582 E11.95643
G1 X106.761 Y163.665 E11.96303
G1 X106.143 Y164.146 E12.0021
G1 X106.04 Y164.223 E12.00851
G1 X105.399 Y164.688 E12.04802
G1 X105.3 Y164.758 E12.05407
G1 X104.63 Y165.212 E12.09445
G1 X104.523 Y165.281 E12.1008
G1 X103.826 Y165.72 E12.1419
G1 X103.727 Y165.78 E12.14767
G1 X102.904 Y166.263 E12.19528
G1 X102.148 Y166.678 E12.23831
G1 X102.042 Y166.734 E12.24429
G1 X101.252 Y167.136 E12.28851
G1 X101.16 Y167.181 E12.29362
G1 X100.337 Y167.572 E12.33908
G1 X100.206 Y167.631 E12.34624
G1 X99.666 Y167.863 E12.37557
G1 X99.462 Y167.944 E12.38652
G1 X98.933 Y168.136 E12.41459
G1 X98.662 Y168.223 E12.42879
G1 X98.148 Y168.367 E12.45542
G1 X97.894 Y168.429 E12.46847
G1 X97.387 Y168.534 E12.4943
G1 X96.945 Y168.599 E12.51659
G1 X96.012 Y168.68 E12.56331
G1 X95.56 Y168.692 E12.58587
G1 X95.035 Y168.675 E12.61207
G1 X94.522 Y168.623 E12.6378
G1 X93.627 Y168.471 E12.68309
G1 X93.161 Y168.362 E12.70697
G1 X92.656 Y168.209 E12.73329
G1 X92.199 Y168.038 E12.75764
G1 X91.332 Y167.648 E12.80507
G1 X90.961 Y167.455 E12.82593
G1 X90.51 Y167.189 E12.85205
G1 X90.277 Y167.04 E12.86585
G1 X89.786 Y166.7 E12.89565
G1 X89.579 Y166.547 E12.90849
G1 X89.129 Y166.188 E12.93721
G1 X88.954 Y166.039 E12.94867
G1 X88.505 Y165.634 E12.97884
G1 X88.16 Y165.279 E13.00354
G1 X87.601 Y164.624 E13.0465
G1 X87.361 Y164.311 E13.06618
G1 X86.869 Y163.596 E13.10948
G1 X86.645 Y163.229 E13.13093
G1 X86.246 Y162.48 E13.17327
G1 X86.057 Y162.068 E13.19588
G1 X85.757 Y161.295 E13.23725
G1 X85.617 Y160.855 E13.26029
G1 X85.414 Y160.055 E13.30146
G1 X85.325 Y159.576 E13.32577
G1 X84.484 Y159.507 E13.36787
G1 X84.295 Y159.487 E13.37735
G1 X83.162 Y159.337 E13.43437
G1 X82.973 Y159.307 E13.44392
G1 X81.848 Y159.1 E13.50098
G1 X81.652 Y159.059 E13.51097
G1 X80.54 Y158.793 E13.56802
G1 X80.359 Y158.745 E13.57736
G1 X79.263 Y158.425 E13.63432
G1 X79.078 Y158.365 E13.64403
G1 X77.999 Y157.989 E13.70103
G1 X77.818 Y157.921 E13.71068
G1 X76.758 Y157.49 E13.76777
G1 X76.585 Y157.415 E13.77717
G1 X75.548 Y156.932 E13.83425
G1 X75.373 Y156.845 E13.844
G1 X74.363 Y156.31 E13.90102
G1 X74.197 Y156.216 E13.91054
G1 X73.217 Y155.632 E13.96745
G1 X73.053 Y155.529 E13.97711
G1 X72.101 Y154.894 E14.0342
G1 X71.943 Y154.783 E14.04384
G1 X71.027 Y154.102 E14.10078
G1 X70.877 Y153.984 E14.11031
G1 X69.994 Y153.256 E14.1674
G1 X69.846 Y153.128 E14.17716
G1 X69.003 Y152.357 E14.23416
G1 X68.868 Y152.227 E14.24351
G1 X68.063 Y151.414 E14.30059
G1 X67.925 Y151.267 E14.31065
G1 X67.167 Y150.416 E14.3675
G1 X67.046 Y150.273 E14.37685
G1 X66.328 Y149.382 E14.43394
G1 X66.211 Y149.229 E14.44355
G1 X65.54 Y148.304 E14.50056
G1 X65.432 Y148.148 E14.51002
G1 X64.807 Y147.189 E14.56713
G1 X64.707 Y147.026 E14.57667
G1 X64.133 Y146.04 E14.63359
G1 X64.037 Y145.865 E14.64355
G1 X63.515 Y144.849 E14.70054
G1 X63.432 Y144.677 E14.71007
G1 X62.961 Y143.635 E14.76712
G1 X62.888 Y143.462 E14.77648
G1 X62.47 Y142.4 E14.83342
G1 X62.402 Y142.214 E14.8433
G1 X62.039 Y141.129 E14.90038
G1 X61.983 Y140.947 E14.90988
G1 X61.675 Y139.846 E14.96692
G1 X61.629 Y139.661 E14.97643
G1 X61.377 Y138.548 E15.03337
G1 X61.339 Y138.357 E15.04308
G1 X61.144 Y137.23 E15.10014
G1 X61.116 Y137.041 E15.10968
G1 X60.978 Y135.906 E15.16672
G1 X60.959 Y135.713 E15.17639
G1 X60.879 Y134.574 E15.23336
G1 X60.871 Y134.381 E15.243
G1 X60.849 Y133.238 E15.30003
G1 X60.85 Y133.045 E15.30966
G1 X60.886 Y131.903 E15.36666
G1 X60.897 Y131.71 E15.37631
G1 X60.991 Y130.571 E15.43333
G1 X61.011 Y130.382 E15.44281
G1 X61.162 Y129.249 E15.49983
G1 X61.192 Y129.063 E15.50923
G1 X61.399 Y127.939 E15.56625
G1 X61.44 Y127.743 E15.57624
G1 X61.706 Y126.631 E15.63329
G1 X61.755 Y126.447 E15.64279
G1 X62.076 Y125.351 E15.69976
G1 X62.135 Y125.169 E15.70931
G1 X62.511 Y124.09 E15.76631
G1 X62.578 Y123.912 E15.7758
G1 X63.008 Y122.852 E15.83287
G1 X63.087 Y122.67 E15.84277
G1 X63.571 Y121.635 E15.89977
G1 X63.654 Y121.467 E15.90912
G1 X64.188 Y120.458 E15.96608
G1 X64.285 Y120.286 E15.97593
G1 X64.872 Y119.304 E16.03301
G1 X64.974 Y119.144 E16.04247
