;FLAVOR:Marlin
;TIME:5843
;Filament used: 5.62512m, 0m
;Layer height: 0.2
;MINX:59.649
;MINY:65.631
;MINZ:0.3
;MAXX:175.351
;MAXY:165.372
;MAXZ:3.9
;POSTPROCESSED
;Generated with Cura_SteamEngine 4.7.1
T0
M140 S60
M105
M190 S60
M104 S190
M105
M109 S190
M82 ;absolute extrusion mode
M201 X500.00 Y500.00 Z100.00 E5000.00 	;Setup machine max acceleration
M203 X500.00 Y500.00 Z10.00 E50.00 	;Setup machine max feedrate
M204 P500.00 R1000.00 T500.00 		;Setup Print/Retract/Travel acceleration
M205 X8.00 Y8.00 Z0.40 E5.00 		;Setup Jerk
M220 S100 				;Reset Feedrate
M221 S100 				;Reset Flowrate
G28				;Home the Machine
G29 				;Bed Level
G92 E0
M300 P150 S587
G92 E0
G1 F1500 E-6.5
;LAYER_COUNT:19
;LAYER:0
M107
G0 F3600 X87.929 Y78.691 Z0.3
;TYPE:SKIRT
G1 F1500 E0
G1 X88.063 Y78.545 E0.00989
G1 X89.016 Y77.546 E0.07877
G1 X89.151 Y77.409 E0.08836
G1 X90.144 Y76.445 E0.15741
G1 X90.289 Y76.31 E0.16729
G1 X91.324 Y75.382 E0.23665
G1 X91.475 Y75.252 E0.24659
G1 X92.534 Y74.376 E0.31515
G1 X92.689 Y74.253 E0.32503
G1 X93.788 Y73.415 E0.39398
G1 X93.944 Y73.301 E0.40362
G1 X95.082 Y72.501 E0.47302
G1 X95.248 Y72.389 E0.48301
G1 X96.403 Y71.644 E0.55158
G1 X96.57 Y71.541 E0.56137
G1 X97.76 Y70.838 E0.63032
G1 X97.934 Y70.74 E0.64028
G1 X99.153 Y70.084 E0.70935
G1 X99.334 Y69.991 E0.7195
G1 X100.583 Y69.383 E0.7888
G1 X100.756 Y69.303 E0.79831
G1 X102.021 Y68.746 E0.86727
G1 X102.2 Y68.671 E0.87695
G1 X103.479 Y68.166 E0.94556
G1 X103.665 Y68.097 E0.95545
G1 X104.978 Y67.638 E1.02485
G1 X105.169 Y67.576 E1.03487
G1 X106.483 Y67.175 E1.10341
G1 X106.676 Y67.12 E1.11342
G1 X108.013 Y66.77 E1.18237
G1 X108.199 Y66.725 E1.19192
G1 X109.55 Y66.426 E1.26095
G1 X109.749 Y66.386 E1.27108
G1 X111.118 Y66.141 E1.34046
G1 X111.309 Y66.111 E1.35011
G1 X112.679 Y65.92 E1.41912
G1 X112.878 Y65.896 E1.42912
G1 X114.246 Y65.761 E1.4977
G1 X114.442 Y65.746 E1.50751
G1 X115.83 Y65.664 E1.57687
G1 X116.029 Y65.656 E1.58681
G1 X117.353 Y65.631 E1.65288
G1 X117.729 Y65.631 E1.67164
G1 X118.98 Y65.656 E1.73406
G1 X119.175 Y65.664 E1.7438
G1 X120.561 Y65.746 E1.81307
G1 X120.757 Y65.761 E1.82287
G1 X122.125 Y65.896 E1.89145
G1 X122.325 Y65.92 E1.9015
G1 X123.693 Y66.111 E1.97042
G1 X123.881 Y66.141 E1.97991
G1 X125.253 Y66.386 E2.04945
G1 X125.449 Y66.425 E2.05942
G1 X126.798 Y66.722 E2.12833
G1 X126.996 Y66.77 E2.13849
G1 X128.333 Y67.122 E2.20747
G1 X128.523 Y67.176 E2.21733
G1 X129.837 Y67.578 E2.28588
G1 X130.02 Y67.638 E2.29549
G1 X131.334 Y68.096 E2.36491
G1 X131.522 Y68.166 E2.37492
G1 X132.8 Y68.67 E2.44346
G1 X132.983 Y68.746 E2.45335
G1 X134.249 Y69.304 E2.52237
G1 X134.423 Y69.385 E2.53194
G1 X135.672 Y69.994 E2.60127
G1 X135.854 Y70.087 E2.61147
G1 X137.069 Y70.742 E2.68033
G1 X137.239 Y70.838 E2.69007
G1 X138.431 Y71.542 E2.75914
G1 X138.597 Y71.644 E2.76886
G1 X139.753 Y72.389 E2.83747
G1 X139.92 Y72.502 E2.84753
G1 X141.058 Y73.302 E2.91693
G1 X141.216 Y73.418 E2.92671
G1 X142.315 Y74.257 E2.99569
G1 X142.468 Y74.378 E3.00542
G1 X143.527 Y75.254 E3.07399
G1 X143.678 Y75.384 E3.08393
G1 X144.713 Y76.312 E3.15328
G1 X144.859 Y76.449 E3.16327
G1 X145.845 Y77.407 E3.23186
G1 X145.977 Y77.539 E3.24117
G1 X146.937 Y78.544 E3.31051
G1 X147.075 Y78.695 E3.32072
G1 X147.983 Y79.727 E3.38929
G1 X148.11 Y79.879 E3.39918
G1 X148.982 Y80.953 E3.4682
G1 X149.102 Y81.108 E3.47797
G1 X149.931 Y82.215 E3.54697
G1 X150.051 Y82.38 E3.55715
G1 X150.834 Y83.52 E3.62615
G1 X150.939 Y83.678 E3.63561
G1 X151.681 Y84.851 E3.70486
G1 X151.786 Y85.026 E3.71504
G1 X152.474 Y86.219 E3.78375
G1 X152.635 Y86.513 E3.80047
G1 X153.214 Y87.617 E3.86267
G1 X153.3 Y87.789 E3.87226
G1 X153.895 Y89.038 E3.94128
G1 X154.033 Y89.344 E3.95803
G1 X154.524 Y90.493 E4.02037
G1 X154.593 Y90.663 E4.02952
G1 X155.09 Y91.955 E4.09859
G1 X155.16 Y92.148 E4.10883
G1 X155.605 Y93.464 E4.17814
G1 X155.664 Y93.652 E4.18797
G1 X156.054 Y94.975 E4.25678
G1 X156.107 Y95.17 E4.26686
G1 X156.444 Y96.51 E4.33579
G1 X156.488 Y96.698 E4.34543
G1 X156.79 Y98.131 E4.41849
G1 X156.828 Y98.335 E4.42884
G1 X157.056 Y99.695 E4.49764
G1 X157.084 Y99.883 E4.50712
G1 X157.251 Y101.179 E4.57232
G1 X157.273 Y101.38 E4.5824
G1 X157.401 Y102.834 E4.65522
G1 X157.414 Y103.031 E4.66507
G1 X157.477 Y104.337 E4.73031
G1 X157.485 Y104.6 E4.74343
G1 X157.499 Y105.906 E4.80859
G1 X157.497 Y106.104 E4.81847
G1 X157.457 Y107.488 E4.88755
G1 X157.447 Y107.693 E4.89779
G1 X157.35 Y109.08 E4.96716
G1 X157.333 Y109.269 E4.97662
G1 X157.185 Y110.636 E5.04522
G1 X157.159 Y110.835 E5.05523
G1 X157.007 Y111.856 E5.10673
G1 X157.176 Y111.917 E5.1157
G1 X158.221 Y112.32 E5.17158
G1 X158.445 Y112.412 E5.18366
G1 X159.451 Y112.857 E5.23854
G1 X159.677 Y112.964 E5.25101
G1 X160.678 Y113.468 E5.30693
G1 X160.891 Y113.582 E5.31898
G1 X161.849 Y114.124 E5.37389
G1 X162.06 Y114.25 E5.38615
G1 X162.999 Y114.844 E5.44159
G1 X163.205 Y114.982 E5.45396
G1 X164.121 Y115.627 E5.50985
G1 X164.321 Y115.776 E5.52229
G1 X165.196 Y116.46 E5.5777
G1 X165.381 Y116.611 E5.58961
G1 X166.213 Y117.328 E5.64441
G1 X166.398 Y117.496 E5.65688
G1 X167.203 Y118.263 E5.71235
G1 X167.378 Y118.438 E5.7247
G1 X168.15 Y119.25 E5.7806
G1 X168.315 Y119.433 E5.79289
G1 X169.033 Y120.267 E5.84779
G1 X169.191 Y120.46 E5.86024
G1 X169.873 Y121.337 E5.91566
G1 X170.016 Y121.53 E5.92765
G1 X170.66 Y122.446 E5.98351
G1 X170.798 Y122.652 E5.99588
G1 X171.391 Y123.591 E6.05129
G1 X171.518 Y123.804 E6.06366
G1 X172.059 Y124.763 E6.11859
G1 X172.173 Y124.979 E6.13078
G1 X172.675 Y125.98 E6.18664
G1 X172.782 Y126.205 E6.19907
G1 X173.226 Y127.213 E6.25403
G1 X173.318 Y127.438 E6.26615
G1 X173.719 Y128.483 E6.322
G1 X173.803 Y128.717 E6.3344
G1 X174.146 Y129.764 E6.38937
G1 X174.216 Y129.998 E6.40155
G1 X174.512 Y131.077 E6.45737
G1 X174.57 Y131.311 E6.4694
G1 X174.81 Y132.386 E6.52435
G1 X174.859 Y132.638 E6.53716
G1 X175.045 Y133.733 E6.59257
G1 X175.08 Y133.97 E6.60452
G1 X175.213 Y135.071 E6.65985
G1 X175.237 Y135.319 E6.67228
G1 X175.316 Y136.437 E6.7282
G1 X175.327 Y136.68 E6.74034
G1 X175.351 Y137.78 E6.79523
G1 X175.35 Y138.027 E6.80755
G1 X175.319 Y139.148 E6.8635
G1 X175.306 Y139.392 E6.87569
G1 X175.222 Y140.489 E6.93058
G1 X175.196 Y140.742 E6.94327
G1 X175.055 Y141.843 E6.99865
G1 X175.021 Y142.072 E7.0102
G1 X174.829 Y143.167 E7.06566
G1 X174.777 Y143.424 E7.07874
G1 X174.528 Y144.506 E7.13413
G1 X174.468 Y144.741 E7.14623
G1 X174.167 Y145.809 E7.20159
G1 X174.097 Y146.037 E7.21349
G1 X173.742 Y147.1 E7.2694
G1 X173.658 Y147.33 E7.28162
G1 X173.259 Y148.355 E7.33649
G1 X173.16 Y148.592 E7.34931
G1 X172.704 Y149.606 E7.40478
G1 X172.6 Y149.823 E7.41678
G1 X172.097 Y150.811 E7.47209
G1 X171.979 Y151.028 E7.48442
G1 X171.421 Y152.002 E7.54042
G1 X171.292 Y152.215 E7.55284
G1 X170.699 Y153.14 E7.60766
G1 X170.565 Y153.339 E7.61963
G1 X169.921 Y154.245 E7.67509
G1 X169.774 Y154.442 E7.68735
G1 X169.087 Y155.314 E7.74273
G1 X168.927 Y155.506 E7.7552
G1 X168.197 Y156.343 E7.81061
G1 X168.029 Y156.527 E7.82304
G1 X167.259 Y157.326 E7.8784
G1 X167.088 Y157.495 E7.8904
G1 X166.272 Y158.264 E7.94634
G1 X166.084 Y158.433 E7.95895
G1 X165.238 Y159.153 E8.01437
G1 X165.05 Y159.305 E8.02643
G1 X164.177 Y159.978 E8.08143
G1 X163.974 Y160.126 E8.09396
G1 X163.063 Y160.758 E8.14928
G1 X162.863 Y160.89 E8.16123
G1 X161.914 Y161.483 E8.21706
G1 X161.7 Y161.61 E8.22948
G1 X160.732 Y162.15 E8.28478
G1 X160.507 Y162.268 E8.29745
G1 X159.509 Y162.76 E8.35296
G1 X159.293 Y162.86 E8.36484
G1 X158.284 Y163.299 E8.41974
G1 X158.063 Y163.389 E8.43164
G1 X157.014 Y163.787 E8.48762
G1 X156.767 Y163.873 E8.50066
G1 X155.719 Y164.209 E8.55557
G1 X155.493 Y164.276 E8.56733
G1 X154.413 Y164.567 E8.62313
G1 X154.174 Y164.625 E8.6354
G1 X153.097 Y164.859 E8.69039
G1 X152.845 Y164.907 E8.70319
G1 X151.749 Y165.087 E8.7586
G1 X151.514 Y165.12 E8.77044
G1 X150.408 Y165.248 E8.82599
G1 X150.16 Y165.27 E8.83841
G1 X149.046 Y165.343 E8.8941
G1 X148.805 Y165.353 E8.90614
G1 X147.702 Y165.372 E8.96118
G1 X147.45 Y165.37 E8.97375
G1 X146.333 Y165.333 E9.02951
G1 X146.092 Y165.319 E9.04155
G1 X144.991 Y165.229 E9.09666
G1 X144.739 Y165.202 E9.10931
G1 X143.641 Y165.056 E9.16457
G1 X143.402 Y165.019 E9.17663
G1 X142.307 Y164.819 E9.23217
G1 X142.063 Y164.768 E9.2446
G1 X140.976 Y164.513 E9.30031
G1 X140.741 Y164.452 E9.31242
G1 X139.673 Y164.146 E9.36785
G1 X139.436 Y164.071 E9.38025
G1 X138.395 Y163.716 E9.43512
G1 X138.168 Y163.633 E9.44718
G1 X137.125 Y163.22 E9.50314
G1 X136.892 Y163.12 E9.51579
G1 X135.892 Y162.664 E9.57063
G1 X135.675 Y162.559 E9.58265
G1 X134.678 Y162.045 E9.63862
G1 X134.461 Y161.926 E9.65096
G1 X133.509 Y161.374 E9.70587
G1 X133.303 Y161.248 E9.71791
G1 X132.364 Y160.641 E9.7737
G1 X132.155 Y160.498 E9.78633
G1 X131.253 Y159.848 E9.8418
G1 X131.059 Y159.702 E9.85391
G1 X130.191 Y159.01 E9.90929
G1 X130 Y158.849 E9.92176
G1 X129.166 Y158.113 E9.97725
G1 X128.986 Y157.947 E9.98947
G1 X128.191 Y157.173 E10.04482
G1 X128.021 Y156.998 E10.05699
G1 X127.271 Y156.193 E10.11188
G1 X127.105 Y156.007 E10.12432
G1 X126.382 Y155.149 E10.1803
G1 X126.23 Y154.958 E10.19248
G1 X125.563 Y154.083 E10.24737
G1 X125.42 Y153.886 E10.25951
G1 X124.785 Y152.963 E10.31541
G1 X124.648 Y152.753 E10.32792
G1 X124.071 Y151.817 E10.38277
G1 X123.818 Y151.371 E10.40836
G1 X123.508 Y151.617 E10.4281
G1 X123.087 Y151.916 E10.45386
G1 X122.643 Y152.199 E10.48013
G1 X122.172 Y152.465 E10.50712
G1 X121.717 Y152.69 E10.53244
G1 X121.27 Y152.885 E10.55677
G1 X120.781 Y153.07 E10.58285
G1 X120.281 Y153.229 E10.60903
G1 X119.797 Y153.356 E10.63399
G1 X119.296 Y153.461 E10.65953
G1 X118.775 Y153.542 E10.68584
G1 X118.251 Y153.595 E10.71211
G1 X117.739 Y153.62 E10.73769
G1 X117.242 Y153.62 E10.76248
G1 X116.729 Y153.594 E10.78811
G1 X116.203 Y153.539 E10.8145
G1 X115.683 Y153.457 E10.84076
G1 X115.184 Y153.352 E10.8662
G1 X114.7 Y153.224 E10.89118
G1 X114.2 Y153.063 E10.91738
G1 X113.711 Y152.877 E10.94348
G1 X113.253 Y152.676 E10.96844
G1 X112.799 Y152.449 E10.99376
G1 X112.343 Y152.191 E11.0199
G1 X111.9 Y151.908 E11.04613
G1 X111.482 Y151.609 E11.07177
G1 X111.182 Y151.371 E11.09087
G1 X110.925 Y151.826 E11.11694
G1 X110.345 Y152.764 E11.17196
G1 X110.213 Y152.966 E11.184
G1 X109.58 Y153.887 E11.23976
G1 X109.434 Y154.088 E11.25215
G1 X108.765 Y154.965 E11.30718
G1 X108.61 Y155.158 E11.31953
G1 X107.888 Y156.013 E11.37536
G1 X107.731 Y156.191 E11.3872
G1 X106.981 Y156.998 E11.44217
G1 X106.801 Y157.181 E11.45497
G1 X106.005 Y157.954 E11.51033
G1 X105.832 Y158.114 E11.52209
G1 X105 Y158.849 E11.57747
G1 X104.805 Y159.013 E11.59018
G1 X103.935 Y159.706 E11.64568
G1 X103.742 Y159.853 E11.65778
G1 X102.842 Y160.501 E11.71311
G1 X102.635 Y160.642 E11.7256
G1 X101.693 Y161.251 E11.78157
G1 X101.485 Y161.378 E11.79372
G1 X100.534 Y161.929 E11.84856
G1 X100.318 Y162.047 E11.86084
G1 X99.321 Y162.561 E11.9168
G1 X99.099 Y162.669 E11.92912
G1 X98.098 Y163.124 E11.98397
G1 X97.875 Y163.219 E11.99607
G1 X96.833 Y163.633 E12.05201
G1 X96.599 Y163.719 E12.06444
G1 X95.557 Y164.074 E12.11936
G1 X95.318 Y164.149 E12.13186
G1 X94.25 Y164.454 E12.18727
G1 X94.01 Y164.516 E12.19964
G1 X92.923 Y164.769 E12.25532
G1 X92.696 Y164.816 E12.26688
G1 X91.6 Y165.018 E12.32249
G1 X91.35 Y165.058 E12.33512
G1 X90.254 Y165.203 E12.39027
G1 X90.005 Y165.229 E12.40276
G1 X88.902 Y165.319 E12.45797
G1 X88.661 Y165.333 E12.47002
G1 X87.544 Y165.37 E12.52578
G1 X87.292 Y165.372 E12.53835
G1 X86.19 Y165.353 E12.59334
G1 X85.949 Y165.343 E12.60537
G1 X84.835 Y165.27 E12.66107
G1 X84.587 Y165.248 E12.67349
G1 X83.481 Y165.12 E12.72904
G1 X83.241 Y165.086 E12.74113
G1 X82.146 Y164.905 E12.7965
G1 X81.905 Y164.859 E12.80874
G1 X80.827 Y164.626 E12.86376
G1 X80.578 Y164.566 E12.87654
G1 X79.498 Y164.274 E12.93236
G1 X79.27 Y164.206 E12.94423
G1 X78.224 Y163.869 E12.99905
G1 X77.989 Y163.787 E13.01147
G1 X76.939 Y163.39 E13.06748
G1 X76.708 Y163.296 E13.07992
G1 X75.699 Y162.856 E13.13484
G1 X75.489 Y162.759 E13.14638
G1 X74.49 Y162.267 E13.20193
G1 X74.259 Y162.145 E13.21497
G1 X73.293 Y161.605 E13.27018
G1 X73.087 Y161.484 E13.2821
G1 X72.136 Y160.891 E13.33801
G1 X71.926 Y160.752 E13.35058
G1 X71.015 Y160.118 E13.40595
G1 X70.82 Y159.975 E13.41801
G1 X69.949 Y159.304 E13.47287
G1 X69.758 Y159.149 E13.48514
G1 X68.915 Y158.431 E13.54038
G1 X68.73 Y158.265 E13.55278
G1 X67.91 Y157.493 E13.60897
G1 X67.732 Y157.318 E13.62143
G1 X66.963 Y156.518 E13.67679
G1 X66.802 Y156.342 E13.68869
G1 X66.071 Y155.505 E13.74413
G1 X65.907 Y155.307 E13.75696
G1 X65.221 Y154.435 E13.81231
G1 X65.075 Y154.24 E13.82446
G1 X64.432 Y153.335 E13.87985
G1 X64.297 Y153.135 E13.89189
G1 X63.704 Y152.209 E13.94675
G1 X63.576 Y151.997 E13.9591
G1 X63.019 Y151.024 E14.01504
G1 X62.903 Y150.81 E14.02718
G1 X62.398 Y149.819 E14.08267
G1 X62.291 Y149.596 E14.09501
G1 X61.837 Y148.584 E14.15035
G1 X61.742 Y148.357 E14.16262
G1 X61.341 Y147.331 E14.21758
G1 X61.255 Y147.092 E14.23025
G1 X60.901 Y146.03 E14.2861
G1 X60.83 Y145.799 E14.29816
G1 X60.53 Y144.729 E14.3536
G1 X60.471 Y144.497 E14.36554
G1 X60.223 Y143.416 E14.42088
G1 X60.172 Y143.167 E14.43356
G1 X59.979 Y142.073 E14.48898
G1 X59.943 Y141.835 E14.50099
G1 X59.803 Y140.734 E14.55636
G1 X59.778 Y140.484 E14.5689
G1 X59.694 Y139.386 E14.62384
G1 X59.681 Y139.145 E14.63588
G1 X59.65 Y138.036 E14.69123
G1 X59.649 Y137.788 E14.7036
G1 X59.673 Y136.676 E14.75909
G1 X59.684 Y136.432 E14.77128
G1 X59.762 Y135.327 E14.82654
G1 X59.786 Y135.082 E14.83882
G1 X59.92 Y133.968 E14.8948
G1 X59.955 Y133.724 E14.9071
G1 X60.14 Y132.64 E14.96196
G1 X60.187 Y132.401 E14.97411
G1 X60.427 Y131.316 E15.02955
G1 X60.489 Y131.066 E15.0424
G1 X60.787 Y129.986 E15.0983
G1 X60.857 Y129.755 E15.11034
G1 X61.2 Y128.711 E15.16517
G1 X61.282 Y128.48 E15.17739
G1 X61.684 Y127.433 E15.23335
G1 X61.778 Y127.206 E15.2456
G1 X62.222 Y126.2 E15.30047
G1 X62.327 Y125.978 E15.31272
G1 X62.83 Y124.975 E15.3687
G1 X62.945 Y124.757 E15.38099
G1 X63.486 Y123.799 E15.43588
G1 X63.61 Y123.591 E15.44796
G1 X64.202 Y122.652 E15.50334
G1 X64.343 Y122.441 E15.51601
G1 X64.982 Y121.533 E15.5714
G1 X65.121 Y121.345 E15.58306
G1 X65.808 Y120.46 E15.63896
G1 X65.971 Y120.261 E15.65179
G1 X66.69 Y119.427 E15.70673
G1 X66.85 Y119.25 E15.71863
G1 X67.614 Y118.445 E15.774
G1 X67.796 Y118.263 E15.78684
G1 X68.609 Y117.49 E15.84281
G1 X68.79 Y117.326 E15.855
G1 X69.622 Y116.609 E15.90979
G1 X69.806 Y116.458 E15.92167
G1 X70.682 Y115.773 E15.97715
G1 X70.883 Y115.624 E15.98963
G1 X71.799 Y114.979 E16.04552
G1 X72.003 Y114.843 E16.05775
G1 X72.941 Y114.249 E16.11314
G1 X73.156 Y114.12 E16.12565
G1 X74.115 Y113.578 E16.18061
G1 X74.328 Y113.464 E16.19266
G1 X75.328 Y112.961 E16.24851
G1 X75.556 Y112.854 E16.26107
G1 X76.564 Y112.409 E16.31605
G1 X76.786 Y112.317 E16.32804
G1 X77.83 Y111.915 E16.38385
G1 X77.994 Y111.856 E16.39254
G1 X77.841 Y110.831 E16.44425
G1 X77.815 Y110.63 E16.45436
G1 X77.667 Y109.256 E16.52331
G1 X77.65 Y109.068 E16.53272
G1 X77.554 Y107.687 E16.60179
G1 X77.544 Y107.485 E16.61188
G1 X77.504 Y106.111 E16.68046
G1 X77.502 Y105.92 E16.68999
G1 X77.514 Y104.611 E16.75529
G1 X77.522 Y104.337 E16.76897
G1 X77.59 Y102.952 E16.83815
G1 X77.604 Y102.755 E16.848
G1 X77.726 Y101.381 E16.91682
G1 X77.748 Y101.18 E16.92691
G1 X77.926 Y99.808 E16.99593
G1 X77.955 Y99.613 E17.00577
G1 X78.2 Y98.181 E17.07825
G1 X78.225 Y98.055 E17.08466
G1 X78.512 Y96.694 E17.15405
G1 X78.555 Y96.506 E17.16367
G1 X78.893 Y95.166 E17.23262
G1 X78.945 Y94.976 E17.24245
G1 X79.335 Y93.651 E17.31136
G1 X79.397 Y93.458 E17.32147
G1 X79.841 Y92.148 E17.39048
G1 X79.906 Y91.966 E17.40012
G1 X80.402 Y90.67 E17.46935
G1 X80.478 Y90.484 E17.47938
