;FLAVOR:Marlin
;TIME:6411
;Filament used: 5.0813m, 0m
;Layer height: 0.18
;MINX:41.851
;MINY:54.573
;MINZ:0.3
;MAXX:206.815
;MAXY:191.069
;MAXZ:1.56
;POSTPROCESSED
;Generated with Cura_SteamEngine 4.8.0
T0
M140 S60
M105
M190 S60
M104 S200
M105
M109 S200
M82 ;absolute extrusion mode
M201 X500.00 Y500.00 Z100.00 E5000.00 	;Setup machine max acceleration
M203 X500.00 Y500.00 Z10.00 E50.00 	;Setup machine max feedrate
M204 P500.00 R1000.00 T500.00 		;Setup Print/Retract/Travel acceleration
M205 X8.00 Y8.00 Z0.40 E5.00 		;Setup Jerk
M220 S100 				;Reset Feedrate
M221 S100 				;Reset Flowrate
G28				;Home the Machine
#G29 				;Bed Level
G92 E0
M300 P150 S587
G92 E0
G1 F1500 E-6.5
;LAYER_COUNT:8
;LAYER:0
M107
G0 F2160 X44.968 Y69.862 Z0.3
;TYPE:SKIRT
G1 F1500 E0
G1 F900 X45.42 Y69.603 E0.02599
G1 X45.957 Y69.37 E0.05519
G1 X46.288 Y69.254 E0.07269
G1 X46.856 Y69.105 E0.10199
G1 X47.579 Y69.003 E0.13842
G1 X48.206 Y68.981 E0.16972
G1 X49.473 Y69.048 E0.23302
G1 X50.592 Y69.126 E0.28898
G1 X53.316 Y69.236 E0.42499
G1 X56.048 Y69.27 E0.5613
G1 X58.813 Y69.226 E0.69927
G1 X61.473 Y69.109 E0.8321
G1 X64.226 Y68.91 E0.96981
G1 X66.954 Y68.633 E1.10661
G1 X70.008 Y68.232 E1.26028
G1 X87.956 Y65.578 E2.16545
G1 X88.633 Y65.488 E2.19952
G1 X89.19 Y65.444 E2.22739
G1 X89.853 Y65.439 E2.26047
G1 X90.478 Y65.475 E2.29171
G1 X93.252 Y65.595 E2.43023
G1 X95.983 Y65.635 E2.5665
G1 X98.713 Y65.599 E2.70271
G1 X101.444 Y65.485 E2.83908
G1 X104.127 Y65.297 E2.97326
G1 X106.887 Y65.025 E3.11162
G1 X109.558 Y64.685 E3.24596
G1 X112.265 Y64.262 E3.38265
G1 X115.717 Y63.609 E3.55792
G1 X116.253 Y63.499 E3.58522
G1 X116.753 Y63.409 E3.61057
G1 X117.927 Y63.23 E3.66982
G1 X118.142 Y63.201 E3.68064
G1 X120.83 Y62.756 E3.81657
G1 X123.501 Y62.237 E3.95232
G1 X126.146 Y61.643 E4.08756
G1 X128.829 Y60.963 E4.22565
G1 X131.416 Y60.227 E4.35984
G1 X134.021 Y59.407 E4.49609
G1 X136.615 Y58.508 E4.63306
G1 X139.155 Y57.545 E4.76858
G1 X141.691 Y56.503 E4.90537
G1 X144.701 Y55.164 E5.06972
G1 X145.147 Y54.986 E5.09368
G1 X145.653 Y54.83 E5.1201
G1 X146.218 Y54.701 E5.14901
G1 X146.88 Y54.609 E5.18236
G1 X147.131 Y54.596 E5.1949
G1 X148.372 Y54.573 E5.25682
G1 X152.7 Y54.573 E5.47274
G1 X153.353 Y54.582 E5.50533
G1 X153.975 Y54.622 E5.53642
G1 X154.226 Y54.646 E5.549
G1 X154.742 Y54.737 E5.57514
G1 X155.332 Y54.891 E5.60556
G1 X155.856 Y55.079 E5.63334
G1 X156.388 Y55.324 E5.66256
G1 X156.855 Y55.591 E5.6894
G1 X157.349 Y55.932 E5.71934
G1 X157.756 Y56.273 E5.74583
G1 X158.13 Y56.637 E5.77187
G1 X158.635 Y57.215 E5.81016
G1 X160.414 Y59.343 E5.94854
G1 X162.216 Y61.378 E6.08415
G1 X164.1 Y63.39 E6.22167
G1 X165.984 Y65.292 E6.35523
G1 X167.988 Y67.201 E6.49331
G1 X170 Y69.011 E6.62833
G1 X172.091 Y70.79 E6.7653
G1 X174.213 Y72.495 E6.90111
G1 X176.389 Y74.142 E7.03726
G1 X178.589 Y75.712 E7.1721
G1 X180.866 Y77.243 E7.30899
G1 X183.176 Y78.702 E7.4453
G1 X185.502 Y80.08 E7.58018
G1 X187.892 Y81.407 E7.71656
G1 X190.328 Y82.67 E7.85346
G1 X191.57 Y83.282 E7.92254
G1 X192.462 Y83.713 E7.97196
G1 X192.926 Y83.982 E7.99872
G1 X193.345 Y84.317 E8.02549
G1 X193.71 Y84.71 E8.05224
G1 X194.106 Y85.325 E8.08874
G1 X194.671 Y86.438 E8.15101
G1 X195.929 Y88.832 E8.28593
G1 X196.089 Y89.115 E8.30215
G1 X196.699 Y90.235 E8.36578
G1 X196.979 Y90.843 E8.39917
G1 X197.189 Y91.353 E8.42669
G1 X197.308 Y91.672 E8.44368
G1 X197.474 Y92.153 E8.46906
G1 X197.647 Y92.728 E8.49902
G1 X197.858 Y93.585 E8.54305
G1 X197.961 Y94.134 E8.57092
G1 X198.182 Y95.586 E8.6442
G1 X198.634 Y98.319 E8.7824
G1 X199.159 Y101.01 E8.91918
G1 X199.754 Y103.665 E9.05493
G1 X200.43 Y106.323 E9.19176
G1 X201.17 Y108.922 E9.32658
G1 X201.991 Y111.524 E9.4627
G1 X202.885 Y114.101 E9.59878
G1 X203.852 Y116.656 E9.73508
G1 X204.88 Y119.155 E9.86989
G1 X206.224 Y122.177 E10.03489
G1 X206.399 Y122.614 E10.05838
G1 X206.554 Y123.12 E10.08478
G1 X206.689 Y123.712 E10.11508
G1 X206.77 Y124.245 E10.14197
G1 X206.788 Y124.537 E10.15657
G1 X206.815 Y125.9 E10.22458
G1 X206.815 Y130.178 E10.43801
G1 X206.806 Y130.804 E10.46925
G1 X206.763 Y131.465 E10.50229
G1 X206.74 Y131.713 E10.51472
G1 X206.647 Y132.236 E10.54122
G1 X206.481 Y132.859 E10.57339
G1 X206.303 Y133.347 E10.5993
G1 X206.07 Y133.852 E10.62705
G1 X205.795 Y134.332 E10.65465
G1 X205.519 Y134.738 E10.67914
G1 X205.122 Y135.224 E10.71045
G1 X204.764 Y135.592 E10.73606
G1 X204.193 Y136.069 E10.77318
G1 X203.698 Y136.402 E10.80295
G1 X203.264 Y136.66 E10.82814
G1 X202.348 Y137.127 E10.87943
G1 X202.152 Y137.223 E10.89032
G1 X199.712 Y138.505 E11.02783
G1 X197.331 Y139.843 E11.16409
G1 X195 Y141.241 E11.2997
G1 X192.707 Y142.707 E11.43548
G1 X190.448 Y144.242 E11.57174
G1 X188.251 Y145.83 E11.70698
G1 X186.072 Y147.497 E11.84385
G1 X183.961 Y149.21 E11.97949
G1 X181.875 Y151.003 E12.11672
G1 X179.879 Y152.82 E12.25138
G1 X177.916 Y154.711 E12.38736
G1 X175.998 Y156.666 E12.524
G1 X174.141 Y158.669 E12.66027
G1 X172.353 Y160.711 E12.79568
G1 X170.61 Y162.817 E12.93207
G1 X168.932 Y164.967 E13.06813
G1 X167.31 Y167.173 E13.20474
G1 X165.773 Y169.389 E13.33928
G1 X164.266 Y171.699 E13.47689
G1 X162.861 Y173.994 E13.61114
G1 X161.499 Y176.365 E13.74755
G1 X160.068 Y179.037 E13.89877
G1 X159.491 Y180.156 E13.96159
G1 X159.203 Y180.653 E13.99024
G1 X158.821 Y181.23 E14.02477
G1 X158.52 Y181.634 E14.0499
G1 X153.535 Y188.038 E14.45479
G1 X153.164 Y188.502 E14.48443
G1 X152.944 Y188.752 E14.50104
G1 X152.489 Y189.224 E14.53375
G1 X152.012 Y189.639 E14.56529
G1 X151.459 Y190.02 E14.5988
G1 X151.011 Y190.272 E14.62444
G1 X150.421 Y190.55 E14.65698
G1 X150.34 Y190.585 E14.66138
G1 X149.849 Y190.756 E14.68732
G1 X149.216 Y190.92 E14.71994
G1 X148.598 Y191.022 E14.75119
G1 X148.003 Y191.069 E14.78097
G1 X147.42 Y191.069 E14.81006
G1 X146.856 Y191.025 E14.83828
G1 X146.331 Y190.94 E14.86481
G1 X145.753 Y190.802 E14.89446
G1 X145.141 Y190.596 E14.92668
G1 X144.54 Y190.332 E14.95942
G1 X144.331 Y190.232 E14.97098
G1 X143.33 Y189.713 E15.02724
G1 X140.868 Y188.482 E15.16457
G1 X138.402 Y187.334 E15.30027
G1 X135.883 Y186.247 E15.43715
G1 X133.325 Y185.227 E15.57454
G1 X130.782 Y184.299 E15.70959
G1 X128.213 Y183.44 E15.84474
G1 X125.619 Y182.654 E15.97996
G1 X122.971 Y181.934 E16.11687
G1 X120.295 Y181.285 E16.25424
G1 X117.632 Y180.719 E16.39007
G1 X114.978 Y180.234 E16.52467
G1 X112.278 Y179.819 E16.66096
G1 X109.565 Y179.479 E16.79737
G1 X106.878 Y179.22 E16.93204
G1 X104.121 Y179.032 E17.06991
G1 X101.426 Y178.926 E17.20447
G1 X98.661 Y178.894 E17.34242
G1 X95.967 Y178.94 E17.47685
G1 X93.24 Y179.064 E17.61304
G1 X90.515 Y179.265 E17.74936
G1 X87.827 Y179.54 E17.88416
G1 X85.1 Y179.895 E18.02136
G1 X82.412 Y180.326 E18.15718
G1 X79.722 Y180.833 E18.29375
G1 X77.052 Y181.416 E18.43009
G1 X74.462 Y182.058 E18.56322
G1 X71.801 Y182.8 E18.70104
G1 X69.185 Y183.608 E18.83764
G1 X66.36 Y184.573 E18.98657
G1 X65.42 Y184.91 E19.03639
G1 X65.004 Y185.032 E19.05802
G1 X64.394 Y185.171 E19.08923
G1 X63.852 Y185.253 E19.11658
G1 X63.566 Y185.27 E19.13088
G1 X62.192 Y185.297 E19.19944
G1 X57.928 Y185.297 E19.41217
G1 X57.302 Y185.288 E19.44341
G1 X56.641 Y185.245 E19.47645
G1 X56.393 Y185.222 E19.48888
G1 X55.867 Y185.128 E19.51554
G1 X55.378 Y185.001 E19.54074
G1 X54.757 Y184.784 E19.57356
G1 X54.254 Y184.552 E19.6012
G1 X53.774 Y184.277 E19.6288
G1 X53.368 Y184.001 E19.65329
G1 X52.882 Y183.604 E19.6846
G1 X52.512 Y183.244 E19.71035
G1 X52.033 Y182.671 E19.74761
G1 X51.702 Y182.178 E19.77724
G1 X51.445 Y181.728 E19.80309
G1 X51.212 Y181.191 E19.83229
G1 X51.096 Y180.86 E19.84979
G1 X50.944 Y180.276 E19.8799
G1 X50.845 Y179.567 E19.91561
G1 X50.824 Y178.949 E19.94646
G1 X50.894 Y177.602 E20.01376
G1 X50.971 Y176.483 E20.06972
G1 X51.079 Y173.788 E20.20428
G1 X51.112 Y171.041 E20.34134
G1 X51.067 Y168.291 E20.47855
G1 X50.947 Y165.599 E20.61299
G1 X50.751 Y162.913 E20.74735
G1 X50.471 Y160.154 E20.88571
G1 X50.069 Y157.108 E21.03899
G1 X47.423 Y139.205 E21.94188
G1 X47.331 Y138.518 E21.97646
G1 X47.286 Y137.956 E22.00459
G1 X47.276 Y137.6 E22.02235
G1 X47.299 Y137.084 E22.04812
G1 X47.344 Y136.735 E22.06568
G1 X47.584 Y135.274 E22.13954
G1 X47.707 Y134.58 E22.17471
G1 X48.107 Y131.906 E22.3096
G1 X48.435 Y129.188 E22.44618
G1 X48.685 Y126.472 E22.58226
G1 X48.859 Y123.745 E22.71859
G1 X48.955 Y121.017 E22.85477
G1 X48.974 Y118.286 E22.99102
G1 X48.917 Y115.591 E23.12551
G1 X48.78 Y112.829 E23.26347
G1 X48.57 Y110.143 E23.39789
G1 X48.28 Y107.42 E23.53451
G1 X47.91 Y104.683 E23.6723
G1 X47.478 Y102.054 E23.80522
G1 X46.953 Y99.34 E23.94313
G1 X46.364 Y96.696 E24.07827
G1 X45.699 Y94.06 E24.21391
G1 X44.95 Y91.418 E24.35091
G1 X44.129 Y88.803 E24.48765
G1 X43.242 Y86.232 E24.62334
G1 X42.246 Y83.584 E24.76448
G1 X42.107 Y83.13 E24.78817
G1 X41.979 Y82.569 E24.81688
G1 X41.887 Y81.912 E24.84998
G1 X41.874 Y81.657 E24.86272
G1 X41.851 Y80.415 E24.92469
G1 X41.851 Y76.087 E25.14061
G1 X41.86 Y75.434 E25.1732
G1 X41.9 Y74.812 E25.20429
G1 X41.924 Y74.561 E25.21687
G1 X42.015 Y74.045 E25.24301
G1 X42.17 Y73.449 E25.27374
G1 X42.356 Y72.935 E25.30101
G1 X42.601 Y72.4 E25.33036
G1 X42.868 Y71.935 E25.35711
G1 X43.151 Y71.519 E25.38222
G1 X43.217 Y71.428 E25.38782
G1 X43.55 Y71.033 E25.4136
G1 X43.898 Y70.675 E25.43851
G1 X44.47 Y70.197 E25.4757
G1 X44.968 Y69.862 E25.50564
G0 F2160 X45.191 Y70.194
G1 F900 X45.764 Y69.882 E25.53819
G1 X46.421 Y69.631 E25.57328
G1 X46.925 Y69.499 E25.59927
G1 X47.627 Y69.4 E25.63464
G1 X48.185 Y69.38 E25.6625
G1 X49.445 Y69.447 E25.72545
G1 X50.582 Y69.526 E25.78231
G1 X53.295 Y69.636 E25.91778
G1 X56.049 Y69.67 E26.05518
G1 X58.802 Y69.627 E26.19255
G1 X61.519 Y69.506 E26.32823
G1 X64.258 Y69.308 E26.46524
G1 X66.98 Y69.033 E26.60173
G1 X70.062 Y68.627 E26.75682
G1 X88.008 Y65.975 E27.66187
G1 X88.685 Y65.885 E27.69595
G1 X89.202 Y65.844 E27.72182
G1 X89.83 Y65.838 E27.75315
G1 X90.506 Y65.877 E27.78694
G1 X93.228 Y65.994 E27.92286
G1 X95.983 Y66.035 E28.06033
G1 X98.734 Y65.998 E28.19759
G1 X101.454 Y65.885 E28.3334
G1 X104.192 Y65.694 E28.47034
G1 X106.904 Y65.426 E28.6063
G1 X109.604 Y65.082 E28.74209
G1 X112.335 Y64.656 E28.87999
G1 X115.774 Y64.006 E29.0546
G1 X116.325 Y63.892 E29.08267
G1 X116.814 Y63.805 E29.10745
G1 X117.981 Y63.627 E29.16634
G1 X118.19 Y63.598 E29.17687
G1 X120.9 Y63.15 E29.31391
G1 X123.593 Y62.627 E29.45077
G1 X126.226 Y62.036 E29.5854
G1 X128.908 Y61.356 E29.72344
G1 X131.564 Y60.6 E29.86121
G1 X134.135 Y59.79 E29.9957
G1 X136.77 Y58.877 E30.13482
G1 X139.281 Y57.926 E30.26878
G1 X141.84 Y56.874 E30.40682
G1 X144.863 Y55.529 E30.57189
G1 X145.742 Y55.22 E30.61837
G1 X146.307 Y55.091 E30.64729
G1 X146.916 Y55.008 E30.67795
G1 X147.139 Y54.996 E30.68909
G1 X148.372 Y54.973 E30.75062
G1 X152.694 Y54.973 E30.96624
G1 X153.347 Y54.982 E30.99883
G1 X153.946 Y55.021 E31.02877
G1 X154.644 Y55.125 E31.06398
G1 X155.226 Y55.276 E31.09398
G1 X155.992 Y55.579 E31.13508
G1 X156.63 Y55.922 E31.17121
G1 X157.116 Y56.257 E31.20066
G1 X157.477 Y56.56 E31.22418
G1 X157.851 Y56.924 E31.25021
G1 X158.352 Y57.5 E31.2883
G1 X160.083 Y59.572 E31.423
G1 X161.942 Y61.671 E31.56288
G1 X163.78 Y63.634 E31.69705
G1 X165.729 Y65.602 E31.83523
G1 X167.711 Y67.489 E31.97176
G1 X169.728 Y69.305 E32.10717
G1 X171.827 Y71.091 E32.24467
G1 X173.983 Y72.823 E32.38264
G1 X176.121 Y74.441 E32.51641
G1 X178.38 Y76.053 E32.65486
G1 X180.636 Y77.57 E32.79049
G1 X182.965 Y79.041 E32.92792
G1 X185.325 Y80.44 E33.0648
G1 X187.708 Y81.762 E33.20075
G1 X190.145 Y83.026 E33.33772
G1 X191.393 Y83.642 E33.40715
G1 X192.288 Y84.074 E33.45673
G1 X192.724 Y84.329 E33.48193
G1 X193.115 Y84.65 E33.50717
G1 X193.451 Y85.028 E33.5324
G1 X193.749 Y85.507 E33.56055
G1 X194.293 Y86.579 E33.62052
G1 X195.584 Y89.035 E33.75895
G1 X195.737 Y89.306 E33.77447
G1 X196.347 Y90.426 E33.8381
G1 X196.613 Y91.004 E33.86985
G1 X196.818 Y91.504 E33.89681
G1 X196.93 Y91.802 E33.91269
G1 X197.096 Y92.283 E33.93807
G1 X197.263 Y92.84 E33.96709
G1 X197.469 Y93.676 E34.01004
G1 X197.567 Y94.203 E34.03678
G1 X197.787 Y95.651 E34.10985
G1 X198.241 Y98.395 E34.24861
G1 X198.769 Y101.103 E34.38626
G1 X199.362 Y103.747 E34.52145
G1 X200.035 Y106.394 E34.65771
G1 X200.791 Y109.048 E34.79538
G1 X201.614 Y111.66 E34.93201
G1 X202.504 Y114.225 E35.06747
G1 X203.484 Y116.813 E35.20553
G1 X204.521 Y119.333 E35.34148
G1 X205.859 Y122.34 E35.50568
G1 X206.164 Y123.209 E35.55163
G1 X206.299 Y123.801 E35.58192
G1 X206.388 Y124.546 E35.61935
G1 X206.415 Y125.9 E35.68692
G1 X206.415 Y130.172 E35.90005
G1 X206.406 Y130.798 E35.93129
G1 X206.364 Y131.436 E35.96318
G1 X206.26 Y132.137 E35.99854
G1 X206.097 Y132.749 E36.03014
G1 X205.83 Y133.423 E36.06631
G1 X205.464 Y134.107 E36.10501
G1 X205.188 Y134.513 E36.1295
G1 X204.836 Y134.945 E36.1573
G1 X204.478 Y135.313 E36.18292
G1 X203.97 Y135.737 E36.21593
G1 X203.475 Y136.07 E36.24569
G1 X203.082 Y136.304 E36.26851
G1 X202.172 Y136.768 E36.31947
G1 X201.969 Y136.867 E36.33074
G1 X199.509 Y138.16 E36.46939
G1 X197.135 Y139.494 E36.60525
G1 X194.784 Y140.904 E36.74202
G1 X192.488 Y142.372 E36.87798
G1 X190.235 Y143.903 E37.01388
G1 X187.996 Y145.521 E37.1517
G1 X185.826 Y147.181 E37.288
G1 X183.71 Y148.898 E37.42395
G1 X181.628 Y150.688 E37.56093
G1 X179.597 Y152.537 E37.69796
G1 X177.636 Y154.425 E37.83377
G1 X175.684 Y156.415 E37.97284
G1 X173.847 Y158.397 E38.10766
G1 X172.061 Y160.438 E38.24297
G1 X170.303 Y162.562 E38.38053
G1 X168.611 Y164.73 E38.51773
G1 X166.992 Y166.93 E38.65401
G1 X165.437 Y169.173 E38.79017
G1 X163.933 Y171.478 E38.92748
G1 X162.514 Y173.797 E39.06312
G1 X161.145 Y176.179 E39.20019
G1 X159.689 Y178.898 E39.35406
G1 X159.135 Y179.973 E39.4144
G1 X158.859 Y180.449 E39.44185
G1 X158.489 Y181.006 E39.47521
G1 X158.204 Y181.389 E39.49903
G1 X153.222 Y187.788 E39.90362
G1 X152.851 Y188.252 E39.93326
G1 X152.656 Y188.475 E39.94804
G1 X152.201 Y188.947 E39.98075
G1 X151.777 Y189.315 E40.00876
G1 X151.238 Y189.686 E40.0414
G1 X150.84 Y189.911 E40.06421
G1 X150.363 Y190.137 E40.09055
G1 X149.745 Y190.37 E40.1235
G1 X149.12 Y190.531 E40.1557
G1 X148.55 Y190.625 E40.18452
G1 X147.974 Y190.67 E40.21334
G1 X147.435 Y190.67 E40.24023
G1 X146.89 Y190.626 E40.26751
G1 X146.424 Y190.551 E40.29106
G1 X145.846 Y190.413 E40.32071
G1 X145.302 Y190.23 E40.34934
G1 X144.701 Y189.966 E40.38209
G1 X144.515 Y189.877 E40.39238
G1 X143.528 Y189.365 E40.44785
G1 X141.023 Y188.112 E40.58759
G1 X138.551 Y186.961 E40.72363
G1 X136.054 Y185.884 E40.8593
G1 X133.474 Y184.855 E40.99788
G1 X130.93 Y183.927 E41.13298
G1 X128.318 Y183.054 E41.27038
G1 X125.734 Y182.271 E41.40508
G1 X123.065 Y181.545 E41.54308
G1 X120.4 Y180.899 E41.67989
G1 X117.715 Y180.328 E41.81684
G1 X115.039 Y179.839 E41.95255
G1 X112.317 Y179.421 E42.08995
G1 X109.62 Y179.083 E42.22555
G1 X106.907 Y178.821 E42.36154
G1 X104.128 Y178.632 E42.5005
G1 X101.447 Y178.526 E42.63436
G1 X98.694 Y178.495 E42.77172
G1 X95.943 Y178.541 E42.90898
G1 X93.19 Y178.666 E43.04647
G1 X90.484 Y178.866 E43.18184
G1 X87.767 Y179.144 E43.3181
G1 X85.056 Y179.497 E43.4545
G1 X82.346 Y179.931 E43.59142
G1 X79.627 Y180.444 E43.72947
G1 X76.976 Y181.023 E43.86484
G1 X74.331 Y181.678 E44.00079
G1 X71.68 Y182.417 E44.13809
G1 X69.084 Y183.219 E44.27365
G1 X66.261 Y184.184 E44.42249
G1 X65.285 Y184.534 E44.47422
G1 X64.915 Y184.642 E44.49345
G1 X64.305 Y184.781 E44.52466
G1 X63.558 Y184.87 E44.56219
G1 X62.192 Y184.897 E44.63035
G1 X57.934 Y184.897 E44.84279
G1 X57.308 Y184.888 E44.87402
G1 X56.67 Y184.846 E44.90592
G1 X55.966 Y184.741 E44.94143
G1 X55.328 Y184.57 E44.97439
G1 X54.685 Y184.313 E45.00893
G1 X53.999 Y183.946 E45.04775
G1 X53.593 Y183.67 E45.07224
G1 X53.16 Y183.318 E45.10008
