;FLAVOR:Marlin
;TIME:2392
;Filament used: 3.08597m, 0m
;Layer height: 0.28
;MINX:80.825
;MINY:95.564
;MINZ:0.3
;MAXX:154.175
;MAXY:139.436
;MAXZ:11.22
;Generated with Cura_SteamEngine 4.7.1
T0
M140 S60
M105
M190 S60
M104 S190
M105
M109 S190
M82 ;absolute extrusion mode
M201 X500.00 Y500.00 Z100.00 E5000.00 	;Setup machine max acceleration
M203 X500.00 Y500.00 Z10.00 E50.00 	;Setup machine max feedrate
M204 P500.00 R1000.00 T500.00 		;Setup Print/Retract/Travel acceleration
M205 X8.00 Y8.00 Z0.40 E5.00 		;Setup Jerk
M220 S100 				;Reset Feedrate
M221 S100 				;Reset Flowrate
G28				;Home the Machine
#G29 				;Bed Level
G92 E0
M300 P150 S587
G92 E0
;LAYER_COUNT:40
;LAYER:0
M107
G0 F1440 X83.765 Y97.314 Z0.3
;TYPE:SKIRT
G1 F600 X84.301 Y96.916 E0.03331
G1 X84.992 Y96.504 E0.07344
G1 X85.55 Y96.231 E0.10444
G1 X86.368 Y95.931 E0.1479
G1 X87.001 Y95.761 E0.1806
G1 X87.695 Y95.646 E0.2157
G1 X88.551 Y95.581 E0.25853
G1 X88.719 Y95.576 E0.26691
G1 X89.489 Y95.564 E0.30533
G1 X145.728 Y95.564 E3.11111
G1 X146.426 Y95.574 E3.14594
G1 X147.082 Y95.618 E3.17874
G1 X147.391 Y95.654 E3.19426
G1 X148.098 Y95.791 E3.23019
G1 X148.608 Y95.93 E3.25656
G1 X149.151 Y96.113 E3.28515
G1 X149.828 Y96.414 E3.32211
G1 X150.196 Y96.608 E3.34286
G1 X150.789 Y96.977 E3.37771
G1 X151.395 Y97.447 E3.41597
G1 X151.891 Y97.903 E3.44958
G1 X152.362 Y98.431 E3.48488
G1 X152.789 Y99.012 E3.52086
G1 X153.139 Y99.571 E3.55376
G1 X153.512 Y100.297 E3.59448
G1 X153.787 Y101.038 E3.63391
G1 X153.949 Y101.617 E3.66391
G1 X154.09 Y102.416 E3.70439
G1 X154.146 Y103.051 E3.73619
G1 X154.153 Y103.226 E3.74493
G1 X154.175 Y104.387 E3.80286
G1 X154.175 Y130.95 E5.1281
G1 X154.165 Y131.683 E5.16467
G1 X154.121 Y132.348 E5.19792
G1 X154.088 Y132.637 E5.21243
G1 X153.956 Y133.333 E5.24777
G1 X153.694 Y134.224 E5.29411
G1 X153.592 Y134.497 E5.30865
G1 X153.355 Y135.03 E5.33775
G1 X153.157 Y135.411 E5.35917
G1 X152.806 Y135.985 E5.39274
G1 X152.305 Y136.639 E5.43384
G1 X151.873 Y137.114 E5.46587
G1 X151.262 Y137.664 E5.50688
G1 X150.721 Y138.068 E5.54057
G1 X149.978 Y138.513 E5.58378
G1 X149.361 Y138.807 E5.61788
G1 X148.632 Y139.069 E5.65652
G1 X147.999 Y139.239 E5.68922
G1 X147.305 Y139.354 E5.72432
G1 X146.449 Y139.419 E5.76715
G1 X146.281 Y139.424 E5.77553
G1 X145.511 Y139.436 E5.81395
G1 X89.272 Y139.436 E8.61973
G1 X88.574 Y139.426 E8.65456
G1 X87.918 Y139.382 E8.68736
G1 X87.609 Y139.346 E8.70288
G1 X86.902 Y139.209 E8.73881
G1 X86.392 Y139.07 E8.76518
G1 X85.843 Y138.884 E8.7941
G1 X85.177 Y138.588 E8.83046
G1 X84.81 Y138.395 E8.85115
G1 X84.226 Y138.033 E8.88543
G1 X83.602 Y137.55 E8.92479
G1 X83.108 Y137.095 E8.9583
G1 X82.569 Y136.488 E8.9988
G1 X82.175 Y135.957 E9.03179
G1 X81.763 Y135.266 E9.07192
G1 X81.492 Y134.711 E9.10274
G1 X81.191 Y133.889 E9.14641
G1 X81.02 Y133.252 E9.17932
G1 X80.906 Y132.559 E9.21435
G1 X80.842 Y131.71 E9.25683
G1 X80.837 Y131.539 E9.26537
G1 X80.825 Y130.745 E9.30498
G1 X80.825 Y104.011 E10.63875
G1 X80.835 Y103.313 E10.67357
G1 X80.879 Y102.657 E10.70638
G1 X80.915 Y102.348 E10.7219
G1 X81.052 Y101.641 E10.75783
G1 X81.198 Y101.105 E10.78554
G1 X81.407 Y100.501 E10.81743
G1 X81.675 Y99.91 E10.8498
G1 X81.867 Y99.546 E10.87033
G1 X82.223 Y98.972 E10.90403
G1 X82.708 Y98.344 E10.94362
G1 X83.157 Y97.855 E10.97674
G1 X83.765 Y97.314 E11.01734
G0 F1440 X84.025 Y97.618
G1 F600 X84.517 Y97.253 E11.0479
G1 X85.19 Y96.851 E11.08701
G1 X85.702 Y96.601 E11.11544
G1 X86.498 Y96.309 E11.15774
G1 X87.078 Y96.154 E11.18769
G1 X87.752 Y96.041 E11.22179
G1 X88.571 Y95.981 E11.26276
G1 X88.725 Y95.976 E11.27045
G1 X89.489 Y95.964 E11.30857
G1 X145.722 Y95.964 E14.11404
G1 X146.42 Y95.974 E14.14887
G1 X147.036 Y96.016 E14.17967
G1 X147.345 Y96.052 E14.19519
G1 X147.993 Y96.177 E14.22812
G1 X148.503 Y96.316 E14.25449
G1 X149 Y96.484 E14.28066
G1 X149.642 Y96.768 E14.31569
G1 X150.01 Y96.962 E14.33644
G1 X150.553 Y97.3 E14.36835
G1 X151.146 Y97.76 E14.40579
G1 X151.6 Y98.178 E14.43658
G1 X152.059 Y98.692 E14.47096
G1 X152.45 Y99.224 E14.5039
G1 X152.8 Y99.783 E14.53681
G1 X153.142 Y100.449 E14.57416
G1 X153.409 Y101.17 E14.61252
G1 X153.558 Y101.701 E14.64003
G1 X153.695 Y102.475 E14.67925
G1 X153.747 Y103.073 E14.70919
G1 X153.753 Y103.234 E14.71723
G1 X153.775 Y104.387 E14.77476
G1 X153.775 Y130.945 E16.09975
G1 X153.765 Y131.678 E16.13632
G1 X153.724 Y132.302 E16.16752
G1 X153.691 Y132.591 E16.18203
G1 X153.569 Y133.23 E16.21449
G1 X153.32 Y134.084 E16.25887
G1 X153.218 Y134.357 E16.27341
G1 X153 Y134.846 E16.30012
G1 X152.802 Y135.227 E16.32154
G1 X152.48 Y135.753 E16.35231
G1 X151.992 Y136.39 E16.39234
G1 X151.596 Y136.825 E16.42169
G1 X151 Y137.361 E16.46168
G1 X150.505 Y137.732 E16.49254
G1 X149.78 Y138.165 E16.53467
G1 X149.215 Y138.435 E16.56591
G1 X148.502 Y138.691 E16.60371
G1 X147.922 Y138.846 E16.63366
G1 X147.248 Y138.959 E16.66776
G1 X146.429 Y139.019 E16.70873
G1 X146.275 Y139.024 E16.71641
G1 X145.511 Y139.036 E16.75453
G1 X89.278 Y139.036 E19.56001
G1 X88.58 Y139.026 E19.59484
G1 X87.964 Y138.984 E19.62564
G1 X87.655 Y138.948 E19.64116
G1 X87.007 Y138.823 E19.67409
G1 X86.497 Y138.684 E19.70046
G1 X85.994 Y138.514 E19.72695
G1 X85.363 Y138.234 E19.76139
G1 X84.996 Y138.041 E19.78208
G1 X84.461 Y137.709 E19.81349
G1 X83.852 Y137.238 E19.8519
G1 X83.399 Y136.821 E19.88262
G1 X82.874 Y136.229 E19.92209
G1 X82.512 Y135.741 E19.95241
G1 X82.11 Y135.068 E19.99152
G1 X81.862 Y134.559 E20.01976
G1 X81.569 Y133.76 E20.06222
G1 X81.413 Y133.175 E20.09243
G1 X81.302 Y132.502 E20.12646
G1 X81.242 Y131.69 E20.16708
G1 X81.237 Y131.533 E20.17492
G1 X81.225 Y130.745 E20.21423
G1 X81.225 Y104.017 E21.5477
G1 X81.235 Y103.319 E21.58253
G1 X81.277 Y102.703 E21.61333
G1 X81.313 Y102.394 E21.62885
G1 X81.438 Y101.747 E21.66173
G1 X81.584 Y101.211 E21.68944
G1 X81.775 Y100.656 E21.71872
G1 X82.029 Y100.096 E21.7494
G1 X82.221 Y99.732 E21.76993
G1 X82.547 Y99.207 E21.80076
G1 X83.021 Y98.593 E21.83946
G1 X83.433 Y98.145 E21.86983
G1 X84.025 Y97.618 E21.90937
G0 F1440 X84.285 Y97.922
G1 F600 X84.732 Y97.59 E21.93715
G1 X85.389 Y97.198 E21.97532
G1 X85.854 Y96.971 E22.00113
G1 X86.628 Y96.688 E22.04225
G1 X87.156 Y96.546 E22.06953
G1 X87.809 Y96.437 E22.10256
G1 X88.591 Y96.38 E22.14167
G1 X88.732 Y96.376 E22.14871
G1 X89.489 Y96.364 E22.18648
G1 X145.716 Y96.364 E24.99166
G1 X146.414 Y96.374 E25.02649
G1 X146.99 Y96.413 E25.05529
G1 X147.299 Y96.449 E25.07081
G1 X147.888 Y96.563 E25.10074
G1 X148.398 Y96.702 E25.12711
G1 X149.094 Y96.953 E25.16403
G1 X149.823 Y97.316 E25.20465
G1 X150.317 Y97.623 E25.23367
G1 X150.896 Y98.073 E25.27026
G1 X151.309 Y98.453 E25.29826
G1 X151.755 Y98.953 E25.33168
G1 X152.111 Y99.436 E25.36162
G1 X152.461 Y99.995 E25.39452
G1 X152.772 Y100.6 E25.42846
G1 X153.032 Y101.303 E25.46586
G1 X153.167 Y101.785 E25.49083
G1 X153.299 Y102.534 E25.52877
G1 X153.348 Y103.096 E25.55692
G1 X153.353 Y103.242 E25.5642
G1 X153.375 Y104.387 E25.62134
G1 X153.375 Y130.94 E26.94607
G1 X153.365 Y131.673 E26.98265
G1 X153.326 Y132.257 E27.01185
G1 X153.293 Y132.546 E27.02636
G1 X153.183 Y133.126 E27.05581
G1 X152.945 Y133.944 E27.09831
G1 X152.645 Y134.662 E27.13714
G1 X152.447 Y135.043 E27.15856
G1 X152.155 Y135.521 E27.1865
G1 X151.679 Y136.141 E27.2255
G1 X151.319 Y136.537 E27.2522
G1 X150.739 Y137.058 E27.2911
G1 X150.288 Y137.396 E27.31921
G1 X149.583 Y137.817 E27.36018
G1 X149.069 Y138.062 E27.38859
G1 X148.372 Y138.312 E27.42553
G1 X147.844 Y138.454 E27.45281
G1 X147.191 Y138.563 E27.48584
G1 X146.409 Y138.62 E27.52496
G1 X146.268 Y138.624 E27.53199
G1 X145.511 Y138.636 E27.56976
G1 X89.284 Y138.636 E30.37494
G1 X88.586 Y138.626 E30.40977
G1 X88.01 Y138.587 E30.43857
G1 X87.701 Y138.551 E30.45409
G1 X87.112 Y138.437 E30.48402
G1 X86.602 Y138.298 E30.51039
G1 X85.902 Y138.044 E30.54755
G1 X85.182 Y137.687 E30.58764
G1 X84.696 Y137.385 E30.61619
G1 X84.101 Y136.925 E30.65371
G1 X83.69 Y136.546 E30.6816
G1 X83.178 Y135.969 E30.72009
G1 X82.849 Y135.526 E30.74762
G1 X82.458 Y134.87 E30.78572
G1 X82.232 Y134.407 E30.81142
G1 X81.948 Y133.63 E30.85269
G1 X81.805 Y133.098 E30.88018
G1 X81.697 Y132.446 E30.91315
G1 X81.641 Y131.67 E30.95196
G1 X81.636 Y131.527 E30.9591
G1 X81.625 Y130.806 E30.99508
G1 X81.625 Y104.023 E32.33129
G1 X81.635 Y103.325 E32.36611
G1 X81.674 Y102.749 E32.39492
G1 X81.71 Y102.44 E32.41044
G1 X81.824 Y101.852 E32.44032
G1 X81.97 Y101.316 E32.46803
G1 X82.144 Y100.812 E32.49463
G1 X82.383 Y100.283 E32.52359
G1 X82.575 Y99.919 E32.54413
G1 X82.872 Y99.441 E32.5722
G1 X83.334 Y98.843 E32.6099
G1 X83.708 Y98.435 E32.63752
G1 X84.285 Y97.922 E32.67604
G0 F1440 X84.545 Y98.226
G1 F600 X84.947 Y97.928 E32.701
G1 X85.587 Y97.546 E32.73819
G1 X86.162 Y97.277 E32.76986
G1 X86.758 Y97.066 E32.8014
G1 X87.406 Y96.905 E32.83471
G1 X88.2 Y96.801 E32.87466
G1 X88.738 Y96.775 E32.90153
G1 X89.432 Y96.764 E32.93616
G1 X145.711 Y96.764 E35.74393
G1 X146.409 Y96.774 E35.77876
G1 X146.944 Y96.81 E35.80551
G1 X147.253 Y96.846 E35.82103
G1 X147.783 Y96.949 E35.84797
G1 X148.293 Y97.088 E35.87434
G1 X148.943 Y97.324 E35.90884
G1 X149.637 Y97.669 E35.94751
G1 X150.081 Y97.947 E35.97364
G1 X150.647 Y98.385 E36.00935
G1 X151.018 Y98.727 E36.03452
G1 X151.452 Y99.213 E36.06703
G1 X151.772 Y99.649 E36.09401
G1 X152.122 Y100.208 E36.12691
G1 X152.402 Y100.752 E36.15744
G1 X152.654 Y101.435 E36.19376
G1 X152.815 Y102.051 E36.22552
G1 X152.903 Y102.594 E36.25297
G1 X152.948 Y103.118 E36.27921
G1 X152.953 Y103.25 E36.2858
G1 X152.975 Y104.387 E36.34253
G1 X152.975 Y130.934 E37.66697
G1 X152.965 Y131.667 E37.70354
G1 X152.929 Y132.211 E37.73074
G1 X152.896 Y132.5 E37.74525
G1 X152.797 Y133.023 E37.77181
G1 X152.57 Y133.804 E37.81239
G1 X152.29 Y134.477 E37.84875
G1 X152.092 Y134.858 E37.87017
G1 X151.829 Y135.288 E37.89532
G1 X151.366 Y135.892 E37.93329
G1 X150.913 Y136.372 E37.96622
G1 X150.477 Y136.756 E37.9952
G1 X150.071 Y137.06 E38.02051
G1 X149.385 Y137.469 E38.06035
G1 X148.923 Y137.69 E38.0859
G1 X148.242 Y137.934 E38.12199
G1 X147.594 Y138.095 E38.15531
G1 X146.8 Y138.199 E38.19526
G1 X146.262 Y138.225 E38.22213
G1 X145.568 Y138.236 E38.25676
G1 X89.289 Y138.236 E41.06453
G1 X88.591 Y138.226 E41.09935
G1 X88.056 Y138.19 E41.12611
G1 X87.747 Y138.154 E41.14163
G1 X87.217 Y138.051 E41.16856
G1 X86.707 Y137.912 E41.19494
G1 X86.053 Y137.674 E41.22966
G1 X85.368 Y137.333 E41.26783
G1 X84.931 Y137.061 E41.29351
G1 X84.351 Y136.613 E41.33008
G1 X83.981 Y136.272 E41.35518
G1 X83.482 Y135.709 E41.39271
G1 X83.079 Y135.142 E41.42742
G1 X82.805 Y134.672 E41.45456
G1 X82.538 Y134.099 E41.4861
G1 X82.326 Y133.5 E41.5178
G1 X82.164 Y132.847 E41.55136
G1 X82.062 Y132.061 E41.59091
G1 X82.036 Y131.521 E41.61788
G1 X82.025 Y130.8 E41.65385
G1 X82.025 Y104.028 E42.98951
G1 X82.035 Y103.33 E43.02434
G1 X82.071 Y102.795 E43.05109
G1 X82.107 Y102.486 E43.06661
G1 X82.21 Y101.957 E43.0935
G1 X82.356 Y101.421 E43.12122
G1 X82.604 Y100.749 E43.15695
G1 X82.929 Y100.105 E43.19294
G1 X83.196 Y99.676 E43.21815
G1 X83.646 Y99.092 E43.25493
G1 X84.118 Y98.598 E43.28902
G1 X84.545 Y98.226 E43.31727
G0 F1440 X84.806 Y98.53
G1 F600 X85.332 Y98.157 E43.34944
G1 X85.785 Y97.893 E43.3756
G1 X86.313 Y97.647 E43.40466
G1 X86.888 Y97.444 E43.43508
G1 X87.483 Y97.297 E43.46566
G1 X88.22 Y97.2 E43.50275
G1 X88.744 Y97.175 E43.52892
G1 X89.438 Y97.164 E43.56355
G1 X145.705 Y97.164 E46.37072
G1 X146.403 Y97.174 E46.40555
G1 X147.206 Y97.243 E46.44576
G1 X147.677 Y97.335 E46.4697
G1 X148.187 Y97.474 E46.49607
G1 X148.793 Y97.695 E46.52825
G1 X149.45 Y98.023 E46.56489
G1 X149.971 Y98.362 E46.5959
G1 X150.397 Y98.698 E46.62297
G1 X150.846 Y99.128 E46.65398
G1 X151.433 Y99.861 E46.70083
G1 X151.783 Y100.42 E46.73374
G1 X152.032 Y100.904 E46.76089
G1 X152.277 Y101.567 E46.79616
G1 X152.424 Y102.135 E46.82543
G1 X152.508 Y102.653 E46.85161
G1 X152.553 Y103.258 E46.88188
G1 X152.575 Y104.387 E46.93821
G1 X152.575 Y130.929 E48.2624
G1 X152.565 Y131.662 E48.29897
G1 X152.531 Y132.166 E48.32417
G1 X152.41 Y132.919 E48.36222
G1 X152.196 Y133.664 E48.40089
G1 X151.935 Y134.293 E48.43487
G1 X151.503 Y135.056 E48.47861
G1 X151.053 Y135.644 E48.51555
G1 X150.636 Y136.084 E48.5458
G1 X150.215 Y136.453 E48.57373
G1 X149.678 Y136.837 E48.60666
G1 X149.188 Y137.121 E48.63492
G1 X148.641 Y137.371 E48.66492
G1 X148.112 Y137.556 E48.69288
G1 X147.517 Y137.703 E48.72346
G1 X146.78 Y137.8 E48.76055
G1 X146.256 Y137.825 E48.78672
G1 X145.562 Y137.836 E48.82135
G1 X89.295 Y137.836 E51.62852
G1 X88.597 Y137.826 E51.66335
G1 X87.794 Y137.757 E51.70355
G1 X87.323 Y137.665 E51.7275
G1 X86.813 Y137.526 E51.75387
G1 X86.204 Y137.303 E51.78623
G1 X85.555 Y136.979 E51.82241
G1 X85.034 Y136.643 E51.85334
G1 X84.601 Y136.301 E51.88087
G1 X84.138 Y135.855 E51.91295
G1 X83.786 Y135.45 E51.93972
G1 X83.416 Y134.926 E51.97172
G1 X83.153 Y134.474 E51.99781
G1 X82.908 Y133.948 E52.02676
G1 X82.704 Y133.37 E52.05734
G1 X82.556 Y132.771 E52.08812
G1 X82.461 Y132.041 E52.12485
G1 X82.436 Y131.515 E52.15112
G1 X82.425 Y130.794 E52.18709
G1 X82.425 Y104.034 E53.52216
G1 X82.435 Y103.336 E53.55698
G1 X82.504 Y102.533 E53.59719
G1 X82.595 Y102.062 E53.62113
G1 X82.741 Y101.526 E53.64884
G1 X82.973 Y100.905 E53.68191
G1 X83.283 Y100.292 E53.71619
G1 X83.614 Y99.78 E53.7466
G1 X83.959 Y99.342 E53.77442
G1 X84.393 Y98.888 E53.80575
G1 X84.806 Y98.53 E53.83302
;MESH:top.stl
G0 F1440 X85.274 Y101.945
G0 X86.418 Y102.527
G0 X89.661 Y126.83
;TYPE:WALL-INNER
G1 F900 X90.335 Y127.657 E53.88625
G1 X91.221 Y128.222 E53.93867
G1 X91.282 Y128.237 E53.94181
G1 X92.237 Y128.487 E53.99106
G1 X93.281 Y128.422 E54.04324
G1 X94.239 Y128.05 E54.09452
G1 X95.052 Y127.394 E54.14663
G1 X95.624 Y126.514 E54.199
G1 X95.896 Y125.499 E54.25142
G1 X95.84 Y124.453 E54.30368
G1 X95.461 Y123.47 E54.35624
G1 X94.787 Y122.643 E54.40947
G1 X93.901 Y122.078 E54.46189
G1 X93.84 Y122.063 E54.46503
G1 X92.885 Y121.813 E54.51428
G1 X91.837 Y121.878 E54.56666
G1 X90.868 Y122.259 E54.61861
G1 X90.069 Y122.908 E54.66997
G1 X89.498 Y123.786 E54.72222
G1 X89.226 Y124.801 E54.77464
G1 X89.282 Y125.847 E54.8269
G1 X89.661 Y126.83 E54.87946
G0 F1440 X90.011 Y126.627
G1 F900 X90.604 Y127.354 E54.92627
G1 X91.383 Y127.851 E54.97237
G1 X91.444 Y127.866 E54.9755
G1 X92.276 Y128.084 E55.01841
G1 X93.194 Y128.027 E55.0643
G1 X94.036 Y127.7 E55.10937
G1 X94.751 Y127.123 E55.1552
G1 X95.254 Y126.349 E55.20126
G1 X95.493 Y125.457 E55.24733
G1 X95.444 Y124.538 E55.29324
G1 X95.111 Y123.673 E55.33949
G1 X94.518 Y122.946 E55.38629
G1 X93.739 Y122.449 E55.43239
G1 X93.678 Y122.434 E55.43553
G1 X92.846 Y122.216 E55.47844
G1 X91.925 Y122.273 E55.52447
G1 X91.072 Y122.609 E55.57021
G1 X90.37 Y123.179 E55.61533
G1 X89.868 Y123.951 E55.66127
G1 X89.629 Y124.843 E55.70734
G1 X89.678 Y125.762 E55.75325
G1 X90.011 Y126.627 E55.7995
G0 F1440 X90.361 Y126.424
G1 F900 X90.873 Y127.051 E55.83988
G1 X91.545 Y127.48 E55.87966
G1 X92.253 Y127.664 E55.91615
G1 X92.315 Y127.681 E55.91936
G1 X93.107 Y127.632 E55.95895
G1 X93.833 Y127.35 E55.99781
G1 X94.45 Y126.852 E56.03736
G1 X94.884 Y126.184 E56.07711
G1 X95.09 Y125.415 E56.11682
G1 X95.048 Y124.622 E56.15644
G1 X94.761 Y123.876 E56.19632
G1 X94.249 Y123.249 E56.23671
G1 X93.577 Y122.82 E56.27648
G1 X92.869 Y122.636 E56.31298
G1 X92.807 Y122.619 E56.31618
G1 X92.013 Y122.668 E56.35587
G1 X91.276 Y122.958 E56.39539
G1 X90.671 Y123.45 E56.43429
G1 X90.238 Y124.116 E56.47392
G1 X90.032 Y124.885 E56.51364
G1 X90.074 Y125.678 E56.55326
G1 X90.361 Y126.424 E56.59314
G0 F1440 X90.711 Y126.221
G1 F900 X91.142 Y126.748 E56.6271
G1 X91.707 Y127.109 E56.66055
G1 X92.354 Y127.278 E56.69391
