;FLAVOR:Marlin
;TIME:1611
;Filament used: 0.277366m, 0m
;Layer height: 0.1
;MINX:84.05
;MINY:91.774
;MINZ:0.12
;MAXX:150.95
;MAXY:143.226
;MAXZ:1.72
;Generated with Cura_SteamEngine 4.8.0
T0
M140 S60
M105
M190 S60
M104 S200
M105
M109 S200
M82 ;absolute extrusion mode
M201 X500.00 Y500.00 Z100.00 E5000.00 	;Setup machine max acceleration
M203 X500.00 Y500.00 Z10.00 E50.00 	;Setup machine max feedrate
M204 P500.00 R1000.00 T500.00 		;Setup Print/Retract/Travel acceleration
M205 X8.00 Y8.00 Z0.40 E5.00 		;Setup Jerk
M220 S100 				;Reset Feedrate
M221 S100 				;Reset Flowrate
G28				;Home the Machine
#G29 				;Bed Level
G92 E0
M300 P150 S587
G92 E0
G1 F1500 E-5.5
;LAYER_COUNT:17
;LAYER:0
M107
G0 F2160 X85.044 Y92.819 Z0.12
;TYPE:SKIRT
G1 F1500 E0
G1 F900 X85.439 Y92.473 E0.00786
G1 X85.882 Y92.191 E0.01572
G1 X86.363 Y91.979 E0.02359
G1 X86.87 Y91.843 E0.03144
G1 X87.412 Y91.784 E0.0396
G1 X87.83 Y91.774 E0.04586
G1 X146.842 Y91.774 E0.9291
G1 X147.54 Y91.784 E0.93955
G1 X148.063 Y91.832 E0.94741
G1 X148.573 Y91.958 E0.95527
G1 X149.057 Y92.16 E0.96312
G1 X149.506 Y92.433 E0.97098
G1 X149.907 Y92.771 E0.97883
G1 X150.253 Y93.167 E0.9867
G1 X150.535 Y93.61 E0.99456
G1 X150.746 Y94.09 E1.00241
G1 X150.882 Y94.597 E1.01027
G1 X150.94 Y95.137 E1.0184
G1 X150.95 Y95.554 E1.02464
G1 X150.95 Y139.083 E1.67614
G1 X150.941 Y139.81 E1.68702
G1 X150.894 Y140.333 E1.69488
G1 X150.769 Y140.842 E1.70273
G1 X150.568 Y141.327 E1.71058
G1 X150.296 Y141.776 E1.71844
G1 X149.958 Y142.178 E1.7263
G1 X149.564 Y142.525 E1.73416
G1 X149.121 Y142.807 E1.74202
G1 X148.641 Y143.02 E1.74988
G1 X148.134 Y143.156 E1.75774
G1 X147.588 Y143.216 E1.76596
G1 X147.17 Y143.226 E1.77222
G1 X88.163 Y143.226 E2.65538
G1 X87.465 Y143.217 E2.66582
G1 X86.942 Y143.17 E2.67368
G1 X86.432 Y143.045 E2.68154
G1 X85.947 Y142.843 E2.68941
G1 X85.498 Y142.571 E2.69726
G1 X85.096 Y142.233 E2.70512
G1 X84.75 Y141.838 E2.71298
G1 X84.468 Y141.396 E2.72083
G1 X84.256 Y140.916 E2.72868
G1 X84.119 Y140.409 E2.73655
G1 X84.06 Y139.86 E2.74481
G1 X84.05 Y139.434 E2.75119
G1 X84.05 Y95.851 E3.4035
G1 X84.059 Y95.186 E3.41345
G1 X84.106 Y94.663 E3.42131
G1 X84.232 Y94.154 E3.42916
G1 X84.434 Y93.669 E3.43702
G1 X84.707 Y93.221 E3.44487
G1 X85.044 Y92.819 E3.45272
G0 F2160 X85.338 Y92.95
G1 F900 X85.728 Y92.635 E3.46023
G1 X86.163 Y92.385 E3.46774
G1 X86.632 Y92.207 E3.47525
G1 X87.124 Y92.107 E3.48276
G1 X87.742 Y92.075 E3.49202
G1 X146.838 Y92.074 E4.37652
G1 X147.536 Y92.084 E4.38696
G1 X148.036 Y92.131 E4.39448
G1 X148.521 Y92.257 E4.40198
G1 X148.981 Y92.458 E4.40949
G1 X149.402 Y92.73 E4.417
G1 X149.775 Y93.065 E4.4245
G1 X150.091 Y93.455 E4.43201
G1 X150.34 Y93.89 E4.43951
G1 X150.517 Y94.36 E4.44703
G1 X150.618 Y94.851 E4.45453
G1 X150.649 Y95.465 E4.46373
G1 X150.65 Y139.079 E5.11651
G1 X150.641 Y139.806 E5.12739
G1 X150.595 Y140.305 E5.13489
G1 X150.47 Y140.791 E5.1424
G1 X150.269 Y141.251 E5.14991
G1 X149.999 Y141.673 E5.15741
G1 X149.664 Y142.047 E5.16493
G1 X149.275 Y142.363 E5.17243
G1 X148.84 Y142.614 E5.17995
G1 X148.371 Y142.792 E5.18745
G1 X147.88 Y142.893 E5.19496
G1 X147.258 Y142.925 E5.20428
G1 X88.166 Y142.926 E6.08871
G1 X87.468 Y142.917 E6.09916
G1 X86.969 Y142.87 E6.10666
G1 X86.483 Y142.745 E6.11417
G1 X86.023 Y142.545 E6.12168
G1 X85.601 Y142.274 E6.12919
G1 X85.228 Y141.939 E6.13669
G1 X84.912 Y141.549 E6.1442
G1 X84.662 Y141.115 E6.1517
G1 X84.484 Y140.646 E6.15921
G1 X84.383 Y140.154 E6.16672
G1 X84.351 Y139.519 E6.17624
G1 X84.35 Y95.855 E6.82976
G1 X84.359 Y95.19 E6.83972
G1 X84.406 Y94.691 E6.84722
G1 X84.531 Y94.205 E6.85473
G1 X84.732 Y93.746 E6.86223
G1 X85.004 Y93.324 E6.86974
G1 X85.338 Y92.95 E6.87725
G1 F1500 E1.37725
;MESH:carimbo f_V4 final.obj
G0 F2160 X86.88 Y107.047
G0 X94.543 Y107.047
G0 X94.898 Y107.402
;TYPE:WALL-OUTER
G1 F1500 E6.87725
G1 F900 X94.895 Y107.421 E6.87754
G1 X94.811 Y107.513 E6.8794
G1 X94.711 Y107.538 E6.88094
G1 X94.669 Y107.548 E6.88159
G1 X94.65 Y107.545 E6.88188
G1 X94.549 Y107.524 E6.88342
G1 X94.476 Y107.456 E6.88491
G1 X94.466 Y107.413 E6.88557
G1 X94.433 Y107.272 E6.88774
G1 X94.458 Y107.142 E6.88972
G1 X94.464 Y107.106 E6.89027
G1 X94.533 Y107.03 E6.89181
G1 X94.639 Y107.004 E6.89344
G1 X94.667 Y106.998 E6.89387
G1 X94.703 Y107.006 E6.89442
G1 X94.814 Y107.032 E6.89613
G1 X94.886 Y107.103 E6.89764
G1 X94.892 Y107.131 E6.89807
G1 X94.925 Y107.268 E6.90018
G1 X94.898 Y107.402 E6.90222
G0 F2160 X94.895 Y107.421
G0 X94.811 Y107.513
G0 X94.756 Y107.526
G0 X94.612 Y107.252
G1 F1500 E1.40222
G0 F2160 X98.095 Y107.055
G0 X98.085 Y107.02
G1 F1500 E6.90222
G1 F900 X98.051 Y107.026 E6.90274
G1 X98.082 Y107.007 E6.90277
G1 X98.159 Y107.007 E6.90391
G1 X98.085 Y107.02 E6.90393
G0 F2160 X98.051 Y107.026
G0 X98.082 Y107.007
G0 X98.159 Y107.007
G0 X98.107 Y107.016
G1 F1500 E1.40393
G0 F2160 X98.095 Y107.055
G0 X100.424 Y107.055
G0 X100.487 Y107.007
G1 F1500 E6.90393
G1 F900 X100.414 Y107.02 E6.90504
G1 X100.38 Y107.026 E6.90555
G1 X100.411 Y107.007
G1 X100.487 Y107.007 E6.9056
G0 F2160 X100.414 Y107.02
G0 X100.38 Y107.026
G0 X100.411 Y107.007
G0 X100.467 Y107.007
G1 F1500 E1.4056
G0 F2160 X100.42 Y106.968
G0 X102.777 Y107.055
G0 X102.84 Y107.007
G1 F1500 E6.9056
G1 F900 X102.767 Y107.02 E6.90671
G1 X102.733 Y107.026 E6.90723
G1 X102.764 Y107.007
G1 X102.84 Y107.007 E6.90727
G0 F2160 X102.767 Y107.02
G0 X102.733 Y107.026
G0 X102.764 Y107.007
G0 X102.82 Y107.007
G1 F1500 E1.40727
G0 F2160 X102.773 Y106.968
G0 X103.99 Y107.223
G0 X104.283 Y107.03
G1 F1500 E6.90727
G1 F900 X104.335 Y107.09 E6.90846
G1 X104.344 Y107.408 E6.91322
G1 X104.284 Y107.499 E6.91485
G1 X104.163 Y107.546 E6.9168
G1 X104.049 Y107.527 E6.91853
G1 X103.986 Y107.467 E6.91983
G1 X103.951 Y107.315 E6.92216
G1 X103.996 Y107.099 E6.92546
G1 X104.064 Y107.025 E6.92697
G1 X104.17 Y106.999 E6.9286
G1 X104.283 Y107.03 E6.93036
G0 F2160 X104.335 Y107.09
G0 X104.338 Y107.211
G0 X104.267 Y107.266
G1 F1500 E1.43036
G0 F2160 X104.239 Y107.265
G0 X105.138 Y112.328
G0 X105.313 Y112.328
G1 F1500 E6.93036
G1 F900 X105.373 Y112.413 E6.93191
G1 X105.383 Y112.537 E6.93378
G1 X105.345 Y112.604 E6.93493
G1 X105.252 Y112.65 E6.93648
G1 X105.139 Y112.64 E6.93818
G1 X105.076 Y112.588 E6.9394
G1 X105.068 Y112.373 E6.94262
G1 X105.129 Y112.311 E6.94392
G1 X105.217 Y112.293 E6.94527
G1 X105.313 Y112.328 E6.9468
G0 F2160 X105.373 Y112.413
G0 X105.38 Y112.509
G0 X105.374 Y112.522
G1 F1500 E1.4468
G0 F2160 X105.275 Y112.525
G0 X106.56 Y112.659
G0 X106.567 Y113.124
G1 F1500 E6.9468
G1 F900 X106.525 Y112.81 E6.95154
G1 X106.558 Y112.493 E6.95631
G1 X106.56 Y112.474 E6.95659
G1 X106.578 Y112.435 E6.95724
G1 X106.614 Y112.357 E6.95852
G1 X106.622 Y112.34 E6.9588
G1 X106.694 Y112.296 E6.96007
G1 X106.782 Y112.305 E6.96139
G1 X106.797 Y112.318 E6.96169
G1 X106.842 Y112.357 E6.96258
G1 X106.872 Y112.457 E6.96414
G1 X106.915 Y112.599 E6.96636
G1 X106.908 Y113.039 E6.97295
G1 X106.855 Y113.197 E6.97544
G1 X106.834 Y113.262 E6.97647
G1 X106.771 Y113.317 E6.97772
G1 X106.634 Y113.299 E6.97979
G1 X106.575 Y113.192 E6.98161
G1 X106.567 Y113.124 E6.98259
G0 F2160 X106.541 Y112.926
G0 X106.611 Y112.886
G1 F1500 E1.48259
G0 F2160 X106.636 Y112.886
G0 X102.402 Y112.53
G0 X102.351 Y112.328
G1 F1500 E6.98259
G1 F900 X102.411 Y112.413 E6.98414
G1 X102.421 Y112.534 E6.98596
G1 X102.375 Y112.61 E6.98729
G1 X102.27 Y112.653 E6.98899
G1 X102.116 Y112.593 E6.99146
G1 X102.094 Y112.399 E6.99438
G1 X102.157 Y112.319 E6.99591
G1 X102.258 Y112.294 E6.99747
G1 X102.351 Y112.328 E6.99895
G0 F2160 X102.411 Y112.413
G0 X102.418 Y112.509
G0 X102.408 Y112.5
G1 F1500 E1.49895
G0 F2160 X102.318 Y112.507
G0 X99.47 Y113.07
G0 X99.443 Y113.005
G1 F1500 E6.99895
G1 F900 X99.488 Y113.063 E7.00005
G1 X99.499 Y113.195 E7.00203
G1 X99.455 Y113.28 E7.00346
G1 X99.367 Y113.326 E7.00495
G1 X99.272 Y113.315 E7.00638
G1 X99.2 Y113.249 E7.00784
G1 X99.165 Y113.062 E7.01069
G1 X99.224 Y112.999 E7.01198
G1 X99.321 Y112.972 E7.01349
G1 X99.443 Y113.005 E7.01538
G0 F2160 X99.488 Y113.063
G0 X99.498 Y113.19
G0 X99.489 Y113.16
G1 F1500 E1.51538
G0 F2160 X99.395 Y113.166
G0 X97.959 Y112.533
G0 X97.908 Y112.328
G1 F1500 E7.01538
G1 F900 X97.968 Y112.413 E7.01694
G1 X97.978 Y112.537 E7.0188
G1 X97.94 Y112.604 E7.01995
G1 X97.847 Y112.65 E7.0215
G1 X97.734 Y112.64 E7.0232
G1 X97.671 Y112.588 E7.02442
G1 X97.651 Y112.399 E7.02727
G1 X97.714 Y112.319 E7.02879
G1 X97.815 Y112.294 E7.03035
G1 X97.908 Y112.328 E7.03183
G0 F2160 X97.968 Y112.413
G0 X97.975 Y112.509
G0 X97.964 Y112.503
G1 F1500 E1.53183
G0 F2160 X97.875 Y112.51
G0 X96.402 Y117.628
G0 X96.415 Y117.611
G1 F1500 E7.03183
G1 F900 X96.465 Y117.669 E7.03298
G1 X96.473 Y117.989 E7.03777
G1 X96.413 Y118.081 E7.03941
G1 X96.293 Y118.127 E7.04134
G1 X96.179 Y118.108 E7.04307
G1 X96.116 Y118.048 E7.04437
G1 X96.081 Y117.895 E7.04672
G1 X96.125 Y117.679 E7.05002
G1 X96.192 Y117.607 E7.05149
G1 X96.299 Y117.58 E7.05314
G1 X96.415 Y117.611 E7.05494
G0 F2160 X96.465 Y117.669
G0 X96.468 Y117.793
G0 X96.397 Y117.846
G1 F1500 E1.55494
G0 F2160 X96.369 Y117.846
G0 X94.943 Y117.85
G0 X94.936 Y117.983
G1 F1500 E7.05494
G1 F900 X94.933 Y118.002 E7.05523
G1 X94.849 Y118.094 E7.05709
G1 X94.749 Y118.119 E7.05863
G1 X94.707 Y118.129 E7.05928
G1 X94.688 Y118.126 E7.05957
G1 X94.584 Y118.105 E7.06116
G1 X94.514 Y118.04 E7.06258
G1 X94.505 Y117.997 E7.06324
G1 X94.471 Y117.852 E7.06547
G1 X94.496 Y117.723 E7.06744
G1 X94.502 Y117.687 E7.06798
G1 X94.57 Y117.611 E7.06951
G1 X94.677 Y117.585 E7.07116
G1 X94.705 Y117.579 E7.07159
G1 X94.741 Y117.587 E7.07214
G1 X94.852 Y117.613 E7.07385
G1 X94.923 Y117.683 E7.07534
G1 X94.929 Y117.711 E7.07577
G1 X94.962 Y117.85 E7.0779
G1 X94.936 Y117.983 E7.07993
G0 F2160 X94.933 Y118.002
G0 X94.849 Y118.094
G0 X94.794 Y118.107
G0 X94.65 Y117.833
G1 F1500 E1.57993
G0 F2160 X93.297 Y117.636
G0 X93.36 Y117.588
G1 F1500 E7.07993
G1 F900 X93.287 Y117.601 E7.08104
G1 X93.253 Y117.607 E7.08156
G1 X93.284 Y117.588
G1 X93.36 Y117.588 E7.08161
G0 F2160 X93.287 Y117.601
G0 X93.253 Y117.607
G0 X93.284 Y117.588
G0 X93.34 Y117.588
G1 F1500 E1.58161
G0 F2160 X93.293 Y117.549
G0 X92.166 Y122.93
G0 X92.15 Y122.894
G1 F1500 E7.08161
G1 F900 X92.131 Y122.898 E7.0819
G1 X92.148 Y122.884 E7.08193
G1 X92.242 Y122.878 E7.08266
G1 X92.15 Y122.894 E7.08267
G0 F2160 X92.131 Y122.898
G0 X92.148 Y122.884
G0 X92.242 Y122.878
G0 X92.178 Y122.889
G1 F1500 E1.58267
G0 F2160 X92.166 Y122.93
G0 X96.231 Y123.143
G0 X96.246 Y123.287
G1 F1500 E7.08267
G1 F900 X96.212 Y123.143 E7.08489
G1 X96.237 Y123.013 E7.08687
G1 X96.243 Y122.979 E7.08739
G1 X96.305 Y122.908 E7.0888
G1 X96.311 Y122.902 E7.08892
G1 X96.448 Y122.87 E7.09103
G1 X96.482 Y122.877 E7.09155
G1 X96.593 Y122.903 E7.09325
G1 X96.599 Y122.909 E7.09338
G1 X96.665 Y122.974 E7.09477
G1 X96.704 Y123.139 E7.09731
G1 X96.678 Y123.273 E7.09935
G1 X96.674 Y123.293 E7.09965
G1 X96.59 Y123.385 E7.10152
G1 X96.49 Y123.41 E7.10306
G1 X96.449 Y123.42 E7.10369
G1 X96.429 Y123.416 E7.104
G1 X96.326 Y123.395 E7.10557
G1 X96.255 Y123.329 E7.10702
G1 X96.246 Y123.287 E7.10767
G0 F2160 X96.212 Y123.143
G0 X96.222 Y123.091
G0 X96.4 Y123.124
G1 F1500 E1.60767
G0 F2160 X97.895 Y123.73
G0 X98.138 Y123.657
G1 F1500 E7.10767
G1 F900 X98.149 Y123.656 E7.10783
G1 X98.149 Y123.719 E7.10834
G1 X98.149 Y123.782 E7.10896
G1 X98.149 Y123.852 E7.11001
G1 X98.149 Y123.863 E7.11017
G1 X97.944 Y123.854 E7.11222
G1 X97.923 Y123.852 E7.11239
G1 X97.861 Y123.782 E7.11363
G1 X97.879 Y123.719 E7.11454
G1 X97.953 Y123.666 E7.11529
G1 X98.138 Y123.657 E7.11706
G0 F2160 X98.149 Y123.656
G0 X98.149 Y123.719
G0 X98.149 Y123.782
G0 X98.149 Y123.845
G1 F1500 E1.61706
G0 F2160 X98.053 Y123.759
G0 X101.654 Y117.913
G0 X101.818 Y117.615
G1 F1500 E7.11706
G1 F900 X101.881 Y117.704 E7.11869
G1 X101.892 Y117.828 E7.12055
G1 X101.853 Y117.895 E7.12171
G1 X101.76 Y117.941 E7.12327
G1 X101.647 Y117.931 E7.12496
G1 X101.584 Y117.879 E7.12619
G1 X101.555 Y117.76 E7.12802
G1 X101.634 Y117.603 E7.13065
G1 X101.74 Y117.584 E7.13226
G1 X101.818 Y117.615 E7.13352
G0 F2160 X101.881 Y117.704
G0 X101.889 Y117.795
G0 X101.863 Y117.754
G1 F1500 E1.63352
G0 F2160 X101.785 Y117.76
G0 X103.078 Y117.775
G0 X103.312 Y117.839
G1 F1500 E7.13352
G1 F900 X103.235 Y117.88 E7.13482
G1 X103.114 Y117.846 E7.13671
G1 X103.059 Y117.779 E7.138
G1 X103.093 Y117.634 E7.14023
G1 X103.114 Y117.624 E7.14039
G1 X103.182 Y117.592 E7.14144
G1 X103.256 Y117.597 E7.14241
G1 X103.314 Y117.602 E7.14315
G1 X103.384 Y117.654 E7.14445
G1 X103.395 Y117.796 E7.14658
G1 X103.312 Y117.839 E7.14772
G0 F2160 X103.235 Y117.88
G0 X103.126 Y117.85
G0 X103.327 Y118.562
G1 F900 X103.26 Y118.602 E7.14889
G1 X103.228 Y118.621 E7.14945
G1 X103.19 Y118.598 E7.15011
G1 X103.125 Y118.559 E7.15125
G1 X103.18 Y118.468 E7.15207
G1 X103.222 Y118.467 E7.15219
G1 X103.269 Y118.465 E7.15237
G1 X103.329 Y118.539 E7.15308
G1 X103.341 Y118.554
G1 X103.327 Y118.562
G0 F2160 X103.26 Y118.602
G0 X103.228 Y118.621
G0 X103.19 Y118.598
G0 X103.155 Y118.577
G1 F1500 E1.65308
G0 F2160 X103.208 Y118.568
G0 X105.217 Y122.919
G0 X105.566 Y123.002
G1 F1500 E7.15308
G1 F900 X105.599 Y123.139 E7.15519
G1 X105.573 Y123.273 E7.15723
G1 X105.569 Y123.293 E7.15754
G1 X105.485 Y123.385 E7.1594
G1 X105.386 Y123.41 E7.16093
G1 X105.344 Y123.42 E7.16158
G1 X105.324 Y123.416 E7.16188
G1 X105.22 Y123.395 E7.16347
G1 X105.151 Y123.331 E7.16488
G1 X105.141 Y123.289 E7.16552
G1 X105.107 Y123.143 E7.16777
G1 X105.132 Y123.013 E7.16975
G1 X105.138 Y122.978 E7.17028
G1 X105.207 Y122.902 E7.17182
G1 X105.314 Y122.875 E7.17347
G1 X105.342 Y122.869 E7.1739
G1 X105.377 Y122.877 E7.17443
G1 X105.488 Y122.903 E7.17614
G1 X105.56 Y122.974 E7.17765
G1 X105.566 Y123.002 E7.17808
G0 F2160 X105.599 Y123.139
G0 X105.588 Y123.198
G0 X105.408 Y123.114
G1 F1500 E1.67808
G0 F2160 X107.977 Y118.581
G0 X108.056 Y117.689
G0 X108.155 Y117.638
G1 F1500 E7.17808
G1 F900 X108.194 Y117.725 E7.17951
G1 X108.217 Y117.778 E7.18037
G1 X108.217 Y117.787 E7.18051
G1 X108.241 Y118.22 E7.187
G1 X108.184 Y118.468 E7.19081
G1 X108.171 Y118.525 E7.19168
G1 X108.099 Y118.603 E7.19327
G1 X107.967 Y118.598 E7.19525
G1 X107.895 Y118.479 E7.19733
G1 X107.888 Y118.421 E7.19817
G1 X107.847 Y118.099 E7.20303
G1 X107.863 Y117.851 E7.20675
G1 X107.9 Y117.741 E7.20849
G1 X107.932 Y117.645 E7.21
G1 X107.984 Y117.6 E7.21103
G1 X107.99 Y117.595 E7.21115
G1 X108.084 Y117.589 E7.21256
G1 X108.153 Y117.632 E7.21378
G1 X108.155 Y117.638 E7.21387
G0 F2160 X108.194 Y117.725
G0 X108.217 Y117.778
G0 X108.217 Y117.787
G0 X108.219 Y117.826
G0 X108.155 Y117.921
G1 F1500 E1.71387
G0 F2160 X108.124 Y117.922
G0 X110.828 Y118.1
G0 X110.85 Y118.421
G1 F1500 E7.21387
G1 F900 X110.809 Y118.1 E7.21871
G1 X110.838 Y117.815 E7.223
G1 X110.843 Y117.764 E7.22377
G1 X110.93 Y117.634 E7.22611
G1 X110.941 Y117.618 E7.2264
G1 X110.961 Y117.589 E7.22693
G1 X111.011 Y117.602 E7.2277
G1 X111.113 Y117.629 E7.22928
G1 X111.179 Y117.778 E7.23136
G1 X111.18 Y117.798 E7.23165
G1 X111.203 Y118.22 E7.23798
G1 X111.146 Y118.468 E7.24179
G1 X111.133 Y118.525 E7.24266
G1 X111.058 Y118.606 E7.24431
G1 X110.926 Y118.593 E7.2463
G1 X110.857 Y118.479 E7.24829
G1 X110.85 Y118.421 E7.24914
G0 F2160 X110.825 Y118.223
G0 X110.9 Y118.198
G1 F1500 E1.74914
G0 F2160 X110.922 Y118.197
G0 X113.106 Y122.929
G0 X113.322 Y122.892
G1 F1500 E7.24914
G1 F900 X113.392 Y122.959 E7.25059
G1 X113.43 Y123.126 E7.25315
G1 X113.387 Y123.323 E7.25617
G1 X113.324 Y123.389 E7.25754
G1 X113.205 Y123.419 E7.25937
G1 X113.094 Y123.389 E7.26109
G1 X113.041 Y123.329 E7.26229
G1 X113.034 Y123.007 E7.26711
