;FLAVOR:Marlin
;TIME:5591
;Filament used: 5.83913m, 0m
;Layer height: 0.2
;MINX:50.317
;MINY:87.249
;MINZ:0.2
;MAXX:175.944
;MAXY:128.45
;MAXZ:20
;Generated with Cura_SteamEngine 4.8.0
T0
M140 S60
M105
M190 S60
M104 S200
M105
M109 S200
M82 ;absolute extrusion mode
M201 X500.00 Y500.00 Z100.00 E5000.00 	;Setup machine max acceleration
M203 X500.00 Y500.00 Z10.00 E50.00 	;Setup machine max feedrate
M204 P500.00 R1000.00 T500.00 		;Setup Print/Retract/Travel acceleration
M205 X8.00 Y8.00 Z0.40 E5.00 		;Setup Jerk
M220 S100 				;Reset Feedrate
M221 S100 				;Reset Flowrate
G28				;Home the Machine
#G29 				;Bed Level
G92 E0
M300 P150 S587
G92 E0
G1 F1500 E-5.5
;LAYER_COUNT:100
;LAYER:0
M107
G0 F2160 X74.325 Y89.337 Z0.2
;TYPE:SKIRT
G1 F1500 E0
G1 F900 X74.901 Y88.905 E0.01796
G1 X75.326 Y88.639 E0.03047
G1 X75.934 Y88.318 E0.04762
G1 X76.538 Y88.019 E0.06443
G1 X77.111 Y87.797 E0.07976
G1 X77.841 Y87.586 E0.09871
G1 X78.693 Y87.4 E0.12047
G1 X79.373 Y87.319 E0.13755
G1 X80.061 Y87.262 E0.15477
G1 X80.583 Y87.249 E0.1678
G1 X145.414 Y87.249 E1.78501
G1 X145.941 Y87.256 E1.79816
G1 X146.161 Y87.266 E1.80365
G1 X146.705 Y87.308 E1.81726
G1 X147.382 Y87.396 E1.83429
G1 X148.117 Y87.511 E1.85285
G1 X148.901 Y87.717 E1.87307
G1 X149.416 Y87.904 E1.88674
G1 X150.008 Y88.145 E1.90268
G1 X150.621 Y88.456 E1.91983
G1 X150.748 Y88.529 E1.92349
G1 X151.305 Y88.865 E1.93971
G1 X151.763 Y89.18 E1.95358
G1 X152.27 Y89.581 E1.9697
G1 X152.694 Y89.981 E1.98424
G1 X153.159 Y90.455 E2.00081
G1 X153.509 Y90.853 E2.01403
G1 X153.705 Y91.09 E2.0217
G1 X154.171 Y91.681 E2.04047
G1 X174.836 Y118.75 E2.88999
G1 X175.257 Y119.32 E2.90767
G1 X175.536 Y119.765 E2.92077
G1 X175.744 Y120.247 E2.93386
G1 X175.877 Y120.755 E2.94696
G1 X175.932 Y121.318 E2.96107
G1 X175.943 Y122.102 E2.98063
G1 X175.944 Y124.348 E3.03666
G1 X175.935 Y125.035 E3.0538
G1 X175.888 Y125.558 E3.0669
G1 X175.762 Y126.068 E3.08
G1 X175.561 Y126.553 E3.0931
G1 X175.288 Y127.001 E3.10619
G1 X174.951 Y127.403 E3.11927
G1 X174.556 Y127.749 E3.13237
G1 X174.113 Y128.032 E3.14548
G1 X173.633 Y128.243 E3.15856
G1 X173.126 Y128.38 E3.17166
G1 X172.59 Y128.438 E3.18511
G1 X172.158 Y128.45 E3.19589
G1 X156.727 Y128.45 E3.58082
G1 X156.021 Y128.439 E3.59843
G1 X155.498 Y128.39 E3.61154
G1 X154.989 Y128.264 E3.62462
G1 X154.613 Y128.114 E3.63471
G1 X154.113 Y127.88 E3.64849
G1 X151.618 Y126.754 E3.71677
G1 X149.123 Y125.711 E3.78423
G1 X146.506 Y124.701 E3.8542
G1 X143.983 Y123.813 E3.92092
G1 X141.397 Y122.981 E3.98869
G1 X138.754 Y122.213 E4.05734
G1 X136.113 Y121.527 E4.12541
G1 X133.444 Y120.913 E4.19373
G1 X130.773 Y120.376 E4.26169
G1 X128.09 Y119.918 E4.32958
G1 X125.368 Y119.531 E4.39817
G1 X122.684 Y119.226 E4.46555
G1 X119.946 Y118.993 E4.5341
G1 X117.219 Y118.84 E4.60223
G1 X114.476 Y118.762 E4.67068
G1 X111.774 Y118.762 E4.73808
G1 X109.002 Y118.84 E4.80726
G1 X106.333 Y118.993 E4.87395
G1 X103.574 Y119.227 E4.94302
G1 X100.851 Y119.537 E5.01138
G1 X98.169 Y119.919 E5.07896
G1 X95.49 Y120.378 E5.14676
G1 X92.823 Y120.912 E5.21461
G1 X90.149 Y121.528 E5.28306
G1 X87.472 Y122.226 E5.35207
G1 X84.874 Y122.98 E5.41955
G1 X82.274 Y123.817 E5.48769
G1 X79.699 Y124.726 E5.55581
G1 X77.167 Y125.702 E5.6235
G1 X74.655 Y126.751 E5.6914
G1 X72.922 Y127.549 E5.739
G1 X72.77 Y127.605 E5.74304
G1 X71.608 Y128.132 E5.77486
G1 X71.115 Y128.312 E5.78796
G1 X70.6 Y128.415 E5.80106
G1 X69.939 Y128.449 E5.81757
G1 X54.425 Y128.45 E6.20457
G1 X53.727 Y128.44 E6.22198
G1 X53.204 Y128.392 E6.23508
G1 X52.694 Y128.266 E6.24819
G1 X52.21 Y128.064 E6.26127
G1 X51.761 Y127.791 E6.27438
G1 X51.36 Y127.453 E6.28746
G1 X51.014 Y127.057 E6.30058
G1 X50.732 Y126.614 E6.31368
G1 X50.521 Y126.134 E6.32676
G1 X50.385 Y125.627 E6.33985
G1 X50.327 Y125.083 E6.3535
G1 X50.317 Y124.658 E6.3641
G1 X50.317 Y122.024 E6.42981
G1 X50.327 Y121.324 E6.44727
G1 X50.375 Y120.801 E6.46037
G1 X50.501 Y120.291 E6.47348
G1 X50.703 Y119.807 E6.48656
G1 X51.003 Y119.321 E6.50081
G1 X51.501 Y118.649 E6.52167
G1 X72.09 Y91.683 E7.36799
G1 X72.491 Y91.171 E7.38422
G1 X72.63 Y91.004 E7.38964
G1 X73.173 Y90.394 E7.41001
G1 X73.726 Y89.843 E7.42948
G1 X74.325 Y89.337 E7.44904
G0 F2160 X74.518 Y89.567
G1 F900 X75.078 Y89.147 E7.4665
G1 X75.466 Y88.904 E7.47792
G1 X76.068 Y88.587 E7.4949
G1 X76.672 Y88.288 E7.51171
G1 X77.194 Y88.085 E7.52568
G1 X77.924 Y87.874 E7.54463
G1 X78.728 Y87.698 E7.56516
G1 X79.408 Y87.617 E7.58225
G1 X80.071 Y87.562 E7.59884
G1 X80.587 Y87.549 E7.61172
G1 X145.41 Y87.549 E9.22874
G1 X145.937 Y87.556 E9.24188
G1 X146.137 Y87.565 E9.24688
G1 X146.681 Y87.607 E9.26049
G1 X147.34 Y87.693 E9.27707
G1 X148.07 Y87.807 E9.2955
G1 X148.812 Y88.003 E9.31464
G1 X149.311 Y88.185 E9.32789
G1 X149.894 Y88.423 E9.3436
G1 X150.477 Y88.719 E9.35991
G1 X150.593 Y88.786 E9.36325
G1 X151.15 Y89.122 E9.37948
G1 X151.582 Y89.419 E9.39255
G1 X152.069 Y89.804 E9.40804
G1 X152.482 Y90.193 E9.42219
G1 X152.934 Y90.654 E9.4383
G1 X153.279 Y91.046 E9.45132
G1 X153.469 Y91.275 E9.45875
G1 X153.933 Y91.864 E9.47745
G1 X174.595 Y118.929 E10.32684
G1 X175.016 Y119.499 E10.34452
G1 X175.281 Y119.924 E10.35701
G1 X175.475 Y120.387 E10.36953
G1 X175.593 Y120.875 E10.38206
G1 X175.632 Y121.323 E10.39328
G1 X175.643 Y122.103 E10.41274
G1 X175.644 Y124.344 E10.46864
G1 X175.635 Y125.031 E10.48578
G1 X175.588 Y125.531 E10.4983
G1 X175.463 Y126.016 E10.5108
G1 X175.262 Y126.476 E10.52332
G1 X174.991 Y126.898 E10.53583
G1 X174.657 Y127.272 E10.54834
G1 X174.267 Y127.588 E10.56086
G1 X173.832 Y127.837 E10.57336
G1 X173.363 Y128.015 E10.58588
G1 X172.872 Y128.116 E10.59838
G1 X172.254 Y128.149 E10.61382
G1 X156.732 Y128.15 E11.00102
G1 X156.026 Y128.139 E11.01863
G1 X155.527 Y128.091 E11.03114
G1 X155.041 Y127.965 E11.04366
G1 X154.74 Y127.842 E11.05177
G1 X154.264 Y127.619 E11.06488
G1 X151.732 Y126.476 E11.13418
G1 X149.228 Y125.43 E11.20187
G1 X146.618 Y124.423 E11.27166
G1 X144.09 Y123.533 E11.33851
G1 X141.467 Y122.689 E11.40725
G1 X138.849 Y121.929 E11.47525
G1 X136.175 Y121.234 E11.54417
G1 X133.505 Y120.619 E11.61252
G1 X130.811 Y120.078 E11.68106
G1 X128.146 Y119.623 E11.7485
G1 X125.411 Y119.234 E11.81741
G1 X122.707 Y118.927 E11.8853
G1 X119.955 Y118.693 E11.9542
G1 X117.244 Y118.54 E12.02193
G1 X114.485 Y118.462 E12.09078
G1 X111.765 Y118.462 E12.15863
G1 X109.012 Y118.54 E12.22733
G1 X106.289 Y118.695 E12.29537
G1 X103.551 Y118.927 E12.36391
G1 X100.807 Y119.24 E12.43281
G1 X98.148 Y119.619 E12.49981
G1 X95.418 Y120.087 E12.5689
G1 X92.737 Y120.623 E12.6371
G1 X90.07 Y121.238 E12.70537
G1 X87.428 Y121.926 E12.77348
G1 X84.794 Y122.691 E12.8419
G1 X82.156 Y123.54 E12.91103
G1 X79.599 Y124.443 E12.97867
G1 X77.08 Y125.414 E13.04602
G1 X74.501 Y126.491 E13.11573
G1 X72.796 Y127.276 E13.16256
G1 X72.662 Y127.325 E13.16612
G1 X71.484 Y127.859 E13.19838
G1 X71.012 Y128.029 E13.21089
G1 X70.275 Y128.139 E13.22948
G1 X69.839 Y128.15 E13.24036
G1 X54.429 Y128.15 E13.62476
G1 X53.731 Y128.14 E13.64218
G1 X53.231 Y128.093 E13.65471
G1 X52.746 Y127.967 E13.66721
G1 X52.286 Y127.766 E13.67973
G1 X51.865 Y127.494 E13.69223
G1 X51.492 Y127.159 E13.70474
G1 X51.176 Y126.769 E13.71726
G1 X50.927 Y126.334 E13.72976
G1 X50.75 Y125.864 E13.74229
G1 X50.649 Y125.373 E13.75479
G1 X50.618 Y124.743 E13.77053
G1 X50.617 Y122.028 E13.83825
G1 X50.627 Y121.328 E13.85572
G1 X50.674 Y120.829 E13.86822
G1 X50.8 Y120.343 E13.88075
G1 X51.001 Y119.884 E13.89324
G1 X51.245 Y119.5 E13.90459
G1 X51.739 Y118.831 E13.92534
G1 X72.326 Y91.868 E14.77157
G1 X72.727 Y91.356 E14.7878
G1 X72.854 Y91.204 E14.79274
G1 X73.397 Y90.594 E14.81311
G1 X73.919 Y90.073 E14.83151
G1 X74.518 Y89.567 E14.85107
G1 F1500 E9.35107
;MESH:2020Handle.stl
G0 F2160 X76.078 Y91.491
G0 X76.699 Y92.255
G0 X77.253 Y92.361
;TYPE:WALL-INNER
G1 F1500 E14.85107
G1 F900 X78.389 Y91.78 E14.88289
G1 X79.217 Y91.557 E14.90428
G1 X79.337 Y91.541 E14.9073
G1 X80.224 Y91.449 E14.92955
G1 X82.971 Y91.449 E14.99807
G1 X83.141 Y91.449 E15.00231
G1 X83.508 Y91.449 E15.01147
G1 X83.301 Y91.547 E15.01219
G1 X83.182 Y91.603 E15.01332
G1 X83.141 Y91.623 E15.01446
G1 X83.012 Y91.732 E15.01784
G1 X82.565 Y92.11 E15.03244
G1 X82.052 Y92.724 E15.0524
G1 X81.421 Y94.055 E15.08915
G1 X81.248 Y94.996 E15.11301
G1 X81.229 Y95.642 E15.12913
G1 X81.324 Y96.427 E15.14886
G1 X81.594 Y97.311 E15.17192
G1 X83.609 Y102.061 E15.30063
G1 X83.947 Y102.701 E15.31868
G1 X84.422 Y103.322 E15.33818
G1 X85.064 Y103.887 E15.35952
G1 X85.252 Y103.999 E15.36498
G1 X85.569 Y104.188 E15.37418
G1 X85.588 Y104.199 E15.37473
G1 X85.562 Y104.201 E15.37483
G1 X85.2 Y104.274 E15.37995
G1 X84.924 Y104.33 E15.38697
G1 X84.769 Y104.381 E15.39105
G1 X83.273 Y104.941 E15.43089
G1 X83.101 Y105.027 E15.43569
G1 X81.714 Y105.952 E15.47728
G1 X81.546 Y106.116 E15.48313
G1 X81.544 Y106.118 E15.4832
G1 X81.463 Y106.196 E15.48601
G1 X81.247 Y106.405 E15.49351
G1 X81.337 Y105.906 E15.50615
G1 X81.337 Y105.902 E15.50625
G1 X81.348 Y105.819 E15.50834
G1 X81.363 Y104.998 E15.52883
G1 X81.276 Y104.379 E15.54442
G1 X81.008 Y103.503 E15.56727
G1 X78.994 Y98.756 E15.6959
G1 X78.436 Y97.8 E15.72351
G1 X78.015 Y97.333 E15.7392
G1 X77.374 Y96.816 E15.75974
G1 X77.249 Y96.754 E15.76322
G1 X75.842 Y96.204 E15.80091
G1 X75.691 Y96.18 E15.80472
G1 X74.993 Y96.147 E15.82215
G1 X74.257 Y96.256 E15.84071
G1 X74.255 Y96.256 E15.84076
G1 X74.208 Y96.276 E15.84203
G1 X74.129 Y96.309 E15.84417
G1 X73.702 Y96.492 E15.85576
G1 X74.019 Y96.077 E15.86198
G1 X74.02 Y96.075 E15.86203
G1 X75.831 Y93.704 E15.93646
G1 X76.457 Y93.023 E15.95953
G1 X76.531 Y92.946 E15.9622
G1 X77.253 Y92.361 E15.98538
G0 F2160 X84.799 Y91.356
G0 X92.721 Y91.356
G0 X94.106 Y91.449
G1 F900 X94.53 Y91.449 E15.99595
G1 X94.532 Y91.449 E15.996
G1 X98.96 Y91.449 E16.10646
G1 X98.961 Y91.449 E16.10649
G1 X99.449 Y91.449 E16.11866
G1 X99.044 Y91.722 E16.12502
G1 X98.85 Y91.853 E16.13086
G1 X98.756 Y91.952 E16.13426
G1 X97.883 Y93.003 E16.16835
G1 X97.421 Y94.096 E16.19795
G1 X97.26 Y95.071 E16.2226
G1 X97.249 Y95.165 E16.22496
G1 X97.246 Y95.826 E16.24145
G1 X97.268 Y95.973 E16.24515
G1 X97.334 Y96.434 E16.25677
G1 X97.603 Y97.312 E16.27968
G1 X97.985 Y98.212 E16.30407
G1 X98.345 Y99.06 E16.32705
G1 X98.508 Y99.444 E16.33745
G1 X99.614 Y102.051 E16.4081
G1 X100.079 Y102.887 E16.43196
G1 X101.011 Y103.825 E16.46494
G1 X101.105 Y103.92 E16.46828
G1 X101.431 Y104.107 E16.47765
G1 X101.105 Y104.107 E16.47997
G1 X100.971 Y104.107 E16.48274
G1 X96.55 Y104.107 E16.59302
G1 X96.549 Y104.107 E16.59305
G1 X96.06 Y104.107 E16.60524
G1 X96.466 Y103.834 E16.61161
G1 X96.648 Y103.712 E16.61708
G1 X97.145 Y103.212 E16.63467
G1 X97.231 Y103.115 E16.6379
G1 X97.851 Y102.1 E16.66757
G1 X97.861 Y102.067 E16.66843
G1 X98.173 Y101.108 E16.69359
G1 X98.185 Y101.074 E16.69449
G1 X98.187 Y101.039 E16.69536
G1 X98.271 Y99.958 E16.72241
G1 X98.274 Y99.928 E16.72316
G1 X98.228 Y99.546 E16.73276
G1 X98.179 Y99.131 E16.74113
G1 X97.908 Y98.245 E16.75146
G1 X97.527 Y97.345 E16.75819
G1 X97.17 Y96.504 E16.76819
G1 X96.988 Y96.075 E16.77749
G1 X95.893 Y93.496 E16.84738
G1 X95.57 Y92.884 E16.86464
G1 X95.525 Y92.813 E16.86674
G1 X95.083 Y92.237 E16.88485
G1 X94.99 Y92.155 E16.88794
G1 X94.438 Y91.714 E16.90557
G1 X94.106 Y91.449 E16.91116
G0 F2160 X101.16 Y91.34
G0 X108.301 Y91.333
G0 X110.113 Y91.449
G1 F900 X110.587 Y91.449 E16.92298
G1 X110.588 Y91.449 E16.92301
G1 X115.716 Y91.449 E17.05093
G1 X115.717 Y91.449 E17.05095
G1 X116.141 Y91.449 E17.06153
G1 X115.81 Y91.714 E17.06712
G1 X115.155 Y92.239 E17.08806
G1 X114.362 Y93.485 E17.1249
G1 X113.267 Y96.062 E17.19475
G1 X113.13 Y96.386 E17.20352
G1 X112.993 Y96.062 E17.20825
G1 X111.888 Y93.461 E17.27874
G1 X110.722 Y91.874 E17.32786
G1 X110.502 Y91.721 E17.33455
G1 X110.113 Y91.449 E17.34074
G0 F2160 X108.301 Y91.333
G0 X101.16 Y91.34
G0 X99.7 Y91.776
G0 X99.07 Y92.218
G0 X98.236 Y93.221
G0 X97.818 Y94.21
G0 X97.66 Y95.19
G0 X97.657 Y95.796
G0 X97.991 Y97.174
G0 X99.983 Y101.869
G0 X100.411 Y102.638
G0 X101.358 Y103.591
G0 X101.972 Y103.944
G0 X102.814 Y104.201
G0 X110.694 Y104.202
G0 X112.056 Y104.107
G1 F900 X112.442 Y103.876 E17.35197
G1 X113.122 Y103.244 E17.37512
G1 X113.14 Y103.228 E17.37572
G1 X113.303 Y103.438 E17.38049
G1 X113.844 Y103.892 E17.39811
G1 X113.882 Y103.914 E17.3992
G1 X113.961 Y103.96 E17.40148
G1 X114.214 Y104.107 E17.40878
G1 X113.844 Y104.107 E17.41252
G1 X112.442 Y104.107 E17.4475
G1 X112.056 Y104.107 E17.45096
G0 F2160 X115.581 Y104.2
G0 X123.044 Y104.222
G0 X123.81 Y104.122
G0 X125.52 Y103.049
G0 X125.95 Y102.495
G0 X126.281 Y101.864
G0 X128.276 Y97.158
G0 X128.496 Y96.475
G0 X128.607 Y95.524
G0 X128.526 Y94.545
G0 X128.058 Y93.33
G0 X126.667 Y91.449
G1 F900 X127.285 Y91.449 E17.46638
G1 X127.286 Y91.449 E17.4664
G1 X132.155 Y91.449 E17.58786
G1 X132.156 Y91.449 E17.58789
G1 X131.567 Y91.861 E17.60582
G1 X130.873 Y92.619 E17.63145
G1 X130.408 Y93.427 E17.65471
G1 X130.372 Y93.484 E17.65639
G1 X129.239 Y96.155 E17.72877
G1 X129.049 Y96.604 E17.74093
G1 X129.013 Y96.688 E17.74321
G1 X128.738 Y97.335 E17.76074
G1 X128.355 Y98.237 E17.78519
G1 X128.107 Y98.99 E17.80497
G1 X128.083 Y99.417 E17.81563
G1 X128.018 Y100.557 E17.84412
G1 X128.023 Y100.718 E17.84814
G1 X128.177 Y101.487 E17.8677
G1 X128.705 Y102.672 E17.90006
G1 X129.117 Y103.222 E17.9172
G1 X129.854 Y103.841 E17.94121
G1 X130.142 Y104.083 E17.9506
G1 X130.178 Y104.107 E17.95167
G1 X130.142 Y104.107 E17.95167
G1 X129.765 Y104.107 E17.95702
G1 X125.228 Y104.107 E18.0702
G1 X125.227 Y104.107 E18.07022
G1 X124.771 Y104.107 E18.0816
G1 X125.139 Y103.837 E18.08757
G1 X125.809 Y103.347 E18.10828
G1 X126.221 Y102.808 E18.1252
G1 X126.285 Y102.741 E18.12751
G1 X126.65 Y102.043 E18.14716
G1 X126.654 Y102.032 E18.14745
G1 X127.801 Y99.326 E18.22077
G1 X127.968 Y98.932 E18.22882
G1 X128.277 Y98.205 E18.23651
G1 X128.66 Y97.302 E18.24338
G1 X128.881 Y96.633 E18.25007
G1 X128.902 Y96.542 E18.25126
G1 X128.958 Y96.057 E18.26062
G1 X129.02 Y95.531 E18.27383
G1 X128.929 Y94.451 E18.30087
G1 X128.419 Y93.094 E18.33703
G1 X128.345 Y92.961 E18.34083
G1 X127.447 Y91.884 E18.37581
G1 X127.313 Y91.78 E18.38004
G1 X127.218 Y91.731 E18.3827
G1 X126.667 Y91.449 E18.39064
G0 F2160 X129.989 Y95.435
G0 X128.74 Y98.378
G0 X128.514 Y99.066
G0 X128.432 Y100.671
G0 X128.57 Y101.361
G0 X129.061 Y102.462
G0 X130.455 Y103.797
G0 X131.563 Y104.202
G0 X140.672 Y104.2
G1 F900 X140.698 Y104.183 E18.39141
G1 X140.956 Y104.01 E18.39916
G1 X141.57 Y103.596 E18.41763
G1 X142.212 Y102.825 E18.44266
G1 X142.289 Y102.751 E18.44532
G1 X142.66 Y102.043 E18.46526
G1 X142.664 Y102.032 E18.46556
G1 X144.669 Y97.302 E18.59371
G1 X144.904 Y96.591 E18.61239
G1 X145.025 Y95.814 E18.632
G1 X144.947 Y94.547 E18.66367
G1 X144.789 Y93.899 E18.68031
G1 X144.471 Y93.156 E18.70047
G1 X143.731 Y92.173 E18.73116
G1 X143.619 Y92.064 E18.73506
G1 X143.179 Y91.715 E18.74907
G1 X142.843 Y91.449 E18.75976
G1 X143.271 Y91.449 E18.7654
G1 X143.272 Y91.449 E18.76542
G1 X146.04 Y91.449 E18.83447
G1 X147.447 Y91.648 E18.86992
G1 X147.568 Y91.688 E18.87309
G1 X148.36 Y91.998 E18.89431
G1 X149.114 Y92.439 E18.9161
G1 X149.495 Y92.722 E18.92794
G1 X150.075 Y93.289 E18.94817
G1 X150.431 Y93.704 E18.96181
G1 X152.297 Y96.148 E19.03852
G1 X152.573 Y96.51 E19.04987
G1 X152.136 Y96.382 E19.05583
G1 X151.364 Y96.154 E19.07591
G1 X151.218 Y96.15 E19.07955
G1 X150.511 Y96.183 E19.09721
G1 X149.399 Y96.51 E19.12612
G1 X148.023 Y97.573 E19.1695
G1 X147.609 Y98.109 E19.18639
G1 X147.26 Y98.771 E19.20506
G1 X145.254 Y103.504 E19.33329
G1 X144.978 Y104.401 E19.3567
G1 X144.891 Y105.149 E19.37549
G1 X144.891 Y105.246 E19.37791
G1 X144.92 Y105.918 E19.39469
G1 X144.921 Y105.964 E19.39583
G1 X144.998 Y106.349 E19.40563
G1 X144.764 Y106.167 E19.40841
G1 X144.728 Y106.139 E19.40947
G1 X143.839 Y105.446 E19.43759
G1 X143.674 Y105.34 E19.44248
G1 X142.578 Y104.747 E19.47357
G1 X142.033 Y104.544 E19.48807
G1 X141.793 Y104.465 E19.49438
G1 X141.014 Y104.276 E19.51437
G1 X140.712 Y104.203 E19.51886
G1 X140.687 Y104.202 E19.51912
G1 X140.672 Y104.2
G0 F2160 X143.605 Y105.784
G0 X144.844 Y106.758
G0 X145.65 Y107.693
G0 X156.396 Y121.743
G0 X156.823 Y122.435
G1 F900 X156.913 Y122.512 E19.52207
