;FLAVOR:Marlin
;TIME:2047
;Filament used: 0.627659m, 0m
;Layer height: 0.2
;MINX:39.35
;MINY:39.35
;MINZ:0.3
;MAXX:195.65
;MAXY:195.65
;MAXZ:1.9
;POSTPROCESSED
;Generated with Cura_SteamEngine 4.7.1
T0
M140 S60
M105
M190 S60
M104 S200
M105
M109 S200
M82 ;absolute extrusion mode
M201 X500.00 Y500.00 Z100.00 E5000.00 	;Setup machine max acceleration
M203 X500.00 Y500.00 Z10.00 E50.00 	;Setup machine max feedrate
M204 P500.00 R1000.00 T500.00 		;Setup Print/Retract/Travel acceleration
M205 X8.00 Y8.00 Z0.40 E5.00 		;Setup Jerk
M220 S100 				;Reset Feedrate
M221 S100 				;Reset Flowrate
G28				;Home the Machine
G29 				;Bed Level
G92 E0
M300 P150 S587
G92 E0
G1 F1500 E-6.5
;LAYER_COUNT:9
;LAYER:0
M107
G0 F2400 X40.338 Y40.226 Z0.3
;TYPE:SKIRT
G1 F1500 E0
G1 X40.728 Y39.911 E0.01444
G1 X41.163 Y39.661 E0.0289
G1 X41.632 Y39.483 E0.04335
G1 X42.124 Y39.383 E0.05782
G1 X42.742 Y39.351 E0.07565
G1 X191.838 Y39.35 E4.37134
G1 X192.536 Y39.36 E4.39145
G1 X193.036 Y39.407 E4.40592
G1 X193.521 Y39.533 E4.42036
G1 X193.981 Y39.734 E4.43482
G1 X194.402 Y40.006 E4.44926
G1 X194.775 Y40.341 E4.46371
G1 X195.091 Y40.731 E4.47817
G1 X195.34 Y41.166 E4.49261
G1 X195.517 Y41.636 E4.50708
G1 X195.618 Y42.127 E4.52152
G1 X195.649 Y42.741 E4.53924
G1 X195.65 Y191.803 E8.83395
G1 X195.641 Y192.53 E8.8549
G1 X195.595 Y193.029 E8.86934
G1 X195.47 Y193.515 E8.88379
G1 X195.269 Y193.975 E8.89826
G1 X194.999 Y194.397 E8.91269
G1 X194.664 Y194.771 E8.92716
G1 X194.275 Y195.087 E8.9416
G1 X193.84 Y195.338 E8.95607
G1 X193.371 Y195.516 E8.97052
G1 X192.88 Y195.617 E8.98496
G1 X192.258 Y195.649 E9.00291
G1 X43.166 Y195.65 E13.29849
G1 X42.468 Y195.641 E13.3186
G1 X41.969 Y195.594 E13.33304
G1 X41.483 Y195.469 E13.3475
G1 X41.023 Y195.269 E13.36195
G1 X40.601 Y194.998 E13.3764
G1 X40.228 Y194.663 E13.39084
G1 X39.912 Y194.273 E13.4053
G1 X39.662 Y193.839 E13.41974
G1 X39.484 Y193.37 E13.43419
G1 X39.383 Y192.878 E13.44866
G1 X39.351 Y192.243 E13.46698
G1 X39.35 Y43.131 E17.76313
G1 X39.359 Y42.466 E17.78229
G1 X39.406 Y41.967 E17.79673
G1 X39.531 Y41.481 E17.81119
G1 X39.732 Y41.022 E17.82563
G1 X40.004 Y40.6 E17.84009
G1 X40.338 Y40.226 E17.85454
G1 F1500 E11.35454
;MESH:CHEP_bed_level_print.stl
G0 F2400 X102.714 Y101.835
G0 X102.714 Y102.714
G0 X102.8 Y102.8
;TYPE:WALL-OUTER
G1 F1500 E17.85454
G1 F1200 X102.8 Y132.2 E18.7016
G1 X132.2 Y132.2 E19.54866
G1 X132.2 Y102.8 E20.39572
G1 X102.8 Y102.8 E21.24278
G0 F2400 X102.8 Y103
G0 X102.7 Y103
G0 X132.239 Y102.798
G0 X132.3 Y102.8
G1 F1200 X132.3 Y132.2 E21.52514
G1 X132.3 Y132.3 E21.52716
G1 X132.2 Y132.3 E21.52918
G1 X102.8 Y132.3 E21.81153
G1 X102.7 Y132.3 E21.81355
G1 X102.7 Y132.2 E21.81557
G1 X102.7 Y102.8 E22.09792
G1 X102.7 Y102.7 E22.09994
G1 X102.8 Y102.7 E22.10196
G1 X132.2 Y102.7 E22.38431
G1 X132.3 Y102.7 E22.38633
G1 X132.3 Y102.8 E22.38835
G0 F2400 X132.3 Y103
G1 F1500 E15.88835
G0 F2400 X132.286 Y101.835
G0 X132.286 Y93.665
G0 X132.286 Y92.8
G0 X142.27 Y92.73
G0 X142.3 Y92.8
G1 F1500 E22.38835
G1 F1200 X142.3 Y142.2 E23.81165
G1 X142.3 Y142.3 E23.81453
G1 X142.2 Y142.3 E23.81655
G1 X92.8 Y142.3 E25.23984
G1 X92.7 Y142.3 E25.24272
G1 X92.7 Y142.2 E25.24474
G1 X92.7 Y92.8 E26.66803
G1 X92.7 Y92.7 E26.67091
G1 X92.8 Y92.7 E26.67293
G1 X142.2 Y92.7 E28.09622
G1 X142.3 Y92.7 E28.09911
G1 X142.3 Y92.8 E28.10112
G0 F2400 X142.3 Y93
G0 X142.2 Y93
G0 X92.73 Y92.73
G0 X92.8 Y92.8
G1 F1200 X92.8 Y142.2 E28.57556
G1 X142.2 Y142.2 E29.04999
G1 X142.2 Y92.8 E29.52442
G1 X92.8 Y92.8 E29.99885
G0 F2400 X92.8 Y93
G1 F1500 E23.49885
G0 F2400 X91.835 Y92.714
G0 X83.665 Y92.714
G0 X82.8 Y92.714
G0 X82.73 Y82.8
G0 X82.8 Y82.8
G1 F1500 E29.99885
G1 F1200 X82.8 Y152.2 E31.99837
G1 X152.2 Y152.2 E33.9979
G1 X152.2 Y82.8 E35.99742
G1 X82.8 Y82.8 E37.99695
G0 F2400 X82.8 Y83
G0 X82.7 Y83
G0 X152.239 Y82.799
G0 X152.3 Y82.8
G1 F1200 X152.3 Y152.2 E38.66345
G1 X152.3 Y152.3 E38.66547
G1 X152.2 Y152.3 E38.66749
G1 X82.8 Y152.3 E39.334
G1 X82.7 Y152.3 E39.33602
G1 X82.7 Y152.2 E39.33804
G1 X82.7 Y82.8 E40.00455
G1 X82.7 Y82.7 E40.00657
G1 X82.8 Y82.7 E40.00859
G1 X152.2 Y82.7 E40.67509
G1 X152.3 Y82.7 E40.67711
G1 X152.3 Y82.8 E40.67913
G0 F2400 X152.3 Y83
G1 F1500 E34.17913
G0 F2400 X152.286 Y81.835
G0 X152.286 Y73.665
G0 X152.286 Y72.8
G0 X162.27 Y72.73
G0 X162.3 Y72.8
G1 F1500 E40.67913
G1 F1200 X162.3 Y162.2 E43.25489
G1 X162.3 Y162.3 E43.25777
G1 X162.2 Y162.3 E43.25979
G1 X72.8 Y162.3 E45.83555
G1 X72.7 Y162.3 E45.83843
G1 X72.7 Y162.2 E45.84045
G1 X72.7 Y72.8 E48.4162
G1 X72.7 Y72.7 E48.41908
G1 X72.8 Y72.7 E48.4211
G1 X162.2 Y72.7 E50.99686
G1 X162.3 Y72.7 E50.99974
G1 X162.3 Y72.8 E51.00176
G0 F2400 X162.3 Y73
G0 X162.2 Y73
G0 X72.73 Y72.73
G0 X72.8 Y72.8
G1 F1200 X72.8 Y162.2 E51.86035
G1 X162.2 Y162.2 E52.71893
G1 X162.2 Y72.8 E53.57752
G1 X72.8 Y72.8 E54.4361
G0 F2400 X72.8 Y73
G1 F1500 E47.9361
G0 F2400 X71.835 Y72.714
G0 X63.665 Y72.714
G0 X62.8 Y72.714
G0 X62.73 Y62.8
G0 X62.8 Y62.8
G1 F1500 E54.4361
G1 F1200 X62.8 Y172.2 E57.58809
G1 X172.2 Y172.2 E60.74008
G1 X172.2 Y62.8 E63.89207
G1 X62.8 Y62.8 E67.04405
G0 F2400 X62.8 Y63
G0 X62.7 Y63
G0 X172.239 Y62.799
G0 X172.3 Y62.8
G1 F1200 X172.3 Y172.2 E68.09472
G1 X172.3 Y172.3 E68.09674
G1 X172.2 Y172.3 E68.09876
G1 X62.8 Y172.3 E69.14942
G1 X62.7 Y172.3 E69.15144
G1 X62.7 Y172.2 E69.15346
G1 X62.7 Y62.8 E70.20412
G1 X62.7 Y62.7 E70.20614
G1 X62.8 Y62.7 E70.20816
G1 X172.2 Y62.7 E71.25882
G1 X172.3 Y62.7 E71.26084
G1 X172.3 Y62.8 E71.26286
G0 F2400 X172.3 Y63
G1 F1500 E64.76286
G0 F2400 X172.286 Y61.835
G0 X172.286 Y53.665
G0 X172.286 Y52.8
G0 X182.27 Y52.73
G0 X182.3 Y52.8
G1 F1500 E71.26286
G1 F1200 X182.3 Y182.2 E74.99108
G1 X182.3 Y182.3 E74.99396
G1 X182.2 Y182.3 E74.99598
G1 X52.8 Y182.3 E78.7242
G1 X52.7 Y182.3 E78.72708
G1 X52.7 Y182.2 E78.7291
G1 X52.7 Y52.8 E82.45732
G1 X52.7 Y52.7 E82.4602
G1 X52.8 Y52.7 E82.46222
G1 X182.2 Y52.7 E86.19044
G1 X182.3 Y52.7 E86.19332
G1 X182.3 Y52.8 E86.19534
G0 F2400 X182.3 Y53
G0 X182.2 Y53
G0 X52.73 Y52.73
G0 X52.8 Y52.8
G1 F1200 X52.8 Y182.2 E87.43808
G1 X182.2 Y182.2 E88.68082
G1 X182.2 Y52.8 E89.92356
G1 X52.8 Y52.8 E91.1663
G0 F2400 X52.8 Y53
G1 F1500 E84.6663
G0 F2400 X51.835 Y52.714
G0 X43.665 Y52.714
G0 X42.8 Y52.714
G0 X42.73 Y42.8
G0 X42.8 Y42.8
G1 F1500 E91.1663
G1 F1200 X42.8 Y192.2 E95.47075
G1 X192.2 Y192.2 E99.7752
G1 X192.2 Y42.8 E104.07966
G1 X42.8 Y42.8 E108.38411
G0 F2400 X42.8 Y43
G0 X42.7 Y43
G0 X192.239 Y42.799
G0 X192.3 Y42.8
G1 F1200 X192.3 Y192.2 E109.81893
G1 X192.3 Y192.3 E109.82094
G1 X192.2 Y192.3 E109.82296
G1 X42.8 Y192.3 E111.25778
G1 X42.7 Y192.3 E111.2598
G1 X42.7 Y192.2 E111.26182
G1 X42.7 Y42.8 E112.69664
G1 X42.7 Y42.7 E112.69866
G1 X42.8 Y42.7 E112.70068
G1 X192.2 Y42.7 E114.13549
G1 X192.3 Y42.7 E114.13751
G1 X192.3 Y42.8 E114.13953
G0 F2400 X192.3 Y43
G1 F1500 E107.63953
;MESH:NONMESH
G0 F600 X192.3 Y43 Z0.5
G0 F2400 X102.698 Y42.799
G0 X102.73 Y43.665
G0 X102.73 Y101.835
G0 X102.73 Y102.72
G0 X102.8 Y102.8
;TIME_ELAPSED:306.014007
;LAYER:1
M106 S255
;TYPE:WALL-OUTER
;MESH:CHEP_bed_level_print.stl
G1 F1500 E114.13953
G1 F1300 X102.8 Y132.2 E114.70424
G1 X132.2 Y132.2 E115.26895
G1 X132.2 Y102.8 E115.83365
G1 X102.8 Y102.8 E116.39836
G0 F4000 X102.8 Y103
G0 X102.7 Y103
G0 X132.239 Y102.798
G0 X132.3 Y102.8
G1 F1300 X132.3 Y132.2 E116.5866
G1 X132.3 Y132.3 E116.58794
G1 X132.2 Y132.3 E116.58929
G1 X102.8 Y132.3 E116.77752
G1 X102.7 Y132.3 E116.77887
G1 X102.7 Y132.2 E116.78022
G1 X102.7 Y102.8 E116.96845
G1 X102.7 Y102.7 E116.9698
G1 X102.8 Y102.7 E116.97114
G1 X132.2 Y102.7 E117.15938
G1 X132.3 Y102.7 E117.16073
G1 X132.3 Y102.8 E117.16207
G0 F4000 X132.3 Y103
G1 F1500 E110.66207
G0 F4000 X132.286 Y101.835
G0 X132.286 Y93.665
G0 X132.286 Y92.8
G0 X142.27 Y92.73
G0 X142.3 Y92.8
G1 F1500 E117.16207
G1 F1300 X142.3 Y142.2 E118.11093
G1 X142.3 Y142.3 E118.11285
G1 X142.2 Y142.3 E118.1142
G1 X92.8 Y142.3 E119.06306
G1 X92.7 Y142.3 E119.06498
G1 X92.7 Y142.2 E119.06633
G1 X92.7 Y92.8 E120.01519
G1 X92.7 Y92.7 E120.01711
G1 X92.8 Y92.7 E120.01846
G1 X142.2 Y92.7 E120.96732
G1 X142.3 Y92.7 E120.96924
G1 X142.3 Y92.8 E120.97059
G0 F4000 X142.3 Y93
G0 X142.2 Y93
G0 X92.73 Y92.73
G0 X92.8 Y92.8
G1 F1300 X92.8 Y142.2 E121.28687
G1 X142.2 Y142.2 E121.60316
G1 X142.2 Y92.8 E121.91945
G1 X92.8 Y92.8 E122.23574
G0 F4000 X92.8 Y93
G1 F1500 E115.73574
G0 F4000 X91.835 Y92.714
G0 X83.665 Y92.714
G0 X82.8 Y92.714
G0 X82.73 Y82.8
G0 X82.8 Y82.8
G1 F1500 E122.23574
G1 F1300 X82.8 Y152.2 E123.56875
G1 X152.2 Y152.2 E124.90177
G1 X152.2 Y82.8 E126.23478
G1 X82.8 Y82.8 E127.5678
G0 F4000 X82.8 Y83
G0 X82.7 Y83
G0 X152.239 Y82.799
G0 X152.3 Y82.8
G1 F1300 X152.3 Y152.2 E128.01214
G1 X152.3 Y152.3 E128.01349
G1 X152.2 Y152.3 E128.01483
G1 X82.8 Y152.3 E128.45917
G1 X82.7 Y152.3 E128.46052
G1 X82.7 Y152.2 E128.46186
G1 X82.7 Y82.8 E128.9062
G1 X82.7 Y82.7 E128.90755
G1 X82.8 Y82.7 E128.90889
G1 X152.2 Y82.7 E129.35323
G1 X152.3 Y82.7 E129.35458
G1 X152.3 Y82.8 E129.35593
G0 F4000 X152.3 Y83
G1 F1500 E122.85593
G0 F4000 X152.286 Y81.835
G0 X152.286 Y73.665
G0 X152.286 Y72.8
G0 X162.27 Y72.73
G0 X162.3 Y72.8
G1 F1500 E129.35593
G1 F1300 X162.3 Y162.2 E131.0731
G1 X162.3 Y162.3 E131.07502
G1 X162.2 Y162.3 E131.07636
G1 X72.8 Y162.3 E132.79353
G1 X72.7 Y162.3 E132.79545
G1 X72.7 Y162.2 E132.7968
G1 X72.7 Y72.8 E134.51397
G1 X72.7 Y72.7 E134.51589
G1 X72.8 Y72.7 E134.51724
G1 X162.2 Y72.7 E136.23441
G1 X162.3 Y72.7 E136.23633
G1 X162.3 Y72.8 E136.23768
G0 F4000 X162.3 Y73
G0 X162.2 Y73
G0 X72.73 Y72.73
G0 X72.8 Y72.8
G1 F1300 X72.8 Y162.2 E136.81007
G1 X162.2 Y162.2 E137.38246
G1 X162.2 Y72.8 E137.95485
G1 X72.8 Y72.8 E138.52724
G0 F4000 X72.8 Y73
G1 F1500 E132.02724
G0 F4000 X71.835 Y72.714
G0 X63.665 Y72.714
G0 X62.8 Y72.714
G0 X62.73 Y62.8
G0 X62.8 Y62.8
G1 F1500 E138.52724
G1 F1300 X62.8 Y172.2 E140.62856
G1 X172.2 Y172.2 E142.72989
G1 X172.2 Y62.8 E144.83121
G1 X62.8 Y62.8 E146.93254
G0 F4000 X62.8 Y63
G0 X62.7 Y63
G0 X172.239 Y62.799
G0 X172.3 Y62.8
G1 F1300 X172.3 Y172.2 E147.63298
G1 X172.3 Y172.3 E147.63433
G1 X172.2 Y172.3 E147.63567
G1 X62.8 Y172.3 E148.33612
G1 X62.7 Y172.3 E148.33746
G1 X62.7 Y172.2 E148.33881
G1 X62.7 Y62.8 E149.03925
G1 X62.7 Y62.7 E149.0406
G1 X62.8 Y62.7 E149.04194
G1 X172.2 Y62.7 E149.74238
G1 X172.3 Y62.7 E149.74373
G1 X172.3 Y62.8 E149.74508
G0 F4000 X172.3 Y63
G1 F1500 E143.24508
G0 F4000 X172.286 Y61.835
G0 X172.286 Y53.665
G0 X172.286 Y52.8
G0 X182.27 Y52.73
G0 X182.3 Y52.8
G1 F1500 E149.74508
G1 F1300 X182.3 Y182.2 E152.23056
G1 X182.3 Y182.3 E152.23248
G1 X182.2 Y182.3 E152.23382
G1 X52.8 Y182.3 E154.7193
G1 X52.7 Y182.3 E154.72122
G1 X52.7 Y182.2 E154.72257
G1 X52.7 Y52.8 E157.20805
G1 X52.7 Y52.7 E157.20997
G1 X52.8 Y52.7 E157.21132
G1 X182.2 Y52.7 E159.6968
G1 X182.3 Y52.7 E159.69872
G1 X182.3 Y52.8 E159.70006
G0 F4000 X182.3 Y53
G0 X182.2 Y53
G0 X52.73 Y52.73
G0 X52.8 Y52.8
G1 F1300 X52.8 Y182.2 E160.52856
G1 X182.2 Y182.2 E161.35705
G1 X182.2 Y52.8 E162.18554
G1 X52.8 Y52.8 E163.01404
G0 F4000 X52.8 Y53
G1 F1500 E156.51404
G0 F4000 X51.835 Y52.714
G0 X43.665 Y52.714
G0 X42.8 Y52.714
G0 X42.73 Y42.8
G0 X42.8 Y42.8
G1 F1500 E163.01404
G1 F1300 X42.8 Y192.2 E165.88367
G1 X192.2 Y192.2 E168.75331
G1 X192.2 Y42.8 E171.62294
G1 X42.8 Y42.8 E174.49258
G0 F4000 X42.8 Y43
G0 X42.7 Y43
G0 X192.239 Y42.799
G0 X192.3 Y42.8
G1 F1300 X192.3 Y192.2 E175.44912
G1 X192.3 Y192.3 E175.45047
G1 X192.2 Y192.3 E175.45181
G1 X42.8 Y192.3 E176.40836
G1 X42.7 Y192.3 E176.4097
G1 X42.7 Y192.2 E176.41105
G1 X42.7 Y42.8 E177.36759
G1 X42.7 Y42.7 E177.36894
G1 X42.8 Y42.7 E177.37029
G1 X192.2 Y42.7 E178.32683
G1 X192.3 Y42.7 E178.32818
G1 X192.3 Y42.8 E178.32952
G0 F4000 X192.3 Y43
G1 F1500 E171.82952
;MESH:NONMESH
G0 F600 X192.3 Y43 Z0.7
G0 F4000 X102.698 Y42.799
G0 X102.73 Y43.665
G0 X102.73 Y101.835
G0 X102.73 Y102.72
G0 X102.8 Y102.8
;TIME_ELAPSED:553.770180
;LAYER:2
;TYPE:WALL-OUTER
;MESH:CHEP_bed_level_print.stl
G1 F1500 E178.32952
G1 F1400 X102.8 Y132.2 E178.89423
G1 X132.2 Y132.2 E179.45894
G1 X132.2 Y102.8 E180.02365
G1 X102.8 Y102.8 E180.58835
G0 F5600 X102.8 Y103
G0 X102.7 Y103
G0 X132.239 Y102.798
G0 X132.3 Y102.8
G1 F1400 X132.3 Y132.2 E180.77659
G1 X132.3 Y132.3 E180.77793
G1 X132.2 Y132.3 E180.77928
G1 X102.8 Y132.3 E180.96752
G1 X102.7 Y132.3 E180.96886
G1 X102.7 Y132.2 E180.97021
G1 X102.7 Y102.8 E181.15844
G1 X102.7 Y102.7 E181.15979
G1 X102.8 Y102.7 E181.16114
G1 X132.2 Y102.7 E181.34937
G1 X132.3 Y102.7 E181.35072
G1 X132.3 Y102.8 E181.35206
G0 F5600 X132.3 Y103
G1 F1500 E174.85206
G0 F5600 X132.286 Y101.835
G0 X132.286 Y93.665
G0 X132.286 Y92.8
G0 X142.27 Y92.73
G0 X142.3 Y92.8
G1 F1500 E181.35206
G1 F1400 X142.3 Y142.2 E182.30093
G1 X142.3 Y142.3 E182.30285
G1 X142.2 Y142.3 E182.30419
G1 X92.8 Y142.3 E183.25306
G1 X92.7 Y142.3 E183.25498
G1 X92.7 Y142.2 E183.25632
G1 X92.7 Y92.8 E184.20518
G1 X92.7 Y92.7 E184.2071
G1 X92.8 Y92.7 E184.20845
G1 X142.2 Y92.7 E185.15731
G1 X142.3 Y92.7 E185.15923
G1 X142.3 Y92.8 E185.16058
G0 F5600 X142.3 Y93
G0 X142.2 Y93
G0 X92.73 Y92.73
G0 X92.8 Y92.8
G1 F1400 X92.8 Y142.2 E185.47687
G1 X142.2 Y142.2 E185.79315
G1 X142.2 Y92.8 E186.10944
G1 X92.8 Y92.8 E186.42573
G0 F5600 X92.8 Y93
G1 F1500 E179.92573
G0 F5600 X91.835 Y92.714
G0 X83.665 Y92.714
G0 X82.8 Y92.714
G0 X82.73 Y82.8
G0 X82.8 Y82.8
G1 F1500 E186.42573
G1 F1400 X82.8 Y152.2 E187.75874
G1 X152.2 Y152.2 E189.09176
G1 X152.2 Y82.8 E190.42478
G1 X82.8 Y82.8 E191.75779
G0 F5600 X82.8 Y83
G0 X82.7 Y83
G0 X152.239 Y82.799
G0 X152.3 Y82.8
G1 F1400 X152.3 Y152.2 E192.20213
G1 X152.3 Y152.3 E192.20348
G1 X152.2 Y152.3 E192.20482
G1 X82.8 Y152.3 E192.64916
G1 X82.7 Y152.3 E192.65051
G1 X82.7 Y152.2 E192.65186
G1 X82.7 Y82.8 E193.09619
G1 X82.7 Y82.7 E193.09754
G1 X82.8 Y82.7 E193.09889
G1 X152.2 Y82.7 E193.54323
G1 X152.3 Y82.7 E193.54457
G1 X152.3 Y82.8 E193.54592
G0 F5600 X152.3 Y83
G1 F1500 E187.04592
G0 F5600 X152.286 Y81.835
G0 X152.286 Y73.665
G0 X152.286 Y72.8
G0 X162.27 Y72.73
G0 X162.3 Y72.8
G1 F1500 E193.54592
G1 F1400 X162.3 Y162.2 E195.26309
G1 X162.3 Y162.3 E195.26501
G1 X162.2 Y162.3 E195.26636
G1 X72.8 Y162.3 E196.98353
G1 X72.7 Y162.3 E196.98545
G1 X72.7 Y162.2 E196.98679
G1 X72.7 Y72.8 E198.70396
G1 X72.7 Y72.7 E198.70589
G1 X72.8 Y72.7 E198.70723
G1 X162.2 Y72.7 E200.4244
G1 X162.3 Y72.7 E200.42632
G1 X162.3 Y72.8 E200.42767
G0 F5600 X162.3 Y73
G0 X162.2 Y73
G0 X72.73 Y72.73
G0 X72.8 Y72.8
G1 F1400 X72.8 Y162.2 E201.00006
G1 X162.2 Y162.2 E201.57245
G1 X162.2 Y72.8 E202.14484
G1 X72.8 Y72.8 E202.71723
G0 F5600 X72.8 Y73
G1 F1500 E196.21723
G0 F5600 X71.835 Y72.714
G0 X63.665 Y72.714
G0 X62.8 Y72.714
G0 X62.73 Y62.8
G0 X62.8 Y62.8
G1 F1500 E202.71723
G1 F1400 X62.8 Y172.2 E204.81856
G1 X172.2 Y172.2 E206.91988
G1 X172.2 Y62.8 E209.02121
G1 X62.8 Y62.8 E211.12253
G0 F5600 X62.8 Y63
G0 X62.7 Y63
G0 X172.239 Y62.799
G0 X172.3 Y62.8
G1 F1400 X172.3 Y172.2 E211.82297
G1 X172.3 Y172.3 E211.82432
G1 X172.2 Y172.3 E211.82567
G1 X62.8 Y172.3 E212.52611
G1 X62.7 Y172.3 E212.52745
G1 X62.7 Y172.2 E212.5288
G1 X62.7 Y62.8 E213.22924
G1 X62.7 Y62.7 E213.23059
G1 X62.8 Y62.7 E213.23193
G1 X172.2 Y62.7 E213.93238
G1 X172.3 Y62.7 E213.93372
G1 X172.3 Y62.8 E213.93507
G0 F5600 X172.3 Y63
G1 F1500 E207.43507
G0 F5600 X172.286 Y61.835
G0 X172.286 Y53.665
G0 X172.286 Y52.8
G0 X182.27 Y52.73
G0 X182.3 Y52.8
G1 F1500 E213.93507
G1 F1400 X182.3 Y182.2 E216.42055
G1 X182.3 Y182.3 E216.42247
G1 X182.2 Y182.3 E216.42382
G1 X52.8 Y182.3 E218.9093
G1 X52.7 Y182.3 E218.91122
G1 X52.7 Y182.2 E218.91256
G1 X52.7 Y52.8 E221.39804
