;FLAVOR:Marlin
;TIME:1160
;Filament used: 0.542373m, 0m
;Layer height: 0.2
;MINX:16.55
;MINY:35.75
;MINZ:0.2
;MAXX:218.45
;MAXY:199.25
;MAXZ:0.2
;POSTPROCESSED
;Generated with Cura_SteamEngine 4.7.1
T0
M140 S60
M105
M190 S60
M104 S200
M105
M109 S200
M82 ;absolute extrusion mode
M201 X500.00 Y500.00 Z100.00 E5000.00 	;Setup machine max acceleration
M203 X500.00 Y500.00 Z10.00 E50.00 	;Setup machine max feedrate
M204 P500.00 R1000.00 T500.00 		;Setup Print/Retract/Travel acceleration
M205 X8.00 Y8.00 Z0.40 E5.00 		;Setup Jerk
M220 S100 				;Reset Feedrate
M221 S100 				;Reset Flowrate
G28				;Home the Machine
G29 				;Bed Level
G92 E0
M300 P150 S587
G92 E0
G1 F1500 E-6.5
;LAYER_COUNT:1
;LAYER:0
M107
G0 F2400 X18.363 Y36.061 Z0.2
;TYPE:SKIRT
G1 F1500 E0
G1 X18.832 Y35.883 E0.00964
G1 X19.324 Y35.783 E0.01928
G1 X19.942 Y35.751 E0.03117
G1 X46.638 Y35.75 E0.54393
G1 X47.34 Y35.76 E0.55742
G1 X48.146 Y35.875 E0.57306
G1 X49.324 Y36.201 E0.59654
G1 X49.894 Y36.366 E0.60793
G1 X52.597 Y37.065 E0.66156
G1 X55.222 Y37.666 E0.71328
G1 X57.936 Y38.207 E0.76644
G1 X60.618 Y38.663 E0.81869
G1 X63.346 Y39.048 E0.87161
G1 X66.054 Y39.352 E0.92395
G1 X68.799 Y39.582 E0.97686
G1 X71.516 Y39.732 E1.02913
G1 X74.272 Y39.807 E1.08209
G1 X76.99 Y39.803 E1.13429
G1 X79.747 Y39.721 E1.18727
G1 X82.497 Y39.562 E1.24018
G1 X85.208 Y39.329 E1.29245
G1 X87.909 Y39.018 E1.34467
G1 X90.648 Y38.624 E1.39782
G1 X93.322 Y38.162 E1.44994
G1 X96.045 Y37.612 E1.5033
G1 X98.652 Y37.01 E1.55469
G1 X102.632 Y35.94 E1.63385
G1 X102.818 Y35.886 E1.63757
G1 X103.31 Y35.784 E1.64723
G1 X103.934 Y35.751 E1.65923
G1 X130.638 Y35.75 E2.17215
G1 X131.34 Y35.76 E2.18564
G1 X132.146 Y35.875 E2.20128
G1 X133.324 Y36.201 E2.22475
G1 X133.894 Y36.366 E2.23615
G1 X136.597 Y37.065 E2.28978
G1 X139.222 Y37.666 E2.3415
G1 X141.936 Y38.207 E2.39466
G1 X144.618 Y38.663 E2.44691
G1 X147.346 Y39.048 E2.49983
G1 X150.054 Y39.352 E2.55217
G1 X152.799 Y39.582 E2.60508
G1 X155.516 Y39.732 E2.65735
G1 X158.272 Y39.807 E2.7103
G1 X160.99 Y39.803 E2.76251
G1 X163.747 Y39.721 E2.81549
G1 X166.497 Y39.562 E2.8684
G1 X169.208 Y39.329 E2.92066
G1 X171.909 Y39.018 E2.97289
G1 X174.648 Y38.624 E3.02604
G1 X177.322 Y38.162 E3.07816
G1 X180.045 Y37.612 E3.13152
G1 X182.652 Y37.01 E3.18291
G1 X186.632 Y35.94 E3.26207
G1 X186.818 Y35.886 E3.26579
G1 X187.31 Y35.784 E3.27544
G1 X187.934 Y35.751 E3.28745
G1 X214.634 Y35.75 E3.80029
G1 X215.332 Y35.759 E3.8137
G1 X215.831 Y35.806 E3.82333
G1 X216.317 Y35.931 E3.83297
G1 X216.777 Y36.131 E3.8426
G1 X217.199 Y36.402 E3.85223
G1 X217.572 Y36.737 E3.86186
G1 X217.888 Y37.127 E3.8715
G1 X218.138 Y37.561 E3.88112
G1 X218.316 Y38.03 E3.89076
G1 X218.417 Y38.522 E3.90041
G1 X218.449 Y39.142 E3.91233
G1 X218.45 Y65.818 E4.42472
G1 X218.44 Y66.538 E4.43855
G1 X218.387 Y67.069 E4.4488
G1 X218.33 Y67.376 E4.4548
G1 X217.871 Y70.064 E4.50717
G1 X217.48 Y72.803 E4.56032
G1 X217.174 Y75.5 E4.61245
G1 X216.94 Y78.251 E4.66548
G1 X216.786 Y80.964 E4.71768
G1 X216.708 Y83.723 E4.77069
G1 X216.708 Y86.442 E4.82292
G1 X216.785 Y89.181 E4.87555
G1 X216.94 Y91.915 E4.92815
G1 X217.172 Y94.646 E4.98079
G1 X217.484 Y97.398 E5.03399
G1 X217.865 Y100.067 E5.08578
G1 X218.16 Y101.796 E5.11947
G1 X218.162 Y101.822 E5.11997
G1 X218.394 Y103.163 E5.14611
G1 X218.449 Y103.935 E5.16097
G1 X218.45 Y130.618 E5.67349
G1 X218.44 Y131.338 E5.68733
G1 X218.387 Y131.869 E5.69758
G1 X218.33 Y132.176 E5.70357
G1 X217.871 Y134.864 E5.75595
G1 X217.48 Y137.603 E5.80909
G1 X217.174 Y140.3 E5.86123
G1 X216.94 Y143.051 E5.91426
G1 X216.786 Y145.764 E5.96645
G1 X216.708 Y148.523 E6.01947
G1 X216.708 Y151.242 E6.0717
G1 X216.785 Y153.981 E6.12433
G1 X216.94 Y156.715 E6.17693
G1 X217.172 Y159.446 E6.22957
G1 X217.484 Y162.198 E6.28277
G1 X217.865 Y164.867 E6.33455
G1 X218.16 Y166.596 E6.36824
G1 X218.162 Y166.622 E6.36874
G1 X218.394 Y167.963 E6.39488
G1 X218.449 Y168.735 E6.40975
G1 X218.45 Y195.403 E6.92198
G1 X218.441 Y196.13 E6.93595
G1 X218.395 Y196.629 E6.94557
G1 X218.27 Y197.115 E6.95521
G1 X218.069 Y197.575 E6.96485
G1 X217.799 Y197.997 E6.97448
G1 X217.464 Y198.371 E6.98412
G1 X217.075 Y198.687 E6.99375
G1 X216.64 Y198.938 E7.00339
G1 X216.171 Y199.116 E7.01303
G1 X215.68 Y199.217 E7.02266
G1 X215.058 Y199.249 E7.03462
G1 X188.362 Y199.25 E7.54739
G1 X187.662 Y199.24 E7.56084
G1 X187.3 Y199.214 E7.56781
G1 X186.853 Y199.124 E7.57657
G1 X185.676 Y198.799 E7.60002
G1 X185.106 Y198.634 E7.61142
G1 X182.403 Y197.935 E7.66504
G1 X179.778 Y197.334 E7.71677
G1 X177.064 Y196.793 E7.76992
G1 X174.382 Y196.337 E7.82218
G1 X171.654 Y195.952 E7.8751
G1 X168.946 Y195.648 E7.92744
G1 X166.201 Y195.418 E7.98035
G1 X163.484 Y195.268 E8.03261
G1 X160.728 Y195.193 E8.08557
G1 X158.01 Y195.197 E8.13778
G1 X155.253 Y195.279 E8.19076
G1 X152.503 Y195.438 E8.24367
G1 X149.792 Y195.671 E8.29593
G1 X147.091 Y195.982 E8.34815
G1 X144.352 Y196.376 E8.4013
G1 X141.678 Y196.838 E8.45343
G1 X138.955 Y197.388 E8.50679
G1 X136.348 Y197.99 E8.55818
G1 X132.368 Y199.06 E8.63734
G1 X132.182 Y199.114 E8.64106
G1 X131.69 Y199.216 E8.65071
G1 X131.066 Y199.249 E8.66271
G1 X104.362 Y199.25 E9.17564
G1 X103.662 Y199.24 E9.18908
G1 X103.3 Y199.214 E9.19605
G1 X102.853 Y199.124 E9.20481
G1 X101.676 Y198.799 E9.22827
G1 X101.106 Y198.634 E9.23966
G1 X98.403 Y197.935 E9.29329
G1 X95.778 Y197.334 E9.34501
G1 X93.064 Y196.793 E9.39817
G1 X90.382 Y196.337 E9.45042
G1 X87.654 Y195.952 E9.50334
G1 X84.946 Y195.648 E9.55568
G1 X82.201 Y195.418 E9.60859
G1 X79.484 Y195.268 E9.66086
G1 X76.728 Y195.193 E9.71382
G1 X74.01 Y195.197 E9.76602
G1 X71.253 Y195.279 E9.819
G1 X68.503 Y195.438 E9.87191
G1 X65.792 Y195.671 E9.92418
G1 X63.091 Y195.982 E9.9764
G1 X60.352 Y196.376 E10.02955
G1 X57.678 Y196.838 E10.08167
G1 X54.955 Y197.388 E10.13503
G1 X52.348 Y197.99 E10.18642
G1 X48.368 Y199.06 E10.26559
G1 X48.182 Y199.114 E10.26931
G1 X47.69 Y199.216 E10.27896
G1 X47.066 Y199.249 E10.29096
G1 X20.366 Y199.25 E10.80381
G1 X19.668 Y199.241 E10.81721
G1 X19.169 Y199.194 E10.82684
G1 X18.683 Y199.069 E10.83648
G1 X18.223 Y198.869 E10.84611
G1 X17.801 Y198.598 E10.85575
G1 X17.428 Y198.263 E10.86538
G1 X17.112 Y197.873 E10.87502
G1 X16.862 Y197.439 E10.88464
G1 X16.684 Y196.97 E10.89427
G1 X16.583 Y196.478 E10.90392
G1 X16.551 Y195.843 E10.91613
G1 X16.55 Y169.158 E11.42869
G1 X16.561 Y168.452 E11.44225
G1 X16.614 Y167.927 E11.45239
G1 X16.662 Y167.668 E11.45745
G1 X17.13 Y164.933 E11.51075
G1 X17.52 Y162.197 E11.56383
G1 X17.826 Y159.499 E11.61598
G1 X18.06 Y156.749 E11.669
G1 X18.214 Y154.033 E11.72125
G1 X18.292 Y151.277 E11.77421
G1 X18.292 Y148.557 E11.82645
G1 X18.214 Y145.801 E11.87941
G1 X18.06 Y143.085 E11.93166
G1 X17.826 Y140.335 E11.98467
G1 X17.519 Y137.634 E12.03689
G1 X17.129 Y134.897 E12.08999
G1 X16.84 Y133.204 E12.12298
G1 X16.837 Y133.172 E12.1236
G1 X16.605 Y131.821 E12.14993
G1 X16.551 Y131.059 E12.1646
G1 X16.55 Y104.358 E12.67746
G1 X16.561 Y103.652 E12.69103
G1 X16.614 Y103.127 E12.70116
G1 X16.662 Y102.868 E12.70622
G1 X17.13 Y100.133 E12.75952
G1 X17.52 Y97.397 E12.8126
G1 X17.826 Y94.699 E12.86476
G1 X18.06 Y91.949 E12.91777
G1 X18.214 Y89.233 E12.97002
G1 X18.292 Y86.477 E13.02298
G1 X18.292 Y83.757 E13.07522
G1 X18.214 Y81.001 E13.12818
G1 X18.06 Y78.285 E13.18043
G1 X17.826 Y75.535 E13.23344
G1 X17.519 Y72.834 E13.28566
G1 X17.129 Y70.097 E13.33876
G1 X16.84 Y68.404 E13.37175
G1 X16.837 Y68.372 E13.37237
G1 X16.605 Y67.021 E13.3987
G1 X16.551 Y66.259 E13.41337
G1 X16.55 Y39.531 E13.92675
G1 X16.559 Y38.866 E13.93953
G1 X16.606 Y38.367 E13.94916
G1 X16.731 Y37.881 E13.95879
G1 X16.932 Y37.422 E13.96842
G1 X17.204 Y37 E13.97806
G1 X17.538 Y36.626 E13.98769
G1 X17.928 Y36.311 E13.99732
G1 X18.363 Y36.061 E14.00696
G1 F1500 E7.50696
;MESH:Bed_Levelling.stl
G0 F2400 X19.035 Y41.164
G0 X21.964 Y41.164
G0 X44.75 Y63.95
;TYPE:WALL-INNER
G1 F1500 E14.00696
G1 F1200 X22.25 Y63.95 E14.43913
G1 X22.25 Y41.45 E14.87131
G1 X44.75 Y41.45 E15.30348
G1 X44.75 Y63.95 E15.73566
G0 F2400 X45.05 Y64.25
G1 F1200 X21.95 Y64.25 E16.17935
G1 X21.95 Y41.15 E16.62305
G1 X45.05 Y41.15 E17.06675
G1 X45.05 Y64.25 E17.51045
G0 F2400 X45.3 Y64.5
;TYPE:WALL-OUTER
G1 F1200 X21.7 Y64.5 E17.96375
G1 X21.7 Y40.9 E18.41705
G1 X45.3 Y40.9 E18.87036
G1 X45.3 Y64.5 E19.32366
G0 F2400 X45.1 Y64.5
G0 X44.98 Y64.18
G0 X44.46 Y63.66
;TYPE:SKIN
G1 F1200 X22.54 Y63.66 E19.92514
G1 X22.54 Y41.74 E20.52661
G1 X44.46 Y41.74 E21.12809
G1 X44.46 Y63.66 E21.72956
G0 F2400 X44.324 Y42.203
G1 F1200 X43.996 Y41.874 E21.74231
G0 F2400 X43.571 Y41.874
G1 F1200 X44.324 Y42.627 E21.77153
G0 F2400 X44.324 Y43.052
G1 F1200 X43.147 Y41.874 E21.81723
G0 F2400 X42.723 Y41.874
G1 F1200 X44.324 Y43.476 E21.87937
G0 F2400 X44.324 Y43.9
G1 F1200 X42.299 Y41.874 E21.95797
G0 F2400 X41.874 Y41.874
G1 F1200 X44.324 Y44.324 E22.05305
G0 F2400 X44.324 Y44.749
G1 F1200 X41.45 Y41.874 E22.16459
G0 F2400 X41.026 Y41.874
G1 F1200 X44.324 Y45.173 E22.29259
G0 F2400 X44.324 Y45.597
G1 F1200 X40.602 Y41.874 E22.43705
G0 F2400 X40.177 Y41.874
G1 F1200 X44.324 Y46.022 E22.59799
G0 F2400 X44.324 Y46.446
G1 F1200 X39.753 Y41.874 E22.77539
G0 F2400 X39.329 Y41.874
G1 F1200 X44.324 Y46.87 E22.96924
G0 F2400 X44.324 Y47.294
G1 F1200 X38.905 Y41.874 E23.17955
G0 F2400 X38.48 Y41.874
G1 F1200 X44.324 Y47.719 E23.40635
G0 F2400 X44.324 Y48.143
G1 F1200 X38.056 Y41.874 E23.6496
G0 F2400 X37.632 Y41.874
G1 F1200 X44.324 Y48.567 E23.90931
G0 F2400 X44.324 Y48.991
G1 F1200 X37.207 Y41.874 E24.18548
G0 F2400 X36.783 Y41.874
G1 F1200 X44.324 Y49.416 E24.47814
G0 F2400 X44.324 Y49.84
G1 F1200 X36.359 Y41.874 E24.78724
G0 F2400 X35.935 Y41.874
G1 F1200 X44.324 Y50.264 E25.1128
G0 F2400 X44.324 Y50.688
G1 F1200 X35.51 Y41.874 E25.45483
G0 F2400 X35.086 Y41.874
G1 F1200 X44.324 Y51.113 E25.81334
G0 F2400 X44.324 Y51.537
G1 F1200 X34.662 Y41.874 E26.18829
G0 F2400 X34.238 Y41.874
G1 F1200 X44.324 Y51.961 E26.5797
G0 F2400 X44.324 Y52.386
G1 F1200 X33.813 Y41.874 E26.98761
G0 F2400 X33.389 Y41.874
G1 F1200 X44.324 Y52.81 E27.41197
G0 F2400 X44.324 Y53.234
G1 F1200 X32.965 Y41.874 E27.85278
G0 F2400 X32.541 Y41.874
G1 F1200 X44.324 Y53.658 E28.31004
G0 F2400 X44.324 Y54.083
G1 F1200 X32.116 Y41.874 E28.7838
G0 F2400 X31.692 Y41.874
G1 F1200 X44.324 Y54.507 E29.27401
G0 F2400 X44.324 Y54.931
G1 F1200 X31.268 Y41.874 E29.78067
G0 F2400 X30.843 Y41.874
G1 F1200 X44.324 Y55.355 E30.30381
G0 F2400 X44.324 Y55.78
G1 F1200 X30.419 Y41.874 E30.84342
G0 F2400 X29.995 Y41.874
G1 F1200 X44.324 Y56.204 E31.39948
G0 F2400 X44.324 Y56.628
G1 F1200 X29.571 Y41.874 E31.972
G0 F2400 X29.146 Y41.874
G1 F1200 X44.324 Y57.052 E32.56099
G0 F2400 X44.324 Y57.477
G1 F1200 X28.722 Y41.874 E33.16645
G0 F2400 X28.298 Y41.874
G1 F1200 X44.324 Y57.901 E33.78836
G0 F2400 X44.324 Y58.325
G1 F1200 X27.874 Y41.874 E34.42673
G0 F2400 X27.449 Y41.874
G1 F1200 X44.324 Y58.749 E35.08158
G0 F2400 X44.324 Y59.174
G1 F1200 X27.025 Y41.874 E35.75289
G0 F2400 X26.601 Y41.874
G1 F1200 X44.324 Y59.598 E36.44066
G0 F2400 X44.324 Y60.022
G1 F1200 X26.177 Y41.874 E37.14488
G0 F2400 X25.752 Y41.874
G1 F1200 X44.324 Y60.447 E37.8656
G0 F2400 X44.324 Y60.871
G1 F1200 X25.328 Y41.874 E38.60276
G0 F2400 X24.904 Y41.874
G1 F1200 X44.324 Y61.295 E39.35639
G0 F2400 X44.324 Y61.719
G1 F1200 X24.48 Y41.874 E40.12646
G0 F2400 X24.055 Y41.874
G1 F1200 X44.324 Y62.144 E40.91303
G0 F2400 X44.324 Y62.568
G1 F1200 X23.631 Y41.874 E41.71605
G0 F2400 X23.207 Y41.874
G1 F1200 X44.324 Y62.992 E42.53552
G0 F2400 X44.324 Y63.416
G1 F1200 X22.782 Y41.874 E43.37147
G0 F2400 X22.674 Y42.19
G1 F1200 X44.008 Y63.524 E44.19935
G0 F2400 X43.583 Y63.524
G1 F1200 X22.674 Y42.615 E45.01073
G0 F2400 X22.674 Y43.039
G1 F1200 X43.159 Y63.524 E45.80566
G0 F2400 X42.735 Y63.524
G1 F1200 X22.674 Y43.463 E46.58414
G0 F2400 X22.674 Y43.887
G1 F1200 X42.311 Y63.524 E47.34616
G0 F2400 X41.886 Y63.524
G1 F1200 X22.674 Y44.312 E48.09169
G0 F2400 X22.674 Y44.736
G1 F1200 X41.462 Y63.524 E48.82077
G0 F2400 X41.038 Y63.524
G1 F1200 X22.674 Y45.16 E49.53339
G0 F2400 X22.674 Y45.585
G1 F1200 X40.614 Y63.524 E50.22954
G0 F2400 X40.189 Y63.524
G1 F1200 X22.674 Y46.009 E50.90922
G0 F2400 X22.674 Y46.433
G1 F1200 X39.765 Y63.524 E51.57245
G0 F2400 X39.341 Y63.524
G1 F1200 X22.674 Y46.857 E52.21922
G0 F2400 X22.674 Y47.282
G1 F1200 X38.917 Y63.524 E52.84951
G0 F2400 X38.492 Y63.524
G1 F1200 X22.674 Y47.706 E53.46334
G0 F2400 X22.674 Y48.13
G1 F1200 X38.068 Y63.524 E54.06071
G0 F2400 X37.644 Y63.524
G1 F1200 X22.674 Y48.554 E54.64163
G0 F2400 X22.674 Y48.979
G1 F1200 X37.219 Y63.524 E55.20605
G0 F2400 X36.795 Y63.524
G1 F1200 X22.674 Y49.403 E55.75403
G0 F2400 X22.674 Y49.827
G1 F1200 X36.371 Y63.524 E56.28554
G0 F2400 X35.947 Y63.524
G1 F1200 X22.674 Y50.251 E56.80061
G0 F2400 X22.674 Y50.676
G1 F1200 X35.522 Y63.524 E57.29918
G0 F2400 X35.098 Y63.524
G1 F1200 X22.674 Y51.1 E57.7813
G0 F2400 X22.674 Y51.524
G1 F1200 X34.674 Y63.524 E58.24697
G0 F2400 X34.25 Y63.524
G1 F1200 X22.674 Y51.949 E58.69616
G0 F2400 X22.674 Y52.373
G1 F1200 X33.825 Y63.524 E59.12888
G0 F2400 X33.401 Y63.524
G1 F1200 X22.674 Y52.797 E59.54515
G0 F2400 X22.674 Y53.221
G1 F1200 X32.977 Y63.524 E59.94496
G0 F2400 X32.553 Y63.524
G1 F1200 X22.674 Y53.646 E60.3283
G0 F2400 X22.674 Y54.07
G1 F1200 X32.128 Y63.524 E60.69517
G0 F2400 X31.704 Y63.524
G1 F1200 X22.674 Y54.494 E61.04558
G0 F2400 X22.674 Y54.918
G1 F1200 X31.28 Y63.524 E61.37954
G0 F2400 X30.856 Y63.524
G1 F1200 X22.674 Y55.343 E61.69703
G0 F2400 X22.674 Y55.767
G1 F1200 X30.431 Y63.524 E61.99804
G0 F2400 X30.007 Y63.524
G1 F1200 X22.674 Y56.191 E62.2826
G0 F2400 X22.674 Y56.615
G1 F1200 X29.583 Y63.524 E62.55071
G0 F2400 X29.158 Y63.524
G1 F1200 X22.674 Y57.04 E62.80232
G0 F2400 X22.674 Y57.464
G1 F1200 X28.734 Y63.524 E63.03748
G0 F2400 X28.31 Y63.524
G1 F1200 X22.674 Y57.888 E63.25619
G0 F2400 X22.674 Y58.312
G1 F1200 X27.886 Y63.524 E63.45844
G0 F2400 X27.461 Y63.524
G1 F1200 X22.674 Y58.737 E63.64421
G0 F2400 X22.674 Y59.161
G1 F1200 X27.037 Y63.524 E63.81351
G0 F2400 X26.613 Y63.524
G1 F1200 X22.674 Y59.585 E63.96637
G0 F2400 X22.674 Y60.01
G1 F1200 X26.189 Y63.524 E64.10275
G0 F2400 X25.764 Y63.524
G1 F1200 X22.674 Y60.434 E64.22266
G0 F2400 X22.674 Y60.858
G1 F1200 X25.34 Y63.524 E64.32612
G0 F2400 X24.916 Y63.524
G1 F1200 X22.674 Y61.282 E64.41312
G0 F2400 X22.674 Y61.707
G1 F1200 X24.492 Y63.524 E64.48365
G0 F2400 X24.067 Y63.524
G1 F1200 X22.674 Y62.131 E64.5377
G0 F2400 X22.674 Y62.555
G1 F1200 X23.643 Y63.524 E64.57531
G0 F2400 X23.219 Y63.524
G1 F1200 X22.674 Y62.979 E64.59645
G0 F2400 X22.674 Y63.404
G1 F1200 X22.795 Y63.524 E64.60113
G1 F1500 E58.10113
G0 F2400 X21.964 Y41.164
G0 X21.964 Y39.65
G0 X20.38 Y39.58
G0 X20.45 Y39.65
;TYPE:WALL-INNER
G1 F1500 E64.60113
G1 F1200 X20.45 Y65.75 E65.10245
G1 X46.55 Y65.75 E65.60377
G1 X46.55 Y39.65 E66.1051
G1 X20.45 Y39.65 E66.60642
G0 F2400 X20.38 Y39.58
G0 X46.75 Y39.65
G0 X46.85 Y39.65
G1 F1200 X46.85 Y65.75 E67.10774
G1 X46.85 Y66.05 E67.1135
G1 X46.55 Y66.05 E67.11926
G1 X20.45 Y66.05 E67.62059
G1 X20.15 Y66.05 E67.62635
G1 X20.15 Y65.75 E67.63211
G1 X20.15 Y39.65 E68.13343
G1 X20.15 Y39.35 E68.13919
G1 X20.45 Y39.35 E68.14496
G1 X46.55 Y39.35 E68.64628
G1 X46.85 Y39.35 E68.65204
G1 X46.85 Y39.65 E68.6578
G0 F2400 X46.75 Y39.65
G0 X20.7 Y39.55
G0 X20.7 Y39.9
;TYPE:WALL-OUTER
G1 F1200 X20.7 Y65.5 E69.14952
G1 X46.3 Y65.5 E69.64124
G1 X46.3 Y39.9 E70.13296
G1 X20.7 Y39.9 E70.62467
G0 F2400 X20.7 Y40.1
G0 X20.35 Y40.1
G0 X20.422 Y65.778
G0 X46.78 Y65.98
G0 X47.1 Y66.3
G1 F1200 X19.9 Y66.3 E71.14712
G1 X19.9 Y39.1 E71.66957
G1 X47.1 Y39.1 E72.19202
