;FLAVOR:Marlin
;TIME:2086
;Filament used: 0.739061m, 0m
;Layer height: 0.2
;MINX:0.25
;MINY:22.65
;MINZ:0.2
;MAXX:234.75
;MAXY:212.35
;MAXZ:0.2
;POSTPROCESSED
;Generated with Cura_SteamEngine 4.7.1
T0
M140 S60
M105
M190 S60
M104 S190
M105
M109 S190
M82 ;absolute extrusion mode
M201 X500.00 Y500.00 Z100.00 E5000.00 	;Setup machine max acceleration
M203 X500.00 Y500.00 Z10.00 E50.00 	;Setup machine max feedrate
M204 P500.00 R1000.00 T500.00 		;Setup Print/Retract/Travel acceleration
M205 X8.00 Y8.00 Z0.40 E5.00 		;Setup Jerk
M220 S100 				;Reset Feedrate
M221 S100 				;Reset Flowrate
G28				;Home the Machine
G29 				;Bed Level
G92 E0
M300 P150 S587
G92 E0
G1 F1500 E-6.5
;LAYER_COUNT:1
;LAYER:0
M107
G0 F2400 X3.024 Y22.683 Z0.2
;TYPE:SKIRT
G1 F1500 E0
G1 X3.642 Y22.651 E0.01189
G1 X34.938 Y22.65 E0.61301
G1 X35.641 Y22.66 E0.62652
G1 X36.14 Y22.707 E0.63614
G1 X36.622 Y22.83 E0.6457
G1 X37.557 Y23.145 E0.66465
G1 X40.176 Y23.987 E0.71749
G1 X42.795 Y24.748 E0.76988
G1 X45.467 Y25.443 E0.82291
G1 X48.14 Y26.058 E0.87559
G1 X50.824 Y26.596 E0.92817
G1 X53.535 Y27.059 E0.98099
G1 X56.204 Y27.44 E1.03278
G1 X58.94 Y27.75 E1.08567
G1 X61.683 Y27.983 E1.13855
G1 X64.404 Y28.137 E1.19089
G1 X67.156 Y28.214 E1.24377
G1 X69.877 Y28.214 E1.29604
G1 X72.635 Y28.135 E1.34903
G1 X75.35 Y27.981 E1.40127
G1 X78.1 Y27.747 E1.45428
G1 X80.798 Y27.441 E1.50643
G1 X83.552 Y27.048 E1.55987
G1 X86.194 Y26.594 E1.61136
G1 X88.92 Y26.048 E1.66476
G1 X91.56 Y25.441 E1.71679
G1 X94.224 Y24.746 E1.76967
G1 X96.871 Y23.977 E1.82262
G1 X99.486 Y23.135 E1.87538
G1 X100.16 Y22.902 E1.88908
G1 X100.469 Y22.804 E1.89531
G1 X100.958 Y22.692 E1.90494
G1 X101.641 Y22.651 E1.91809
G1 X132.938 Y22.65 E2.51923
G1 X133.642 Y22.66 E2.53276
G1 X134.141 Y22.707 E2.54238
G1 X134.601 Y22.824 E2.5515
G1 X135.556 Y23.145 E2.57085
G1 X138.176 Y23.987 E2.62371
G1 X140.795 Y24.748 E2.6761
G1 X143.486 Y25.448 E2.7295
G1 X146.094 Y26.05 E2.78092
G1 X146.106 Y26.051 E2.78115
G1 X148.824 Y26.596 E2.83439
G1 X151.535 Y27.059 E2.88722
G1 X154.204 Y27.44 E2.939
G1 X156.94 Y27.75 E2.99189
G1 X159.683 Y27.983 E3.04477
G1 X162.404 Y28.137 E3.09712
G1 X165.156 Y28.214 E3.15
G1 X167.877 Y28.214 E3.20226
G1 X170.635 Y28.135 E3.25526
G1 X173.35 Y27.981 E3.30749
G1 X176.1 Y27.747 E3.3605
G1 X178.798 Y27.441 E3.41266
G1 X181.552 Y27.048 E3.46609
G1 X184.194 Y26.594 E3.51758
G1 X186.92 Y26.048 E3.57098
G1 X189.56 Y25.441 E3.62301
G1 X192.224 Y24.746 E3.6759
G1 X194.871 Y23.977 E3.72884
G1 X197.486 Y23.135 E3.78161
G1 X198.16 Y22.902 E3.79531
G1 X198.469 Y22.804 E3.80153
G1 X198.958 Y22.692 E3.81117
G1 X199.641 Y22.651 E3.82431
G1 X230.934 Y22.65 E4.42538
G1 X231.632 Y22.659 E4.43879
G1 X232.131 Y22.706 E4.44841
G1 X232.617 Y22.831 E4.45805
G1 X233.077 Y23.031 E4.46769
G1 X233.499 Y23.302 E4.47732
G1 X233.872 Y23.637 E4.48695
G1 X234.188 Y24.027 E4.49659
G1 X234.438 Y24.461 E4.50621
G1 X234.616 Y24.93 E4.51585
G1 X234.717 Y25.422 E4.52549
G1 X234.749 Y26.037 E4.53732
G1 X234.75 Y57.318 E5.13816
G1 X234.74 Y58.038 E5.15199
G1 X234.67 Y58.652 E5.16386
G1 X234.535 Y59.287 E5.17633
G1 X233.988 Y62.016 E5.22979
G1 X233.526 Y64.714 E5.28237
G1 X233.141 Y67.428 E5.33502
G1 X232.833 Y70.145 E5.38754
G1 X232.601 Y72.878 E5.44022
G1 X232.447 Y75.607 E5.49273
G1 X232.37 Y78.351 E5.54545
G1 X232.37 Y81.084 E5.59795
G1 X232.449 Y83.837 E5.65085
G1 X232.604 Y86.556 E5.70316
G1 X232.837 Y89.293 E5.75592
G1 X233.15 Y92.039 E5.80901
G1 X233.53 Y94.705 E5.86073
G1 X233.997 Y97.427 E5.91378
G1 X234.536 Y100.113 E5.9664
G1 X234.677 Y100.774 E5.97938
G1 X234.739 Y101.306 E5.98967
G1 X234.75 Y101.73 E5.99782
G1 X234.75 Y132.918 E6.59687
G1 X234.74 Y133.638 E6.6107
G1 X234.67 Y134.252 E6.62257
G1 X234.535 Y134.887 E6.63504
G1 X233.988 Y137.616 E6.6885
G1 X233.526 Y140.314 E6.74107
G1 X233.141 Y143.028 E6.79373
G1 X232.833 Y145.745 E6.84625
G1 X232.601 Y148.478 E6.89893
G1 X232.447 Y151.207 E6.95143
G1 X232.37 Y153.951 E7.00416
G1 X232.37 Y156.684 E7.05665
G1 X232.449 Y159.437 E7.10955
G1 X232.604 Y162.156 E7.16186
G1 X232.837 Y164.893 E7.21463
G1 X233.15 Y167.639 E7.26771
G1 X233.53 Y170.305 E7.31944
G1 X233.997 Y173.027 E7.37248
G1 X234.536 Y175.713 E7.42511
G1 X234.677 Y176.374 E7.43809
G1 X234.739 Y176.906 E7.44837
G1 X234.75 Y177.33 E7.45652
G1 X234.75 Y208.503 E8.05528
G1 X234.741 Y209.23 E8.06925
G1 X234.695 Y209.729 E8.07887
G1 X234.57 Y210.215 E8.08851
G1 X234.369 Y210.675 E8.09816
G1 X234.099 Y211.097 E8.10778
G1 X233.764 Y211.471 E8.11742
G1 X233.375 Y211.787 E8.12705
G1 X232.94 Y212.038 E8.1367
G1 X232.471 Y212.216 E8.14633
G1 X231.98 Y212.317 E8.15596
G1 X231.358 Y212.349 E8.16792
G1 X200.062 Y212.35 E8.76905
G1 X199.358 Y212.34 E8.78257
G1 X198.859 Y212.293 E8.7922
G1 X198.399 Y212.176 E8.80131
G1 X197.435 Y211.852 E8.82085
G1 X194.824 Y211.013 E8.87353
G1 X192.205 Y210.252 E8.92591
G1 X189.514 Y209.552 E8.97932
G1 X186.906 Y208.95 E9.03073
G1 X186.894 Y208.949 E9.03096
G1 X184.176 Y208.404 E9.08421
G1 X181.465 Y207.941 E9.13703
G1 X178.796 Y207.56 E9.18882
G1 X176.06 Y207.25 E9.24171
G1 X173.317 Y207.017 E9.29458
G1 X170.596 Y206.863 E9.34693
G1 X167.844 Y206.786 E9.39981
G1 X165.123 Y206.786 E9.45208
G1 X162.365 Y206.865 E9.50507
G1 X159.65 Y207.019 E9.55731
G1 X156.9 Y207.253 E9.61032
G1 X154.202 Y207.559 E9.66247
G1 X151.448 Y207.952 E9.71591
G1 X148.806 Y208.406 E9.7674
G1 X146.08 Y208.952 E9.8208
G1 X143.44 Y209.559 E9.87283
G1 X140.776 Y210.254 E9.92571
G1 X138.129 Y211.023 E9.97866
G1 X135.525 Y211.861 E10.0312
G1 X134.782 Y212.118 E10.0463
G1 X134.569 Y212.187 E10.0506
G1 X134.081 Y212.303 E10.06024
G1 X133.366 Y212.349 E10.074
G1 X102.062 Y212.35 E10.67528
G1 X101.358 Y212.34 E10.6888
G1 X100.859 Y212.293 E10.69843
G1 X100.399 Y212.176 E10.70754
G1 X99.435 Y211.852 E10.72708
G1 X96.824 Y211.013 E10.77975
G1 X94.205 Y210.252 E10.83214
G1 X91.514 Y209.552 E10.88555
G1 X88.906 Y208.95 E10.93696
G1 X88.894 Y208.949 E10.93719
G1 X86.176 Y208.404 E10.99044
G1 X83.465 Y207.941 E11.04326
G1 X80.796 Y207.56 E11.09505
G1 X78.06 Y207.25 E11.14794
G1 X75.317 Y207.017 E11.20081
G1 X72.596 Y206.863 E11.25316
G1 X69.844 Y206.786 E11.30604
G1 X67.123 Y206.786 E11.35831
G1 X64.365 Y206.865 E11.4113
G1 X61.65 Y207.019 E11.46353
G1 X58.9 Y207.253 E11.51655
G1 X56.202 Y207.559 E11.5687
G1 X53.448 Y207.952 E11.62214
G1 X50.806 Y208.406 E11.67363
G1 X48.08 Y208.952 E11.72703
G1 X45.44 Y209.559 E11.77906
G1 X42.776 Y210.254 E11.83194
G1 X40.129 Y211.023 E11.88488
G1 X37.525 Y211.861 E11.93743
G1 X36.84 Y212.098 E11.95135
G1 X36.531 Y212.196 E11.95758
G1 X36.042 Y212.308 E11.96721
G1 X35.359 Y212.349 E11.98036
G1 X4.066 Y212.35 E12.58142
G1 X3.368 Y212.341 E12.59483
G1 X2.869 Y212.294 E12.60446
G1 X2.383 Y212.169 E12.6141
G1 X1.923 Y211.969 E12.62373
G1 X1.501 Y211.698 E12.63336
G1 X1.128 Y211.363 E12.64299
G1 X0.812 Y210.973 E12.65264
G1 X0.562 Y210.539 E12.66226
G1 X0.384 Y210.07 E12.67189
G1 X0.283 Y209.578 E12.68154
G1 X0.251 Y208.943 E12.69375
G1 X0.25 Y177.658 E13.29466
G1 X0.261 Y176.952 E13.30823
G1 X0.331 Y176.343 E13.32
G1 X0.465 Y175.713 E13.33237
G1 X1.015 Y172.971 E13.38609
G1 X1.474 Y170.285 E13.43843
G1 X1.859 Y167.568 E13.49114
G1 X2.168 Y164.85 E13.54368
G1 X2.4 Y162.111 E13.59648
G1 X2.553 Y159.386 E13.6489
G1 X2.63 Y156.639 E13.70169
G1 X2.63 Y153.909 E13.75412
G1 X2.551 Y151.163 E13.80689
G1 X2.396 Y148.443 E13.85922
G1 X2.162 Y145.7 E13.9121
G1 X1.851 Y142.964 E13.96499
G1 X1.466 Y140.272 E14.01722
G1 X1 Y137.557 E14.07013
G1 X0.46 Y134.87 E14.12278
G1 X0.32 Y134.207 E14.13579
G1 X0.26 Y133.678 E14.14602
G1 X0.25 Y133.27 E14.15386
G1 X0.25 Y102.058 E14.75337
G1 X0.261 Y101.352 E14.76693
G1 X0.331 Y100.743 E14.77871
G1 X0.465 Y100.113 E14.79108
G1 X1.015 Y97.371 E14.84479
G1 X1.474 Y94.685 E14.89713
G1 X1.859 Y91.968 E14.94984
G1 X2.168 Y89.25 E15.00239
G1 X2.4 Y86.511 E15.05518
G1 X2.553 Y83.786 E15.10761
G1 X2.63 Y81.039 E15.16039
G1 X2.63 Y78.309 E15.21283
G1 X2.551 Y75.563 E15.2656
G1 X2.396 Y72.843 E15.31793
G1 X2.162 Y70.1 E15.3708
G1 X1.851 Y67.364 E15.42369
G1 X1.466 Y64.672 E15.47593
G1 X1 Y61.957 E15.52884
G1 X0.46 Y59.27 E15.58148
G1 X0.32 Y58.607 E15.5945
G1 X0.26 Y58.078 E15.60472
G1 X0.25 Y57.67 E15.61256
G1 X0.25 Y26.431 E16.21259
G1 X0.259 Y25.766 E16.22537
G1 X0.306 Y25.267 E16.23499
G1 X0.431 Y24.781 E16.24463
G1 X0.632 Y24.322 E16.25426
G1 X0.904 Y23.9 E16.2639
G1 X1.238 Y23.526 E16.27353
G1 X1.628 Y23.211 E16.28316
G1 X2.063 Y22.961 E16.2928
G1 X2.532 Y22.783 E16.30243
G1 X3.024 Y22.683 E16.31208
G1 F1500 E9.81208
;MESH:Bed_Levelling.stl
G0 F2400 X2.775 Y24.9
G0 X2.735 Y28.364
G0 X5.964 Y28.364
G0 X32.75 Y55.15
;TYPE:WALL-INNER
G1 F1500 E16.31208
G1 F900 X6.25 Y55.15 E16.82108
G1 X6.25 Y28.65 E17.33009
G1 X32.75 Y28.65 E17.83909
G1 X32.75 Y55.15 E18.3481
G0 F2400 X33.05 Y55.45
G1 F900 X5.95 Y55.45 E18.86863
G1 X5.95 Y28.35 E19.38916
G1 X33.05 Y28.35 E19.90969
G1 X33.05 Y55.45 E20.43021
G0 F2400 X33.3 Y55.7
;TYPE:WALL-OUTER
G1 F900 X5.7 Y55.7 E20.96035
G1 X5.7 Y28.1 E21.49048
G1 X33.3 Y28.1 E22.02061
G1 X33.3 Y55.7 E22.55075
G0 F2400 X33.1 Y55.7
G0 X32.98 Y55.38
G0 X32.46 Y54.86
;TYPE:SKIN
G1 F900 X6.54 Y54.86 E23.26198
G1 X6.54 Y28.94 E23.97322
G1 X32.46 Y28.94 E24.68445
G1 X32.46 Y54.86 E25.39569
G0 F2400 X32.324 Y29.354
G1 F900 X32.044 Y29.074 E25.40655
G0 F2400 X31.62 Y29.074
G1 F900 X32.324 Y29.779 E25.43389
G0 F2400 X32.324 Y30.203
G1 F900 X31.196 Y29.074 E25.47768
G0 F2400 X30.771 Y29.074
G1 F900 X32.324 Y30.627 E25.53795
G0 F2400 X32.324 Y31.051
G1 F900 X30.347 Y29.074 E25.61467
G0 F2400 X29.923 Y29.074
G1 F900 X32.324 Y31.476 E25.70786
G0 F2400 X32.324 Y31.9
G1 F900 X29.499 Y29.074 E25.8175
G0 F2400 X29.074 Y29.074
G1 F900 X32.324 Y32.324 E25.94362
G0 F2400 X32.324 Y32.748
G1 F900 X28.65 Y29.074 E26.08619
G0 F2400 X28.226 Y29.074
G1 F900 X32.324 Y33.173 E26.24524
G0 F2400 X32.324 Y33.597
G1 F900 X27.802 Y29.074 E26.42073
G0 F2400 X27.377 Y29.074
G1 F900 X32.324 Y34.021 E26.6127
G0 F2400 X32.324 Y34.445
G1 F900 X26.953 Y29.074 E26.82113
G0 F2400 X26.529 Y29.074
G1 F900 X32.324 Y34.87 E27.04603
G0 F2400 X32.324 Y35.294
G1 F900 X26.104 Y29.074 E27.2874
G0 F2400 X25.68 Y29.074
G1 F900 X32.324 Y35.718 E27.54522
G0 F2400 X32.324 Y36.143
G1 F900 X25.256 Y29.074 E27.81952
G0 F2400 X24.832 Y29.074
G1 F900 X32.324 Y36.567 E28.11027
G0 F2400 X32.324 Y36.991
G1 F900 X24.407 Y29.074 E28.41749
G0 F2400 X23.983 Y29.074
G1 F900 X32.324 Y37.415 E28.74116
G0 F2400 X32.324 Y37.84
G1 F900 X23.559 Y29.074 E29.08131
G0 F2400 X23.135 Y29.074
G1 F900 X32.324 Y38.264 E29.43792
G0 F2400 X32.324 Y38.688
G1 F900 X22.71 Y29.074 E29.81099
G0 F2400 X22.286 Y29.074
G1 F900 X32.324 Y39.112 E30.20052
G0 F2400 X32.324 Y39.537
G1 F900 X21.862 Y29.074 E30.60652
G0 F2400 X21.438 Y29.074
G1 F900 X32.324 Y39.961 E31.02898
G0 F2400 X32.324 Y40.385
G1 F900 X21.013 Y29.074 E31.46791
G0 F2400 X20.589 Y29.074
G1 F900 X32.324 Y40.809 E31.92329
G0 F2400 X32.324 Y41.234
G1 F900 X20.165 Y29.074 E32.39515
G0 F2400 X19.741 Y29.074
G1 F900 X32.324 Y41.658 E32.88345
G0 F2400 X32.324 Y42.082
G1 F900 X19.316 Y29.074 E33.38824
G0 F2400 X18.892 Y29.074
G1 F900 X32.324 Y42.507 E33.90949
G0 F2400 X32.324 Y42.931
G1 F900 X18.468 Y29.074 E34.4472
G0 F2400 X18.043 Y29.074
G1 F900 X32.324 Y43.355 E35.00138
G0 F2400 X32.324 Y43.779
G1 F900 X17.619 Y29.074 E35.57201
G0 F2400 X17.195 Y29.074
G1 F900 X32.324 Y44.204 E36.15912
G0 F2400 X32.324 Y44.628
G1 F900 X16.771 Y29.074 E36.76268
G0 F2400 X16.346 Y29.074
G1 F900 X32.324 Y45.052 E37.38272
G0 F2400 X32.324 Y45.476
G1 F900 X15.922 Y29.074 E38.0192
G0 F2400 X15.498 Y29.074
G1 F900 X32.324 Y45.901 E38.67216
G0 F2400 X32.324 Y46.325
G1 F900 X15.074 Y29.074 E39.34158
G0 F2400 X14.649 Y29.074
G1 F900 X32.324 Y46.749 E40.02746
G0 F2400 X32.324 Y47.173
G1 F900 X14.225 Y29.074 E40.7298
G0 F2400 X13.801 Y29.074
G1 F900 X32.324 Y47.598 E41.44862
G0 F2400 X32.324 Y48.022
G1 F900 X13.377 Y29.074 E42.18388
G0 F2400 X12.952 Y29.074
G1 F900 X32.324 Y48.446 E42.93562
G0 F2400 X32.324 Y48.87
G1 F900 X12.528 Y29.074 E43.70382
G0 F2400 X12.104 Y29.074
G1 F900 X32.324 Y49.295 E44.48848
G0 F2400 X32.324 Y49.719
G1 F900 X11.679 Y29.074 E45.28962
G0 F2400 X11.255 Y29.074
G1 F900 X32.324 Y50.143 E46.10721
G0 F2400 X32.324 Y50.568
G1 F900 X10.831 Y29.074 E46.94128
G0 F2400 X10.407 Y29.074
G1 F900 X32.324 Y50.992 E47.7918
G0 F2400 X32.324 Y51.416
G1 F900 X9.982 Y29.074 E48.65879
G0 F2400 X9.558 Y29.074
G1 F900 X32.324 Y51.84 E49.54224
G0 F2400 X32.324 Y52.265
G1 F900 X9.134 Y29.074 E50.44215
G0 F2400 X8.71 Y29.074
G1 F900 X32.324 Y52.689 E51.35853
G0 F2400 X32.324 Y53.113
G1 F900 X8.285 Y29.074 E52.29137
G0 F2400 X7.861 Y29.074
G1 F900 X32.324 Y53.537 E53.24067
G0 F2400 X32.324 Y53.962
G1 F900 X7.437 Y29.074 E54.20644
G0 F2400 X7.013 Y29.074
G1 F900 X32.324 Y54.386 E55.18866
G0 F2400 X32.238 Y54.724
G1 F900 X6.675 Y29.161 E56.18065
G0 F2400 X6.675 Y29.585
G1 F900 X31.814 Y54.724 E57.15618
G0 F2400 X31.389 Y54.724
G1 F900 X6.675 Y30.009 E58.11524
G0 F2400 X6.675 Y30.433
G1 F900 X30.965 Y54.724 E59.05784
G0 F2400 X30.541 Y54.724
G1 F900 X6.675 Y30.858 E59.98397
G0 F2400 X6.675 Y31.282
G1 F900 X30.117 Y54.724 E60.89365
G0 F2400 X29.692 Y54.724
G1 F900 X6.675 Y31.706 E61.78686
G0 F2400 X6.675 Y32.13
G1 F900 X29.268 Y54.724 E62.66361
G0 F2400 X28.844 Y54.724
G1 F900 X6.675 Y32.555 E63.52389
G0 F2400 X6.675 Y32.979
G1 F900 X28.42 Y54.724 E64.36771
G0 F2400 X27.995 Y54.724
G1 F900 X6.675 Y33.403 E65.19506
G0 F2400 X6.675 Y33.827
G1 F900 X27.571 Y54.724 E66.00596
G0 F2400 X27.147 Y54.724
G1 F900 X6.675 Y34.252 E66.80039
G0 F2400 X6.675 Y34.676
G1 F900 X26.722 Y54.724 E67.57834
G0 F2400 X26.298 Y54.724
G1 F900 X6.675 Y35.1 E68.33984
G0 F2400 X6.675 Y35.525
G1 F900 X25.874 Y54.724 E69.08486
G0 F2400 X25.45 Y54.724
G1 F900 X6.675 Y35.949 E69.81344
G0 F2400 X6.675 Y36.373
G1 F900 X25.025 Y54.724 E70.52554
G0 F2400 X24.601 Y54.724
G1 F900 X6.675 Y36.797 E71.22118
G0 F2400 X6.675 Y37.222
G1 F900 X24.177 Y54.724 E71.90036
G0 F2400 X23.753 Y54.724
G1 F900 X6.675 Y37.646 E72.56308
G0 F2400 X6.675 Y38.07
G1 F900 X23.328 Y54.724 E73.20932
G0 F2400 X22.904 Y54.724
G1 F900 X6.675 Y38.494 E73.83912
G0 F2400 X6.675 Y38.919
G1 F900 X22.48 Y54.724 E74.45244
G0 F2400 X22.056 Y54.724
G1 F900 X6.675 Y39.343 E75.0493
G0 F2400 X6.675 Y39.767
G1 F900 X21.631 Y54.724 E75.6297
G0 F2400 X21.207 Y54.724
G1 F900 X6.675 Y40.191 E76.19364
G0 F2400 X6.675 Y40.616
G1 F900 X20.783 Y54.724 E76.74111
G0 F2400 X20.359 Y54.724
G1 F900 X6.675 Y41.04 E77.27212
G0 F2400 X6.675 Y41.464
G1 F900 X19.934 Y54.724 E77.78666
G0 F2400 X19.51 Y54.724
G1 F900 X6.675 Y41.889 E78.28473
G0 F2400 X6.675 Y42.313
G1 F900 X19.086 Y54.724 E78.76634
G0 F2400 X18.661 Y54.724
G1 F900 X6.675 Y42.737 E79.23149
G0 F2400 X6.675 Y43.161
G1 F900 X18.237 Y54.724 E79.68017
G0 F2400 X17.813 Y54.724
G1 F900 X6.675 Y43.586 E80.11239
G0 F2400 X6.675 Y44.01
G1 F900 X17.389 Y54.724 E80.52815
G0 F2400 X16.964 Y54.724
G1 F900 X6.675 Y44.434 E80.92744
G0 F2400 X6.675 Y44.858
G1 F900 X16.54 Y54.724 E81.31028
G0 F2400 X16.116 Y54.724
G1 F900 X6.675 Y45.283 E81.67664
G0 F2400 X6.675 Y45.707
G1 F900 X15.692 Y54.724 E82.02655
G0 F2400 X15.267 Y54.724
G1 F900 X6.675 Y46.131 E82.35998
G0 F2400 X6.675 Y46.555
G1 F900 X14.843 Y54.724 E82.67697
G0 F2400 X14.419 Y54.724
G1 F900 X6.675 Y46.98 E82.97748
G0 F2400 X6.675 Y47.404
G1 F900 X13.995 Y54.724 E83.26153
G0 F2400 X13.57 Y54.724
G1 F900 X6.675 Y47.828 E83.52911
G0 F2400 X6.675 Y48.252
G1 F900 X13.146 Y54.724 E83.78024
G0 F2400 X12.722 Y54.724
G1 F900 X6.675 Y48.677 E84.0149
G0 F2400 X6.675 Y49.101
G1 F900 X12.298 Y54.724 E84.2331
G0 F2400 X11.873 Y54.724
