;FLAVOR:Marlin
;TIME:40597
;Filament used: 36.1456m, 0m
;Layer height: 0.2
;MINX:22.871
;MINY:22.87
;MINZ:0.3
;MAXX:212.129
;MAXY:212.129
;MAXZ:74.9
;Generated with Cura_SteamEngine 4.7.1
T0
M140 S60
M105
M190 S60
M104 S200
M105
M109 S200
M82 ;absolute extrusion mode
M201 X500.00 Y500.00 Z100.00 E5000.00 	;Setup machine max acceleration
M203 X500.00 Y500.00 Z10.00 E50.00 	;Setup machine max feedrate
M204 P500.00 R1000.00 T500.00 		;Setup Print/Retract/Travel acceleration
M205 X8.00 Y8.00 Z0.40 E5.00 		;Setup Jerk
M220 S100 				;Reset Feedrate
M221 S100 				;Reset Flowrate
G28				;Home the Machine
G29 				;Bed Level
G92 E0
M300 P150 S587
G92 E0
;LAYER_COUNT:374
;LAYER:0
M107
G0 F3600 X37.673 Y158.879 Z0.3
;TYPE:SKIRT
G1 F1500 X170.748 Y25.802 E9.38923
G1 X171.266 Y25.299 E9.42525
G1 X171.683 Y24.957 E9.45216
G1 X172.103 Y24.676 E9.47737
G1 X172.547 Y24.435 E9.50257
G1 X173.119 Y24.242 E9.53269
G1 X173.559 Y24.142 E9.5552
G1 X174.06 Y24.078 E9.5804
G1 X174.603 Y24.097 E9.60751
G1 X174.956 Y24.14 E9.62525
G1 X175.451 Y24.241 E9.65045
G1 X175.979 Y24.444 E9.67868
G1 X176.252 Y24.578 E9.69385
G1 X176.754 Y24.885 E9.72321
G1 X177.276 Y25.308 E9.75673
G1 X177.804 Y25.821 E9.79345
G1 X209.184 Y57.2 E12.00745
G1 X209.705 Y57.736 E12.04474
G1 X210.036 Y58.137 E12.07068
G1 X210.324 Y58.567 E12.0965
G1 X210.563 Y59.013 E12.12174
G1 X210.747 Y59.566 E12.15082
G1 X210.841 Y59.967 E12.17137
G1 X210.917 Y60.466 E12.19655
G1 X210.898 Y61.111 E12.22874
G1 X210.82 Y61.616 E12.25424
G1 X210.695 Y62.106 E12.27947
G1 X210.408 Y62.723 E12.31342
G1 X210.154 Y63.145 E12.33799
G1 X209.759 Y63.67 E12.37077
G1 X209.669 Y63.766 E12.37733
G1 X209.22 Y64.228 E12.40947
G1 X197.327 Y76.121 E13.24859
G1 X64.251 Y209.198 E22.63786
G1 X63.741 Y209.695 E22.67338
G1 X63.315 Y210.044 E22.70086
G1 X62.927 Y210.305 E22.72419
G1 X62.483 Y210.548 E22.74944
G1 X61.891 Y210.747 E22.7806
G1 X61.479 Y210.842 E22.80169
G1 X60.979 Y210.917 E22.82692
G1 X60.381 Y210.901 E22.85676
G1 X59.844 Y210.819 E22.88386
G1 X59.355 Y210.693 E22.90906
G1 X58.742 Y210.408 E22.94278
G1 X57.993 Y209.925 E22.98725
G1 X57.707 Y209.677 E23.00613
G1 X57.196 Y209.179 E23.04173
G1 X25.816 Y177.8 E25.25572
G1 X25.294 Y177.263 E25.29309
G1 X24.961 Y176.859 E25.31921
G1 X24.676 Y176.433 E25.34478
G1 X24.437 Y175.987 E25.37002
G1 X24.253 Y175.434 E25.3991
G1 X24.159 Y175.033 E25.41965
G1 X24.083 Y174.534 E25.44483
G1 X24.102 Y173.889 E25.47702
G1 X24.18 Y173.384 E25.50252
G1 X24.305 Y172.894 E25.52774
G1 X24.592 Y172.277 E25.56169
G1 X24.843 Y171.86 E25.58598
G1 X25.206 Y171.369 E25.61644
G1 X25.346 Y171.218 E25.62671
G1 X25.78 Y170.772 E25.65776
G1 X37.673 Y158.879 E26.49688
;MESH:assortment_box_1x4_v4.STL
G0 F3600 X39.466 Y160.672
G0 X40.374 Y161.58
G0 X194.57 Y73.364
G0 X194.64 Y73.434
;TYPE:WALL-INNER
G1 F900 X61.124 Y206.952 E35.91722
G1 X60.916 Y207.091 E35.9297
G1 X60.751 Y207.126 E35.93812
G1 X60.573 Y207.098 E35.94711
G1 X60.37 Y206.979 E35.95885
G1 X28.051 Y174.662 E38.23906
G1 X27.908 Y174.447 E38.25194
G1 X27.874 Y174.289 E38.26
G1 X27.905 Y174.097 E38.2697
G1 X27.977 Y173.96 E38.27743
G1 X28.035 Y173.891 E38.28192
G1 X40.36 Y161.566 E39.15152
G1 X173.873 Y28.051 E48.57165
G1 X174.091 Y27.906 E48.58471
G1 X174.246 Y27.872 E48.59263
G1 X174.408 Y27.893 E48.60078
G1 X174.577 Y27.978 E48.61022
G1 X174.641 Y28.032 E48.6144
G1 X206.949 Y60.338 E50.89383
G1 X207.092 Y60.553 E50.90671
G1 X207.126 Y60.711 E50.91477
G1 X207.095 Y60.903 E50.92448
G1 X207.023 Y61.04 E50.9322
G1 X206.965 Y61.109 E50.9367
G1 X194.64 Y73.434 E51.80629
G0 F3600 X194.923 Y73.717
;TYPE:WALL-OUTER
G1 F900 X61.382 Y207.26 E61.2284
G1 X61.071 Y207.468 E61.24707
G1 X60.762 Y207.532 E61.26281
G1 X60.436 Y207.481 E61.27927
G1 X60.134 Y207.304 E61.29674
G1 X60.09 Y207.265 E61.29967
G1 X27.74 Y174.917 E63.58207
G1 X27.533 Y174.606 E63.6007
G1 X27.468 Y174.3 E63.61631
G1 X27.52 Y173.968 E63.63308
G1 X27.645 Y173.733 E63.64636
G1 X27.738 Y173.622 E63.65358
G1 X40.077 Y161.283 E64.52416
G1 X173.618 Y27.74 E73.94627
G1 X173.932 Y27.531 E73.96509
G1 X174.227 Y27.466 E73.98016
G1 X174.525 Y27.504 E73.99515
G1 X174.801 Y27.643 E74.01057
G1 X174.913 Y27.738 E74.0179
G1 X207.26 Y60.083 E76.30008
G1 X207.467 Y60.394 E76.31872
G1 X207.532 Y60.7 E76.33433
G1 X207.48 Y61.032 E76.35109
G1 X207.355 Y61.267 E76.36437
G1 X207.262 Y61.378 E76.3716
G1 X194.923 Y73.717 E77.24218
G0 F3600 X194.782 Y73.858
G0 X194.365 Y73.159
;TYPE:SKIN
G1 F900 X60.878 Y206.648 E87.60231
G1 X60.765 Y206.723 E87.60975
G1 X60.739 Y206.729 E87.61122
G1 X60.706 Y206.723 E87.61306
G1 X60.605 Y206.664 E87.61947
G1 X28.358 Y174.419 E90.12212
G1 X28.275 Y174.293 E90.1304
G1 X28.27 Y174.274 E90.13148
G1 X28.279 Y174.225 E90.13421
G1 X28.304 Y174.177 E90.13718
G1 X28.329 Y174.147 E90.13932
G1 X40.635 Y161.841 E91.0944
G1 X174.113 Y28.361 E101.45383
G1 X174.249 Y28.271 E101.46278
G1 X174.265 Y28.268 E101.46368
G1 X174.293 Y28.271 E101.46522
G1 X174.359 Y28.305 E101.4693
G1 X174.389 Y28.33 E101.47144
G1 X206.642 Y60.581 E103.97455
G1 X206.725 Y60.707 E103.98283
G1 X206.73 Y60.726 E103.98391
G1 X206.721 Y60.775 E103.98664
G1 X206.696 Y60.823 E103.98961
G1 X206.671 Y60.853 E103.99175
G1 X194.365 Y73.159 E104.94683
G0 F3600 X206.325 Y60.944
G1 F900 X174.054 Y28.673 E107.45142
G0 F3600 X173.771 Y28.956
G1 F900 X206.042 Y61.226 E109.95596
G0 F3600 X205.759 Y61.509
G1 F900 X173.488 Y29.238 E112.46054
G0 F3600 X173.205 Y29.521
G1 F900 X205.476 Y61.792 E114.96513
G0 F3600 X205.193 Y62.075
G1 F900 X172.922 Y29.804 E117.46971
G0 F3600 X172.64 Y30.087
G1 F900 X204.911 Y62.358 E119.97429
G0 F3600 X204.628 Y62.641
G1 F900 X172.357 Y30.37 E122.47887
G0 F3600 X172.074 Y30.653
G1 F900 X204.345 Y62.924 E124.98346
G0 F3600 X204.062 Y63.206
G1 F900 X171.791 Y30.935 E127.48804
G0 F3600 X171.508 Y31.218
G1 F900 X203.779 Y63.489 E129.99262
G0 F3600 X203.496 Y63.772
G1 F900 X171.225 Y31.501 E132.4972
G0 F3600 X170.943 Y31.784
G1 F900 X203.214 Y64.055 E135.00179
G0 F3600 X202.931 Y64.338
G1 F900 X170.66 Y32.067 E137.50637
G0 F3600 X170.377 Y32.35
G1 F900 X202.648 Y64.621 E140.01095
G0 F3600 X202.365 Y64.903
G1 F900 X170.094 Y32.632 E142.51554
G0 F3600 X169.811 Y32.915
G1 F900 X202.082 Y65.186 E145.02012
G0 F3600 X201.799 Y65.469
G1 F900 X169.528 Y33.198 E147.5247
G0 F3600 X169.246 Y33.481
G1 F900 X201.516 Y65.752 E150.02924
G0 F3600 X201.234 Y66.035
G1 F900 X168.963 Y33.764 E152.53383
G0 F3600 X168.68 Y34.047
G1 F900 X200.951 Y66.318 E155.03841
G0 F3600 X200.668 Y66.6
G1 F900 X168.397 Y34.33 E157.54295
G0 F3600 X168.114 Y34.612
G1 F900 X200.385 Y66.883 E160.04754
G0 F3600 X200.102 Y67.166
G1 F900 X167.831 Y34.895 E162.55212
G0 F3600 X167.548 Y35.178
G1 F900 X199.819 Y67.449 E165.0567
G0 F3600 X199.537 Y67.732
G1 F900 X167.266 Y35.461 E167.56128
G0 F3600 X166.983 Y35.744
G1 F900 X199.254 Y68.015 E170.06587
G0 F3600 X198.971 Y68.298
G1 F900 X166.7 Y36.027 E172.57045
G0 F3600 X166.417 Y36.309
G1 F900 X198.688 Y68.58 E175.07503
G0 F3600 X198.405 Y68.863
G1 F900 X166.134 Y36.592 E177.57962
G0 F3600 X165.851 Y36.875
G1 F900 X198.122 Y69.146 E180.0842
G0 F3600 X197.839 Y69.429
G1 F900 X165.569 Y37.158 E182.58874
G0 F3600 X165.286 Y37.441
G1 F900 X197.557 Y69.712 E185.09332
G0 F3600 X197.274 Y69.995
G1 F900 X165.003 Y37.724 E187.59791
G0 F3600 X164.72 Y38.006
G1 F900 X196.991 Y70.277 E190.10249
G0 F3600 X196.708 Y70.56
G1 F900 X164.437 Y38.289 E192.60707
G0 F3600 X164.154 Y38.572
G1 F900 X196.425 Y70.843 E195.11166
G0 F3600 X196.142 Y71.126
G1 F900 X163.871 Y38.855 E197.61624
G0 F3600 X163.589 Y39.138
G1 F900 X195.86 Y71.409 E200.12082
G0 F3600 X195.577 Y71.692
G1 F900 X163.306 Y39.421 E202.6254
G0 F3600 X163.023 Y39.704
G1 F900 X195.294 Y71.974 E205.12995
G0 F3600 X195.011 Y72.257
G1 F900 X162.74 Y39.986 E207.63453
G0 F3600 X162.457 Y40.269
G1 F900 X194.728 Y72.54 E210.13911
G0 F3600 X194.445 Y72.823
G1 F900 X162.174 Y40.552 E212.6437
G0 F3600 X161.892 Y40.835
G1 F900 X194.163 Y73.107 E215.14832
G0 F3600 X193.88 Y73.389
G1 F900 X161.609 Y41.118 E217.6529
G0 F3600 X161.326 Y41.401
G1 F900 X193.598 Y73.672 E220.15752
G0 F3600 X193.315 Y73.955
G1 F900 X161.043 Y41.683 E222.66218
G0 F3600 X160.76 Y41.966
G1 F900 X193.032 Y74.238 E225.16684
G0 F3600 X192.749 Y74.521
G1 F900 X160.477 Y42.249 E227.6715
G0 F3600 X160.195 Y42.532
G1 F900 X192.466 Y74.804 E230.17612
G0 F3600 X192.183 Y75.086
G1 F900 X159.912 Y42.815 E232.68071
G0 F3600 X159.629 Y43.098
G1 F900 X191.901 Y75.369 E235.18533
G0 F3600 X191.618 Y75.652
G1 F900 X159.346 Y43.381 E237.68995
G0 F3600 X159.063 Y43.663
G1 F900 X191.335 Y75.935 E240.19461
G0 F3600 X191.052 Y76.218
G1 F900 X158.78 Y43.946 E242.69927
G0 F3600 X158.497 Y44.229
G1 F900 X190.769 Y76.501 E245.20393
G0 F3600 X190.486 Y76.784
G1 F900 X158.215 Y44.512 E247.70855
G0 F3600 X157.932 Y44.795
G1 F900 X190.203 Y77.066 E250.21313
G0 F3600 X189.921 Y77.349
G1 F900 X157.649 Y45.078 E252.71776
G0 F3600 X157.366 Y45.36
G1 F900 X189.638 Y77.632 E255.22242
G0 F3600 X189.355 Y77.915
G1 F900 X157.083 Y45.643 E257.72708
G0 F3600 X156.8 Y45.926
G1 F900 X189.072 Y78.198 E260.23174
G0 F3600 X188.789 Y78.481
G1 F900 X156.518 Y46.209 E262.73636
G0 F3600 X156.235 Y46.492
G1 F900 X188.506 Y78.763 E265.24094
G0 F3600 X188.224 Y79.046
G1 F900 X155.952 Y46.775 E267.74556
G0 F3600 X155.669 Y47.057
G1 F900 X187.941 Y79.329 E270.25022
G0 F3600 X187.658 Y79.612
G1 F900 X155.386 Y47.34 E272.75488
G0 F3600 X155.103 Y47.623
G1 F900 X187.375 Y79.895 E275.25954
G0 F3600 X187.092 Y80.178
G1 F900 X154.821 Y47.906 E277.76416
G0 F3600 X154.538 Y48.189
G1 F900 X186.809 Y80.46 E280.26875
G0 F3600 X186.526 Y80.743
G1 F900 X154.255 Y48.472 E282.77333
G0 F3600 X153.972 Y48.755
G1 F900 X186.244 Y81.026 E285.27795
G0 F3600 X185.961 Y81.309
G1 F900 X153.689 Y49.037 E287.78261
G0 F3600 X153.406 Y49.32
G1 F900 X185.678 Y81.592 E290.28727
G0 F3600 X185.395 Y81.875
G1 F900 X153.123 Y49.603 E292.79193
G0 F3600 X152.841 Y49.886
G1 F900 X185.112 Y82.158 E295.29655
G0 F3600 X184.829 Y82.44
G1 F900 X152.558 Y50.169 E297.80114
G0 F3600 X152.275 Y50.452
G1 F900 X184.547 Y82.723 E300.30576
G0 F3600 X184.264 Y83.006
G1 F900 X151.992 Y50.734 E302.81042
G0 F3600 X151.709 Y51.017
G1 F900 X183.981 Y83.289 E305.31508
G0 F3600 X183.698 Y83.572
G1 F900 X151.426 Y51.3 E307.81974
G0 F3600 X151.144 Y51.583
G1 F900 X183.415 Y83.855 E310.32436
G0 F3600 X183.132 Y84.137
G1 F900 X150.861 Y51.866 E312.82894
G0 F3600 X150.578 Y52.149
G1 F900 X182.85 Y84.42 E315.33356
G0 F3600 X182.567 Y84.703
G1 F900 X150.295 Y52.431 E317.83823
G0 F3600 X150.012 Y52.714
G1 F900 X182.284 Y84.986 E320.34289
G0 F3600 X182.001 Y85.269
G1 F900 X149.729 Y52.997 E322.84755
G0 F3600 X149.447 Y53.28
G1 F900 X181.718 Y85.552 E325.35217
G0 F3600 X181.435 Y85.834
G1 F900 X149.164 Y53.563 E327.85675
G0 F3600 X148.881 Y53.846
G1 F900 X181.152 Y86.117 E330.36133
G0 F3600 X180.87 Y86.4
G1 F900 X148.598 Y54.129 E332.86595
G0 F3600 X148.315 Y54.411
G1 F900 X180.587 Y86.683 E335.37061
G0 F3600 X180.304 Y86.966
G1 F900 X148.032 Y54.694 E337.87527
G0 F3600 X147.749 Y54.977
G1 F900 X180.021 Y87.249 E340.37993
G0 F3600 X179.738 Y87.532
G1 F900 X147.467 Y55.26 E342.88456
G0 F3600 X147.184 Y55.543
G1 F900 X179.455 Y87.814 E345.38914
G0 F3600 X179.173 Y88.097
G1 F900 X146.901 Y55.826 E347.89376
G0 F3600 X146.618 Y56.108
G1 F900 X178.89 Y88.38 E350.39842
G0 F3600 X178.607 Y88.663
G1 F900 X146.335 Y56.391 E352.90308
G0 F3600 X146.052 Y56.674
G1 F900 X178.324 Y88.946 E355.40774
G0 F3600 X178.041 Y89.229
G1 F900 X145.77 Y56.957 E357.91236
G0 F3600 X145.487 Y57.24
G1 F900 X177.758 Y89.511 E360.41695
G0 F3600 X177.476 Y89.794
G1 F900 X145.204 Y57.523 E362.92157
G0 F3600 X144.921 Y57.805
G1 F900 X177.193 Y90.077 E365.42623
G0 F3600 X176.91 Y90.36
G1 F900 X144.638 Y58.088 E367.93089
G0 F3600 X144.355 Y58.371
G1 F900 X176.627 Y90.643 E370.43555
G0 F3600 X176.344 Y90.926
G1 F900 X144.073 Y58.654 E372.94017
G0 F3600 X143.79 Y58.937
G1 F900 X176.061 Y91.208 E375.44475
G0 F3600 X175.778 Y91.491
G1 F900 X143.507 Y59.22 E377.94933
G0 F3600 X143.224 Y59.503
G1 F900 X175.496 Y91.774 E380.45396
G0 F3600 X175.213 Y92.057
G1 F900 X142.941 Y59.785 E382.95862
G0 F3600 X142.658 Y60.068
G1 F900 X174.93 Y92.34 E385.46328
G0 F3600 X174.647 Y92.623
G1 F900 X142.375 Y60.351 E387.96794
G0 F3600 X142.093 Y60.634
G1 F900 X174.364 Y92.906 E390.47256
G0 F3600 X174.081 Y93.188
G1 F900 X141.81 Y60.917 E392.97714
G0 F3600 X141.527 Y61.2
G1 F900 X173.799 Y93.471 E395.48176
G0 F3600 X173.516 Y93.754
G1 F900 X141.244 Y61.482 E397.98642
G0 F3600 X140.961 Y61.765
G1 F900 X173.233 Y94.037 E400.49108
G0 F3600 X172.95 Y94.32
G1 F900 X140.678 Y62.048 E402.99574
G0 F3600 X140.396 Y62.331
G1 F900 X172.667 Y94.603 E405.50037
G0 F3600 X172.384 Y94.885
G1 F900 X140.113 Y62.614 E408.00495
G0 F3600 X139.83 Y62.897
G1 F900 X172.102 Y95.168 E410.50957
G0 F3600 X171.819 Y95.451
G1 F900 X139.547 Y63.179 E413.01423
G0 F3600 X139.264 Y63.462
G1 F900 X171.536 Y95.734 E415.51889
G0 F3600 X171.253 Y96.017
G1 F900 X138.981 Y63.745 E418.02355
G0 F3600 X138.698 Y64.028
G1 F900 X170.97 Y96.3 E420.52821
G0 F3600 X170.687 Y96.583
G1 F900 X138.416 Y64.311 E423.03283
G0 F3600 X138.133 Y64.594
G1 F900 X170.404 Y96.865 E425.53741
G0 F3600 X170.122 Y97.148
G1 F900 X137.85 Y64.877 E428.04204
G0 F3600 X137.567 Y65.159
G1 F900 X169.839 Y97.431 E430.5467
G0 F3600 X169.556 Y97.714
G1 F900 X137.284 Y65.442 E433.05136
G0 F3600 X137.001 Y65.725
G1 F900 X169.273 Y97.997 E435.55602
G0 F3600 X168.99 Y98.28
G1 F900 X136.719 Y66.008 E438.06064
G0 F3600 X136.436 Y66.291
G1 F900 X168.707 Y98.562 E440.56522
G0 F3600 X168.425 Y98.845
G1 F900 X136.153 Y66.574 E443.06984
G0 F3600 X135.87 Y66.856
G1 F900 X168.142 Y99.128 E445.5745
G0 F3600 X167.859 Y99.411
G1 F900 X135.587 Y67.139 E448.07916
G0 F3600 X135.304 Y67.422
G1 F900 X167.576 Y99.694 E450.58382
G0 F3600 X167.293 Y99.977
G1 F900 X135.022 Y67.705 E453.08845
G0 F3600 X134.739 Y67.988
G1 F900 X167.01 Y100.259 E455.59303
G0 F3600 X166.728 Y100.542
G1 F900 X134.456 Y68.271 E458.09765
G0 F3600 X134.173 Y68.554
G1 F900 X166.445 Y100.825 E460.60227
G0 F3600 X166.162 Y101.108
G1 F900 X133.89 Y68.836 E463.10693
G0 F3600 X133.607 Y69.119
G1 F900 X165.879 Y101.391 E465.61159
G0 F3600 X165.596 Y101.674
G1 F900 X133.324 Y69.402 E468.11625
G0 F3600 X133.042 Y69.685
G1 F900 X165.313 Y101.957 E470.62087
G0 F3600 X165.03 Y102.239
G1 F900 X132.759 Y69.968 E473.12546
G0 F3600 X132.476 Y70.251
G1 F900 X164.748 Y102.522 E475.63008
G0 F3600 X164.465 Y102.805
G1 F900 X132.193 Y70.533 E478.13474
G0 F3600 X131.91 Y70.816
G1 F900 X164.182 Y103.088 E480.6394
G0 F3600 X163.899 Y103.371
G1 F900 X131.627 Y71.099 E483.14406
G0 F3600 X131.345 Y71.382
G1 F900 X163.616 Y103.654 E485.64868
G0 F3600 X163.333 Y103.936
G1 F900 X131.062 Y71.665 E488.15326
G0 F3600 X130.779 Y71.948
G1 F900 X163.051 Y104.219 E490.65788
G0 F3600 X162.768 Y104.502
G1 F900 X130.496 Y72.23 E493.16254
G0 F3600 X130.213 Y72.513
G1 F900 X162.485 Y104.785 E495.6672
G0 F3600 X162.202 Y105.068
G1 F900 X129.93 Y72.796 E498.17186
G0 F3600 X129.648 Y73.079
G1 F900 X161.919 Y105.351 E500.67649
G0 F3600 X161.636 Y105.633
G1 F900 X129.365 Y73.362 E503.18107
G0 F3600 X129.082 Y73.645
G1 F900 X161.353 Y105.916 E505.68565
G0 F3600 X161.071 Y106.199
G1 F900 X128.799 Y73.928 E508.19027
G0 F3600 X128.516 Y74.21
G1 F900 X160.788 Y106.482 E510.69493
G0 F3600 X160.505 Y106.765
G1 F900 X128.233 Y74.493 E513.19959
G0 F3600 X127.95 Y74.776
G1 F900 X160.222 Y107.048 E515.70425
G0 F3600 X159.939 Y107.331
G1 F900 X127.668 Y75.059 E518.20888
G0 F3600 X127.385 Y75.342
G1 F900 X159.656 Y107.613 E520.71346
G0 F3600 X159.374 Y107.896
G1 F900 X127.102 Y75.625 E523.21808
