;FLAVOR:Marlin
;TIME:35321
;Filament used: 30.56m, 0m
;Layer height: 0.2
;MINX:63.709
;MINY:62
;MINZ:0.3
;MAXX:171.291
;MAXY:173
;MAXZ:74.9
;Generated with Cura_SteamEngine 4.7.1
T0
M140 S60
M105
M190 S60
M104 S200
M105
M109 S200
M82 ;absolute extrusion mode
M201 X500.00 Y500.00 Z100.00 E5000.00 	;Setup machine max acceleration
M203 X500.00 Y500.00 Z10.00 E50.00 	;Setup machine max feedrate
M204 P500.00 R1000.00 T500.00 		;Setup Print/Retract/Travel acceleration
M205 X8.00 Y8.00 Z0.40 E5.00 		;Setup Jerk
M220 S100 				;Reset Feedrate
M221 S100 				;Reset Flowrate
G28				;Home the Machine
G29 				;Bed Level
G92 E0
M300 P150 S587
G92 E0
;LAYER_COUNT:374
;LAYER:0
M107
G0 F3600 X65.316 Y63.752 Z0.3
;TYPE:SKIRT
G1 F1500 X65.754 Y63.365 E0.02916
G1 X65.947 Y63.224 E0.04108
G1 X66.42 Y62.938 E0.06866
G1 X66.631 Y62.834 E0.0804
G1 X67.253 Y62.604 E0.11348
G1 X68.117 Y62.439 E0.15737
G1 X68.438 Y62.42 E0.17341
G1 X68.995 Y62.413 E0.2012
G1 X165.924 Y62.413 E5.03701
G1 X166.642 Y62.424 E5.07283
G1 X167.241 Y62.485 E5.10287
G1 X167.481 Y62.529 E5.11504
G1 X167.97 Y62.66 E5.1403
G1 X168.764 Y63.042 E5.18426
G1 X169.189 Y63.315 E5.20946
G1 X169.654 Y63.746 E5.24109
G1 X169.919 Y64.046 E5.26106
G1 X170.223 Y64.451 E5.28633
G1 X170.536 Y65.092 E5.32192
G1 X170.656 Y65.429 E5.33976
G1 X170.787 Y65.917 E5.36497
G1 X170.857 Y66.514 E5.39496
G1 X170.877 Y67.044 E5.42142
G1 X170.878 Y167.611 E10.43873
G1 X170.867 Y168.35 E10.4756
G1 X170.8 Y168.969 E10.50666
G1 X170.715 Y169.377 E10.52746
G1 X170.57 Y169.861 E10.55266
G1 X170.314 Y170.381 E10.58158
G1 X170.102 Y170.72 E10.60153
G1 X169.798 Y171.124 E10.62675
G1 X169.433 Y171.476 E10.65205
G1 X168.917 Y171.864 E10.68426
G1 X168.708 Y171.994 E10.69654
G1 X168.259 Y172.227 E10.72178
G1 X167.699 Y172.415 E10.75125
G1 X167.05 Y172.544 E10.78426
G1 X166.441 Y172.584 E10.81471
G1 X166.143 Y172.587 E10.82958
G1 X69.068 Y172.587 E15.67267
G1 X68.35 Y172.576 E15.70849
G1 X67.757 Y172.515 E15.73823
G1 X67.515 Y172.471 E15.7505
G1 X67.026 Y172.342 E15.77574
G1 X66.557 Y172.134 E15.80133
G1 X66.219 Y171.95 E15.82053
G1 X65.795 Y171.673 E15.8458
G1 X65.364 Y171.272 E15.87517
G1 X65.093 Y170.969 E15.89545
G1 X64.787 Y170.567 E15.92066
G1 X64.471 Y169.932 E15.95604
G1 X64.321 Y169.503 E15.97872
G1 X64.173 Y168.793 E16.0149
G1 X64.13 Y168.237 E16.04272
G1 X64.122 Y167.816 E16.06373
G1 X64.122 Y67.34 E21.0765
G1 X64.133 Y66.646 E21.11112
G1 X64.186 Y66.118 E21.1376
G1 X64.287 Y65.617 E21.1631
G1 X64.432 Y65.133 E21.1883
G1 X64.682 Y64.626 E21.21651
G1 X64.999 Y64.145 E21.24525
G1 X65.316 Y63.752 E21.27044
;MESH:assortment_box_2x2_v2 (1).STL
G0 F3600 X68.141 Y64.995
G0 X68.422 Y66.233
G0 X166.703 Y66.34
G0 X166.736 Y66.246
;TYPE:WALL-INNER
G1 F900 X166.893 Y66.334 E21.27942
G1 X166.999 Y66.459 E21.28759
G1 X167.074 Y66.671 E21.29881
G1 X167.078 Y66.72 E21.30126
G1 X167.078 Y168.242 E26.36622
G1 X167.032 Y168.477 E26.37816
G1 X166.948 Y168.612 E26.3861
G1 X166.814 Y168.72 E26.39468
G1 X166.613 Y168.783 E26.40519
G1 X166.564 Y168.787 E26.40764
G1 X68.461 Y168.787 E31.30202
G1 X68.265 Y168.754 E31.31194
G1 X68.107 Y168.665 E31.32099
G1 X68.001 Y168.541 E31.32912
G1 X67.926 Y168.329 E31.34034
G1 X67.922 Y168.274 E31.3431
G1 X67.922 Y66.758 E36.40775
G1 X67.969 Y66.522 E36.41975
G1 X68.073 Y66.366 E36.42911
G1 X68.205 Y66.272 E36.43719
G1 X68.42 Y66.214 E36.4483
G1 X166.535 Y66.213 E41.34328
G1 X166.736 Y66.246 E41.35344
G0 F3600 X166.868 Y65.862
;TYPE:WALL-OUTER
G1 F900 X167.152 Y66.022 E41.3697
G1 X167.351 Y66.255 E41.38499
G1 X167.469 Y66.589 E41.40266
G1 X167.478 Y66.709 E41.40867
G1 X167.478 Y168.28 E46.47607
G1 X167.409 Y168.629 E46.49381
G1 X167.252 Y168.881 E46.50863
G1 X167.006 Y169.078 E46.52435
G1 X166.688 Y169.179 E46.541
G1 X166.58 Y169.187 E46.5464
G1 X68.425 Y169.187 E51.44337
G1 X68.131 Y169.138 E51.45824
G1 X67.848 Y168.978 E51.47446
G1 X67.649 Y168.745 E51.48975
G1 X67.531 Y168.411 E51.50742
G1 X67.522 Y168.291 E51.51343
G1 X67.522 Y66.72 E56.58082
G1 X67.592 Y66.367 E56.59878
G1 X67.782 Y66.081 E56.61591
G1 X68.031 Y65.905 E56.63112
G1 X68.368 Y65.814 E56.64854
G1 X166.568 Y65.813 E61.54775
G1 X166.868 Y65.862 E61.56292
G0 F3600 X167.042 Y65.96
G0 X166.642 Y66.64
;TYPE:SKIN
G1 F900 X166.654 Y66.655 E61.56397
G1 X166.688 Y66.751 E61.56956
G1 X166.688 Y168.207 E67.13739
G1 X166.664 Y168.328 E67.14416
G1 X166.651 Y168.349 E67.14551
G1 X166.623 Y168.372 E67.1475
G1 X166.542 Y168.397 E67.15215
G1 X68.489 Y168.397 E72.53323
G1 X68.397 Y168.382 E72.53834
G1 X68.358 Y168.36 E72.5408
G1 X68.345 Y168.344 E72.54193
G1 X68.312 Y168.249 E72.54745
G1 X68.312 Y66.794 E78.11522
G1 X68.336 Y66.674 E78.12194
G1 X68.357 Y66.642 E78.12404
G1 X68.373 Y66.63 E78.12514
G1 X68.47 Y66.604 E78.13065
G1 X166.503 Y66.603 E83.51062
G1 X166.605 Y66.62 E83.5163
G1 X166.642 Y66.64 E83.5186
G0 F3600 X166.344 Y66.783
G1 F900 X166.508 Y66.947 E83.53133
G0 F3600 X166.508 Y67.513
G1 F900 X165.778 Y66.783 E83.58799
G0 F3600 X165.212 Y66.783
G1 F900 X166.508 Y68.078 E83.68853
G0 F3600 X166.508 Y68.644
G1 F900 X164.646 Y66.783 E83.83301
G0 F3600 X164.081 Y66.783
G1 F900 X166.508 Y69.21 E84.02137
G0 F3600 X166.508 Y69.775
G1 F900 X163.515 Y66.783 E84.25362
G0 F3600 X162.949 Y66.783
G1 F900 X166.508 Y70.341 E84.5298
G0 F3600 X166.508 Y70.907
G1 F900 X162.384 Y66.783 E84.84987
G0 F3600 X161.818 Y66.783
G1 F900 X166.508 Y71.472 E85.21382
G0 F3600 X166.508 Y72.038
G1 F900 X161.252 Y66.783 E85.62171
G0 F3600 X160.687 Y66.783
G1 F900 X166.508 Y72.604 E86.07348
G0 F3600 X166.508 Y73.169
G1 F900 X160.121 Y66.783 E86.56914
G0 F3600 X159.555 Y66.783
G1 F900 X166.508 Y73.735 E87.10873
G0 F3600 X166.508 Y74.301
G1 F900 X158.99 Y66.783 E87.69221
G0 F3600 X158.424 Y66.783
G1 F900 X166.508 Y74.867 E88.31962
G0 F3600 X166.508 Y75.432
G1 F900 X157.858 Y66.783 E88.99091
G0 F3600 X157.293 Y66.783
G1 F900 X166.508 Y75.998 E89.7061
G0 F3600 X166.508 Y76.564
G1 F900 X156.727 Y66.783 E90.46521
G0 F3600 X156.161 Y66.783
G1 F900 X166.508 Y77.129 E91.26821
G0 F3600 X166.508 Y77.695
G1 F900 X155.596 Y66.783 E92.1151
G0 F3600 X155.03 Y66.783
G1 F900 X166.508 Y78.261 E93.00592
G0 F3600 X166.508 Y78.826
G1 F900 X154.464 Y66.783 E93.94063
G0 F3600 X153.898 Y66.783
G1 F900 X166.508 Y79.392 E94.91926
G0 F3600 X166.508 Y79.958
G1 F900 X153.333 Y66.783 E95.94179
G0 F3600 X152.767 Y66.783
G1 F900 X166.508 Y80.523 E97.0082
G0 F3600 X166.508 Y81.089
G1 F900 X152.201 Y66.783 E98.11854
G0 F3600 X151.636 Y66.783
G1 F900 X166.508 Y81.655 E99.27277
G0 F3600 X166.508 Y82.22
G1 F900 X151.07 Y66.783 E100.47089
G0 F3600 X150.504 Y66.783
G1 F900 X166.508 Y82.786 E101.71294
G0 F3600 X166.508 Y83.352
G1 F900 X149.939 Y66.783 E102.99887
G0 F3600 X149.373 Y66.783
G1 F900 X166.508 Y83.918 E104.32874
G0 F3600 X166.508 Y84.483
G1 F900 X148.807 Y66.783 E105.70249
G0 F3600 X148.242 Y66.783
G1 F900 X166.508 Y85.049 E107.12013
G0 F3600 X166.508 Y85.615
G1 F900 X147.676 Y66.783 E108.5817
G0 F3600 X147.11 Y66.783
G1 F900 X166.508 Y86.18 E110.08716
G0 F3600 X166.508 Y86.746
G1 F900 X146.545 Y66.783 E111.63651
G0 F3600 X145.979 Y66.783
G1 F900 X166.508 Y87.312 E113.22978
G0 F3600 X166.508 Y87.877
G1 F900 X145.413 Y66.783 E114.86694
G0 F3600 X144.847 Y66.783
G1 F900 X166.508 Y88.443 E116.54804
G0 F3600 X166.508 Y89.009
G1 F900 X144.282 Y66.783 E118.27302
G0 F3600 X143.716 Y66.783
G1 F900 X166.508 Y89.574 E120.04189
G0 F3600 X166.508 Y90.14
G1 F900 X143.15 Y66.783 E121.85468
G0 F3600 X142.585 Y66.783
G1 F900 X166.508 Y90.706 E123.71137
G0 F3600 X166.508 Y91.271
G1 F900 X142.019 Y66.783 E125.61195
G0 F3600 X141.453 Y66.783
G1 F900 X166.508 Y91.837 E127.55645
G0 F3600 X166.508 Y92.403
G1 F900 X140.888 Y66.783 E129.54484
G0 F3600 X140.322 Y66.783
G1 F900 X166.508 Y92.968 E131.57712
G0 F3600 X166.508 Y93.534
G1 F900 X139.756 Y66.783 E133.65333
G0 F3600 X139.191 Y66.783
G1 F900 X166.508 Y94.1 E135.77343
G0 F3600 X166.508 Y94.666
G1 F900 X138.625 Y66.783 E137.93746
G0 F3600 X138.059 Y66.783
G1 F900 X166.508 Y95.231 E140.14537
G0 F3600 X166.508 Y95.797
G1 F900 X137.494 Y66.783 E142.39717
G0 F3600 X136.928 Y66.783
G1 F900 X166.508 Y96.363 E144.69291
G0 F3600 X166.508 Y96.928
G1 F900 X136.362 Y66.783 E147.03253
G0 F3600 X135.797 Y66.783
G1 F900 X166.508 Y97.494 E149.41604
G0 F3600 X166.508 Y98.06
G1 F900 X135.231 Y66.783 E151.84347
G0 F3600 X134.665 Y66.783
G1 F900 X166.508 Y98.625 E154.3148
G0 F3600 X166.508 Y99.191
G1 F900 X134.099 Y66.783 E156.83005
G0 F3600 X133.534 Y66.783
G1 F900 X166.508 Y99.757 E159.3892
G0 F3600 X166.508 Y100.322
G1 F900 X132.968 Y66.783 E161.99223
G0 F3600 X132.402 Y66.783
G1 F900 X166.508 Y100.888 E164.63919
G0 F3600 X166.508 Y101.454
G1 F900 X131.837 Y66.783 E167.33004
G0 F3600 X131.271 Y66.783
G1 F900 X166.508 Y102.019 E170.06478
G0 F3600 X166.508 Y102.585
G1 F900 X130.705 Y66.783 E172.84344
G0 F3600 X130.14 Y66.783
G1 F900 X166.508 Y103.151 E175.666
G0 F3600 X166.508 Y103.717
G1 F900 X129.574 Y66.783 E178.53248
G0 F3600 X129.008 Y66.783
G1 F900 X166.508 Y104.282 E181.44285
G0 F3600 X166.508 Y104.848
G1 F900 X128.443 Y66.783 E184.39711
G0 F3600 X127.877 Y66.783
G1 F900 X166.508 Y105.414 E187.3953
G0 F3600 X166.508 Y105.979
G1 F900 X127.311 Y66.783 E190.43738
G0 F3600 X126.746 Y66.783
G1 F900 X166.508 Y106.545 E193.52334
G0 F3600 X166.508 Y107.111
G1 F900 X126.18 Y66.783 E196.65324
G0 F3600 X125.614 Y66.783
G1 F900 X166.508 Y107.676 E199.82702
G0 F3600 X166.508 Y108.242
G1 F900 X125.049 Y66.783 E203.04469
G0 F3600 X124.483 Y66.783
G1 F900 X166.508 Y108.808 E206.30629
G0 F3600 X166.508 Y109.373
G1 F900 X123.917 Y66.783 E209.61178
G0 F3600 X123.351 Y66.783
G1 F900 X166.508 Y109.939 E212.9612
G0 F3600 X166.508 Y110.505
G1 F900 X122.786 Y66.783 E216.3545
G0 F3600 X122.22 Y66.783
G1 F900 X166.508 Y111.07 E219.7917
G0 F3600 X166.508 Y111.636
G1 F900 X121.654 Y66.783 E223.27282
G0 F3600 X121.089 Y66.783
G1 F900 X166.508 Y112.202 E226.79783
G0 F3600 X166.508 Y112.767
G1 F900 X120.523 Y66.783 E230.36673
G0 F3600 X119.957 Y66.783
G1 F900 X166.508 Y113.333 E233.97956
G0 F3600 X166.508 Y113.899
G1 F900 X119.392 Y66.783 E237.63628
G0 F3600 X118.826 Y66.783
G1 F900 X166.508 Y114.465 E241.33692
G0 F3600 X166.508 Y115.03
G1 F900 X118.26 Y66.783 E245.08146
G0 F3600 X117.695 Y66.783
G1 F900 X166.508 Y115.596 E248.86988
G0 F3600 X166.508 Y116.162
G1 F900 X117.13 Y66.784 E252.70215
G0 F3600 X116.564 Y66.784
G1 F900 X166.508 Y116.727 E256.57831
G0 F3600 X166.508 Y117.293
G1 F900 X115.998 Y66.784 E260.4984
G0 F3600 X115.433 Y66.784
G1 F900 X166.508 Y117.859 E264.46238
G0 F3600 X166.508 Y118.424
G1 F900 X114.867 Y66.784 E268.47025
G0 F3600 X114.301 Y66.784
G1 F900 X166.508 Y118.99 E272.52205
G0 F3600 X166.508 Y119.556
G1 F900 X113.736 Y66.784 E276.61773
G0 F3600 X113.17 Y66.784
G1 F900 X166.508 Y120.121 E280.7573
G0 F3600 X166.508 Y120.687
G1 F900 X112.604 Y66.784 E284.94081
G0 F3600 X112.038 Y66.784
G1 F900 X166.508 Y121.253 E289.16823
G0 F3600 X166.508 Y121.818
G1 F900 X111.473 Y66.784 E293.43951
G0 F3600 X110.907 Y66.784
G1 F900 X166.508 Y122.384 E297.75472
G0 F3600 X166.508 Y122.95
G1 F900 X110.341 Y66.784 E302.11386
G0 F3600 X109.776 Y66.784
G1 F900 X166.508 Y123.515 E306.51684
G0 F3600 X166.508 Y124.081
G1 F900 X109.21 Y66.784 E310.96375
G0 F3600 X108.644 Y66.784
G1 F900 X166.508 Y124.647 E315.45459
G0 F3600 X166.508 Y125.213
G1 F900 X108.079 Y66.784 E319.98932
G0 F3600 X107.513 Y66.784
G1 F900 X166.508 Y125.778 E324.56794
G0 F3600 X166.508 Y126.344
G1 F900 X106.947 Y66.784 E329.19049
G0 F3600 X106.382 Y66.784
G1 F900 X166.508 Y126.91 E333.85693
G0 F3600 X166.508 Y127.475
G1 F900 X105.816 Y66.784 E338.56725
G0 F3600 X105.25 Y66.784
G1 F900 X166.508 Y128.041 E343.3215
G0 F3600 X166.508 Y128.607
G1 F900 X104.685 Y66.784 E348.11964
G0 F3600 X104.119 Y66.784
G1 F900 X166.508 Y129.172 E352.96167
G0 F3600 X166.508 Y129.738
G1 F900 X103.553 Y66.784 E357.84763
G0 F3600 X102.987 Y66.784
G1 F900 X166.508 Y130.304 E362.77752
G0 F3600 X166.508 Y130.869
G1 F900 X102.422 Y66.784 E367.75125
G0 F3600 X101.856 Y66.784
G1 F900 X166.508 Y131.435 E372.76892
G0 F3600 X166.508 Y132.001
G1 F900 X101.29 Y66.784 E377.83051
G0 F3600 X100.725 Y66.784
G1 F900 X166.508 Y132.566 E382.93595
G0 F3600 X166.508 Y133.132
G1 F900 X100.159 Y66.784 E388.08532
G0 F3600 X99.593 Y66.784
G1 F900 X166.508 Y133.698 E393.27862
G0 F3600 X166.508 Y134.264
G1 F900 X99.028 Y66.784 E398.5158
G0 F3600 X98.462 Y66.784
G1 F900 X166.508 Y134.829 E403.79688
G0 F3600 X166.508 Y135.395
G1 F900 X97.896 Y66.784 E409.12188
G0 F3600 X97.331 Y66.784
G1 F900 X166.508 Y135.961 E414.49077
G0 F3600 X166.508 Y136.526
G1 F900 X96.765 Y66.784 E419.90355
G0 F3600 X96.199 Y66.784
G1 F900 X166.508 Y137.092 E425.36026
G0 F3600 X166.508 Y137.658
G1 F900 X95.634 Y66.784 E430.86086
G0 F3600 X95.068 Y66.784
G1 F900 X166.508 Y138.223 E436.40535
G0 F3600 X166.508 Y138.789
G1 F900 X94.502 Y66.784 E441.99376
G0 F3600 X93.937 Y66.784
G1 F900 X166.508 Y139.355 E447.62607
G0 F3600 X166.508 Y139.92
G1 F900 X93.371 Y66.784 E453.30226
G0 F3600 X92.805 Y66.784
G1 F900 X166.508 Y140.486 E459.02238
G0 F3600 X166.508 Y141.052
G1 F900 X92.239 Y66.784 E464.78643
G0 F3600 X91.674 Y66.784
G1 F900 X166.508 Y141.617 E470.59433
G0 F3600 X166.508 Y142.183
G1 F900 X91.108 Y66.784 E476.44615
G0 F3600 X90.542 Y66.784
G1 F900 X166.508 Y142.749 E482.34191
G0 F3600 X166.508 Y143.314
G1 F900 X89.977 Y66.784 E488.28151
G0 F3600 X89.411 Y66.784
G1 F900 X166.508 Y143.88 E494.26504
G0 F3600 X166.508 Y144.446
G1 F900 X88.845 Y66.784 E500.2925
G0 F3600 X88.28 Y66.784
G1 F900 X166.508 Y145.012 E506.36385
G0 F3600 X166.508 Y145.577
G1 F900 X87.714 Y66.784 E512.47909
G0 F3600 X87.148 Y66.784
G1 F900 X166.508 Y146.143 E518.63825
G0 F3600 X166.508 Y146.709
G1 F900 X86.583 Y66.784 E524.84131
G0 F3600 X86.017 Y66.784
G1 F900 X166.508 Y147.274 E531.08825
G0 F3600 X166.508 Y147.84
G1 F900 X85.451 Y66.784 E537.37912
G0 F3600 X84.886 Y66.784
G1 F900 X166.508 Y148.406 E543.71388
G0 F3600 X166.508 Y148.971
G1 F900 X84.32 Y66.784 E550.09253
G0 F3600 X83.754 Y66.784
G1 F900 X166.508 Y149.537 E556.51511
G0 F3600 X166.508 Y150.103
G1 F900 X83.188 Y66.784 E562.98161
G0 F3600 X82.623 Y66.784
G1 F900 X166.508 Y150.668 E569.49197
G0 F3600 X166.508 Y151.234
G1 F900 X82.057 Y66.784 E576.04625
G0 F3600 X81.491 Y66.784
G1 F900 X166.508 Y151.8 E582.64446
G0 F3600 X166.508 Y152.365
G1 F900 X80.926 Y66.784 E589.28652
G0 F3600 X80.36 Y66.784
G1 F900 X166.508 Y152.931 E595.97251
G0 F3600 X166.508 Y153.497
G1 F900 X79.794 Y66.784 E602.70243
G0 F3600 X79.229 Y66.784
G1 F900 X166.508 Y154.063 E609.47623
G0 F3600 X166.508 Y154.628
G1 F900 X78.663 Y66.784 E616.29393
G0 F3600 X78.097 Y66.784
G1 F900 X166.508 Y155.194 E623.15555
G0 F3600 X166.508 Y155.76
G1 F900 X77.532 Y66.784 E630.06106
G0 F3600 X76.966 Y66.784
G1 F900 X166.508 Y156.325 E637.01046
G0 F3600 X166.508 Y156.891
G1 F900 X76.4 Y66.784 E644.00379
G0 F3600 X75.835 Y66.784
G1 F900 X166.508 Y157.457 E651.04101
G0 F3600 X166.508 Y158.022
G1 F900 X75.269 Y66.784 E658.12211
G0 F3600 X74.703 Y66.784
G1 F900 X166.508 Y158.588 E665.24715
G0 F3600 X166.508 Y159.154
G1 F900 X74.138 Y66.784 E672.41607
G0 F3600 X73.572 Y66.784
G1 F900 X166.508 Y159.719 E679.62888
G0 F3600 X166.508 Y160.285
G1 F900 X73.006 Y66.784 E686.88562
G0 F3600 X72.44 Y66.784
G1 F900 X166.508 Y160.851 E694.18629
G0 F3600 X166.508 Y161.416
G1 F900 X71.875 Y66.784 E701.5308
G0 F3600 X71.309 Y66.784
G1 F900 X166.508 Y161.982 E708.91925
G0 F3600 X166.508 Y162.548
G1 F900 X70.743 Y66.784 E716.35162
G0 F3600 X70.178 Y66.784
G1 F900 X166.508 Y163.113 E723.82785
G0 F3600 X166.508 Y163.679
G1 F900 X69.612 Y66.784 E731.348
G0 F3600 X69.046 Y66.784
G1 F900 X166.508 Y164.245 E738.91208
