;FLAVOR:Marlin
;TIME:7527
;Filament used: 6.0508m, 0m
;Layer height: 0.2
;MINX:28.439
;MINY:51.629
;MINZ:0.26
;MAXX:206.567
;MAXY:183.371
;MAXZ:1.46
;POSTPROCESSED
;Generated with Cura_SteamEngine 4.8.0
T0
M140 S60
M105
M190 S60
M104 S200
M105
M109 S200
M82 ;absolute extrusion mode
M201 X500.00 Y500.00 Z100.00 E5000.00 	;Setup machine max acceleration
M203 X500.00 Y500.00 Z10.00 E50.00 	;Setup machine max feedrate
M204 P500.00 R1000.00 T500.00 		;Setup Print/Retract/Travel acceleration
M205 X8.00 Y8.00 Z0.40 E5.00 		;Setup Jerk
M220 S100 				;Reset Feedrate
M221 S100 				;Reset Flowrate
G28				;Home the Machine
#G29 				;Bed Level
G92 E0
M300 P150 S587
G92 E0
G1 F1500 E-6.5
;LAYER_COUNT:7
;LAYER:0
M107
G0 F2160 X39.368 Y60.126 Z0.26
;TYPE:SKIRT
G1 F1500 E0
G1 F900 X39.997 Y59.722 E0.03232
G1 X40.493 Y59.422 E0.05739
G1 X40.959 Y59.155 E0.08061
G1 X41.665 Y58.774 E0.1153
G1 X42.114 Y58.549 E0.13701
G1 X42.806 Y58.22 E0.17014
G1 X43.26 Y58.019 E0.19161
G1 X43.92 Y57.746 E0.22249
G1 X44.48 Y57.531 E0.24843
G1 X45.086 Y57.314 E0.27626
G1 X45.651 Y57.127 E0.30199
G1 X46.295 Y56.932 E0.33109
G1 X46.907 Y56.763 E0.35854
G1 X47.523 Y56.609 E0.38599
G1 X48.164 Y56.467 E0.41438
G1 X48.858 Y56.33 E0.44497
G1 X49.517 Y56.217 E0.47388
G1 X50.204 Y56.116 E0.5039
G1 X50.83 Y56.04 E0.53117
G1 X51.571 Y55.969 E0.56335
G1 X52.168 Y55.926 E0.58923
G1 X52.907 Y55.889 E0.62123
G1 X53.663 Y55.871 E0.65392
G1 X54.232 Y55.871 E0.67853
G1 X55.018 Y55.888 E0.71252
G1 X55.65 Y55.919 E0.73988
G1 X56.544 Y55.986 E0.77864
G1 X57.207 Y56.055 E0.80746
G1 X59.181 Y56.319 E0.89358
G1 X59.964 Y56.434 E0.9278
G1 X62.646 Y56.751 E1.04457
G1 X65.405 Y56.999 E1.16434
G1 X68.093 Y57.163 E1.28078
G1 X70.821 Y57.253 E1.3988
G1 X73.552 Y57.265 E1.51688
G1 X76.282 Y57.2 E1.63496
G1 X79.008 Y57.058 E1.75299
G1 X81.699 Y56.842 E1.86971
G1 X84.414 Y56.546 E1.9878
G1 X86.889 Y56.196 E2.09588
G1 X86.978 Y56.19 E2.09974
G1 X88.821 Y55.927 E2.18023
G1 X89.639 Y55.836 E2.21582
G1 X90.298 Y55.783 E2.24441
G1 X91.181 Y55.736 E2.28264
G1 X91.787 Y55.72 E2.30885
G1 X92.454 Y55.718 E2.33769
G1 X93.191 Y55.733 E2.36956
G1 X93.897 Y55.764 E2.40012
G1 X94.506 Y55.807 E2.42652
G1 X95.261 Y55.876 E2.4593
G1 X96.717 Y56.046 E2.52268
G1 X96.789 Y56.046 E2.52579
G1 X98.039 Y56.194 E2.58022
G1 X100.797 Y56.442 E2.69995
G1 X103.486 Y56.606 E2.81643
G1 X106.215 Y56.696 E2.93449
G1 X108.947 Y56.71 E3.05262
G1 X111.675 Y56.645 E3.17061
G1 X114.405 Y56.503 E3.28881
G1 X117.093 Y56.288 E3.40541
G1 X119.837 Y55.989 E3.52475
G1 X122.51 Y55.621 E3.64142
G1 X125.215 Y55.17 E3.75999
G1 X127.88 Y54.649 E3.8774
G1 X130.539 Y54.049 E3.99527
G1 X133.216 Y53.367 E4.11471
G1 X134.336 Y53.053 E4.165
G1 X135.747 Y52.663 E4.2283
G1 X136.348 Y52.514 E4.25507
G1 X137 Y52.368 E4.28396
G1 X137.643 Y52.242 E4.31229
G1 X138.292 Y52.13 E4.34077
G1 X138.918 Y52.038 E4.36813
G1 X139.64 Y51.95 E4.39958
G1 X140.262 Y51.889 E4.4266
G1 X141.02 Y51.834 E4.45946
G1 X141.704 Y51.8 E4.48907
G1 X142.334 Y51.785 E4.51632
G1 X143.166 Y51.784 E4.5523
G1 X143.669 Y51.796 E4.57405
G1 X144.552 Y51.838 E4.61227
G1 X145.203 Y51.886 E4.6405
G1 X145.991 Y51.967 E4.67475
G1 X146.098 Y51.979 E4.6794
G1 X149.825 Y52.481 E4.84201
G1 X152.552 Y52.772 E4.96059
G1 X155.241 Y52.983 E5.07721
G1 X157.999 Y53.119 E5.19661
G1 X161.402 Y53.181 E5.34377
G1 X164.148 Y53.142 E5.46252
G1 X166.877 Y53.026 E5.58062
G1 X169.606 Y52.832 E5.69891
G1 X172.283 Y52.567 E5.81523
G1 X176.1 Y52.056 E5.98174
G1 X176.409 Y52.008 E5.99526
G1 X177.575 Y51.843 E6.04618
G1 X178.246 Y51.766 E6.07538
G1 X179.104 Y51.694 E6.11261
G1 X179.853 Y51.652 E6.14505
G1 X180.488 Y51.633 E6.17252
G1 X181.159 Y51.629 E6.20153
G1 X181.983 Y51.645 E6.23717
G1 X182.679 Y51.675 E6.26729
G1 X183.247 Y51.714 E6.2919
G1 X184.081 Y51.79 E6.32811
G1 X184.67 Y51.859 E6.35376
G1 X185.361 Y51.958 E6.38394
G1 X185.936 Y52.053 E6.40914
G1 X186.584 Y52.176 E6.43766
G1 X187.269 Y52.324 E6.46796
G1 X187.802 Y52.452 E6.49166
G1 X188.522 Y52.645 E6.52389
G1 X189.192 Y52.843 E6.5541
G1 X189.723 Y53.014 E6.57822
G1 X190.346 Y53.234 E6.60679
G1 X191.01 Y53.486 E6.63749
G1 X191.512 Y53.691 E6.66094
G1 X192.195 Y53.991 E6.69319
G1 X192.689 Y54.224 E6.71681
G1 X193.3 Y54.53 E6.74636
G1 X193.862 Y54.829 E6.77388
G1 X194.335 Y55.097 E6.79739
G1 X194.884 Y55.425 E6.82504
G1 X195.44 Y55.777 E6.85349
G1 X195.909 Y56.09 E6.87787
G1 X196.178 Y56.281 E6.89214
G1 X197.181 Y57.032 E6.94632
G1 X197.684 Y57.433 E6.97413
G1 X198.02 Y57.715 E6.9931
G1 X198.649 Y58.273 E7.02945
G1 X198.878 Y58.487 E7.043
G1 X199.476 Y59.07 E7.07912
G1 X199.696 Y59.297 E7.09278
G1 X200.358 Y60.009 E7.13482
G1 X200.538 Y60.215 E7.14665
G1 X201.128 Y60.918 E7.18633
G1 X201.275 Y61.103 E7.19655
G1 X201.84 Y61.846 E7.23691
G1 X201.992 Y62.058 E7.24819
G1 X202.516 Y62.82 E7.28817
G1 X202.647 Y63.023 E7.29862
G1 X203.148 Y63.832 E7.33976
G1 X203.288 Y64.073 E7.35181
G1 X203.741 Y64.892 E7.39228
G1 X203.816 Y65.034 E7.39923
G1 X204.24 Y65.892 E7.44061
G1 X204.357 Y66.147 E7.45274
G1 X204.713 Y66.967 E7.49139
G1 X204.81 Y67.205 E7.5025
G1 X205.106 Y67.981 E7.53841
G1 X205.216 Y68.296 E7.55284
G1 X205.518 Y69.225 E7.59508
G1 X205.573 Y69.412 E7.60351
G1 X205.82 Y70.31 E7.64378
G1 X205.883 Y70.569 E7.6553
G1 X206.083 Y71.472 E7.69529
G1 X206.134 Y71.732 E7.70675
G1 X206.282 Y72.585 E7.74418
G1 X206.328 Y72.907 E7.75824
G1 X206.434 Y73.77 E7.79584
G1 X206.466 Y74.111 E7.81065
G1 X206.53 Y74.975 E7.84811
G1 X206.539 Y75.138 E7.85517
G1 X206.567 Y76.157 E7.89924
G1 X206.567 Y76.391 E7.90936
G1 X206.549 Y77.324 E7.94971
G1 X206.543 Y77.481 E7.9565
G1 X206.49 Y78.324 E7.99302
G1 X206.473 Y78.51 E8.0011
G1 X206.324 Y79.804 E8.05742
G1 X206.305 Y79.948 E8.0637
G1 X206.159 Y80.882 E8.10458
G1 X206.135 Y81.019 E8.11059
G1 X205.933 Y82.048 E8.15593
G1 X205.903 Y82.184 E8.16195
G1 X205.684 Y83.109 E8.20305
G1 X205.65 Y83.242 E8.20899
G1 X205.397 Y84.154 E8.24991
G1 X205.363 Y84.268 E8.25506
G1 X205.071 Y85.2 E8.29728
G1 X205.033 Y85.314 E8.30248
G1 X204.68 Y86.319 E8.34854
G1 X204.313 Y87.27 E8.39261
G1 X203.895 Y88.263 E8.4392
G1 X203.855 Y88.355 E8.44353
G1 X203.469 Y89.202 E8.48378
G1 X202.991 Y90.182 E8.53093
G1 X202.476 Y91.174 E8.57925
G1 X201.997 Y92.044 E8.6222
G1 X201.462 Y92.967 E8.66832
G1 X200.857 Y93.956 E8.71845
G1 X200.259 Y94.887 E8.7663
G1 X199.724 Y95.685 E8.80784
G1 X199.123 Y96.549 E8.85335
G1 X198.5 Y97.412 E8.89937
G1 X197.922 Y98.186 E8.94113
G1 X197.306 Y98.988 E8.98486
G1 X196.702 Y99.749 E9.02687
G1 X196.095 Y100.495 E9.06845
G1 X195.459 Y101.257 E9.11137
G1 X194.84 Y101.982 E9.15259
G1 X194.287 Y102.617 E9.189
G1 X193.74 Y103.234 E9.22465
G1 X193.205 Y103.851 E9.25996
G1 X192.783 Y104.318 E9.28717
G1 X192.033 Y105.119 E9.33462
G1 X191.31 Y105.878 E9.37994
G1 X190.67 Y106.535 E9.4196
G1 X189.024 Y108.257 E9.5226
G1 X187.196 Y110.274 E9.6403
G1 X185.407 Y112.366 E9.75932
G1 X183.715 Y114.46 E9.87572
G1 X182.058 Y116.636 E9.99398
G1 X180.457 Y118.866 E10.11268
G1 X178.953 Y121.09 E10.22877
G1 X177.472 Y123.419 E10.3481
G1 X176.075 Y125.762 E10.46605
G1 X174.745 Y128.139 E10.58382
G1 X173.495 Y130.533 E10.7006
G1 X172.29 Y133.008 E10.81962
G1 X171.173 Y135.478 E10.93683
G1 X170.1 Y138.034 E11.05669
G1 X169.131 Y140.554 E11.17343
G1 X168.231 Y143.097 E11.29007
G1 X167.382 Y145.735 E11.40989
G1 X166.626 Y148.331 E11.5268
G1 X165.935 Y150.978 E11.64509
G1 X165.463 Y152.986 E11.73428
G1 X165.247 Y153.67 E11.76529
G1 X164.388 Y156.276 E11.88393
G1 X163.611 Y158.875 E12.00122
G1 X162.905 Y161.509 E12.11913
G1 X162.398 Y163.608 E12.2125
G1 X162.334 Y163.889 E12.22496
G1 X162.083 Y164.905 E12.27021
G1 X162.028 Y165.109 E12.27935
G1 X161.756 Y166.026 E12.3207
G1 X161.691 Y166.222 E12.32963
G1 X161.382 Y167.109 E12.37025
G1 X161.277 Y167.385 E12.38301
G1 X160.959 Y168.166 E12.41947
G1 X160.837 Y168.446 E12.43268
G1 X160.457 Y169.268 E12.47184
G1 X160.346 Y169.496 E12.4828
G1 X159.928 Y170.298 E12.5219
G1 X159.823 Y170.49 E12.53137
G1 X159.331 Y171.333 E12.57357
G1 X159.208 Y171.529 E12.58358
G1 X158.704 Y172.305 E12.62358
G1 X158.536 Y172.549 E12.63639
G1 X158.029 Y173.251 E12.67383
G1 X157.859 Y173.476 E12.68603
G1 X157.248 Y174.243 E12.72843
G1 X157.133 Y174.378 E12.7361
G1 X156.521 Y175.075 E12.7762
G1 X156.319 Y175.294 E12.78908
G1 X155.657 Y175.974 E12.83012
G1 X155.498 Y176.128 E12.83969
G1 X154.779 Y176.8 E12.88224
G1 X154.61 Y176.949 E12.89198
G1 X153.934 Y177.522 E12.9303
G1 X153.782 Y177.644 E12.93873
G1 X152.697 Y178.467 E12.99761
G1 X152.387 Y178.688 E13.01407
G1 X151.951 Y178.983 E13.03683
G1 X151.342 Y179.372 E13.06808
G1 X150.848 Y179.671 E13.09305
G1 X150.225 Y180.026 E13.12405
G1 X149.787 Y180.261 E13.14554
G1 X149.113 Y180.602 E13.1782
G1 X148.709 Y180.792 E13.1975
G1 X147.948 Y181.13 E13.23351
G1 X147.494 Y181.317 E13.25474
G1 X146.878 Y181.556 E13.28331
G1 X146.383 Y181.734 E13.30605
G1 X145.637 Y181.98 E13.34002
G1 X145.084 Y182.148 E13.36501
G1 X144.441 Y182.325 E13.39384
G1 X143.789 Y182.488 E13.4229
G1 X143.143 Y182.632 E13.45152
G1 X142.587 Y182.742 E13.47603
G1 X141.781 Y182.881 E13.51139
G1 X141.195 Y182.966 E13.53699
G1 X140.503 Y183.05 E13.56713
G1 X139.807 Y183.117 E13.59737
G1 X139.131 Y183.167 E13.62667
G1 X138.459 Y183.199 E13.65576
G1 X137.78 Y183.215 E13.68513
G1 X137.017 Y183.216 E13.71812
G1 X136.413 Y183.202 E13.74424
G1 X135.621 Y183.165 E13.77853
G1 X134.935 Y183.114 E13.80827
G1 X134.14 Y183.032 E13.84283
G1 X134.035 Y183.02 E13.8474
G1 X130.32 Y182.519 E14.00948
G1 X127.592 Y182.228 E14.1281
G1 X124.903 Y182.017 E14.24473
G1 X122.145 Y181.881 E14.36412
G1 X118.742 Y181.819 E14.51129
G1 X115.996 Y181.858 E14.63003
G1 X113.267 Y181.974 E14.74813
G1 X110.538 Y182.168 E14.86643
G1 X107.861 Y182.433 E14.98274
G1 X105.114 Y182.785 E15.10249
G1 X104.217 Y182.924 E15.14174
G1 X102.691 Y183.142 E15.20839
G1 X101.881 Y183.235 E15.24364
G1 X101.773 Y183.246 E15.24834
G1 X101.073 Y183.304 E15.27871
G1 X100.277 Y183.348 E15.31318
G1 X99.644 Y183.367 E15.34056
G1 X98.986 Y183.371 E15.36901
G1 X98.159 Y183.355 E15.40477
G1 X97.453 Y183.324 E15.43533
G1 X96.844 Y183.281 E15.46173
G1 X96.045 Y183.208 E15.49642
G1 X95.488 Y183.143 E15.52067
G1 X94.851 Y183.053 E15.54848
G1 X94.124 Y182.932 E15.58035
G1 X93.489 Y182.809 E15.60832
G1 X92.798 Y182.66 E15.63888
G1 X92.248 Y182.524 E15.66338
G1 X91.53 Y182.329 E15.69555
G1 X90.939 Y182.152 E15.72222
G1 X90.327 Y181.954 E15.75003
G1 X89.784 Y181.761 E15.77495
G1 X89.095 Y181.498 E15.80684
G1 X88.609 Y181.299 E15.82955
G1 X87.938 Y181.004 E15.86124
G1 X87.445 Y180.771 E15.88482
G1 X86.895 Y180.496 E15.9114
G1 X86.366 Y180.216 E15.93728
G1 X85.803 Y179.899 E15.96522
G1 X85.317 Y179.609 E15.98969
G1 X84.66 Y179.195 E16.02327
G1 X84.334 Y178.977 E16.04022
G1 X83.802 Y178.602 E16.06837
G1 X83.041 Y178.031 E16.1095
G1 X82.44 Y177.55 E16.14279
G1 X82.141 Y177.299 E16.15967
G1 X81.49 Y176.722 E16.19728
G1 X81.277 Y176.523 E16.20988
G1 X80.674 Y175.936 E16.24627
G1 X80.407 Y175.661 E16.26284
G1 X79.786 Y174.992 E16.30231
G1 X79.625 Y174.808 E16.31288
G1 X79.092 Y174.175 E16.34866
G1 X78.849 Y173.87 E16.36552
G1 X78.276 Y173.117 E16.40644
G1 X78.159 Y172.954 E16.41511
G1 X77.62 Y172.168 E16.45632
G1 X77.497 Y171.978 E16.46611
G1 X77.009 Y171.19 E16.50618
G1 X76.872 Y170.957 E16.51787
G1 X76.449 Y170.197 E16.55548
G1 X76.373 Y170.051 E16.5626
G1 X75.951 Y169.204 E16.60351
G1 X75.899 Y169.096 E16.6087
G1 X75.658 Y168.569 E16.63375
G1 X74.491 Y166.088 E16.7523
G1 X73.259 Y163.649 E16.87045
G1 X71.978 Y161.283 E16.98678
G1 X70.079 Y158.026 E17.1498
G1 X69.844 Y157.544 E17.17298
G1 X69.688 Y157.052 E17.1953
G1 X69.381 Y155.771 E17.25226
G1 X68.715 Y153.147 E17.36931
G1 X67.957 Y150.484 E17.48903
G1 X67.145 Y147.907 E17.60585
G1 X66.254 Y145.341 E17.7233
G1 X65.284 Y142.776 E17.84187
G1 X64.244 Y140.253 E17.95987
G1 X63.131 Y137.747 E18.07843
G1 X61.963 Y135.312 E18.1952
G1 X60.711 Y132.879 E18.31351
G1 X59.403 Y130.505 E18.4307
G1 X58.002 Y128.124 E18.55015
G1 X56.576 Y125.849 E18.66625
G1 X55.049 Y123.56 E18.78522
G1 X53.473 Y121.338 E18.90301
G1 X51.836 Y119.161 E19.02078
G1 X50.134 Y117.026 E19.13884
G1 X48.377 Y114.946 E19.25657
G1 X46.572 Y112.928 E19.37363
G1 X44.362 Y110.617 E19.51189
G1 X44.321 Y110.567 E19.51469
G1 X43.327 Y109.547 E19.57627
G1 X42.746 Y108.938 E19.61266
G1 X42.283 Y108.446 E19.64187
G1 X41.862 Y107.991 E19.66868
G1 X41.409 Y107.494 E19.69775
G1 X40.88 Y106.905 E19.73198
G1 X40.522 Y106.503 E19.75526
G1 X39.68 Y105.531 E19.81086
G1 X39.181 Y104.942 E19.84424
G1 X38.48 Y104.094 E19.89181
G1 X37.859 Y103.322 E19.93465
G1 X37.199 Y102.474 E19.98111
G1 X36.666 Y101.771 E20.01926
G1 X36.036 Y100.913 E20.06528
G1 X35.453 Y100.086 E20.10903
G1 X34.874 Y99.234 E20.15358
G1 X34.314 Y98.376 E20.19788
G1 X33.737 Y97.453 E20.24494
G1 X33.206 Y96.556 E20.29001
G1 X32.667 Y95.598 E20.33754
G1 X32.188 Y94.699 E20.38158
G1 X31.693 Y93.706 E20.42956
G1 X31.237 Y92.726 E20.4763
G1 X30.851 Y91.836 E20.51824
G1 X30.438 Y90.801 E20.56642
G1 X30.399 Y90.699 E20.57115
G1 X30.075 Y89.806 E20.61222
G1 X30.033 Y89.685 E20.61776
G1 X29.725 Y88.732 E20.66106
G1 X29.427 Y87.701 E20.70747
G1 X29.39 Y87.565 E20.71356
G1 X29.147 Y86.577 E20.75755
G1 X29.118 Y86.449 E20.76323
G1 X28.92 Y85.496 E20.80531
G1 X28.894 Y85.356 E20.81147
G1 X28.698 Y84.181 E20.86298
G1 X28.679 Y84.055 E20.86849
G1 X28.6 Y83.45 E20.89487
G1 X28.584 Y83.299 E20.90143
G1 X28.497 Y82.309 E20.9444
G1 X28.486 Y82.152 E20.95121
G1 X28.442 Y81.149 E20.99462
G1 X28.439 Y80.991 E21.00145
G1 X28.44 Y80.028 E21.04309
G1 X28.446 Y79.804 E21.05278
G1 X28.492 Y78.849 E21.09412
G1 X28.509 Y78.619 E21.10409
G1 X28.597 Y77.707 E21.14371
G1 X28.633 Y77.411 E21.1566
G1 X28.757 Y76.554 E21.19404
G1 X28.807 Y76.259 E21.20698
G1 X28.959 Y75.472 E21.24164
G1 X29.043 Y75.09 E21.25855
G1 X29.263 Y74.191 E21.29856
G1 X29.333 Y73.943 E21.30971
G1 X29.588 Y73.082 E21.34853
G1 X29.67 Y72.832 E21.35991
G1 X29.932 Y72.078 E21.39442
G1 X30.071 Y71.71 E21.41143
G1 X30.395 Y70.911 E21.44871
G1 X30.501 Y70.668 E21.46017
G1 X30.921 Y69.759 E21.50347
G1 X30.997 Y69.607 E21.51082
G1 X31.425 Y68.784 E21.55093
G1 X31.559 Y68.545 E21.56278
G1 X32.031 Y67.736 E21.60327
G1 X32.151 Y67.545 E21.61303
G1 X32.64 Y66.79 E21.65192
G1 X32.82 Y66.529 E21.66563
G1 X33.327 Y65.827 E21.70307
G1 X33.507 Y65.594 E21.7158
G1 X34.101 Y64.849 E21.757
G1 X34.259 Y64.662 E21.76758
G1 X34.838 Y64.005 E21.80545
G1 X35.026 Y63.803 E21.81738
G1 X35.676 Y63.132 E21.85777
G1 X35.879 Y62.934 E21.87004
G1 X36.434 Y62.413 E21.90295
G1 X36.796 Y62.092 E21.92387
G1 X37.426 Y61.558 E21.95958
G1 X37.583 Y61.434 E21.96823
G1 X38.672 Y60.607 E22.02735
G1 X39.368 Y60.126 E22.06393
G0 F2160 X39.592 Y60.458
G1 F900 X40.213 Y60.059 E22.09585
G1 X40.692 Y59.769 E22.12006
G1 X41.158 Y59.502 E22.14328
G1 X41.845 Y59.131 E22.17704
G1 X42.287 Y58.91 E22.19841
G1 X42.969 Y58.585 E22.23108
G1 X43.414 Y58.389 E22.2521
G1 X44.064 Y58.119 E22.28253
G1 X44.616 Y57.907 E22.3081
G1 X45.212 Y57.694 E22.33547
G1 X45.767 Y57.51 E22.36075
G1 X46.487 Y57.293 E22.39326
G1 X47.004 Y57.152 E22.41643
G1 X47.702 Y56.978 E22.44754
G1 X48.241 Y56.859 E22.4714
G1 X48.926 Y56.724 E22.50159
G1 X49.576 Y56.612 E22.53011
G1 X50.253 Y56.513 E22.55969
G1 X50.869 Y56.438 E22.58653
G1 X51.6 Y56.368 E22.61828
G1 X52.189 Y56.325 E22.64381
G1 X52.917 Y56.289 E22.67533
G1 X53.663 Y56.271 E22.70759
G1 X54.224 Y56.271 E22.73185
G1 X54.999 Y56.287 E22.76537
G1 X55.534 Y56.312 E22.78852
G1 X56.502 Y56.384 E22.83049
G1 X57.26 Y56.464 E22.86345
G1 X59.123 Y56.715 E22.94473
G1 X59.895 Y56.828 E22.97847
G1 X62.635 Y57.152 E23.09776
G1 X65.343 Y57.395 E23.21532
