;FLAVOR:Marlin
;TIME:1494
;Filament used: 1.2731m, 0m
;Layer height: 0.18
;MINX:65.286
;MINY:63.547
;MINZ:0.26
;MAXX:169.695
;MAXY:172.376
;MAXZ:1.52
;Generated with Cura_SteamEngine 4.8.0
T0
M140 S60
M105
M190 S60
M104 S200
M105
M109 S200
M82 ;absolute extrusion mode
M201 X500.00 Y500.00 Z100.00 E5000.00 	;Setup machine max acceleration
M203 X500.00 Y500.00 Z10.00 E50.00 	;Setup machine max feedrate
M204 P500.00 R1000.00 T500.00 		;Setup Print/Retract/Travel acceleration
M205 X8.00 Y8.00 Z0.40 E5.00 		;Setup Jerk
M220 S100 				;Reset Feedrate
M221 S100 				;Reset Flowrate
G28				;Home the Machine
#G29 				;Bed Level
G92 E0
M300 P150 S587
G92 E0
G1 F1500 E-6.5
;LAYER_COUNT:8
;LAYER:0
M107
G0 F2160 X115.113 Y66.022 Z0.26
;TYPE:SKIRT
G1 F1500 E0
G1 F900 X115.393 Y65.564 E0.02321
G1 X115.738 Y65.154 E0.04638
G1 X116.209 Y64.749 E0.07324
G1 X116.639 Y64.451 E0.09586
G1 X117.132 Y64.13 E0.1213
G1 X117.316 Y64.019 E0.13059
G1 X117.799 Y63.786 E0.15377
G1 X118.312 Y63.628 E0.17698
G1 X118.842 Y63.547 E0.20017
G1 X119.498 Y63.557 E0.22853
G1 X120.059 Y63.617 E0.25293
G1 X120.675 Y63.701 E0.27981
G1 X121.2 Y63.814 E0.30303
G1 X121.701 Y64.004 E0.3262
G1 X122.169 Y64.266 E0.34939
G1 X122.593 Y64.594 E0.37257
G1 X123.094 Y65.152 E0.40499
G1 X124.752 Y67.436 E0.52702
G1 X126.45 Y69.639 E0.64729
G1 X128.144 Y71.711 E0.76301
G1 X129.944 Y73.791 E0.88194
G1 X131.768 Y75.782 E0.9987
G1 X133.692 Y77.765 E1.11816
G1 X135.617 Y79.644 E1.23447
G1 X137.635 Y81.503 E1.35311
G1 X139.709 Y83.307 E1.47196
G1 X141.783 Y85.01 E1.588
G1 X143.956 Y86.695 E1.70689
G1 X146.17 Y88.314 E1.82548
G1 X148.38 Y89.835 E1.94148
G1 X150.705 Y91.341 E2.06126
G1 X153.015 Y92.745 E2.17814
G1 X155.403 Y94.105 E2.29697
G1 X157.793 Y95.38 E2.41409
G1 X160.23 Y96.592 E2.53177
G1 X163.623 Y98.143 E2.69308
G1 X164.776 Y98.691 E2.74828
G1 X165.506 Y99.064 E2.78372
G1 X165.802 Y99.234 E2.79848
G1 X166.565 Y99.724 E2.83769
G1 X166.793 Y99.881 E2.84966
G1 X167.211 Y100.217 E2.87285
G1 X167.574 Y100.612 E2.89605
G1 X167.939 Y101.174 E2.92502
G1 X168.399 Y102.052 E2.96788
G1 X168.788 Y102.831 E3.00553
G1 X169.077 Y103.432 E3.03436
G1 X169.273 Y103.931 E3.05754
G1 X169.411 Y104.597 E3.08695
G1 X169.505 Y105.448 E3.12397
G1 X169.629 Y106.758 E3.18087
G1 X169.691 Y107.519 E3.21388
G1 X169.695 Y108.055 E3.23705
G1 X169.629 Y108.536 E3.25805
G1 X169.497 Y109.178 E3.28639
G1 X169.472 Y109.29 E3.29135
G1 X169.331 Y109.88 E3.31758
G1 X169.281 Y110.067 E3.32595
G1 X169.034 Y110.9 E3.36351
G1 X168.734 Y111.86 E3.407
G1 X167.992 Y114.487 E3.52503
G1 X167.322 Y117.145 E3.64356
G1 X166.481 Y121.054 E3.81644
G1 X166.37 Y121.598 E3.84045
G1 X165.531 Y124.802 E3.98365
G1 X164.9 Y127.516 E4.10413
G1 X164.372 Y130.144 E4.22003
G1 X163.909 Y132.823 E4.33758
G1 X163.518 Y135.533 E4.45597
G1 X163.213 Y138.185 E4.5714
G1 X162.972 Y140.964 E4.69201
G1 X162.814 Y143.691 E4.81012
G1 X162.734 Y146.37 E4.926
G1 X162.722 Y147.928 E4.99337
G1 X162.708 Y148.505 E5.01832
G1 X162.625 Y149.441 E5.05895
G1 X162.51 Y150.542 E5.10682
G1 X162.434 Y151.18 E5.1346
G1 X162.331 Y151.706 E5.15777
G1 X162.077 Y152.368 E5.18843
G1 X161.558 Y153.4 E5.23838
G1 X161.015 Y154.431 E5.28876
G1 X160.69 Y155.026 E5.31808
G1 X160.399 Y155.476 E5.34125
G1 X159.999 Y155.921 E5.36712
G1 X159.297 Y156.582 E5.40881
G1 X159.185 Y156.683 E5.41533
G1 X157.959 Y157.744 E5.48544
G1 X157.644 Y158.002 E5.50304
G1 X157.204 Y158.309 E5.52624
G1 X156.724 Y158.547 E5.54941
G1 X156.122 Y158.735 E5.57667
G1 X155.526 Y158.873 E5.60313
G1 X154.212 Y159.16 E5.66128
G1 X151.503 Y159.793 E5.78157
G1 X148.917 Y160.473 E5.89718
G1 X146.253 Y161.257 E6.01725
G1 X143.673 Y162.094 E6.13453
G1 X143.299 Y162.226 E6.15168
G1 X141.838 Y162.709 E6.21821
G1 X141.11 Y162.938 E6.25121
G1 X138.581 Y163.812 E6.36691
G1 X136.285 Y164.679 E6.47302
G1 X135.641 Y164.911 E6.50262
G1 X135.124 Y165.055 E6.52583
G1 X134.592 Y165.12 E6.549
G1 X134.239 Y165.119 E6.56426
G1 X133.085 Y165.061 E6.61422
G1 X130.299 Y164.96 E6.73476
G1 X127.569 Y164.937 E6.85281
G1 X124.871 Y164.992 E6.96949
G1 X122.114 Y165.124 E7.08883
G1 X119.422 Y165.332 E7.20558
G1 X116.707 Y165.617 E7.32361
G1 X114.001 Y165.98 E7.44167
G1 X111.303 Y166.42 E7.55986
G1 X108.656 Y166.929 E7.67641
G1 X106 Y167.518 E7.79404
G1 X103.305 Y168.195 E7.91419
G1 X100.706 Y168.927 E8.03094
G1 X98.115 Y169.737 E8.14831
G1 X95.528 Y170.626 E8.26659
G1 X92.406 Y171.822 E8.41115
G1 X91.93 Y172 E8.43312
G1 X91.333 Y172.166 E8.45991
G1 X90.66 Y172.291 E8.48951
G1 X90.4 Y172.332 E8.50089
G1 X89.865 Y172.376 E8.5241
G1 X89.078 Y172.295 E8.55831
G1 X88.35 Y172.109 E8.5908
G1 X87.844 Y171.93 E8.61401
G1 X87.372 Y171.677 E8.63716
G1 X86.941 Y171.357 E8.66037
G1 X86.577 Y170.992 E8.68266
G1 X86.149 Y170.497 E8.71095
G1 X84.335 Y168.466 E8.8287
G1 X82.468 Y166.49 E8.94624
G1 X80.639 Y164.673 E9.05771
G1 X80.294 Y164.323 E9.07896
G1 X79.947 Y163.914 E9.10216
G1 X79.54 Y163.226 E9.13672
G1 X78.221 Y160.858 E9.25392
G1 X76.83 Y158.518 E9.37162
G1 X75.363 Y156.202 E9.49016
G1 X73.847 Y153.951 E9.60751
G1 X72.24 Y151.706 E9.72688
G1 X70.623 Y149.579 E9.84241
G1 X68.885 Y147.417 E9.96235
G1 X67.133 Y145.361 E10.07914
G1 X66.54 Y144.701 E10.11751
G1 X66.176 Y144.281 E10.14154
G1 X65.855 Y143.85 E10.16478
G1 X65.603 Y143.377 E10.18795
G1 X65.423 Y142.872 E10.21113
G1 X65.321 Y142.346 E10.2343
G1 X65.291 Y141.818 E10.25716
G1 X65.286 Y141.409 E10.27485
G1 X65.286 Y140.432 E10.31709
G1 X65.296 Y139.757 E10.34628
G1 X65.358 Y139.145 E10.37288
G1 X65.537 Y138.194 E10.41472
G1 X66.03 Y135.813 E10.51985
G1 X66.184 Y135.124 E10.55038
G1 X66.339 Y134.611 E10.57355
G1 X66.496 Y134.261 E10.59014
G1 X66.962 Y133.357 E10.63411
G1 X67.242 Y132.837 E10.65965
G1 X68.498 Y130.426 E10.77719
G1 X69.683 Y127.98 E10.89471
G1 X70.811 Y125.476 E11.01346
G1 X71.876 Y122.926 E11.13295
G1 X72.012 Y122.568 E11.14951
G1 X72.533 Y121.262 E11.2103
G1 X72.851 Y120.645 E11.24031
G1 X73.243 Y120.037 E11.27159
G1 X73.715 Y119.349 E11.30767
G1 X74.051 Y118.931 E11.33086
G1 X74.445 Y118.567 E11.35405
G1 X74.727 Y118.365 E11.36905
G1 X75.343 Y117.967 E11.40076
G1 X77.613 Y116.459 E11.51859
G1 X79.866 Y114.868 E11.63785
G1 X82.024 Y113.253 E11.7544
G1 X84.151 Y111.564 E11.87183
G1 X86.257 Y109.791 E11.99086
G1 X88.286 Y107.982 E12.1084
G1 X90.273 Y106.11 E12.22644
G1 X92.185 Y104.201 E12.34326
G1 X94.072 Y102.21 E12.46187
G1 X95.911 Y100.153 E12.58117
G1 X97.65 Y98.096 E12.69764
G1 X99.353 Y95.962 E12.81569
G1 X100.986 Y93.793 E12.93308
G1 X102.571 Y91.557 E13.05159
G1 X104.077 Y89.3 E13.16891
G1 X105.538 Y86.971 E13.28778
G1 X106.923 Y84.617 E13.40587
G1 X108.217 Y82.27 E13.52176
G1 X109.479 Y79.814 E13.64115
G1 X110.656 Y77.362 E13.75875
G1 X111.762 Y74.875 E13.87644
G1 X112.818 Y72.313 E13.99625
G1 X113.769 Y69.798 E14.11251
G1 X114.504 Y67.698 E14.20871
G1 X114.904 Y66.515 E14.26271
G1 X115.113 Y66.022 E14.28586
G0 F2160 X115.482 Y66.179
G1 F900 X115.752 Y65.752 E14.30771
G1 X116.086 Y65.372 E14.32958
G1 X116.572 Y64.98 E14.35658
G1 X116.913 Y64.749 E14.37439
G1 X117.35 Y64.466 E14.3969
G1 X117.516 Y64.365 E14.4053
G1 X117.972 Y64.148 E14.42714
G1 X118.457 Y64.005 E14.449
G1 X118.959 Y63.941 E14.47088
G1 X119.455 Y63.955 E14.49233
G1 X120.115 Y64.027 E14.52104
G1 X120.62 Y64.097 E14.54309
G1 X121.114 Y64.206 E14.56496
G1 X121.585 Y64.391 E14.58684
G1 X122.02 Y64.648 E14.60868
G1 X122.409 Y64.97 E14.63052
G1 X122.771 Y65.387 E14.6544
G1 X124.456 Y67.708 E14.77841
G1 X126.109 Y69.852 E14.89546
G1 X127.849 Y71.98 E15.01432
G1 X129.631 Y74.04 E15.13209
G1 X131.503 Y76.084 E15.25193
G1 X133.391 Y78.029 E15.36914
G1 X135.35 Y79.941 E15.4875
G1 X137.384 Y81.815 E15.60708
G1 X139.421 Y83.587 E15.72382
G1 X141.547 Y85.333 E15.84277
G1 X143.72 Y87.018 E15.96166
G1 X145.914 Y88.622 E16.07918
G1 X148.183 Y90.184 E16.19828
G1 X150.501 Y91.686 E16.31771
G1 X152.789 Y93.076 E16.43347
G1 X155.223 Y94.463 E16.5546
G1 X157.605 Y95.734 E16.67133
G1 X160.04 Y96.944 E16.7889
G1 X163.452 Y98.504 E16.95112
G1 X164.693 Y99.095 E17.01055
G1 X165.324 Y99.419 E17.04122
G1 X165.587 Y99.571 E17.05436
G1 X166.338 Y100.053 E17.09294
G1 X166.566 Y100.21 E17.10491
G1 X166.958 Y100.529 E17.12676
G1 X167.296 Y100.906 E17.14865
G1 X167.585 Y101.36 E17.17192
G1 X168.041 Y102.231 E17.21443
G1 X168.428 Y103.004 E17.25181
G1 X168.717 Y103.605 E17.28065
G1 X168.899 Y104.077 E17.30252
G1 X169.014 Y104.641 E17.32741
G1 X169.107 Y105.486 E17.36416
G1 X169.23 Y106.79 E17.4208
G1 X169.292 Y107.551 E17.45381
G1 X169.294 Y108.057 E17.47569
G1 X169.237 Y108.455 E17.49307
G1 X169.083 Y109.197 E17.52584
G1 X168.942 Y109.787 E17.55207
G1 X168.898 Y109.953 E17.55949
G1 X168.652 Y110.781 E17.59684
G1 X168.35 Y111.747 E17.6406
G1 X167.605 Y114.385 E17.75913
G1 X166.927 Y117.074 E17.87903
G1 X166.098 Y120.927 E18.04944
G1 X165.982 Y121.5 E18.07472
G1 X165.138 Y124.724 E18.21882
G1 X164.514 Y127.412 E18.33813
G1 X163.979 Y130.068 E18.45528
G1 X163.512 Y132.769 E18.5738
G1 X163.124 Y135.467 E18.69166
G1 X162.81 Y138.193 E18.8103
G1 X162.575 Y140.907 E18.92809
G1 X162.416 Y143.654 E19.04706
G1 X162.333 Y146.437 E19.16745
G1 X162.322 Y147.925 E19.23179
G1 X162.31 Y148.47 E19.25536
G1 X162.228 Y149.399 E19.29569
G1 X162.113 Y150.495 E19.34333
G1 X162.037 Y151.133 E19.37112
G1 X161.937 Y151.628 E19.39295
G1 X161.719 Y152.189 E19.41897
G1 X161.205 Y153.214 E19.46855
G1 X160.664 Y154.239 E19.51867
G1 X160.339 Y154.834 E19.54798
G1 X160.063 Y155.257 E19.56982
G1 X159.725 Y155.63 E19.59158
G1 X159.023 Y156.291 E19.63328
G1 X158.923 Y156.381 E19.63909
G1 X157.697 Y157.442 E19.7092
G1 X157.392 Y157.692 E19.72625
G1 X156.976 Y157.979 E19.7481
G1 X156.52 Y158.197 E19.76996
G1 X156.032 Y158.346 E19.79202
G1 X155.441 Y158.482 E19.81824
G1 X154.097 Y158.776 E19.87773
G1 X151.458 Y159.392 E19.9949
G1 X148.767 Y160.1 E20.11521
G1 X146.165 Y160.866 E20.23249
G1 X143.531 Y161.72 E20.35222
G1 X143.174 Y161.847 E20.3686
G1 X141.718 Y162.327 E20.43489
G1 X140.996 Y162.554 E20.46761
G1 X138.445 Y163.436 E20.58432
G1 X136.15 Y164.303 E20.6904
G1 X135.506 Y164.535 E20.71999
G1 X135.018 Y164.668 E20.74186
G1 X134.515 Y164.723 E20.76374
G1 X134.259 Y164.72 E20.77481
G1 X133.079 Y164.66 E20.8259
G1 X130.317 Y164.56 E20.9454
G1 X127.564 Y164.537 E21.06444
G1 X124.845 Y164.592 E21.18203
G1 X122.133 Y164.723 E21.29943
G1 X119.35 Y164.937 E21.42011
G1 X116.683 Y165.217 E21.53606
G1 X113.92 Y165.588 E21.6566
G1 X111.269 Y166.02 E21.77274
G1 X108.532 Y166.546 E21.89325
G1 X105.922 Y167.125 E22.00884
G1 X103.205 Y167.807 E22.12997
G1 X100.584 Y168.546 E22.24771
G1 X97.971 Y169.363 E22.36609
G1 X95.398 Y170.247 E22.48372
G1 X92.266 Y171.447 E22.62874
G1 X91.79 Y171.625 E22.65072
G1 X91.259 Y171.773 E22.67455
G1 X90.597 Y171.896 E22.70366
G1 X90.337 Y171.937 E22.71505
G1 X89.833 Y171.976 E22.7369
G1 X89.163 Y171.904 E22.76604
G1 X88.455 Y171.724 E22.79763
G1 X87.98 Y171.552 E22.81947
G1 X87.537 Y171.308 E22.84134
G1 X87.139 Y170.997 E22.86318
G1 X86.879 Y170.73 E22.87929
G1 X86.451 Y170.235 E22.90758
G1 X84.641 Y168.207 E23.02512
G1 X82.742 Y166.198 E23.14465
G1 X80.924 Y164.392 E23.25545
G1 X80.579 Y164.042 E23.2767
G1 X80.254 Y163.655 E23.29855
G1 X79.918 Y163.084 E23.32719
G1 X78.562 Y160.65 E23.44767
G1 X77.155 Y158.283 E23.56673
G1 X75.7 Y155.987 E23.68426
G1 X74.16 Y153.701 E23.80344
G1 X72.587 Y151.503 E23.9203
G1 X70.92 Y149.309 E24.03944
G1 X69.203 Y147.173 E24.15794
G1 X67.433 Y145.097 E24.2759
G1 X66.842 Y144.439 E24.31414
G1 X66.478 Y144.019 E24.33817
G1 X66.178 Y143.612 E24.36003
G1 X65.946 Y143.163 E24.38189
G1 X65.787 Y142.682 E24.40379
G1 X65.698 Y142.03 E24.43224
G1 X65.686 Y141.404 E24.45932
G1 X65.686 Y140.438 E24.50108
G1 X65.696 Y139.763 E24.53027
G1 X65.751 Y139.219 E24.55391
G1 X65.929 Y138.275 E24.59545
G1 X66.42 Y135.9 E24.70031
G1 X66.574 Y135.211 E24.73084
G1 X66.723 Y134.728 E24.75269
G1 X66.852 Y134.444 E24.76618
G1 X67.314 Y133.547 E24.80981
G1 X67.594 Y133.027 E24.83534
G1 X68.862 Y130.592 E24.95405
G1 X70.044 Y128.154 E25.0712
G1 X71.173 Y125.646 E25.19012
G1 X72.25 Y123.068 E25.31093
G1 X72.384 Y122.716 E25.32721
G1 X72.905 Y121.41 E25.38801
G1 X73.188 Y120.862 E25.41468
G1 X73.632 Y120.175 E25.45004
G1 X74.044 Y119.576 E25.48148
G1 X74.363 Y119.183 E25.50336
G1 X74.944 Y118.701 E25.53601
G1 X75.528 Y118.324 E25.56606
G1 X77.859 Y116.775 E25.68707
G1 X80.073 Y115.212 E25.80425
G1 X82.283 Y113.557 E25.92363
G1 X84.433 Y111.85 E26.04233
G1 X86.496 Y110.114 E26.15891
G1 X88.563 Y108.271 E26.27865
G1 X90.548 Y106.401 E26.39657
G1 X92.493 Y104.459 E26.51541
G1 X94.362 Y102.487 E26.63289
G1 X96.181 Y100.453 E26.75087
G1 X97.97 Y98.337 E26.87068
G1 X99.666 Y96.211 E26.98827
G1 X101.303 Y94.036 E27.10598
G1 X102.896 Y91.788 E27.22511
G1 X104.431 Y89.488 E27.34467
G1 X105.879 Y87.181 E27.46244
G1 X107.259 Y84.834 E27.58016
G1 X108.579 Y82.441 E27.69833
G1 X109.844 Y79.98 E27.81797
G1 X111.01 Y77.548 E27.93459
G1 X112.134 Y75.024 E28.05405
G1 X113.191 Y72.458 E28.17405
G1 X114.137 Y69.958 E28.28962
G1 X114.882 Y67.83 E28.38711
G1 X115.283 Y66.644 E28.44124
G1 X115.482 Y66.179 E28.46311
G1 F1500 E21.96311
;MESH:happy birthday simple.stl
G0 F2160 X117.74 Y67.369
G0 X118.722 Y67.888
G0 X119.705 Y117.103
;TYPE:WALL-INNER
G1 F1500 E28.46311
G1 F900 X119.98 Y117.216 E28.47597
G1 X120.603 Y117.474 E28.50512
G1 X120.098 Y118.865 E28.56911
G1 X119.91 Y119.383 E28.59293
G1 X119.705 Y120.361 E28.63614
G1 X119.705 Y119.383 E28.64684
G1 X119.705 Y118.832 E28.66496
G1 X119.705 Y117.401 E28.72684
G1 X119.705 Y117.4 E28.72688
G1 X119.705 Y117.103 E28.73439
G0 F2160 X123.809 Y116.603
G0 X126.433 Y116.6
G1 F900 X126.291 Y117.217 E28.76177
G1 X125.837 Y119.186 E28.84914
G1 X125.541 Y116.965 E28.94602
G1 X125.402 Y116.826 E28.95452
G1 X125.568 Y116.909 E28.955
G1 X126.09 Y117.171 E28.98026
G1 X126.433 Y116.6 E28.98848
G0 F2160 X128.543 Y114.808
G0 X129.451 Y114.589
G0 X130.56 Y115.693
G0 X132.38 Y123.086
G0 X135.161 Y123.552
G0 X136.514 Y123.683
G1 F900 X136.514 Y124.235 E29.01234
G1 X136.514 Y124.26 E29.01343
G1 X136.726 Y124.366 E29.02367
G1 X137.923 Y124.965 E29.08155
G1 X138.824 Y125.777 E29.13399
G1 X138.93 Y126.146 E29.15059
G1 X138.93 Y127.337 E29.20209
G1 X138.391 Y127.823 E29.23347
G1 X137.908 Y127.871 E29.25446
G1 X137.561 Y127.697 E29.27124
G1 X137.061 Y126.862 E29.31332
G1 X136.396 Y124.54 E29.41776
G1 X136.331 Y124.313 E29.42551
G1 X136.308 Y124.235 E29.42788
G1 X136.24 Y124.229 E29.4302
G1 X136.25 Y124.207
G1 X136.282 Y124.144 E29.43111
G1 X136.514 Y123.683 E29.43797
G0 F2160 X138.287 Y113.489
G0 X139.181 Y111.26
G0 X140.77 Y110.475
G0 X141.567 Y111.848
G0 X142.594 Y125.088
G1 F900 X142.622 Y125.116 E29.43968
G1 X142.761 Y125.254 E29.44815
G1 X142.959 Y125.452 E29.46026
G1 X142.815 Y125.666 E29.47141
G1 X142.783 Y125.713 E29.47387
G1 X142.705 Y125.704 E29.47727
G1 X142.676 Y125.665
G1 X142.537 Y125.48 E29.48487
G1 X142.537 Y125.202 E29.49447
G1 X142.594 Y125.088 E29.49616
G0 F2160 X143.668 Y116.246
G0 X146.737 Y118.577
G0 X147.07 Y125.875
G0 X149.322 Y128.782
G1 F900 X150.473 Y129.36 E29.55185
G1 X151.166 Y129.36 E29.58182
G1 X152.141 Y129.36 E29.62398
G1 X152.997 Y129.36 E29.66099
G1 X152.141 Y129.671 E29.67739
G1 X152.747 Y130.58 E29.72463
G1 X152.812 Y130.677 E29.72968
G1 X152.723 Y130.597 E29.72995
G1 X151.166 Y129.625 E29.80931
G1 X150.492 Y129.666 E29.8301
G1 X150.007 Y129.696 E29.85111
G1 X149.92 Y129.702 E29.85488
G1 X150.004 Y129.66 E29.85525
G1 X149.993 Y129.646
G1 X149.322 Y128.782 E29.90255
G0 F2160 X153.401 Y128.387
G0 X154.509 Y126.725
G1 F900 X154.509 Y126.926 E29.91124
G1 X154.509 Y127.205 E29.92331
G1 X154.509 Y127.839 E29.95072
G1 X155.561 Y128.429 E30.00287
