;FLAVOR:Marlin
;TIME:1217
;Filament used: 0.931451m, 0m
;Layer height: 0.2
;MINX:58.645
;MINY:78.783
;MINZ:0.2
;MAXX:176.342
;MAXY:154.642
;MAXZ:1.6
;POSTPROCESSED
;Generated with Cura_SteamEngine 4.8.0
T0
M140 S60
M105
M190 S60
M104 S200
M105
M109 S200
M82 ;absolute extrusion mode
M201 X500.00 Y500.00 Z100.00 E5000.00 	;Setup machine max acceleration
M203 X500.00 Y500.00 Z10.00 E50.00 	;Setup machine max feedrate
M204 P500.00 R1000.00 T500.00 		;Setup Print/Retract/Travel acceleration
M205 X8.00 Y8.00 Z0.40 E5.00 		;Setup Jerk
M220 S100 				;Reset Feedrate
M221 S100 				;Reset Flowrate
G28				;Home the Machine
#G29 				;Bed Level
G92 E0
M300 P150 S587
G92 E0
G1 F1500 E-6.5
;LAYER_COUNT:8
;LAYER:0
M107
G0 F2160 X68.982 Y119.125 Z0.2
;TYPE:SKIRT
G1 F1500 E0
G1 F900 X69.539 Y118.83 E0.02096
G1 X70.702 Y118.339 E0.06295
G1 X71.725 Y117.927 E0.09963
G1 X74.228 Y116.834 E0.19047
G1 X76.69 Y115.675 E0.28098
G1 X79.105 Y114.455 E0.37097
G1 X81.52 Y113.148 E0.4623
G1 X83.882 Y111.779 E0.5531
G1 X86.188 Y110.356 E0.64323
G1 X88.485 Y108.847 E0.73464
G1 X90.723 Y107.283 E0.82545
G1 X92.892 Y105.677 E0.91522
G1 X95.049 Y103.982 E1.00646
G1 X97.148 Y102.235 E1.09729
G1 X99.183 Y100.439 E1.18756
G1 X101.18 Y98.575 E1.27842
G1 X103.108 Y96.672 E1.36852
G1 X105.002 Y94.691 E1.45968
G1 X106.829 Y92.672 E1.55024
G1 X108.617 Y90.577 E1.64185
G1 X110.32 Y88.466 E1.73206
G1 X111.944 Y86.329 E1.82133
G1 X113.582 Y84.043 E1.91487
G1 X115.082 Y81.819 E2.00409
G1 X115.892 Y80.553 E2.05408
G1 X116.011 Y80.375 E2.0612
G1 X116.342 Y79.953 E2.07904
G1 X116.731 Y79.584 E2.09687
G1 X117.171 Y79.278 E2.1147
G1 X117.652 Y79.04 E2.13255
G1 X118.162 Y78.876 E2.15037
G1 X118.692 Y78.79 E2.16823
G1 X119.228 Y78.783 E2.18605
G1 X119.759 Y78.856 E2.20388
G1 X120.274 Y79.007 E2.22173
G1 X120.76 Y79.233 E2.23956
G1 X121.207 Y79.529 E2.25739
G1 X121.606 Y79.888 E2.27524
G1 X122.081 Y80.508 E2.30122
G1 X122.45 Y81.116 E2.32487
G1 X123.937 Y83.485 E2.4179
G1 X125.432 Y85.724 E2.50745
G1 X127.019 Y87.962 E2.5987
G1 X128.658 Y90.14 E2.68936
G1 X130.36 Y92.273 E2.78012
G1 X132.117 Y94.352 E2.87066
G1 X133.936 Y96.385 E2.96139
G1 X135.808 Y98.362 E3.05194
G1 X137.739 Y100.286 E3.14261
G1 X139.738 Y102.171 E3.23399
G1 X141.755 Y103.968 E3.32384
G1 X143.842 Y105.723 E3.41454
G1 X145.972 Y107.415 E3.50501
G1 X148.181 Y109.068 E3.59678
G1 X150.39 Y110.628 E3.68672
G1 X152.651 Y112.128 E3.77697
G1 X154.999 Y113.594 E3.86904
G1 X157.312 Y114.947 E3.95816
G1 X159.729 Y116.273 E4.04985
G1 X162.165 Y117.519 E4.14086
G1 X164.6 Y118.68 E4.23058
G1 X167.101 Y119.785 E4.32152
G1 X169.096 Y120.597 E4.39316
G1 X169.887 Y120.93 E4.42171
G1 X170.408 Y121.18 E4.44093
G1 X170.928 Y121.466 E4.46067
G1 X171.24 Y121.658 E4.47285
G1 X171.719 Y121.989 E4.49222
G1 X171.983 Y122.191 E4.50327
G1 X172.382 Y122.525 E4.52058
G1 X172.946 Y123.075 E4.54678
G1 X173.399 Y123.587 E4.56952
G1 X173.788 Y124.094 E4.59077
G1 X174.12 Y124.59 E4.61063
G1 X174.422 Y125.101 E4.63037
G1 X174.764 Y125.787 E4.65586
G1 X174.85 Y125.983 E4.66298
G1 X175.068 Y126.527 E4.68247
G1 X175.359 Y127.417 E4.71362
G1 X175.506 Y127.994 E4.73342
G1 X175.649 Y128.734 E4.75849
G1 X175.719 Y129.255 E4.77597
G1 X175.772 Y129.805 E4.79435
G1 X175.792 Y130.163 E4.80628
G1 X175.81 Y130.993 E4.83389
G1 X175.91 Y133.769 E4.92628
G1 X176.086 Y136.518 E5.0179
G1 X176.324 Y139.066 E5.10301
G1 X176.342 Y139.998 E5.13402
G1 X176.335 Y140.197 E5.14064
G1 X176.232 Y140.905 E5.16444
G1 X176.129 Y141.318 E5.17859
G1 X175.961 Y141.827 E5.19642
G1 X175.707 Y142.338 E5.2154
G1 X175.47 Y142.748 E5.23115
G1 X175.009 Y143.367 E5.25682
G1 X174.625 Y143.767 E5.27527
G1 X174.218 Y144.116 E5.2931
G1 X173.703 Y144.447 E5.31346
G1 X173.387 Y144.626 E5.32554
G1 X172.743 Y144.912 E5.34898
G1 X172.086 Y145.101 E5.37171
G1 X171.356 Y145.226 E5.39635
G1 X170.991 Y145.254 E5.40852
G1 X169.899 Y145.292 E5.44486
G1 X168.475 Y145.328 E5.49224
G1 X165.75 Y145.473 E5.583
G1 X163.03 Y145.696 E5.67378
G1 X160.343 Y145.994 E5.76369
G1 X157.608 Y146.374 E5.85553
G1 X154.938 Y146.823 E5.94559
G1 X152.266 Y147.35 E6.03617
G1 X148.984 Y148.094 E6.1481
G1 X148.483 Y148.171 E6.16496
G1 X148.079 Y148.204 E6.17844
G1 X146.497 Y148.306 E6.23117
G1 X143.776 Y148.558 E6.32205
G1 X141.068 Y148.886 E6.41278
G1 X138.403 Y149.286 E6.50241
G1 X135.67 Y149.776 E6.59476
G1 X133.057 Y150.32 E6.68353
G1 X131.505 Y150.686 E6.73657
G1 X130.972 Y150.801 E6.7547
G1 X130.339 Y150.911 E6.77607
G1 X129.75 Y150.969 E6.79576
G1 X128.957 Y150.986 E6.82214
G1 X128.171 Y150.925 E6.84836
G1 X127.972 Y150.901 E6.85503
G1 X126.644 Y150.705 E6.89968
G1 X126.276 Y150.646 E6.91207
G1 X123.586 Y150.29 E7.00232
G1 X120.868 Y150.008 E7.09321
G1 X118.145 Y149.803 E7.18403
G1 X115.418 Y149.676 E7.27483
G1 X112.723 Y149.626 E7.36448
G1 X109.955 Y149.654 E7.45655
G1 X107.264 Y149.756 E7.54612
G1 X104.537 Y149.937 E7.63702
G1 X101.821 Y150.195 E7.72776
G1 X99.104 Y150.531 E7.81881
G1 X96.41 Y150.941 E7.90945
G1 X93.719 Y151.429 E8.00041
G1 X91.094 Y151.983 E8.08964
G1 X88.43 Y152.622 E8.18076
G1 X85.796 Y153.336 E8.27153
G1 X84.889 Y153.608 E8.30302
G1 X83.84 Y153.908 E8.33931
G1 X83.294 Y154.05 E8.35808
G1 X83.14 Y154.087 E8.36335
G1 X82.55 Y154.213 E8.38341
G1 X82.425 Y154.237 E8.38764
G1 X81.648 Y154.373 E8.41388
G1 X81.202 Y154.437 E8.42887
G1 X80.444 Y154.524 E8.45424
G1 X79.948 Y154.567 E8.4708
G1 X79.235 Y154.611 E8.49456
G1 X78.57 Y154.634 E8.51669
G1 X77.78 Y154.642 E8.54297
G1 X77.544 Y154.639 E8.55082
G1 X76.6 Y154.617 E8.58223
G1 X75.646 Y154.569 E8.614
G1 X74.749 Y154.498 E8.64392
G1 X74.633 Y154.487 E8.6478
G1 X73.699 Y154.381 E8.67906
G1 X73.578 Y154.365 E8.68312
G1 X72.754 Y154.243 E8.71083
G1 X72.632 Y154.223 E8.71494
G1 X71.742 Y154.06 E8.74503
G1 X71.606 Y154.032 E8.74965
G1 X70.782 Y153.848 E8.77773
G1 X70.652 Y153.817 E8.78218
G1 X69.853 Y153.607 E8.80966
G1 X69.72 Y153.569 E8.81426
G1 X68.856 Y153.306 E8.8443
G1 X68.706 Y153.257 E8.84954
G1 X67.881 Y152.966 E8.87864
G1 X67.744 Y152.914 E8.88351
G1 X66.687 Y152.492 E8.92137
G1 X66.165 Y152.264 E8.94031
G1 X66.023 Y152.197 E8.94554
G1 X65.208 Y151.793 E8.97579
G1 X65.062 Y151.717 E8.98127
G1 X64.326 Y151.309 E9.00925
G1 X64.187 Y151.228 E9.01461
G1 X63.447 Y150.773 E9.0435
G1 X63.248 Y150.644 E9.05139
G1 X62.601 Y150.203 E9.07743
G1 X62.381 Y150.044 E9.08646
G1 X61.648 Y149.49 E9.11702
G1 X61.407 Y149.298 E9.12727
G1 X60.968 Y148.933 E9.14625
G1 X60.66 Y148.645 E9.16028
G1 X60.297 Y148.263 E9.17781
G1 X59.947 Y147.836 E9.19617
G1 X59.618 Y147.318 E9.21658
G1 X59.409 Y146.94 E9.23095
G1 X59.195 Y146.47 E9.24812
G1 X59.021 Y146.003 E9.2647
G1 X58.849 Y145.374 E9.28639
G1 X58.734 Y144.725 E9.30831
G1 X58.652 Y143.982 E9.33317
G1 X58.645 Y143.56 E9.34721
G1 X58.656 Y142.945 E9.36767
G1 X58.703 Y142.359 E9.38722
G1 X58.764 Y141.93 E9.40163
G1 X58.914 Y141.154 E9.42792
G1 X59.087 Y140.477 E9.45116
G1 X59.136 Y140.321 E9.4566
G1 X59.333 Y139.737 E9.4771
G1 X59.583 Y139.131 E9.4989
G1 X59.81 Y138.637 E9.51698
G1 X59.98 Y138.294 E9.52972
G1 X61.198 Y135.772 E9.62287
G1 X62.3 Y133.316 E9.7124
G1 X63.358 Y130.77 E9.8041
G1 X64.316 Y128.258 E9.89352
G1 X65.228 Y125.654 E9.98529
G1 X66.058 Y123.013 E10.07736
G1 X66.304 Y122.3 E10.10245
G1 X66.501 Y121.838 E10.11916
G1 X66.81 Y121.264 E10.14084
G1 X67.06 Y120.886 E10.15591
G1 X67.468 Y120.377 E10.17761
G1 X67.844 Y119.986 E10.19565
G1 X68.401 Y119.513 E10.21995
G1 X68.982 Y119.125 E10.24319
G0 F2160 X69.199 Y119.461
G1 F900 X69.695 Y119.198 E10.26186
G1 X70.852 Y118.71 E10.30363
G1 X71.856 Y118.305 E10.33964
G1 X74.408 Y117.191 E10.43225
G1 X76.861 Y116.036 E10.52243
G1 X79.297 Y114.806 E10.61319
G1 X81.72 Y113.494 E10.70484
G1 X84.097 Y112.117 E10.79621
G1 X86.387 Y110.704 E10.8857
G1 X88.712 Y109.177 E10.97822
G1 X90.944 Y107.617 E11.06879
G1 X93.154 Y105.98 E11.16027
G1 X95.307 Y104.289 E11.25132
G1 X97.402 Y102.544 E11.34201
G1 X99.437 Y100.748 E11.43228
G1 X101.47 Y98.852 E11.52474
G1 X103.378 Y96.968 E11.61393
G1 X105.304 Y94.954 E11.70661
G1 X107.148 Y92.915 E11.79805
G1 X108.9 Y90.864 E11.88777
G1 X110.634 Y88.714 E11.97963
G1 X112.289 Y86.535 E12.07064
G1 X113.872 Y84.326 E12.16103
G1 X115.411 Y82.046 E12.25252
G1 X116.189 Y80.829 E12.30056
G1 X116.344 Y80.598 E12.30982
G1 X116.657 Y80.201 E12.32663
G1 X117.029 Y79.858 E12.34346
G1 X117.45 Y79.579 E12.36026
G1 X117.91 Y79.369 E12.37708
G1 X118.397 Y79.234 E12.39389
G1 X118.9 Y79.178 E12.41072
G1 X119.405 Y79.201 E12.42753
G1 X119.9 Y79.304 E12.44435
G1 X120.372 Y79.483 E12.46114
G1 X120.811 Y79.735 E12.47798
G1 X121.204 Y80.053 E12.49479
G1 X121.543 Y80.428 E12.5116
G1 X121.739 Y80.715 E12.52316
G1 X122.133 Y81.364 E12.54841
G1 X123.583 Y83.673 E12.6391
G1 X125.117 Y85.972 E12.73102
G1 X126.689 Y88.189 E12.82142
G1 X128.345 Y90.389 E12.913
G1 X130.04 Y92.514 E13.00341
G1 X131.814 Y94.613 E13.09482
G1 X133.647 Y96.661 E13.18623
G1 X135.519 Y98.638 E13.27679
G1 X137.465 Y100.577 E13.36816
G1 X139.462 Y102.46 E13.45945
G1 X141.49 Y104.267 E13.54979
G1 X143.599 Y106.041 E13.64145
G1 X145.729 Y107.732 E13.73191
G1 X147.956 Y109.4 E13.82445
G1 X150.168 Y110.961 E13.9145
G1 X152.44 Y112.469 E14.0052
G1 X154.766 Y113.921 E14.0964
G1 X157.125 Y115.301 E14.1873
G1 X159.534 Y116.622 E14.27867
G1 X162.003 Y117.886 E14.37093
G1 X164.431 Y119.043 E14.46039
G1 X166.942 Y120.153 E14.5517
G1 X168.941 Y120.966 E14.62347
G1 X169.732 Y121.299 E14.65202
G1 X170.215 Y121.53 E14.66983
G1 X170.735 Y121.816 E14.68956
G1 X171.012 Y121.987 E14.70039
G1 X171.491 Y122.318 E14.71976
G1 X171.726 Y122.497 E14.72958
G1 X172.125 Y122.831 E14.74689
G1 X172.661 Y123.355 E14.77182
G1 X173.092 Y123.842 E14.79345
G1 X173.469 Y124.335 E14.81409
G1 X173.777 Y124.797 E14.83256
G1 X174.069 Y125.289 E14.85159
G1 X174.402 Y125.957 E14.87641
G1 X174.478 Y126.132 E14.88276
G1 X174.728 Y126.758 E14.90518
G1 X174.975 Y127.532 E14.9322
G1 X175.115 Y128.075 E14.95085
G1 X175.255 Y128.806 E14.97561
G1 X175.322 Y129.304 E14.99232
G1 X175.373 Y129.832 E15.00996
G1 X175.392 Y130.171 E15.02126
G1 X175.41 Y131.008 E15.0491
G1 X175.511 Y133.807 E15.14226
G1 X175.685 Y136.513 E15.23245
G1 X175.925 Y139.097 E15.31876
G1 X175.942 Y139.995 E15.34863
G1 X175.936 Y140.179 E15.35476
G1 X175.844 Y140.808 E15.3759
G1 X175.741 Y141.221 E15.39006
G1 X175.58 Y141.701 E15.4069
G1 X175.354 Y142.15 E15.42361
G1 X175.125 Y142.545 E15.4388
G1 X174.716 Y143.095 E15.4616
G1 X174.342 Y143.484 E15.47955
G1 X173.778 Y143.933 E15.50352
G1 X173.19 Y144.278 E15.5262
G1 X172.617 Y144.532 E15.54704
G1 X172.008 Y144.709 E15.56814
G1 X171.32 Y144.828 E15.59136
G1 X170.977 Y144.854 E15.6028
G1 X169.889 Y144.892 E15.63901
G1 X168.445 Y144.928 E15.68705
G1 X165.729 Y145.073 E15.77752
G1 X163.024 Y145.295 E15.86779
G1 X160.246 Y145.602 E15.96075
G1 X157.593 Y145.972 E16.04984
G1 X154.866 Y146.43 E16.14181
G1 X152.165 Y146.963 E16.23338
G1 X148.895 Y147.704 E16.3449
G1 X148.111 Y147.8 E16.37117
G1 X146.468 Y147.906 E16.42593
G1 X143.763 Y148.157 E16.51628
G1 X141.032 Y148.488 E16.60778
G1 X138.311 Y148.896 E16.69929
G1 X135.624 Y149.378 E16.79009
G1 X132.919 Y149.941 E16.88199
G1 X131.42 Y150.295 E16.93321
G1 X130.896 Y150.409 E16.95105
G1 X130.275 Y150.516 E16.97201
G1 X129.72 Y150.57 E16.99056
G1 X128.981 Y150.587 E17.01514
G1 X128.207 Y150.527 E17.04096
G1 X128.031 Y150.506 E17.04686
G1 X126.707 Y150.31 E17.09137
G1 X126.319 Y150.248 E17.10444
G1 X123.643 Y149.894 E17.19422
G1 X120.903 Y149.609 E17.28585
G1 X118.193 Y149.406 E17.37623
G1 X115.409 Y149.276 E17.46893
G1 X112.726 Y149.226 E17.55818
G1 X109.972 Y149.254 E17.64979
G1 X107.223 Y149.358 E17.74128
G1 X104.506 Y149.539 E17.83185
G1 X101.77 Y149.798 E17.92326
G1 X99.066 Y150.132 E18.01388
G1 X96.343 Y150.547 E18.10549
G1 X93.644 Y151.037 E18.19673
G1 X90.99 Y151.597 E18.28694
G1 X88.338 Y152.233 E18.37765
G1 X85.638 Y152.965 E18.47069
G1 X84.778 Y153.223 E18.50056
G1 X83.739 Y153.521 E18.53651
G1 X83.193 Y153.663 E18.55527
G1 X83.056 Y153.695 E18.55995
G1 X82.355 Y153.843 E18.58378
G1 X81.589 Y153.977 E18.60964
G1 X81.157 Y154.04 E18.62417
G1 X80.408 Y154.125 E18.64924
G1 X79.923 Y154.168 E18.66543
G1 X79.22 Y154.211 E18.68886
G1 X78.565 Y154.234 E18.71066
G1 X77.784 Y154.242 E18.73663
G1 X77.553 Y154.239 E18.74432
G1 X76.519 Y154.214 E18.77872
G1 X75.575 Y154.164 E18.81016
G1 X74.782 Y154.1 E18.83662
G1 X74.678 Y154.09 E18.8401
G1 X73.744 Y153.984 E18.87136
G1 X72.812 Y153.847 E18.90269
G1 X72.705 Y153.83 E18.9063
G1 X71.815 Y153.667 E18.93639
G1 X71.694 Y153.642 E18.9405
G1 X70.87 Y153.458 E18.96858
G1 X70.754 Y153.43 E18.97255
G1 X69.955 Y153.22 E19.00003
G1 X69.836 Y153.186 E19.00414
G1 X68.972 Y152.923 E19.03418
G1 X68.84 Y152.88 E19.0388
G1 X68.015 Y152.589 E19.06789
G1 X67.892 Y152.543 E19.07226
G1 X66.835 Y152.121 E19.11012
G1 X66.327 Y151.898 E19.12857
G1 X66.201 Y151.839 E19.1332
G1 X65.386 Y151.435 E19.16345
G1 X65.256 Y151.367 E19.16833
G1 X64.52 Y150.959 E19.19632
G1 X64.397 Y150.887 E19.20106
G1 X63.663 Y150.436 E19.22971
G1 X63.474 Y150.313 E19.23721
G1 X62.751 Y149.819 E19.26634
G1 X62.622 Y149.724 E19.27167
G1 X61.896 Y149.176 E19.30192
G1 X61.663 Y148.991 E19.31182
G1 X61.224 Y148.626 E19.3308
G1 X60.95 Y148.369 E19.3433
G1 X60.587 Y147.987 E19.36083
G1 X60.267 Y147.596 E19.37763
G1 X59.963 Y147.116 E19.39653
G1 X59.569 Y146.33 E19.42577
G1 X59.395 Y145.863 E19.44235
G1 X59.243 Y145.304 E19.46161
G1 X59.128 Y144.655 E19.48354
G1 X59.052 Y143.971 E19.50643
G1 X59.045 Y143.567 E19.51987
G1 X59.056 Y142.952 E19.54032
G1 X59.101 Y142.4 E19.55874
G1 X59.157 Y142.005 E19.57201
G1 X59.305 Y141.24 E19.59793
G1 X59.472 Y140.588 E19.62031
G1 X59.515 Y140.449 E19.62515
G1 X59.712 Y139.865 E19.64565
G1 X59.949 Y139.29 E19.66634
G1 X60.173 Y138.805 E19.68411
G1 X60.338 Y138.472 E19.69647
G1 X61.568 Y135.925 E19.79054
G1 X62.663 Y133.485 E19.87949
G1 X63.733 Y130.912 E19.97218
G1 X64.696 Y128.384 E20.06215
G1 X65.599 Y125.808 E20.15294
G1 X66.438 Y123.137 E20.24606
G1 X66.672 Y122.457 E20.26998
G1 X66.869 Y121.995 E20.28668
G1 X67.144 Y121.485 E20.30596
G1 X67.394 Y121.107 E20.32103
G1 X67.756 Y120.654 E20.34032
G1 X68.132 Y120.263 E20.35836
G1 X68.627 Y119.843 E20.37995
G1 X69.199 Y119.461 E20.40283
G1 F1500 E13.90283
;MESH:ParabensWithBorder.stl
G0 F2160 X116.955 Y121.143
G0 X118.584 Y121.2
G0 X118.575 Y124.146
G0 X121.512 Y125.605
G0 X134.885 Y130.035
G0 X135.806 Y130.225
G0 X146.087 Y125.756
G0 X154.892 Y132.636
G0 X166.278 Y125.18
;TYPE:WALL-INNER
G1 F1500 E20.40283
G1 F900 X166.969 Y125.233 E20.42588
G1 X167.024 Y125.248 E20.42777
G1 X167.143 Y125.281 E20.43188
G1 X167.805 Y125.468 E20.45476
G1 X168.172 Y125.637 E20.4682
G1 X168.87 Y126.086 E20.4958
G1 X169.438 Y126.63 E20.52196
G1 X169.778 Y127.065 E20.54032
G1 X170.043 Y127.494 E20.5571
G1 X170.279 Y127.975 E20.57492
G1 X170.47 Y128.481 E20.5929
G1 X170.614 Y128.99 E20.6105
G1 X170.729 Y129.577 E20.63039
G1 X170.793 Y130.153 E20.64967
G1 X170.814 Y130.721 E20.66857
G1 X170.794 Y131.381 E20.69054
G1 X170.744 Y132.023 E20.71195
G1 X170.681 Y132.616 E20.73179
G1 X170.608 Y133.203 E20.75146
G1 X170.454 Y134.335 E20.78946
G1 X170.389 Y134.901 E20.80841
G1 X170.34 Y135.474 E20.82754
G1 X170.325 Y136.162 E20.85042
G1 X170.377 Y137.042 E20.87974
G1 X170.533 Y137.829 E20.90643
G1 X170.817 Y138.608 E20.93401
G1 X171.175 Y139.23 E20.95788
G1 X171.353 Y139.676 E20.97385
G1 X171.326 Y139.941 E20.98271
G1 X171.211 Y140.118 E20.98973
G1 X171.061 Y140.207 E20.99553
G1 X170.758 Y140.267 E21.0058
G1 X167.809 Y140.267 E21.10389
G1 X167.558 Y140.214 E21.11242
G1 X167.427 Y140.12 E21.11778
G1 X167.108 Y139.758 E21.13383
G1 X166.779 Y139.266 E21.15352
G1 X166.534 Y138.839 E21.16989
