;FLAVOR:Marlin
;TIME:960
;Filament used: 0.627393m, 0m
;Layer height: 0.15
;MINX:29.256
;MINY:88.446
;MINZ:0.2
;MAXX:205.744
;MAXY:184.581
;MAXZ:0.95
;Generated with Cura_SteamEngine 4.8.0
T0
M140 S60
M105
M190 S60
M104 S200
M105
M109 S200
M82 ;absolute extrusion mode
M201 X500.00 Y500.00 Z100.00 E5000.00 	;Setup machine max acceleration
M203 X500.00 Y500.00 Z10.00 E50.00 	;Setup machine max feedrate
M204 P500.00 R1000.00 T500.00 		;Setup Print/Retract/Travel acceleration
M205 X8.00 Y8.00 Z0.40 E5.00 		;Setup Jerk
M220 S100 				;Reset Feedrate
M221 S100 				;Reset Flowrate
G28				;Home the Machine
#G29 				;Bed Level
G92 E0
M300 P150 S587
G92 E0
G1 F1500 E-5.5
;LAYER_COUNT:6
;LAYER:0
M107
G0 F2618.2 X109.919 Y89.681 Z0.2
;TYPE:SKIRT
G1 F1500 E0
G1 F1200 X110.292 Y89.304 E0.01543
G1 X110.718 Y88.988 E0.03087
G1 X111.187 Y88.739 E0.04632
G1 X111.688 Y88.563 E0.06178
G1 X112.209 Y88.465 E0.07721
G1 X112.739 Y88.446 E0.09264
G1 X113.267 Y88.506 E0.10811
G1 X113.779 Y88.646 E0.12355
G1 X114.264 Y88.86 E0.13898
G1 X114.712 Y89.145 E0.15443
G1 X115.112 Y89.494 E0.16988
G1 X115.455 Y89.899 E0.18533
G1 X115.701 Y90.29 E0.19877
G1 X116.009 Y90.859 E0.2176
G1 X116.737 Y92.253 E0.26337
G1 X118.079 Y94.655 E0.34344
G1 X119.469 Y96.985 E0.4224
G1 X120.927 Y99.28 E0.50153
G1 X122.453 Y101.537 E0.58082
G1 X124.032 Y103.737 E0.65963
G1 X125.713 Y105.942 E0.74032
G1 X127.414 Y108.05 E0.81915
G1 X129.183 Y110.12 E0.8984
G1 X131.02 Y112.149 E0.97805
G1 X132.909 Y114.119 E1.05748
G1 X134.853 Y116.037 E1.13696
G1 X136.846 Y117.894 E1.21624
G1 X138.895 Y119.698 E1.29569
G1 X140.997 Y121.445 E1.37523
G1 X143.14 Y123.126 E1.4545
G1 X145.321 Y124.74 E1.53346
G1 X147.585 Y126.318 E1.61377
G1 X149.855 Y127.807 E1.69278
G1 X152.186 Y129.243 E1.77246
G1 X154.528 Y130.596 E1.85117
G1 X156.953 Y131.905 E1.93137
G1 X159.36 Y133.12 E2.00984
G1 X161.865 Y134.297 E2.09039
G1 X164.351 Y135.379 E2.16929
G1 X166.877 Y136.395 E2.24853
G1 X169.449 Y137.346 E2.32833
G1 X172.022 Y138.216 E2.40738
G1 X174.622 Y139.013 E2.48652
G1 X177.258 Y139.741 E2.56611
G1 X179.946 Y140.403 E2.64667
G1 X182.589 Y140.972 E2.72535
G1 X185.257 Y141.469 E2.80434
G1 X187.959 Y141.894 E2.88394
G1 X190.645 Y142.24 E2.96275
G1 X193.394 Y142.515 E3.04316
G1 X196.083 Y142.707 E3.12161
G1 X199.785 Y142.84 E3.22942
G1 X200.584 Y142.905 E3.25275
G1 X201.174 Y143.023 E3.27026
G1 X201.682 Y143.175 E3.28569
G1 X202.152 Y143.397 E3.30082
G1 X202.6 Y143.659 E3.31592
G1 X203.032 Y143.967 E3.33136
G1 X203.454 Y144.385 E3.34865
G1 X203.776 Y144.762 E3.36308
G1 X204.151 Y145.293 E3.382
G1 X204.437 Y145.79 E3.39869
G1 X204.687 Y146.323 E3.41582
G1 X204.93 Y147.006 E3.43692
G1 X205.076 Y147.609 E3.45497
G1 X205.17 Y148.281 E3.47472
G1 X205.201 Y148.927 E3.49354
G1 X205.184 Y149.387 E3.50694
G1 X204.952 Y151.929 E3.58122
G1 X204.779 Y154.661 E3.66089
G1 X204.684 Y157.396 E3.74054
G1 X204.666 Y160.13 E3.8201
G1 X204.725 Y162.83 E3.8987
G1 X204.863 Y165.592 E3.97918
G1 X205.076 Y168.29 E4.05794
G1 X205.365 Y170.994 E4.13709
G1 X205.513 Y172.094 E4.16939
G1 X205.519 Y172.187 E4.1721
G1 X205.689 Y173.482 E4.21011
G1 X205.737 Y174.103 E4.22824
G1 X205.744 Y174.896 E4.25132
G1 X205.698 Y175.616 E4.27231
G1 X205.63 Y176.183 E4.28893
G1 X205.469 Y176.948 E4.31168
G1 X205.414 Y177.154 E4.31789
G1 X205.177 Y177.948 E4.342
G1 X204.836 Y178.791 E4.36847
G1 X204.514 Y179.417 E4.38896
G1 X204.134 Y180.009 E4.40943
G1 X203.643 Y180.647 E4.43286
G1 X203.2 Y181.135 E4.45204
G1 X202.82 Y181.489 E4.46715
G1 X202.268 Y181.941 E4.48792
G1 X201.665 Y182.346 E4.50906
G1 X201.201 Y182.6 E4.52445
G1 X200.531 Y182.904 E4.54586
G1 X200.027 Y183.088 E4.56148
G1 X199.279 Y183.291 E4.58403
G1 X198.771 Y183.383 E4.59906
G1 X198.003 Y183.446 E4.62148
G1 X197.249 Y183.432 E4.64343
G1 X194.466 Y183.333 E4.72447
G1 X191.732 Y183.311 E4.80404
G1 X189.025 Y183.368 E4.88284
G1 X187.391 Y183.438 E4.93044
G1 X185.535 Y183.533 E4.98452
G1 X185.302 Y183.538 E4.99131
G1 X184.696 Y183.529 E5.00895
G1 X184.152 Y183.497 E5.0248
G1 X183.458 Y183.406 E5.04517
G1 X182.961 Y183.312 E5.0599
G1 X182.455 Y183.195 E5.07501
G1 X181.979 Y183.055 E5.08945
G1 X181.233 Y182.8 E5.11239
G1 X179.774 Y182.247 E5.1578
G1 X179.581 Y182.17 E5.16385
G1 X176.993 Y181.229 E5.24399
G1 X174.423 Y180.375 E5.32281
G1 X171.841 Y179.598 E5.40128
G1 X169.152 Y178.87 E5.48235
G1 X166.524 Y178.238 E5.56101
G1 X163.854 Y177.676 E5.64042
G1 X161.168 Y177.19 E5.71986
G1 X158.487 Y176.783 E5.79878
G1 X155.742 Y176.444 E5.87927
G1 X153.047 Y176.189 E5.95805
G1 X150.32 Y176.008 E6.03759
G1 X147.623 Y175.906 E6.11614
G1 X144.852 Y175.879 E6.19678
G1 X142.154 Y175.93 E6.27532
G1 X139.42 Y176.059 E6.35497
G1 X136.692 Y176.265 E6.43459
G1 X133.977 Y176.546 E6.51402
G1 X131.292 Y176.903 E6.59285
G1 X128.593 Y177.339 E6.67242
G1 X125.907 Y177.851 E6.752
G1 X123.223 Y178.442 E6.83198
G1 X120.605 Y179.095 E6.9105
G1 X117.976 Y179.832 E6.98996
G1 X115.36 Y180.646 E7.0697
G1 X112.767 Y181.533 E7.14945
G1 X110.222 Y182.486 E7.22854
G1 X106.908 Y183.848 E7.33282
G1 X106.436 Y184.018 E7.34742
G1 X105.928 Y184.175 E7.36289
G1 X105.219 Y184.349 E7.38414
G1 X104.371 Y184.494 E7.40917
G1 X103.826 Y184.551 E7.42512
G1 X103.294 Y184.581 E7.44063
G1 X102.54 Y184.567 E7.46258
G1 X101.915 Y184.504 E7.48086
G1 X101.355 Y184.421 E7.49733
G1 X100.666 Y184.285 E7.51777
G1 X100.135 Y184.145 E7.53375
G1 X99.69 Y184 E7.54737
G1 X99.211 Y183.812 E7.56235
G1 X99.012 Y183.727 E7.56865
G1 X98.448 Y183.463 E7.58677
G1 X97.899 Y183.164 E7.60496
G1 X95.517 Y181.83 E7.68442
G1 X93.119 Y180.576 E7.76317
G1 X90.645 Y179.367 E7.84331
G1 X88.171 Y178.247 E7.92234
G1 X85.646 Y177.187 E8.00204
G1 X83.077 Y176.192 E8.08221
G1 X80.553 Y175.299 E8.16013
G1 X77.94 Y174.455 E8.24004
G1 X75.29 Y173.681 E8.32039
G1 X72.688 Y173 E8.39866
G1 X70.018 Y172.381 E8.47843
G1 X67.314 Y171.834 E8.55872
G1 X64.659 Y171.377 E8.63712
G1 X61.962 Y170.989 E8.71642
G1 X59.243 Y170.677 E8.79607
G1 X56.522 Y170.442 E8.87555
G1 X53.79 Y170.283 E8.95519
G1 X51.091 Y170.203 E9.03378
G1 X48.333 Y170.199 E9.11404
G1 X47.638 Y170.209 E9.13427
G1 X46.987 Y170.2 E9.15322
G1 X46.399 Y170.163 E9.17036
G1 X45.733 Y170.081 E9.18989
G1 X45.048 Y169.948 E9.2102
G1 X44.405 Y169.785 E9.2295
G1 X43.571 Y169.485 E9.2553
G1 X42.986 Y169.216 E9.27404
G1 X42.321 Y168.835 E9.29634
G1 X41.674 Y168.376 E9.31943
G1 X41.195 Y167.974 E9.33763
G1 X40.698 Y167.503 E9.35755
G1 X38.692 Y165.588 E9.43827
G1 X36.65 Y163.744 E9.51834
G1 X34.588 Y161.987 E9.59718
G1 X32.471 Y160.283 E9.67627
G1 X31.516 Y159.558 E9.71116
G1 X30.929 Y159.099 E9.73285
G1 X30.536 Y158.741 E9.74832
G1 X30.093 Y158.203 E9.7686
G1 X29.795 Y157.764 E9.78404
G1 X29.566 Y157.285 E9.79949
G1 X29.403 Y156.753 E9.81569
G1 X29.332 Y156.443 E9.82494
G1 X29.256 Y155.918 E9.84038
G1 X29.282 Y155.174 E9.86205
G1 X29.375 Y154.675 E9.87682
G1 X29.521 Y154.165 E9.89226
G1 X29.711 Y153.741 E9.90578
G1 X30.104 Y152.999 E9.93021
G1 X30.382 Y152.518 E9.94638
G1 X30.674 Y152.059 E9.96221
G1 X31.228 Y151.287 E9.98987
G1 X31.547 Y150.891 E10.00467
G1 X32.506 Y149.798 E10.04698
G1 X33.208 Y149.019 E10.0775
G1 X34.981 Y146.937 E10.15709
G1 X36.688 Y144.815 E10.23635
G1 X38.351 Y142.621 E10.31647
G1 X40 Y140.313 E10.39902
G1 X40.406 Y139.728 E10.41974
G1 X40.759 Y139.265 E10.43668
G1 X40.842 Y139.166 E10.44044
G1 X41.416 Y138.5 E10.46603
G1 X41.587 Y138.315 E10.47336
G1 X42.146 Y137.753 E10.49643
G1 X42.323 Y137.587 E10.50349
G1 X43.036 Y136.965 E10.53103
G1 X43.437 Y136.649 E10.54589
G1 X43.919 Y136.305 E10.56312
G1 X44.433 Y135.963 E10.58109
G1 X44.722 Y135.783 E10.591
G1 X45.374 Y135.408 E10.61289
G1 X46.002 Y135.083 E10.63347
G1 X46.595 Y134.817 E10.65238
G1 X47.181 Y134.585 E10.67072
G1 X47.837 Y134.363 E10.69088
G1 X48.283 Y134.243 E10.70432
G1 X49.093 Y134.053 E10.72853
G1 X51.756 Y133.388 E10.80841
G1 X54.43 Y132.641 E10.88921
G1 X56.995 Y131.844 E10.96738
G1 X59.576 Y130.961 E11.04677
G1 X62.135 Y130.005 E11.12627
G1 X64.674 Y128.973 E11.20603
G1 X67.181 Y127.871 E11.28573
G1 X69.641 Y126.704 E11.36497
G1 X72.055 Y125.475 E11.4438
G1 X74.461 Y124.163 E11.52356
G1 X76.825 Y122.786 E11.60318
G1 X79.132 Y121.353 E11.68222
G1 X81.408 Y119.85 E11.76159
G1 X83.66 Y118.266 E11.84172
G1 X85.814 Y116.662 E11.91988
G1 X87.977 Y114.952 E12.00012
G1 X90.078 Y113.192 E12.07989
G1 X92.112 Y111.387 E12.15903
G1 X94.088 Y109.533 E12.23789
G1 X96.033 Y107.603 E12.31763
G1 X97.907 Y105.633 E12.39676
G1 X99.746 Y103.587 E12.47682
G1 X101.5 Y101.521 E12.55569
G1 X103.216 Y99.38 E12.63554
G1 X104.839 Y97.233 E12.71387
G1 X106.451 Y94.97 E12.79473
G1 X107.955 Y92.728 E12.8733
G1 X109.168 Y90.815 E12.93922
G1 X109.606 Y90.11 E12.96338
G1 X109.919 Y89.681 E12.97883
G0 F2618.2 X110.202 Y89.889
G1 F1200 X110.561 Y89.535 E12.9935
G1 X110.971 Y89.243 E13.00815
G1 X111.422 Y89.02 E13.0228
G1 X111.903 Y88.871 E13.03745
G1 X112.402 Y88.799 E13.05212
G1 X112.905 Y88.808 E13.06676
G1 X113.401 Y88.895 E13.08142
G1 X113.877 Y89.061 E13.09609
G1 X114.32 Y89.299 E13.11073
G1 X114.721 Y89.604 E13.12539
G1 X115.068 Y89.969 E13.14004
G1 X115.393 Y90.457 E13.15711
G1 X115.698 Y91.021 E13.17577
G1 X116.426 Y92.416 E13.22156
G1 X117.769 Y94.82 E13.3017
G1 X119.163 Y97.156 E13.38087
G1 X120.639 Y99.478 E13.46094
G1 X122.159 Y101.727 E13.53994
G1 X123.766 Y103.966 E13.62015
G1 X125.424 Y106.142 E13.69976
G1 X127.142 Y108.27 E13.77936
G1 X128.921 Y110.352 E13.85906
G1 X130.774 Y112.397 E13.93937
G1 X132.657 Y114.363 E14.0186
G1 X134.616 Y116.295 E14.09867
G1 X136.604 Y118.147 E14.17774
G1 X138.671 Y119.966 E14.25787
G1 X140.767 Y121.709 E14.33721
G1 X142.925 Y123.403 E14.41705
G1 X145.14 Y125.041 E14.49722
G1 X147.362 Y126.589 E14.57603
G1 X149.69 Y128.117 E14.65707
G1 X151.996 Y129.538 E14.7359
G1 X154.371 Y130.909 E14.81571
G1 X156.785 Y132.213 E14.89556
G1 X159.21 Y133.437 E14.97462
G1 X161.714 Y134.613 E15.05512
G1 X164.192 Y135.691 E15.13377
G1 X166.767 Y136.727 E15.21455
G1 X169.315 Y137.669 E15.29361
G1 X171.908 Y138.547 E15.37328
G1 X174.57 Y139.362 E15.4543
G1 X177.158 Y140.077 E15.53244
G1 X179.857 Y140.742 E15.61333
G1 X182.519 Y141.315 E15.69258
G1 X185.207 Y141.816 E15.77215
G1 X187.899 Y142.24 E15.85146
G1 X190.635 Y142.591 E15.93174
G1 X193.334 Y142.861 E16.01068
G1 X196.073 Y143.057 E16.0906
G1 X199.768 Y143.19 E16.1982
G1 X200.524 Y143.25 E16.22027
G1 X201.099 Y143.365 E16.23734
G1 X201.581 Y143.511 E16.25199
G1 X202.15 Y143.797 E16.27053
G1 X202.418 Y143.958 E16.27963
G1 X202.827 Y144.252 E16.29429
G1 X203.188 Y144.612 E16.30912
G1 X203.51 Y144.989 E16.32355
G1 X203.848 Y145.467 E16.34059
G1 X204.134 Y145.964 E16.35728
G1 X204.359 Y146.444 E16.37271
G1 X204.598 Y147.117 E16.39349
G1 X204.73 Y147.663 E16.40984
G1 X204.823 Y148.325 E16.42929
G1 X204.851 Y148.931 E16.44695
G1 X204.836 Y149.355 E16.4593
G1 X204.602 Y151.91 E16.53396
G1 X204.429 Y154.662 E16.61421
G1 X204.334 Y157.381 E16.69339
G1 X204.316 Y160.135 E16.77354
G1 X204.376 Y162.856 E16.85275
G1 X204.513 Y165.603 E16.93279
G1 X204.727 Y168.317 E17.01202
G1 X205.021 Y171.066 E17.09248
G1 X205.166 Y172.14 E17.12402
G1 X205.171 Y172.227 E17.12656
G1 X205.342 Y173.528 E17.16475
G1 X205.387 Y174.113 E17.18182
G1 X205.395 Y174.875 E17.204
G1 X205.357 Y175.487 E17.22184
G1 X205.286 Y176.119 E17.24035
G1 X205.128 Y176.868 E17.26263
G1 X205.078 Y177.054 E17.26823
G1 X204.841 Y177.848 E17.29235
G1 X204.515 Y178.65 E17.31754
G1 X204.217 Y179.233 E17.3366
G1 X203.842 Y179.816 E17.35677
G1 X203.369 Y180.429 E17.37931
G1 X202.961 Y180.879 E17.39698
G1 X202.504 Y181.303 E17.41513
G1 X202.07 Y181.652 E17.43133
G1 X201.474 Y182.052 E17.45222
G1 X201.056 Y182.282 E17.46611
G1 X200.394 Y182.582 E17.48726
G1 X199.593 Y182.847 E17.51181
G1 X198.734 Y183.035 E17.53741
G1 X197.98 Y183.097 E17.55942
G1 X197.233 Y183.081 E17.58117
G1 X194.482 Y182.983 E17.66128
G1 X191.726 Y182.961 E17.74149
G1 X189.004 Y183.018 E17.82072
G1 X187.403 Y183.087 E17.86736
G1 X185.517 Y183.184 E17.92232
G1 X185.307 Y183.188 E17.92843
G1 X184.701 Y183.179 E17.94607
G1 X184.189 Y183.149 E17.961
G1 X183.523 Y183.062 E17.98054
G1 X183.026 Y182.968 E17.99526
G1 X182.536 Y182.854 E18.00991
G1 X182.092 Y182.723 E18.02338
G1 X181.245 Y182.432 E18.04944
G1 X179.948 Y181.939 E18.08982
G1 X179.718 Y181.847 E18.09703
G1 X177.124 Y180.904 E18.17736
G1 X174.524 Y180.04 E18.25709
G1 X171.924 Y179.257 E18.33612
G1 X169.258 Y178.536 E18.41649
G1 X166.609 Y177.899 E18.49578
G1 X163.886 Y177.325 E18.57677
G1 X161.242 Y176.847 E18.65496
G1 X158.517 Y176.433 E18.73518
G1 X155.814 Y176.1 E18.81444
G1 X153.068 Y175.839 E18.89471
G1 X150.356 Y175.66 E18.97381
G1 X147.603 Y175.556 E19.05399
G1 X144.849 Y175.529 E19.13414
G1 X142.13 Y175.58 E19.21329
G1 X139.414 Y175.708 E19.29242
G1 X136.665 Y175.916 E19.37265
G1 X133.93 Y176.2 E19.45267
G1 X131.225 Y176.558 E19.53208
G1 X128.547 Y176.991 E19.61103
G1 X125.836 Y177.508 E19.69135
G1 X123.131 Y178.104 E19.77196
G1 X120.535 Y178.751 E19.84982
G1 X117.879 Y179.496 E19.9301
G1 X115.242 Y180.316 E20.01047
G1 X112.642 Y181.206 E20.09045
G1 X110.123 Y182.149 E20.16872
G1 X106.775 Y183.525 E20.27407
G1 X105.92 Y183.812 E20.30031
G1 X105.141 Y184.007 E20.32369
G1 X104.32 Y184.147 E20.34792
G1 X103.803 Y184.202 E20.36305
G1 X103.291 Y184.231 E20.37798
G1 X102.553 Y184.217 E20.39946
G1 X101.957 Y184.157 E20.41689
G1 X101.408 Y184.075 E20.43305
G1 X100.754 Y183.946 E20.45245
G1 X100.233 Y183.809 E20.46813
G1 X99.818 Y183.675 E20.48082
G1 X99.339 Y183.487 E20.49579
G1 X99.16 Y183.41 E20.50146
G1 X98.7 Y183.196 E20.51623
G1 X98.084 Y182.867 E20.53655
G1 X95.68 Y181.52 E20.61675
G1 X93.264 Y180.256 E20.6961
G1 X90.8 Y179.054 E20.77589
G1 X88.309 Y177.925 E20.85548
G1 X85.791 Y176.868 E20.93496
G1 X83.183 Y175.858 E21.01635
G1 X80.634 Y174.956 E21.09504
G1 X78.069 Y174.128 E21.17348
G1 X75.418 Y173.353 E21.25386
G1 X72.746 Y172.654 E21.33424
G1 X70.097 Y172.04 E21.41338
G1 X67.381 Y171.49 E21.49402
G1 X64.728 Y171.034 E21.57237
G1 X61.983 Y170.639 E21.65307
G1 X59.278 Y170.328 E21.73232
G1 X56.573 Y170.095 E21.81133
G1 X53.82 Y169.935 E21.89158
G1 X51.067 Y169.853 E21.97174
G1 X48.325 Y169.849 E22.05154
G1 X47.635 Y169.859 E22.07162
G1 X46.992 Y169.85 E22.09034
G1 X46.424 Y169.814 E22.1069
G1 X45.8 Y169.738 E22.12519
G1 X45.115 Y169.605 E22.1455
G1 X44.515 Y169.453 E22.16352
G1 X43.695 Y169.158 E22.18888
G1 X43.151 Y168.908 E22.2063
G1 X42.52 Y168.547 E22.22746
G1 X41.881 Y168.093 E22.25027
G1 X41.425 Y167.71 E22.2676
G1 X40.924 Y167.235 E22.28769
G1 X38.921 Y165.322 E22.3683
G1 X36.881 Y163.481 E22.44827
G1 X34.824 Y161.728 E22.52692
G1 X32.691 Y160.011 E22.60661
G1 X31.731 Y159.282 E22.64169
G1 X31.144 Y158.823 E22.66338
G1 X30.615 Y158.298 E22.68507
G1 X30.367 Y157.986 E22.69667
G1 X30.085 Y157.568 E22.71134
G1 X29.874 Y157.111 E22.72599
G1 X29.719 Y156.568 E22.74243
G1 X29.674 Y156.367 E22.74842
G1 X29.603 Y155.868 E22.76309
G1 X29.629 Y155.224 E22.78185
G1 X29.717 Y154.746 E22.79599
G1 X29.858 Y154.262 E22.81066
G1 X30.02 Y153.905 E22.82207
G1 X30.464 Y153.07 E22.84959
G1 X30.677 Y152.706 E22.86187
G1 X31.025 Y152.162 E22.88066
G1 X31.508 Y151.497 E22.90458
G1 X31.81 Y151.122 E22.91859
G1 X32.766 Y150.032 E22.96079
G1 X33.487 Y149.232 E22.99213
G1 X35.24 Y147.173 E23.07083
G1 X36.973 Y145.019 E23.15129
G1 X38.606 Y142.866 E23.22993
G1 X40.285 Y140.516 E23.31398
G1 X40.688 Y139.935 E23.33456
G1 X41.033 Y139.484 E23.35108
G1 X41.107 Y139.394 E23.35448
G1 X41.681 Y138.728 E23.38006
G1 X41.835 Y138.562 E23.38665
G1 X42.394 Y138 E23.40972
G1 X42.554 Y137.85 E23.4161
G1 X43.172 Y137.309 E23.44001
G1 X43.651 Y136.926 E23.45786
G1 X44.121 Y136.591 E23.47465
G1 X44.626 Y136.255 E23.49231
G1 X44.896 Y136.087 E23.50156
G1 X45.548 Y135.712 E23.52345
G1 X46.158 Y135.396 E23.54344
G1 X46.736 Y135.137 E23.56188
G1 X47.297 Y134.915 E23.57943
G1 X47.93 Y134.7 E23.59889
G1 X48.363 Y134.584 E23.61194
G1 X49.189 Y134.391 E23.63662
G1 X51.835 Y133.73 E23.71599
G1 X54.508 Y132.982 E23.79677
G1 X57.111 Y132.174 E23.87609
G1 X59.701 Y131.288 E23.95576
G1 X62.29 Y130.32 E24.0362
G1 X64.805 Y129.298 E24.1152
G1 X67.3 Y128.201 E24.19452
G1 X69.794 Y127.019 E24.27485
G1 X72.211 Y125.788 E24.35378
