;FLAVOR:Marlin
;TIME:1245
;Filament used: 0.852754m, 0m
;Layer height: 0.2
;MINX:29.677
;MINY:74.024
;MINZ:0.2
;MAXX:205.75
;MAXY:186.034
;MAXZ:1
;Generated with Cura_SteamEngine 4.8.0
T0
M140 S60
M105
M190 S60
M104 S200
M105
M109 S200
M82 ;absolute extrusion mode
M201 X500.00 Y500.00 Z100.00 E5000.00 	;Setup machine max acceleration
M203 X500.00 Y500.00 Z10.00 E50.00 	;Setup machine max feedrate
M204 P500.00 R1000.00 T500.00 		;Setup Print/Retract/Travel acceleration
M205 X8.00 Y8.00 Z0.40 E5.00 		;Setup Jerk
M220 S100 				;Reset Feedrate
M221 S100 				;Reset Flowrate
G28				;Home the Machine
#G29 				;Bed Level
G92 E0
M300 P150 S587
G92 E0
G1 F1500 E-5.5
;LAYER_COUNT:5
;LAYER:0
M107
G0 F2618.2 X43.329 Y89.272 Z0.2
;TYPE:SKIRT
G1 F1500 E0
G1 F1200 X43.676 Y89.104 E0.01282
G1 X44.153 Y88.916 E0.02988
G1 X44.959 Y88.674 E0.05787
G1 X45.58 Y88.545 E0.07896
G1 X46.145 Y88.46 E0.09796
G1 X46.796 Y88.405 E0.11969
G1 X47.339 Y88.389 E0.13776
G1 X48.359 Y88.403 E0.17169
G1 X51.07 Y88.403 E0.26186
G1 X53.834 Y88.324 E0.35383
G1 X56.529 Y88.17 E0.44361
G1 X59.247 Y87.939 E0.53434
G1 X61.961 Y87.63 E0.62519
G1 X64.658 Y87.245 E0.7158
G1 X67.329 Y86.786 E0.80594
G1 X70.025 Y86.245 E0.8974
G1 X72.653 Y85.641 E0.98708
G1 X75.314 Y84.947 E1.07855
G1 X77.953 Y84.179 E1.16996
G1 X80.538 Y83.348 E1.26027
G1 X83.084 Y82.448 E1.35009
G1 X85.65 Y81.459 E1.44156
G1 X88.147 Y80.414 E1.53159
G1 X90.654 Y79.281 E1.62309
G1 X93.098 Y78.092 E1.71349
G1 X95.491 Y76.844 E1.80325
G1 X98.222 Y75.308 E1.90746
G1 X98.678 Y75.068 E1.9246
G1 X98.883 Y74.971 E1.93215
G1 X99.54 Y74.684 E1.95599
G1 X99.967 Y74.529 E1.9711
G1 X100.577 Y74.35 E1.99225
G1 X101.197 Y74.21 E2.01339
G1 X101.815 Y74.109 E2.03421
G1 X102.523 Y74.034 E2.05789
G1 X103.152 Y74.024 E2.07882
G1 X103.884 Y74.058 E2.10319
G1 X104.574 Y74.139 E2.1263
G1 X105.092 Y74.232 E2.1438
G1 X105.685 Y74.373 E2.16407
G1 X106.45 Y74.609 E2.1907
G1 X106.899 Y74.775 E2.20662
G1 X108.084 Y75.272 E2.24936
G1 X110.618 Y76.291 E2.3402
G1 X113.194 Y77.242 E2.43153
G1 X115.766 Y78.111 E2.52183
G1 X118.394 Y78.916 E2.61325
G1 X120.982 Y79.63 E2.70254
G1 X123.693 Y80.298 E2.7954
G1 X126.312 Y80.861 E2.8845
G1 X129.003 Y81.363 E2.97555
G1 X131.666 Y81.781 E3.06521
G1 X134.421 Y82.136 E3.15759
G1 X137.089 Y82.401 E3.24677
G1 X139.826 Y82.597 E3.33804
G1 X142.549 Y82.714 E3.42869
G1 X145.28 Y82.753 E3.51953
G1 X148.013 Y82.716 E3.61044
G1 X150.737 Y82.602 E3.70112
G1 X153.429 Y82.412 E3.79088
G1 X156.181 Y82.14 E3.88285
G1 X158.856 Y81.799 E3.97254
G1 X161.55 Y81.377 E4.06324
G1 X164.256 Y80.876 E4.15477
G1 X166.869 Y80.315 E4.24366
G1 X169.591 Y79.648 E4.33687
G1 X172.161 Y78.942 E4.42552
G1 X174.788 Y78.139 E4.51688
G1 X177.392 Y77.263 E4.60826
G1 X179.917 Y76.332 E4.69777
G1 X180.109 Y76.256 E4.70464
G1 X181.428 Y75.751 E4.75161
G1 X181.646 Y75.675 E4.75929
G1 X182.511 Y75.406 E4.78942
G1 X183.045 Y75.273 E4.80773
G1 X183.578 Y75.178 E4.82573
G1 X184.092 Y75.111 E4.84297
G1 X184.772 Y75.063 E4.86565
G1 X184.985 Y75.059 E4.87273
G1 X185.762 Y75.07 E4.89858
G1 X185.887 Y75.074 E4.90274
G1 X186.906 Y75.125 E4.93667
G1 X187.382 Y75.156 E4.95254
G1 X190.086 Y75.257 E5.04254
G1 X192.85 Y75.282 E5.13447
G1 X195.536 Y75.229 E5.22382
G1 X196.322 Y75.196 E5.24999
G1 X197.743 Y75.142 E5.29729
G1 X198.347 Y75.169 E5.3174
G1 X198.753 Y75.227 E5.33104
G1 X199.299 Y75.325 E5.34949
G1 X199.805 Y75.452 E5.36684
G1 X200.288 Y75.618 E5.38383
G1 X200.819 Y75.853 E5.40314
G1 X201.52 Y76.233 E5.42966
G1 X202.017 Y76.567 E5.44958
G1 X202.352 Y76.839 E5.46393
G1 X202.734 Y77.174 E5.48083
G1 X203.113 Y77.558 E5.49877
G1 X203.352 Y77.843 E5.51114
G1 X203.683 Y78.263 E5.52893
G1 X203.974 Y78.692 E5.54617
G1 X204.237 Y79.15 E5.56374
G1 X204.408 Y79.468 E5.57575
G1 X204.615 Y79.929 E5.59255
G1 X204.896 Y80.728 E5.62072
G1 X205.076 Y81.402 E5.64393
G1 X205.226 Y82.159 E5.66959
G1 X205.308 Y83.002 E5.69776
G1 X205.32 Y83.329 E5.70865
G1 X205.314 Y83.907 E5.72787
G1 X205.276 Y84.559 E5.7496
G1 X204.841 Y88.005 E5.86512
G1 X204.575 Y90.731 E5.95622
G1 X204.389 Y93.417 E6.04577
G1 X204.279 Y96.144 E6.13654
G1 X204.245 Y98.716 E6.2221
G1 X204.283 Y101.45 E6.31304
G1 X204.399 Y104.171 E6.40362
G1 X204.604 Y107.035 E6.49912
G1 X204.746 Y108.671 E6.55374
G1 X204.772 Y109.266 E6.57355
G1 X204.754 Y109.787 E6.59089
G1 X204.691 Y110.34 E6.6094
G1 X204.604 Y110.808 E6.62523
G1 X204.143 Y112.991 E6.69944
G1 X203.654 Y115.681 E6.79038
G1 X203.243 Y118.375 E6.88101
G1 X202.906 Y121.092 E6.97208
G1 X202.647 Y123.805 E7.06272
G1 X202.464 Y126.537 E7.15379
G1 X202.362 Y129.224 E7.24322
G1 X202.333 Y131.986 E7.33509
G1 X202.382 Y134.688 E7.42498
G1 X202.508 Y137.415 E7.51578
G1 X202.712 Y140.139 E7.60663
G1 X202.993 Y142.856 E7.69748
G1 X203.351 Y145.569 E7.7885
G1 X203.782 Y148.251 E7.87884
G1 X204.291 Y150.923 E7.96931
G1 X204.871 Y153.566 E8.05931
G1 X205.312 Y155.293 E8.1186
G1 X205.327 Y155.378 E8.12147
G1 X205.649 Y156.673 E8.16585
G1 X205.739 Y157.201 E8.18366
G1 X205.75 Y157.738 E8.20153
G1 X205.681 Y158.269 E8.21934
G1 X205.544 Y158.754 E8.2361
G1 X205.476 Y158.944 E8.24281
G1 X205.259 Y159.434 E8.26064
G1 X204.97 Y159.886 E8.27848
G1 X204.501 Y160.401 E8.30165
G1 X204.062 Y160.773 E8.32079
G1 X203.27 Y161.391 E8.3542
G1 X202.701 Y161.822 E8.37794
G1 X200.573 Y163.532 E8.46874
G1 X198.478 Y165.314 E8.56022
G1 X196.472 Y167.123 E8.65006
G1 X194.951 Y168.591 E8.72037
G1 X193.956 Y169.535 E8.76598
G1 X193.389 Y169.995 E8.79027
G1 X193.005 Y170.273 E8.80604
G1 X192.555 Y170.549 E8.82359
G1 X192.092 Y170.788 E8.84092
G1 X191.295 Y171.135 E8.86984
G1 X190.467 Y171.384 E8.89859
G1 X189.865 Y171.511 E8.91906
G1 X189.333 Y171.591 E8.93695
G1 X188.649 Y171.648 E8.95978
G1 X187.784 Y171.664 E8.98855
G1 X186.98 Y171.654 E9.0153
G1 X184.231 Y171.658 E9.10673
G1 X181.536 Y171.737 E9.1964
G1 X178.809 Y171.895 E9.28726
G1 X176.056 Y172.132 E9.37916
G1 X173.371 Y172.441 E9.46905
G1 X170.707 Y172.823 E9.55856
G1 X167.986 Y173.293 E9.65041
G1 X165.314 Y173.832 E9.74107
G1 X162.677 Y174.441 E9.83108
G1 X160.025 Y175.135 E9.92226
G1 X157.398 Y175.903 E10.01329
G1 X154.804 Y176.74 E10.10395
G1 X152.245 Y177.647 E10.19425
G1 X149.674 Y178.641 E10.28593
G1 X147.184 Y179.686 E10.37574
G1 X144.719 Y180.802 E10.46574
G1 X142.247 Y182.008 E10.55722
G1 X139.823 Y183.276 E10.64821
G1 X137.064 Y184.827 E10.75348
G1 X136.566 Y185.077 E10.77201
G1 X135.871 Y185.38 E10.79723
G1 X135.447 Y185.534 E10.81223
G1 X134.865 Y185.705 E10.83241
G1 X134.243 Y185.846 E10.85362
G1 X133.605 Y185.951 E10.87513
G1 X132.994 Y186.019 E10.89558
G1 X132.273 Y186.034 E10.91956
G1 X131.535 Y185.999 E10.94413
G1 X130.872 Y185.921 E10.96634
G1 X130.329 Y185.824 E10.98468
G1 X129.752 Y185.688 E11.0044
G1 X128.936 Y185.435 E11.03282
G1 X128.533 Y185.285 E11.04712
G1 X127.332 Y184.782 E11.09043
G1 X124.79 Y183.759 E11.18156
G1 X122.249 Y182.82 E11.27166
G1 X119.674 Y181.951 E11.36205
G1 X117.037 Y181.142 E11.45379
G1 X114.432 Y180.423 E11.54368
G1 X111.791 Y179.774 E11.63413
G1 X109.067 Y179.185 E11.72682
G1 X106.441 Y178.697 E11.81566
G1 X103.755 Y178.274 E11.9061
G1 X101.019 Y177.923 E11.99784
G1 X98.335 Y177.655 E12.08756
G1 X95.611 Y177.461 E12.17839
G1 X92.881 Y177.343 E12.26927
G1 X90.153 Y177.304 E12.36002
G1 X87.42 Y177.341 E12.45092
G1 X84.695 Y177.455 E12.54164
G1 X82.004 Y177.645 E12.63136
G1 X79.249 Y177.917 E12.72344
G1 X76.577 Y178.257 E12.81303
G1 X73.881 Y178.679 E12.90379
G1 X71.184 Y179.179 E12.99502
G1 X68.507 Y179.754 E13.08609
G1 X65.898 Y180.391 E13.17541
G1 X63.271 Y181.113 E13.26603
G1 X60.624 Y181.922 E13.35809
G1 X58.061 Y182.785 E13.44804
G1 X55.491 Y183.732 E13.53913
G1 X55.123 Y183.878 E13.5523
G1 X53.948 Y184.327 E13.59414
G1 X53.738 Y184.4 E13.60153
G1 X53.003 Y184.63 E13.62715
G1 X52.355 Y184.791 E13.64936
G1 X51.842 Y184.883 E13.66669
G1 X51.308 Y184.95 E13.68459
G1 X50.793 Y184.991 E13.70177
G1 X50.369 Y185.001 E13.71588
G1 X49.735 Y184.992 E13.73697
G1 X48.922 Y184.956 E13.76404
G1 X48.183 Y184.908 E13.78867
G1 X45.488 Y184.804 E13.87837
G1 X42.723 Y184.775 E13.97034
G1 X40.034 Y184.824 E14.05979
G1 X39.113 Y184.862 E14.09045
G1 X37.695 Y184.916 E14.13765
G1 X37.113 Y184.891 E14.15702
G1 X36.681 Y184.832 E14.17152
G1 X36.129 Y184.733 E14.19018
G1 X35.623 Y184.606 E14.20753
G1 X35.14 Y184.44 E14.22451
G1 X34.609 Y184.206 E14.24381
G1 X33.899 Y183.819 E14.27071
G1 X33.405 Y183.487 E14.29051
G1 X33.068 Y183.211 E14.30499
G1 X32.668 Y182.858 E14.32274
G1 X32.313 Y182.498 E14.33955
G1 X32.076 Y182.216 E14.3518
G1 X31.741 Y181.791 E14.3698
G1 X31.446 Y181.354 E14.38734
G1 X31.182 Y180.892 E14.40504
G1 X30.861 Y180.252 E14.42885
G1 X30.67 Y179.742 E14.44697
G1 X30.454 Y179.061 E14.47073
G1 X30.318 Y178.504 E14.4898
G1 X30.2 Y177.884 E14.51079
G1 X30.12 Y177.059 E14.53836
G1 X30.108 Y176.729 E14.54934
G1 X30.114 Y176.154 E14.56847
G1 X30.152 Y175.501 E14.59022
G1 X30.326 Y174.115 E14.63668
G1 X30.442 Y173.278 E14.66479
G1 X30.74 Y170.591 E14.7547
G1 X30.962 Y167.873 E14.84541
G1 X31.109 Y165.144 E14.93631
G1 X31.179 Y162.414 E15.02714
G1 X31.17 Y159.683 E15.11797
G1 X31.086 Y156.988 E15.20765
G1 X30.92 Y154.195 E15.30071
G1 X30.812 Y152.855 E15.34542
G1 X30.681 Y151.377 E15.39477
G1 X30.655 Y150.812 E15.41358
G1 X30.674 Y150.277 E15.43139
G1 X30.77 Y149.524 E15.45664
G1 X30.873 Y149.006 E15.4742
G1 X31.256 Y147.207 E15.53538
G1 X31.749 Y144.517 E15.62634
G1 X32.163 Y141.832 E15.7167
G1 X32.507 Y139.099 E15.80832
G1 X32.765 Y136.432 E15.89743
G1 X32.954 Y133.666 E15.98965
G1 X33.062 Y130.971 E16.07935
G1 X33.094 Y128.243 E16.17009
G1 X33.048 Y125.478 E16.26207
G1 X32.927 Y122.783 E16.3518
G1 X32.73 Y120.093 E16.44151
G1 X32.451 Y117.346 E16.53334
G1 X32.097 Y114.635 E16.62428
G1 X31.67 Y111.956 E16.71451
G1 X31.164 Y109.266 E16.80554
G1 X30.581 Y106.597 E16.89641
G1 X29.965 Y104.096 E16.98208
G1 X29.79 Y103.424 E17.00517
G1 X29.694 Y102.896 E17.02302
G1 X29.677 Y102.36 E17.04086
G1 X29.741 Y101.828 E17.05868
G1 X29.921 Y101.196 E17.08054
G1 X30.128 Y100.701 E17.09838
G1 X30.407 Y100.243 E17.11622
G1 X30.751 Y99.832 E17.13405
G1 X31.204 Y99.42 E17.15441
G1 X31.356 Y99.294 E17.16098
G1 X32.18 Y98.65 E17.19576
G1 X32.74 Y98.226 E17.21913
G1 X34.889 Y96.498 E17.31084
G1 X36.966 Y94.73 E17.40156
G1 X38.975 Y92.918 E17.49155
G1 X40.474 Y91.471 E17.56084
G1 X41.472 Y90.524 E17.6066
G1 X42.059 Y90.048 E17.63174
G1 X42.43 Y89.78 E17.64696
G1 X42.881 Y89.503 E17.66456
G1 X43.329 Y89.272 E17.68133
G0 F2618.2 X43.593 Y89.588
G1 F1200 X44.273 Y89.297 E17.70593
G1 X45.068 Y89.059 E17.73353
G1 X45.651 Y88.938 E17.75333
G1 X46.203 Y88.856 E17.7719
G1 X46.824 Y88.804 E17.79262
G1 X47.334 Y88.789 E17.80959
G1 X48.354 Y88.803 E17.84352
G1 X51.081 Y88.803 E17.93422
G1 X53.834 Y88.724 E18.02582
G1 X56.586 Y88.567 E18.1175
G1 X59.29 Y88.337 E18.20776
G1 X61.996 Y88.029 E18.29835
G1 X64.711 Y87.642 E18.38956
G1 X67.439 Y87.173 E18.48163
G1 X70.079 Y86.643 E18.57119
G1 X72.779 Y86.022 E18.66333
G1 X75.388 Y85.342 E18.75301
G1 X78.072 Y84.561 E18.84598
G1 X80.656 Y83.73 E18.93626
G1 X83.225 Y82.822 E19.02688
G1 X85.8 Y81.829 E19.11868
G1 X88.316 Y80.777 E19.20938
G1 X90.801 Y79.654 E19.30008
G1 X93.279 Y78.448 E19.39174
G1 X95.705 Y77.182 E19.48276
G1 X98.414 Y75.659 E19.58612
G1 X98.861 Y75.424 E19.60292
G1 X99.043 Y75.338 E19.60961
G1 X99.7 Y75.051 E19.63346
G1 X100.08 Y74.912 E19.64692
G1 X100.69 Y74.733 E19.66806
G1 X101.264 Y74.604 E19.68763
G1 X101.864 Y74.505 E19.70785
G1 X102.537 Y74.434 E19.73036
G1 X103.133 Y74.423 E19.75019
G1 X103.865 Y74.457 E19.77456
G1 X104.518 Y74.535 E19.79643
G1 X105.019 Y74.625 E19.81336
G1 X105.588 Y74.762 E19.83283
G1 X106.323 Y74.988 E19.85841
G1 X106.744 Y75.144 E19.87334
G1 X107.903 Y75.63 E19.91514
G1 X110.478 Y76.665 E20.00744
G1 X113.064 Y77.621 E20.09914
G1 X115.659 Y78.497 E20.19024
G1 X118.243 Y79.289 E20.28013
G1 X120.919 Y80.027 E20.37246
G1 X123.593 Y80.685 E20.46405
G1 X126.219 Y81.251 E20.55339
G1 X128.939 Y81.758 E20.64542
G1 X131.625 Y82.179 E20.73585
G1 X134.364 Y82.532 E20.8277
G1 X137.061 Y82.8 E20.91784
G1 X139.814 Y82.997 E21.00964
G1 X142.527 Y83.113 E21.09996
G1 X145.28 Y83.153 E21.19153
G1 X148.034 Y83.115 E21.28314
G1 X150.748 Y83.002 E21.37349
G1 X153.495 Y82.808 E21.46508
G1 X156.2 Y82.541 E21.55549
G1 X158.896 Y82.197 E21.64588
G1 X161.654 Y81.766 E21.73873
G1 X164.307 Y81.274 E21.82847
G1 X166.975 Y80.701 E21.91923
G1 X169.643 Y80.047 E22.0106
G1 X172.32 Y79.312 E22.10293
G1 X174.895 Y78.525 E22.19249
G1 X177.51 Y77.645 E22.28425
G1 X180.068 Y76.703 E22.37492
G1 X180.252 Y76.63 E22.3815
G1 X181.571 Y76.125 E22.42848
G1 X181.765 Y76.057 E22.43532
G1 X182.63 Y75.788 E22.46545
G1 X183.12 Y75.666 E22.48224
G1 X183.631 Y75.574 E22.49951
G1 X184.133 Y75.509 E22.51635
G1 X184.79 Y75.462 E22.53825
G1 X184.979 Y75.459 E22.54454
G1 X185.756 Y75.47 E22.57039
G1 X186.829 Y75.521 E22.60611
G1 X187.341 Y75.554 E22.62318
G1 X190.103 Y75.657 E22.71511
G1 X192.854 Y75.682 E22.80661
G1 X195.56 Y75.629 E22.89663
G1 X196.337 Y75.595 E22.9225
G1 X197.758 Y75.541 E22.96979
G1 X198.295 Y75.566 E22.98767
G1 X198.682 Y75.62 E23.00067
G1 X199.228 Y75.718 E23.01912
G1 X199.853 Y75.888 E23.04066
G1 X200.469 Y76.126 E23.06263
G1 X200.93 Y76.362 E23.07985
G1 X201.325 Y76.582 E23.09489
G1 X201.767 Y76.879 E23.1126
G1 X202.088 Y77.14 E23.12636
G1 X202.47 Y77.475 E23.14326
G1 X202.957 Y77.991 E23.16686
G1 X203.038 Y78.09 E23.17111
G1 X203.369 Y78.51 E23.1889
G1 X203.838 Y79.256 E23.21821
G1 X204.24 Y80.067 E23.24832
G1 X204.517 Y80.855 E23.2761
G1 X204.687 Y81.498 E23.29822
G1 X204.829 Y82.208 E23.3223
G1 X204.91 Y83.035 E23.34994
G1 X204.92 Y83.325 E23.35959
G1 X204.914 Y83.903 E23.37881
G1 X204.879 Y84.509 E23.399
G1 X204.445 Y87.952 E23.51442
G1 X204.177 Y90.698 E23.60619
G1 X203.989 Y93.409 E23.69658
G1 X203.879 Y96.123 E23.78692
G1 X203.845 Y98.717 E23.8732
G1 X203.884 Y101.472 E23.96484
G1 X203.999 Y104.181 E24.05503
G1 X204.208 Y107.106 E24.15256
G1 X204.347 Y108.705 E24.20594
G1 X204.373 Y109.281 E24.22512
G1 X204.32 Y110.089 E24.25205
G1 X204.222 Y110.68 E24.27198
G1 X203.746 Y112.936 E24.34866
G1 X203.258 Y115.621 E24.43943
G1 X202.848 Y118.302 E24.52964
G1 X202.509 Y121.042 E24.62147
G1 X202.249 Y123.776 E24.71281
G1 X202.066 Y126.494 E24.80341
G1 X201.961 Y129.241 E24.89485
G1 X201.933 Y131.986 E24.98615
G1 X201.981 Y134.666 E25.0753
G1 X202.111 Y137.463 E25.16843
G1 X202.314 Y140.174 E25.25885
G1 X202.597 Y142.913 E25.35044
G1 X202.953 Y145.613 E25.44102
G1 X203.38 Y148.271 E25.53055
G1 X203.902 Y151.012 E25.62336
G1 X204.49 Y153.695 E25.71471
G1 X204.924 Y155.392 E25.77297
G1 X204.936 Y155.461 E25.7753
G1 X205.261 Y156.769 E25.82013
G1 X205.343 Y157.268 E25.83695
G1 X205.347 Y157.773 E25.85375
G1 X205.27 Y158.273 E25.87057
G1 X205.1 Y158.809 E25.88927
G1 X204.892 Y159.27 E25.9061
G1 X204.615 Y159.693 E25.92291
G1 X204.233 Y160.105 E25.9416
G1 X203.816 Y160.458 E25.95977
G1 X203.029 Y161.073 E25.99299
G1 X202.433 Y161.525 E26.01787
G1 X200.309 Y163.231 E26.10848
G1 X198.235 Y164.996 E26.19906
G1 X196.195 Y166.834 E26.29039
G1 X194.675 Y168.3 E26.36063
G1 X193.68 Y169.244 E26.40624
G1 X193.147 Y169.677 E26.42908
G1 X192.372 Y170.194 E26.46007
G1 X191.909 Y170.433 E26.4774
G1 X191.172 Y170.754 E26.50414
G1 X190.358 Y171 E26.53242
G1 X189.794 Y171.118 E26.55159
G1 X189.276 Y171.195 E26.569
G1 X188.641 Y171.248 E26.5902
G1 X187.788 Y171.264 E26.61857
G1 X186.984 Y171.254 E26.64532
G1 X184.254 Y171.258 E26.73612
G1 X181.501 Y171.339 E26.82772
G1 X178.753 Y171.497 E26.91927
G1 X176.048 Y171.731 E27.00958
G1 X173.341 Y172.042 E27.1002
G1 X170.58 Y172.438 E27.19297
G1 X167.937 Y172.894 E27.28218
G1 X165.224 Y173.442 E27.37424
G1 X162.591 Y174.05 E27.46412
G1 X159.917 Y174.75 E27.55605
G1 X157.268 Y175.524 E27.64784
G1 X154.684 Y176.358 E27.73815
G1 X152.115 Y177.268 E27.8288
G1 X149.542 Y178.263 E27.92055
G1 X147.013 Y179.325 E28.01178
G1 X144.529 Y180.45 E28.10248
G1 X142.051 Y181.658 E28.19417
G1 X139.672 Y182.903 E28.28347
G1 X136.868 Y184.479 E28.39046
G1 X136.406 Y184.71 E28.40764
G1 X135.711 Y185.013 E28.43285
G1 X135.334 Y185.15 E28.4462
G1 X134.752 Y185.321 E28.46637
G1 X134.176 Y185.451 E28.48601
G1 X133.556 Y185.554 E28.50692
