;FLAVOR:Marlin
;TIME:1489
;Filament used: 0.652537m, 0m
;Layer height: 0.2
;MINX:29.183
;MINY:68.88
;MINZ:0.3
;MAXX:205.811
;MAXY:165.15
;MAXZ:0.9
;Generated with Cura_SteamEngine 4.8.0
T0
M140 S60
M105
M190 S60
M104 S200
M105
M109 S200
M82 ;absolute extrusion mode
M201 X500.00 Y500.00 Z100.00 E5000.00 	;Setup machine max acceleration
M203 X500.00 Y500.00 Z10.00 E50.00 	;Setup machine max feedrate
M204 P500.00 R1000.00 T500.00 		;Setup Print/Retract/Travel acceleration
M205 X8.00 Y8.00 Z0.40 E5.00 		;Setup Jerk
M220 S100 				;Reset Feedrate
M221 S100 				;Reset Flowrate
G28				;Home the Machine
#G29 				;Bed Level
G92 E0
M300 P150 S587
G92 E0
G1 F1500 E-5.5
;LAYER_COUNT:4
;LAYER:0
M107
G0 F2618.2 X33.826 Y123.44 Z0.3
;TYPE:SKIRT
G1 F1500 E0
G1 F1200 X34.384 Y123.33 E0.02837
G1 X34.885 Y123.276 E0.05351
G1 X35.594 Y123.249 E0.08891
G1 X37.098 Y123.212 E0.16397
G1 X39.82 Y123.069 E0.29996
G1 X42.51 Y122.851 E0.4346
G1 X45.261 Y122.55 E0.57267
G1 X47.929 Y122.181 E0.70704
G1 X50.626 Y121.729 E0.84347
G1 X53.337 Y121.197 E0.98131
G1 X55.972 Y120.601 E1.11609
G1 X58.601 Y119.928 E1.25148
G1 X61.212 Y119.181 E1.38697
G1 X63.831 Y118.351 E1.52404
G1 X66.412 Y117.451 E1.66041
G1 X68.922 Y116.495 E1.79441
G1 X71.494 Y115.433 E1.93323
G1 X73.939 Y114.34 E2.06685
G1 X76.421 Y113.146 E2.20426
G1 X78.839 Y111.896 E2.34006
G1 X81.226 Y110.578 E2.47609
G1 X83.587 Y109.182 E2.61293
G1 X85.878 Y107.741 E2.74796
G1 X88.155 Y106.216 E2.88469
G1 X90.343 Y104.66 E3.01863
G1 X92.564 Y102.984 E3.15745
G1 X94.67 Y101.298 E3.29204
G1 X96.755 Y99.532 E3.42836
G1 X98.777 Y97.716 E3.56395
G1 X100.773 Y95.822 E3.70123
G1 X102.677 Y93.906 E3.83599
G1 X104.558 Y91.907 E3.97293
G1 X106.351 Y89.887 E4.10768
G1 X108.123 Y87.774 E4.24526
G1 X109.794 Y85.664 E4.37954
G1 X111.457 Y83.438 E4.51817
G1 X112.984 Y81.266 E4.65063
G1 X114.515 Y78.954 E4.78897
G1 X115.967 Y76.62 E4.92611
G1 X117.313 Y74.313 E5.05937
G1 X118.658 Y71.853 E5.19924
G1 X119.147 Y70.909 E5.25228
G1 X119.431 Y70.445 E5.27942
G1 X119.765 Y70.025 E5.3062
G1 X120.158 Y69.66 E5.33295
G1 X120.6 Y69.357 E5.35969
G1 X121.083 Y69.123 E5.38647
G1 X121.595 Y68.964 E5.41321
G1 X122.125 Y68.882 E5.43997
G1 X122.661 Y68.88 E5.46671
G1 X123.192 Y68.958 E5.49349
G1 X123.705 Y69.113 E5.52022
G1 X124.19 Y69.343 E5.547
G1 X124.634 Y69.643 E5.57374
G1 X125.03 Y70.005 E5.6005
G1 X125.477 Y70.591 E5.63727
G1 X125.748 Y71.034 E5.66318
G1 X127.201 Y73.327 E5.79862
G1 X128.738 Y75.611 E5.93596
G1 X130.303 Y77.799 E6.07017
G1 X131.971 Y79.994 E6.20771
G1 X133.682 Y82.122 E6.34394
G1 X135.446 Y84.193 E6.47966
G1 X137.276 Y86.22 E6.61591
G1 X139.142 Y88.174 E6.7507
G1 X141.097 Y90.108 E6.8879
G1 X143.085 Y91.967 E7.02369
G1 X145.13 Y93.773 E7.1598
G1 X147.2 Y95.5 E7.2943
G1 X149.362 Y97.202 E7.43158
G1 X151.572 Y98.843 E7.5689
G1 X153.779 Y100.386 E7.70325
G1 X156.091 Y101.907 E7.84132
G1 X158.366 Y103.315 E7.9748
G1 X160.738 Y104.689 E8.11156
G1 X163.146 Y105.997 E8.24828
G1 X165.572 Y107.225 E8.38393
G1 X168.045 Y108.392 E8.52036
G1 X170.539 Y109.483 E8.65617
G1 X173.051 Y110.499 E8.79136
G1 X175.612 Y111.45 E8.92765
G1 X178.205 Y112.331 E9.06428
G1 X180.806 Y113.134 E9.20009
G1 X183.447 Y113.867 E9.33683
G1 X186.266 Y114.562 E9.48168
G1 X186.907 Y114.712 E9.51452
G1 X187.41 Y114.855 E9.54061
G1 X188.234 Y115.156 E9.58438
G1 X188.776 Y115.39 E9.61383
G1 X189.324 Y115.654 E9.64418
G1 X189.949 Y115.994 E9.67967
G1 X190.049 Y116.053 E9.68547
G1 X190.689 Y116.446 E9.72294
G1 X190.957 Y116.622 E9.73893
G1 X191.422 Y116.949 E9.76729
G1 X191.612 Y117.092 E9.77916
G1 X192.285 Y117.635 E9.8223
G1 X192.473 Y117.799 E9.83475
G1 X193.046 Y118.331 E9.87375
G1 X193.219 Y118.502 E9.88589
G1 X193.821 Y119.142 E9.92972
G1 X194.202 Y119.587 E9.95895
G1 X194.312 Y119.725 E9.96776
G1 X194.678 Y120.21 E9.99807
G1 X195.329 Y121.124 E10.05405
G1 X196.307 Y122.516 E10.13893
G1 X197.961 Y124.731 E10.27684
G1 X199.64 Y126.853 E10.41184
G1 X201.405 Y128.957 E10.54885
G1 X203.286 Y131.074 E10.69014
G1 X203.368 Y131.169 E10.6964
G1 X203.724 Y131.599 E10.72425
G1 X204.004 Y131.961 E10.74708
G1 X204.297 Y132.375 E10.77239
G1 X204.557 Y132.77 E10.79598
G1 X204.851 Y133.261 E10.82453
G1 X205.197 Y133.898 E10.8607
G1 X205.427 Y134.364 E10.88662
G1 X205.627 Y134.862 E10.9134
G1 X205.774 Y135.556 E10.94879
G1 X205.811 Y136.04 E10.97301
G1 X205.804 Y136.577 E10.9998
G1 X205.717 Y137.106 E11.02655
G1 X205.498 Y137.781 E11.06195
G1 X205.282 Y138.272 E11.08871
G1 X204.995 Y138.725 E11.11547
G1 X204.499 Y139.295 E11.15316
G1 X204.039 Y139.718 E11.18434
G1 X203.177 Y140.381 E11.2386
G1 X201.027 Y142.082 E11.37537
G1 X198.953 Y143.82 E11.51037
G1 X196.901 Y145.642 E11.64728
G1 X194.948 Y147.476 E11.78094
G1 X194.652 Y147.769 E11.80172
G1 X193.981 Y148.412 E11.84808
G1 X193.542 Y148.793 E11.87708
G1 X192.971 Y149.225 E11.91281
G1 X192.547 Y149.493 E11.93783
G1 X192.077 Y149.757 E11.96473
G1 X191.626 Y149.976 E11.98974
G1 X191.044 Y150.209 E12.02101
G1 X190.473 Y150.388 E12.05087
G1 X189.957 Y150.518 E12.07742
G1 X189.076 Y150.679 E12.1221
G1 X188.497 Y150.74 E12.15114
G1 X188.267 Y150.752 E12.16263
G1 X187.449 Y150.77 E12.20345
G1 X187.325 Y150.771 E12.20964
G1 X186.688 Y150.763 E12.24142
G1 X183.94 Y150.767 E12.37852
G1 X181.245 Y150.846 E12.51303
G1 X178.518 Y151.004 E12.64931
G1 X175.765 Y151.241 E12.78717
G1 X173.08 Y151.55 E12.92201
G1 X170.416 Y151.932 E13.05628
G1 X167.695 Y152.402 E13.19404
G1 X165.015 Y152.943 E13.33044
G1 X162.37 Y153.553 E13.46586
G1 X159.749 Y154.239 E13.60103
G1 X157.116 Y155.008 E13.73788
G1 X154.513 Y155.848 E13.87434
G1 X151.954 Y156.755 E14.00979
G1 X149.383 Y157.749 E14.14731
G1 X146.893 Y158.794 E14.28203
G1 X144.428 Y159.91 E14.41703
G1 X141.956 Y161.116 E14.55425
G1 X139.553 Y162.373 E14.68955
G1 X138.097 Y163.197 E14.77301
G1 X136.781 Y163.925 E14.84805
G1 X136.326 Y164.153 E14.87344
G1 X135.858 Y164.363 E14.89903
G1 X135.242 Y164.594 E14.93185
G1 X134.632 Y164.777 E14.96362
G1 X134.312 Y164.857 E14.98008
G1 X133.704 Y164.979 E15.01102
G1 X133.188 Y165.062 E15.03709
G1 X132.478 Y165.135 E15.0727
G1 X131.767 Y165.15 E15.10818
G1 X131.214 Y165.124 E15.1358
G1 X130.655 Y165.068 E15.16383
G1 X129.934 Y164.95 E15.20028
G1 X129.122 Y164.758 E15.24191
G1 X128.269 Y164.489 E15.28653
G1 X127.508 Y164.183 E15.32745
G1 X124.93 Y163.129 E15.4664
G1 X122.356 Y162.157 E15.60367
G1 X119.822 Y161.286 E15.73735
G1 X117.225 Y160.471 E15.87315
G1 X114.559 Y159.718 E16.01136
G1 X111.914 Y159.05 E16.14746
G1 X109.287 Y158.466 E16.28172
G1 X106.612 Y157.951 E16.41763
G1 X103.906 Y157.508 E16.55443
G1 X101.204 Y157.143 E16.69045
G1 X98.482 Y156.854 E16.82702
G1 X95.796 Y156.645 E16.96143
G1 X93.034 Y156.51 E17.09939
G1 X90.338 Y156.453 E17.23392
G1 X87.609 Y156.474 E17.37008
G1 X84.878 Y156.571 E17.50641
G1 X82.152 Y156.746 E17.6427
G1 X79.441 Y156.996 E17.77852
G1 X76.72 Y157.327 E17.91527
G1 X74.048 Y157.727 E18.05007
G1 X71.364 Y158.207 E18.1861
G1 X68.692 Y158.763 E18.32226
G1 X66.025 Y159.398 E18.45903
G1 X63.401 Y160.101 E18.59456
G1 X60.802 Y160.878 E18.7299
G1 X58.201 Y161.736 E18.86654
G1 X55.272 Y162.8 E19.02201
G1 X53.659 Y163.414 E19.10812
G1 X53.447 Y163.488 E19.11932
G1 X52.72 Y163.714 E19.1573
G1 X52.06 Y163.881 E19.19127
G1 X51.499 Y163.982 E19.21971
G1 X50.931 Y164.055 E19.24828
G1 X50.401 Y164.097 E19.2748
G1 X49.941 Y164.108 E19.29776
G1 X49.269 Y164.099 E19.33129
G1 X49.148 Y164.095 E19.33733
G1 X48.383 Y164.058 E19.37554
G1 X47.572 Y164.006 E19.41608
G1 X44.797 Y163.902 E19.55462
G1 X42.068 Y163.878 E19.69078
G1 X39.37 Y163.932 E19.82541
G1 X37.844 Y164.004 E19.90163
G1 X37.213 Y164.021 E19.93312
G1 X36.694 Y163.997 E19.95904
G1 X36.126 Y163.93 E19.98757
G1 X35.582 Y163.823 E20.01524
G1 X34.873 Y163.624 E20.05197
G1 X34.689 Y163.567 E20.06158
G1 X34.193 Y163.372 E20.08817
G1 X33.718 Y163.141 E20.11453
G1 X33.272 Y162.882 E20.14026
G1 X32.687 Y162.485 E20.17553
G1 X32.161 Y162.073 E20.20886
G1 X31.664 Y161.599 E20.24313
G1 X31.441 Y161.351 E20.25977
G1 X31.041 Y160.862 E20.29128
G1 X30.602 Y160.25 E20.32886
G1 X30.312 Y159.75 E20.3577
G1 X29.98 Y159.05 E20.39635
G1 X29.71 Y158.377 E20.43253
G1 X29.566 Y157.896 E20.45758
G1 X29.39 Y157.185 E20.49412
G1 X29.303 Y156.691 E20.51914
G1 X29.227 Y156.064 E20.55065
G1 X29.183 Y155.275 E20.59008
G1 X29.183 Y154.734 E20.61707
G1 X29.224 Y154.142 E20.64667
G1 X29.269 Y153.688 E20.66944
G1 X29.412 Y152.555 E20.72641
G1 X29.51 Y151.851 E20.76187
G1 X29.809 Y149.158 E20.89705
G1 X30.033 Y146.438 E21.03321
G1 X30.179 Y143.713 E21.16936
G1 X30.249 Y140.982 E21.30565
G1 X30.242 Y138.252 E21.44185
G1 X30.158 Y135.555 E21.57647
G1 X29.996 Y132.814 E21.71346
G1 X29.805 Y130.734 E21.81767
G1 X29.736 Y129.864 E21.86121
G1 X29.725 Y129.329 E21.88791
G1 X29.733 Y129.042 E21.90223
G1 X29.787 Y128.514 E21.92871
G1 X29.887 Y127.95 E21.95729
G1 X30.075 Y127.244 E21.99374
G1 X30.343 Y126.557 E22.03053
G1 X30.589 Y126.069 E22.05779
G1 X30.883 Y125.588 E22.08592
G1 X31.2 Y125.156 E22.11265
G1 X31.464 Y124.847 E22.13292
G1 X31.842 Y124.466 E22.1597
G1 X32.327 Y124.111 E22.18969
G1 X32.796 Y123.833 E22.21689
G1 X33.28 Y123.603 E22.24362
G1 X33.826 Y123.44 E22.27205
G0 F2618.2 X34.134 Y123.783
G1 F1200 X34.9 Y123.675 E22.31064
G1 X35.603 Y123.649 E22.34574
G1 X37.093 Y123.612 E22.4201
G1 X39.872 Y123.467 E22.55893
G1 X42.553 Y123.249 E22.69313
G1 X45.288 Y122.949 E22.8304
G1 X48.013 Y122.573 E22.96764
G1 X50.698 Y122.124 E23.10345
G1 X53.397 Y121.593 E23.24069
G1 X56.054 Y120.993 E23.37658
G1 X58.705 Y120.314 E23.51311
G1 X61.37 Y119.551 E23.65141
G1 X63.935 Y118.738 E23.78565
G1 X66.549 Y117.827 E23.92376
G1 X69.068 Y116.867 E24.05825
G1 X71.644 Y115.804 E24.19728
G1 X74.111 Y114.701 E24.3321
G1 X76.599 Y113.504 E24.46985
G1 X79.022 Y112.252 E24.60591
G1 X81.432 Y110.92 E24.74329
G1 X83.773 Y109.537 E24.87894
G1 X86.116 Y108.063 E25.01704
G1 X88.38 Y106.548 E25.15295
G1 X90.594 Y104.972 E25.28854
G1 X92.809 Y103.301 E25.42696
G1 X94.912 Y101.618 E25.56134
G1 X97.018 Y99.834 E25.69904
G1 X99.055 Y98.005 E25.83562
G1 X101.032 Y96.128 E25.97163
G1 X102.969 Y94.18 E26.10868
G1 X104.849 Y92.181 E26.24559
G1 X106.673 Y90.126 E26.38267
G1 X108.428 Y88.034 E26.51891
G1 X110.113 Y85.906 E26.65433
G1 X111.772 Y83.685 E26.79263
G1 X113.329 Y81.471 E26.92767
G1 X114.856 Y79.165 E27.06565
G1 X116.285 Y76.869 E27.20057
G1 X117.675 Y74.485 E27.33825
G1 X119.009 Y72.045 E27.47699
G1 X119.502 Y71.093 E27.53048
G1 X119.762 Y70.67 E27.55525
G1 X120.079 Y70.276 E27.58048
G1 X120.453 Y69.937 E27.60566
G1 X120.877 Y69.661 E27.6309
G1 X121.339 Y69.455 E27.65614
G1 X121.827 Y69.324 E27.68134
G1 X122.33 Y69.272 E27.70657
G1 X122.835 Y69.3 E27.73181
G1 X123.329 Y69.407 E27.75702
G1 X123.8 Y69.59 E27.78223
G1 X124.236 Y69.845 E27.80743
G1 X124.627 Y70.166 E27.83267
G1 X124.962 Y70.545 E27.85791
G1 X125.136 Y70.8 E27.87331
G1 X125.411 Y71.249 E27.89958
G1 X126.874 Y73.559 E28.03599
G1 X128.397 Y75.821 E28.17204
G1 X129.991 Y78.051 E28.30879
G1 X131.656 Y80.242 E28.44609
G1 X133.367 Y82.369 E28.58227
G1 X135.143 Y84.455 E28.71896
G1 X136.973 Y86.481 E28.85516
G1 X138.855 Y88.452 E28.99112
G1 X140.826 Y90.402 E29.12945
G1 X142.811 Y92.258 E29.26503
G1 X144.875 Y94.081 E29.40241
G1 X146.98 Y95.837 E29.53918
G1 X149.121 Y97.523 E29.67514
G1 X151.31 Y99.147 E29.81112
G1 X153.56 Y100.721 E29.94811
G1 X155.857 Y102.232 E30.08528
G1 X158.176 Y103.667 E30.22134
G1 X160.552 Y105.044 E30.35834
G1 X162.94 Y106.341 E30.49392
G1 X165.414 Y107.593 E30.63225
G1 X167.851 Y108.743 E30.76669
G1 X170.378 Y109.848 E30.90429
G1 X172.929 Y110.88 E31.04158
G1 X175.481 Y111.828 E31.1774
G1 X178.074 Y112.709 E31.31403
G1 X180.719 Y113.525 E31.45213
G1 X183.317 Y114.247 E31.58665
G1 X186.154 Y114.946 E31.73242
G1 X186.707 Y115.074 E31.76074
G1 X187.279 Y115.233 E31.79036
G1 X188.092 Y115.53 E31.83355
G1 X188.603 Y115.751 E31.86132
G1 X189.142 Y116.01 E31.89116
G1 X189.75 Y116.341 E31.92569
G1 X190.479 Y116.787 E31.96833
G1 X190.727 Y116.949 E31.98311
G1 X191.192 Y117.276 E32.01147
G1 X191.36 Y117.404 E32.02201
G1 X192.033 Y117.947 E32.06515
G1 X192.201 Y118.092 E32.07622
G1 X192.774 Y118.624 E32.11523
G1 X192.928 Y118.777 E32.12606
G1 X193.53 Y119.417 E32.16989
G1 X193.895 Y119.844 E32.19792
G1 X193.993 Y119.967 E32.20577
G1 X194.352 Y120.443 E32.23551
G1 X195.002 Y121.354 E32.29134
G1 X195.992 Y122.762 E32.37721
G1 X197.639 Y124.968 E32.51456
G1 X199.339 Y127.117 E32.65127
G1 X201.098 Y129.214 E32.78782
G1 X203.06 Y131.424 E32.93526
G1 X203.416 Y131.854 E32.96311
G1 X203.677 Y132.192 E32.98441
G1 X204.016 Y132.672 E33.01373
G1 X204.213 Y132.975 E33.03176
G1 X204.559 Y133.556 E33.0655
G1 X204.843 Y134.085 E33.09545
G1 X205.068 Y134.54 E33.12078
G1 X205.254 Y135.01 E33.146
G1 X205.376 Y135.6 E33.17605
G1 X205.412 Y136.065 E33.19932
G1 X205.403 Y136.57 E33.22452
G1 X205.314 Y137.068 E33.24976
G1 X205.121 Y137.647 E33.28021
G1 X204.915 Y138.109 E33.30545
G1 X204.639 Y138.533 E33.33069
G1 X204.204 Y139.025 E33.36345
G1 X203.795 Y139.401 E33.39117
G1 X202.933 Y140.064 E33.44542
G1 X200.789 Y141.76 E33.58181
G1 X198.694 Y143.516 E33.71819
G1 X196.627 Y145.351 E33.85608
G1 X194.639 Y147.217 E33.99211
G1 X194.375 Y147.48 E34.0107
G1 X193.704 Y148.123 E34.05707
G1 X193.291 Y148.482 E34.08437
G1 X192.756 Y148.888 E34.11788
G1 X192.136 Y149.272 E34.15426
G1 X191.553 Y149.568 E34.18688
G1 X190.924 Y149.827 E34.22082
G1 X190.244 Y150.039 E34.25635
G1 X189.885 Y150.125 E34.27477
G1 X189.125 Y150.265 E34.31333
G1 X188.463 Y150.341 E34.34657
G1 X188.258 Y150.352 E34.35681
G1 X187.33 Y150.371 E34.40312
G1 X186.693 Y150.363 E34.4349
G1 X183.963 Y150.367 E34.5711
G1 X181.21 Y150.448 E34.70851
G1 X178.462 Y150.606 E34.84583
G1 X175.757 Y150.84 E34.98129
G1 X173.05 Y151.151 E35.11723
G1 X170.289 Y151.547 E35.25639
G1 X167.646 Y152.003 E35.3902
G1 X164.924 Y152.553 E35.52874
G1 X162.316 Y153.155 E35.66228
G1 X159.608 Y153.864 E35.80193
G1 X156.986 Y154.629 E35.9382
G1 X154.393 Y155.466 E36.07414
G1 X151.824 Y156.376 E36.21011
G1 X149.251 Y157.371 E36.34774
G1 X146.722 Y158.433 E36.48459
G1 X144.238 Y159.558 E36.62063
G1 X141.76 Y160.766 E36.75817
G1 X139.385 Y162.009 E36.8919
G1 X137.903 Y162.847 E36.97684
G1 X136.587 Y163.575 E37.05187
G1 X136.063 Y163.835 E37.08106
G1 X135.4 Y164.116 E37.11698
G1 X135.128 Y164.211 E37.13136
G1 X134.518 Y164.394 E37.16313
G1 X134.233 Y164.465 E37.17778
G1 X133.637 Y164.584 E37.2081
G1 X133.14 Y164.665 E37.23323
G1 X132.464 Y164.735 E37.26713
G1 X131.765 Y164.75 E37.30201
G1 X131.252 Y164.726 E37.32764
G1 X130.708 Y164.671 E37.35491
G1 X130.004 Y164.557 E37.3905
G1 X129.222 Y164.371 E37.4306
G1 X128.398 Y164.111 E37.47371
G1 X127.64 Y163.805 E37.51449
G1 X125.074 Y162.756 E37.65279
G1 X122.491 Y161.781 E37.79053
G1 X119.924 Y160.898 E37.92596
G1 X117.348 Y160.09 E38.06066
G1 X114.695 Y159.341 E38.19819
G1 X111.994 Y158.658 E38.33718
G1 X109.344 Y158.069 E38.47262
G1 X106.681 Y157.557 E38.60791
G1 X103.958 Y157.111 E38.74557
G1 X101.259 Y156.747 E38.88144
G1 X98.522 Y156.456 E39.01876
G1 X95.811 Y156.245 E39.15442
G1 X93.063 Y156.11 E39.29169
G1 X90.343 Y156.053 E39.42742
G1 X87.591 Y156.074 E39.56472
G1 X84.84 Y156.172 E39.70205
G1 X82.123 Y156.346 E39.83788
G1 X79.427 Y156.595 E39.97296
G1 X76.679 Y156.929 E40.11107
G1 X73.96 Y157.336 E40.24823
G1 X71.284 Y157.815 E40.38386
G1 X68.616 Y158.37 E40.51982
G1 X65.934 Y159.008 E40.65735
G1 X63.288 Y159.718 E40.79403
G1 X60.678 Y160.498 E40.92994
G1 X58.065 Y161.36 E41.06721
G1 X55.182 Y162.407 E41.22024
G1 X53.517 Y163.041 E41.30912
G1 X53.328 Y163.106 E41.31909
G1 X52.601 Y163.332 E41.35708
G1 X51.985 Y163.488 E41.38878
G1 X51.447 Y163.586 E41.41606
G1 X50.893 Y163.656 E41.44392
G1 X50.39 Y163.698 E41.4691
G1 X49.946 Y163.708 E41.49126
G1 X49.274 Y163.699 E41.52479
G1 X48.409 Y163.659 E41.56799
G1 X47.576 Y163.605 E41.60963
G1 X44.815 Y163.503 E41.74748
G1 X42.064 Y163.478 E41.88473
G1 X39.344 Y163.532 E42.02046
G1 X37.833 Y163.604 E42.09593
G1 X37.202 Y163.621 E42.12742
G1 X36.741 Y163.6 E42.15044
G1 X36.173 Y163.533 E42.17898
G1 X35.689 Y163.438 E42.20358
G1 X34.991 Y163.242 E42.23975
G1 X34.367 Y163.012 E42.27293
G1 X33.903 Y162.787 E42.29866
