;FLAVOR:Marlin
;TIME:4400
;Filament used: 1.41942m, 0m
;Layer height: 0.1
;MINX:46.198
;MINY:63.142
;MINZ:0.2
;MAXX:188.805
;MAXY:170.075
;MAXZ:1.8
;POSTPROCESSED
;Generated with Cura_SteamEngine 4.8.0
T0
M140 S60
M105
M190 S60
M104 S200
M105
M109 S200
M82 ;absolute extrusion mode
M201 X500.00 Y500.00 Z100.00 E5000.00 	;Setup machine max acceleration
M203 X500.00 Y500.00 Z10.00 E50.00 	;Setup machine max feedrate
M204 P500.00 R1000.00 T500.00 		;Setup Print/Retract/Travel acceleration
M205 X8.00 Y8.00 Z0.40 E5.00 		;Setup Jerk
M220 S100 				;Reset Feedrate
M221 S100 				;Reset Flowrate
G28				;Home the Machine
#G29 				;Bed Level
G92 E0
M300 P150 S587
G92 E0
G1 F1500 E-5.5
;LAYER_COUNT:17
;LAYER:0
M107
G0 F2160 X82.332 Y64.65 Z0.2
;TYPE:SKIRT
G1 F1500 E0
G1 F900 X82.658 Y64.239 E0.01309
G1 X83.044 Y63.882 E0.0262
G1 X83.479 Y63.589 E0.03928
G1 X83.953 Y63.364 E0.05237
G1 X84.456 Y63.214 E0.06547
G1 X84.977 Y63.142 E0.07859
G1 X85.501 Y63.15 E0.09166
G1 X86.019 Y63.238 E0.10477
G1 X86.517 Y63.403 E0.11785
G1 X86.985 Y63.642 E0.13096
G1 X87.411 Y63.948 E0.14405
G1 X87.785 Y64.316 E0.15713
G1 X88.1 Y64.737 E0.17025
G1 X88.233 Y64.966 E0.17686
G1 X88.577 Y65.613 E0.19513
G1 X89.174 Y66.778 E0.22779
G1 X90.477 Y69.152 E0.29534
G1 X91.845 Y71.484 E0.36279
G1 X93.306 Y73.823 E0.43158
G1 X94.806 Y76.079 E0.49916
G1 X96.4 Y78.334 E0.56804
G1 X98.022 Y80.498 E0.63551
G1 X99.726 Y82.641 E0.7038
G1 X101.501 Y84.749 E0.77255
G1 X103.305 Y86.772 E0.84016
G1 X105.18 Y88.759 E0.90831
G1 X107.114 Y90.694 E0.97656
G1 X109.094 Y92.569 E1.04458
G1 X111.117 Y94.376 E1.11224
G1 X113.226 Y96.156 E1.18108
G1 X115.343 Y97.844 E1.24863
G1 X117.55 Y99.502 E1.31748
G1 X119.763 Y101.07 E1.38514
G1 X122.026 Y102.579 E1.45299
G1 X124.332 Y104.023 E1.52086
G1 X126.726 Y105.429 E1.59012
G1 X129.09 Y106.731 E1.65744
G1 X131.531 Y107.985 E1.7259
G1 X133.976 Y109.156 E1.79352
G1 X136.486 Y110.272 E1.86204
G1 X139.014 Y111.312 E1.93023
G1 X141.593 Y112.289 E1.99903
G1 X144.144 Y113.17 E2.06635
G1 X146.728 Y113.985 E2.13394
G1 X149.367 Y114.734 E2.20237
G1 X152.058 Y115.418 E2.27163
G1 X154.666 Y116 E2.33829
G1 X157.383 Y116.529 E2.40734
G1 X160.047 Y116.969 E2.47469
G1 X162.788 Y117.341 E2.54369
G1 X165.484 Y117.632 E2.61133
G1 X166.721 Y117.731 E2.64229
G1 X167.562 Y117.811 E2.66336
G1 X168.297 Y117.924 E2.68191
G1 X168.97 Y118.092 E2.69922
G1 X169.495 Y118.263 E2.71299
G1 X170.124 Y118.522 E2.72996
G1 X170.205 Y118.558 E2.73217
G1 X170.802 Y118.837 E2.74861
G1 X171.244 Y119.056 E2.76091
G1 X171.733 Y119.304 E2.77459
G1 X172.519 Y119.711 E2.79667
G1 X173.525 Y120.244 E2.82507
G1 X174.601 Y120.824 E2.85556
G1 X175.589 Y121.362 E2.88362
G1 X177.725 Y122.518 E2.94421
G1 X180.256 Y123.895 E3.01608
G1 X180.977 Y124.283 E3.03651
G1 X181.792 Y124.733 E3.05973
G1 X186.499 Y127.391 E3.19458
G1 X187.094 Y127.738 E3.21176
G1 X187.526 Y128.036 E3.22485
G1 X187.908 Y128.396 E3.23794
G1 X188.231 Y128.81 E3.25104
G1 X188.487 Y129.269 E3.26415
G1 X188.67 Y129.76 E3.27722
G1 X188.777 Y130.274 E3.29032
G1 X188.805 Y130.799 E3.30343
G1 X188.754 Y131.313 E3.31632
G1 X188.542 Y132.522 E3.34694
G1 X188.44 Y133.062 E3.36065
G1 X187.881 Y136.673 E3.4518
G1 X187.782 Y137.391 E3.46988
G1 X187.658 Y137.95 E3.48416
G1 X187.511 Y138.406 E3.49611
G1 X187.268 Y138.966 E3.51134
G1 X187 Y139.411 E3.5243
G1 X186.762 Y139.747 E3.53457
G1 X184.966 Y142.196 E3.61033
G1 X184.378 Y143.024 E3.63566
G1 X183.989 Y143.481 E3.65063
G1 X183.675 Y143.791 E3.66164
G1 X183.274 Y144.13 E3.67473
G1 X182.762 Y144.438 E3.68964
G1 X182.413 Y144.608 E3.69932
G1 X181.925 Y144.801 E3.71241
G1 X181.427 Y144.92 E3.72519
G1 X180.673 Y145.003 E3.74411
G1 X177.946 Y145.217 E3.81234
G1 X175.256 Y145.505 E3.87983
G1 X172.517 Y145.877 E3.94878
G1 X169.835 Y146.319 E4.01659
G1 X167.161 Y146.837 E4.08453
G1 X164.507 Y147.43 E4.15237
G1 X161.839 Y148.105 E4.22102
G1 X159.197 Y148.855 E4.28953
G1 X156.628 Y149.662 E4.3567
G1 X154.016 Y150.565 E4.42564
G1 X151.469 Y151.527 E4.49355
G1 X148.964 Y152.556 E4.56111
G1 X146.746 Y153.549 E4.62173
G1 X146.662 Y153.579 E4.62395
G1 X145.533 Y154.088 E4.65484
G1 X145.157 Y154.232 E4.66489
G1 X144.668 Y154.387 E4.67768
G1 X144.149 Y154.52 E4.69105
G1 X143.494 Y154.644 E4.70768
G1 X143.165 Y154.69 E4.71597
G1 X141.035 Y154.884 E4.76932
G1 X139.807 Y154.993 E4.80007
G1 X137.096 Y155.301 E4.86813
G1 X134.4 Y155.686 E4.93607
G1 X131.727 Y156.144 E5.00372
G1 X127.821 Y156.954 E5.10323
G1 X126.647 Y157.223 E5.13327
G1 X125.861 Y157.355 E5.15315
G1 X123.106 Y157.794 E5.22274
G1 X120.451 Y158.295 E5.29014
G1 X117.751 Y158.884 E5.35908
G1 X115.153 Y159.526 E5.42583
G1 X112.471 Y160.273 E5.49528
G1 X109.891 Y161.07 E5.56264
G1 X107.261 Y161.964 E5.63193
G1 X104.728 Y162.906 E5.69935
G1 X102.196 Y163.931 E5.76749
G1 X99.719 Y165.016 E5.83494
G1 X97.101 Y166.27 E5.90736
G1 X96.378 Y166.609 E5.92728
G1 X95.88 Y166.823 E5.9408
G1 X95.407 Y167.006 E5.95345
G1 X94.772 Y167.207 E5.97006
G1 X94.127 Y167.367 E5.98664
G1 X93.272 Y167.522 E6.00832
G1 X93.04 Y167.556 E6.01416
G1 X92.405 Y167.627 E6.0301
G1 X92.009 Y167.653 E6.04
G1 X91.111 Y167.669 E6.06241
G1 X90.301 Y167.662 E6.08261
G1 X90.247 Y167.667 E6.08397
G1 X88.25 Y167.658 E6.13378
G1 X85.511 Y167.723 E6.20213
G1 X82.811 Y167.864 E6.26957
G1 X80.075 Y168.084 E6.33804
G1 X77.36 Y168.379 E6.40616
G1 X74.64 Y168.754 E6.47466
G1 X71.973 Y169.199 E6.54211
G1 X69.267 Y169.729 E6.61089
G1 X68.298 Y169.942 E6.63564
G1 X67.539 Y170.056 E6.65478
G1 X66.797 Y170.075 E6.6733
G1 X66.125 Y170.015 E6.69013
G1 X65.939 Y169.979 E6.69485
G1 X65.41 Y169.863 E6.70836
G1 X62.766 Y169.324 E6.77568
G1 X60.014 Y168.844 E6.84536
G1 X58.348 Y168.592 E6.88739
G1 X57.604 Y168.393 E6.9066
G1 X57.135 Y168.209 E6.91917
G1 X56.966 Y168.138 E6.92374
G1 X56.499 Y167.897 E6.93685
G1 X56.255 Y167.73 E6.94423
G1 X55.762 Y167.363 E6.95956
G1 X55.236 Y166.88 E6.97737
G1 X55.024 Y166.64 E6.98536
G1 X54.607 Y166.054 E7.0033
G1 X54.309 Y165.527 E7.01841
G1 X54.033 Y164.901 E7.03547
G1 X53.627 Y163.658 E7.06809
G1 X53.556 Y163.431 E7.07402
G1 X52.665 Y160.829 E7.14263
G1 X51.702 Y158.251 E7.21128
G1 X50.691 Y155.773 E7.27804
G1 X49.582 Y153.259 E7.34658
G1 X48.399 Y150.762 E7.41551
G1 X47.618 Y149.211 E7.45883
G1 X47.103 Y148.211 E7.48688
G1 X47.007 Y148.008 E7.49249
G1 X46.7 Y147.303 E7.51167
G1 X46.469 Y146.627 E7.52949
G1 X46.301 Y145.876 E7.54868
G1 X46.226 Y145.316 E7.56278
G1 X46.198 Y144.79 E7.57592
G1 X46.244 Y143.933 E7.59733
G1 X46.344 Y143.319 E7.61284
G1 X46.513 Y142.68 E7.62933
G1 X46.831 Y141.901 E7.65032
G1 X47.146 Y141.327 E7.66665
G1 X47.611 Y140.671 E7.68671
G1 X47.927 Y140.31 E7.69868
G1 X48.433 Y139.809 E7.71644
G1 X49.498 Y138.785 E7.7533
G1 X51.415 Y136.835 E7.82151
G1 X53.271 Y134.836 E7.88955
G1 X55.079 Y132.773 E7.95798
G1 X56.82 Y130.671 E8.02607
G1 X58.516 Y128.502 E8.09475
G1 X60.111 Y126.338 E8.16181
G1 X61.682 Y124.073 E8.23057
G1 X62.601 Y122.683 E8.27214
G1 X63.335 Y121.551 E8.30579
G1 X63.675 Y121.061 E8.32067
G1 X65.216 Y118.786 E8.38921
G1 X66.707 Y116.445 E8.45845
G1 X68.086 Y114.137 E8.52551
G1 X69.435 Y111.729 E8.59437
G1 X70.678 Y109.354 E8.66123
G1 X71.902 Y106.846 E8.73085
G1 X73.016 Y104.388 E8.79817
G1 X74.065 Y101.888 E8.8658
G1 X75.07 Y99.289 E8.93531
G1 X75.981 Y96.721 E9.00328
G1 X76.8 Y94.18 E9.06988
G1 X77.579 Y91.516 E9.13911
G1 X78.267 Y88.884 E9.20697
G1 X78.89 Y86.201 E9.27568
G1 X79.431 Y83.528 E9.34371
G1 X79.89 Y80.855 E9.41137
G1 X80.362 Y77.497 E9.49596
G1 X81.678 Y66.766 E9.76565
G1 X81.77 Y66.108 E9.78222
G1 X81.882 Y65.595 E9.79532
G1 X82.071 Y65.105 E9.80842
G1 X82.332 Y64.65 E9.8215
G0 F2160 X82.618 Y64.763
G1 F900 X82.94 Y64.378 E9.83402
G1 X83.319 Y64.05 E9.84653
G1 X83.745 Y63.785 E9.85904
G1 X84.208 Y63.592 E9.87156
G1 X84.696 Y63.475 E9.88407
G1 X85.196 Y63.436 E9.89658
G1 X85.696 Y63.477 E9.9091
G1 X86.183 Y63.597 E9.92161
G1 X86.644 Y63.793 E9.93411
G1 X87.069 Y64.06 E9.94663
G1 X87.446 Y64.391 E9.95914
G1 X87.766 Y64.777 E9.97165
G1 X87.968 Y65.107 E9.9813
G1 X88.31 Y65.75 E9.99947
G1 X88.912 Y66.925 E10.0324
G1 X90.191 Y69.256 E10.09873
G1 X91.603 Y71.662 E10.16832
G1 X93.063 Y73.999 E10.23705
G1 X94.556 Y76.244 E10.30431
G1 X96.159 Y78.513 E10.37361
G1 X97.792 Y80.69 E10.44149
G1 X99.506 Y82.847 E10.51022
G1 X101.26 Y84.93 E10.57815
G1 X103.075 Y86.965 E10.64617
G1 X104.962 Y88.965 E10.71476
G1 X106.908 Y90.912 E10.78343
G1 X108.883 Y92.782 E10.85128
G1 X110.937 Y94.617 E10.91998
G1 X113.038 Y96.39 E10.98856
G1 X115.167 Y98.087 E11.05647
G1 X117.353 Y99.73 E11.12469
G1 X119.574 Y101.303 E11.19258
G1 X121.875 Y102.838 E11.26158
G1 X124.196 Y104.291 E11.32988
G1 X126.578 Y105.69 E11.39879
G1 X128.942 Y106.993 E11.46613
G1 X131.384 Y108.247 E11.53461
G1 X133.887 Y109.446 E11.60384
G1 X136.355 Y110.543 E11.67121
G1 X138.88 Y111.581 E11.73931
G1 X141.483 Y112.568 E11.80876
G1 X144.062 Y113.458 E11.87681
G1 X146.661 Y114.278 E11.94479
G1 X149.283 Y115.022 E12.01278
G1 X151.984 Y115.709 E12.0823
G1 X154.623 Y116.298 E12.14975
G1 X157.302 Y116.819 E12.21783
G1 X160.035 Y117.271 E12.28694
G1 X162.716 Y117.635 E12.35443
G1 X165.461 Y117.931 E12.4233
G1 X166.692 Y118.029 E12.4541
G1 X167.533 Y118.109 E12.47518
G1 X168.245 Y118.219 E12.49315
G1 X168.892 Y118.381 E12.50979
G1 X169.384 Y118.542 E12.5227
G1 X170.004 Y118.797 E12.53942
G1 X170.675 Y119.109 E12.55788
G1 X171.108 Y119.324 E12.56994
G1 X171.595 Y119.571 E12.58356
G1 X172.379 Y119.977 E12.60559
G1 X173.383 Y120.508 E12.63392
G1 X174.458 Y121.088 E12.66439
G1 X175.447 Y121.626 E12.69247
G1 X177.582 Y122.781 E12.75302
G1 X180.114 Y124.159 E12.82493
G1 X180.832 Y124.546 E12.84528
G1 X181.645 Y124.994 E12.86844
G1 X186.348 Y127.65 E13.00317
G1 X186.943 Y127.997 E13.02035
G1 X187.355 Y128.283 E13.03286
G1 X187.716 Y128.631 E13.04537
G1 X188.017 Y129.032 E13.05788
G1 X188.251 Y129.476 E13.0704
G1 X188.411 Y129.952 E13.08292
G1 X188.494 Y130.446 E13.09542
G1 X188.498 Y130.948 E13.10794
G1 X188.459 Y131.261 E13.11581
G1 X188.247 Y132.467 E13.14635
G1 X188.147 Y132.996 E13.15978
G1 X187.576 Y136.684 E13.25288
G1 X187.484 Y137.35 E13.26965
G1 X187.369 Y137.869 E13.28291
G1 X187.226 Y138.311 E13.2945
G1 X187.004 Y138.823 E13.30842
G1 X186.594 Y139.471 E13.32755
G1 X184.693 Y142.061 E13.40769
G1 X184.133 Y142.85 E13.43182
G1 X183.778 Y143.268 E13.44551
G1 X183.464 Y143.578 E13.45651
G1 X183.08 Y143.9 E13.46901
G1 X182.63 Y144.168 E13.48208
G1 X182.281 Y144.338 E13.49176
G1 X181.814 Y144.521 E13.50427
G1 X180.932 Y144.685 E13.52665
G1 X180.682 Y144.701 E13.5329
G1 X177.927 Y144.918 E13.60184
G1 X175.186 Y145.212 E13.6706
G1 X172.5 Y145.576 E13.73822
G1 X169.761 Y146.027 E13.80746
G1 X167.103 Y146.542 E13.875
G1 X164.449 Y147.136 E13.94284
G1 X161.748 Y147.818 E14.01234
G1 X159.131 Y148.561 E14.0802
G1 X156.514 Y149.383 E14.14862
G1 X153.948 Y150.27 E14.21635
G1 X151.354 Y151.25 E14.28552
G1 X148.822 Y152.291 E14.35381
G1 X146.623 Y153.275 E14.41391
G1 X146.548 Y153.302 E14.41589
G1 X145.409 Y153.815 E14.44706
G1 X145.067 Y153.946 E14.45619
G1 X144.578 Y154.101 E14.46899
G1 X144.093 Y154.225 E14.48148
G1 X143.438 Y154.349 E14.4981
G1 X143.137 Y154.391 E14.50569
G1 X141.009 Y154.585 E14.55899
G1 X139.785 Y154.693 E14.58964
G1 X137.052 Y155.004 E14.65826
G1 X134.385 Y155.385 E14.72546
G1 X131.647 Y155.854 E14.79475
G1 X127.733 Y156.666 E14.89447
G1 X126.58 Y156.93 E14.92397
G1 X125.814 Y157.059 E14.94335
G1 X123.041 Y157.501 E15.0134
G1 X120.397 Y157.999 E15.08051
G1 X117.688 Y158.59 E15.14968
G1 X115.074 Y159.237 E15.21685
G1 X112.398 Y159.982 E15.28614
G1 X109.779 Y160.791 E15.35452
G1 X107.176 Y161.675 E15.42309
G1 X104.604 Y162.633 E15.49156
G1 X102.081 Y163.654 E15.55945
G1 X99.58 Y164.749 E15.62756
G1 X96.974 Y165.999 E15.69966
G1 X96.358 Y166.289 E15.71664
G1 X96.26 Y166.333 E15.71932
G1 X95.762 Y166.547 E15.73284
G1 X95.127 Y166.784 E15.74975
G1 X94.553 Y166.957 E15.7647
G1 X94.074 Y167.071 E15.77699
G1 X93.219 Y167.226 E15.79866
G1 X93.007 Y167.257 E15.80401
G1 X92.264 Y167.339 E15.82265
G1 X92.003 Y167.353 E15.82917
G1 X91.113 Y167.369 E15.85138
G1 X90.326 Y167.362 E15.87101
G1 X90.248 Y167.367 E15.87296
G1 X88.244 Y167.358 E15.92295
G1 X85.525 Y167.423 E15.9908
G1 X82.771 Y167.566 E16.05959
G1 X80.056 Y167.785 E16.12753
G1 X77.32 Y168.082 E16.19618
G1 X74.587 Y168.459 E16.265
G1 X71.904 Y168.906 E16.33286
G1 X69.228 Y169.43 E16.40088
G1 X68.24 Y169.648 E16.42611
G1 X67.523 Y169.757 E16.44421
G1 X66.794 Y169.775 E16.4624
G1 X66.18 Y169.721 E16.47777
G1 X66.003 Y169.686 E16.48227
G1 X65.474 Y169.57 E16.49578
G1 X62.805 Y169.025 E16.56373
G1 X60.111 Y168.556 E16.63195
G1 X58.393 Y168.296 E16.67529
G1 X57.714 Y168.113 E16.69283
G1 X57.163 Y167.896 E16.70761
G1 X57.083 Y167.862 E16.70977
G1 X56.434 Y167.49 E16.72843
G1 X55.941 Y167.123 E16.74377
G1 X55.461 Y166.681 E16.76004
G1 X55.249 Y166.441 E16.76803
G1 X54.868 Y165.906 E16.78441
G1 X54.57 Y165.379 E16.79952
G1 X54.318 Y164.808 E16.81509
G1 X53.913 Y163.569 E16.8476
G1 X53.835 Y163.319 E16.85413
G1 X52.949 Y160.733 E16.92232
G1 X51.991 Y158.167 E16.99065
G1 X50.949 Y155.614 E17.05943
G1 X49.847 Y153.114 E17.12759
G1 X48.691 Y150.675 E17.19491
G1 X47.886 Y149.076 E17.23957
G1 X47.37 Y148.073 E17.26771
G1 X47.282 Y147.889 E17.2728
G1 X46.975 Y147.184 E17.29198
G1 X46.761 Y146.557 E17.3085
G1 X46.595 Y145.815 E17.32747
G1 X46.525 Y145.288 E17.34073
G1 X46.497 Y144.776 E17.35352
G1 X46.543 Y143.961 E17.37389
G1 X46.639 Y143.374 E17.38872
G1 X46.801 Y142.765 E17.40444
G1 X47.104 Y142.026 E17.42437
G1 X47.406 Y141.477 E17.44
G1 X47.849 Y140.852 E17.45911
G1 X48.138 Y140.523 E17.47003
G1 X48.641 Y140.025 E17.48769
G1 X49.726 Y138.982 E17.52523
G1 X51.636 Y137.038 E17.59321
G1 X53.488 Y135.044 E17.6611
G1 X55.315 Y132.959 E17.73025
G1 X57.06 Y130.852 E17.7985
G1 X58.72 Y128.728 E17.86574
G1 X60.366 Y126.495 E17.93494
G1 X61.929 Y124.243 E18.00332
G1 X62.851 Y122.848 E18.04503
G1 X63.586 Y121.715 E18.07872
G1 X63.939 Y121.207 E18.09415
G1 X65.468 Y118.949 E18.16218
G1 X66.944 Y116.631 E18.23073
G1 X68.36 Y114.262 E18.29958
G1 X69.687 Y111.893 E18.36731
G1 X70.967 Y109.448 E18.43615
G1 X72.169 Y106.983 E18.50456
G1 X73.284 Y104.523 E18.57194
G1 X74.353 Y101.976 E18.64084
G1 X75.357 Y99.381 E18.71025
G1 X76.253 Y96.851 E18.7772
G1 X77.096 Y94.241 E18.84562
G1 X77.873 Y91.579 E18.9148
G1 X78.56 Y88.955 E18.98246
G1 X79.178 Y86.29 E19.0507
G1 X79.727 Y83.579 E19.1197
G1 X80.186 Y80.909 E19.18728
G1 X80.656 Y77.558 E19.27169
G1 X81.975 Y66.808 E19.54186
G1 X82.067 Y66.15 E19.55843
G1 X82.176 Y65.66 E19.57096
G1 X82.361 Y65.194 E19.58346
G1 X82.618 Y64.763 E19.59598
G1 F1500 E14.09598
;MESH:Carina.stl
G0 F2160 X85.853 Y65.948
G0 X158.109 Y126.543
G0 X158.741 Y127.296
G0 X162.258 Y129.733
;TYPE:WALL-INNER
G1 F1500 E19.59598
G1 F900 X161.568 Y130.403 E19.61997
G1 X161.86 Y131.23 E19.64185
G1 X162.274 Y131.96 E19.66278
G1 X162.846 Y132.705 E19.68621
G1 X163.24 Y133.133 E19.70073
G1 X163.993 Y133.821 E19.72617
G1 X164.424 Y134.188 E19.74029
G1 X165.163 Y134.738 E19.76327
G1 X165.952 Y135.227 E19.78642
G1 X166.747 Y135.614 E19.80848
G1 X167.544 Y135.882 E19.82946
G1 X168.274 Y136.027 E19.84802
G1 X169.114 Y136.035 E19.86898
G1 X169.763 Y135.591 E19.88859
G1 X169.667 Y134.777 E19.90904
G1 X169.401 Y134.138 E19.9263
G1 X168.757 Y133.497 E19.94897
G1 X168.278 Y133.136 E19.96393
G1 X166.572 Y131.981 E20.01532
G1 X166.103 Y131.657 E20.02954
G1 X165.474 Y131.235 E20.04844
G1 X164.934 Y130.907 E20.0642
G1 X164.369 Y130.62 E20.08001
G1 X163.232 Y130.111 E20.11108
G1 X162.258 Y129.733 E20.13714
G0 F2160 X162.329 Y130.082
G1 F900 X161.915 Y130.484 E20.15154
G1 X162.134 Y131.105 E20.16796
G1 X162.525 Y131.794 E20.18773
G1 X163.076 Y132.512 E20.2103
G1 X163.452 Y132.92 E20.22414
G1 X164.191 Y133.596 E20.24913
G1 X164.611 Y133.953 E20.26288
G1 X165.332 Y134.49 E20.2853
G1 X166.097 Y134.964 E20.30775
G1 X166.861 Y135.336 E20.32895
G1 X167.621 Y135.591 E20.34895
G1 X168.305 Y135.727 E20.36634
G1 X169.023 Y135.734 E20.38425
G1 X169.444 Y135.446 E20.39698
G1 X169.374 Y134.854 E20.41185
G1 X169.147 Y134.308 E20.4266
G1 X168.56 Y133.724 E20.44725
G1 X168.104 Y133.38 E20.4615
G1 X166.401 Y132.228 E20.51279
