;FLAVOR:Marlin
;TIME:1230
;Filament used: 1.19904m, 0m
;Layer height: 0.2
;MINX:109.765
;MINY:120.356
;MINZ:0.2
;MAXX:137.265
;MAXY:147.856
;MAXZ:20
;Generated with Cura_SteamEngine 4.8.0
T0
M140 S60
M105
M190 S60
M104 S200
M105
M109 S200
M82 ;absolute extrusion mode
M201 X500.00 Y500.00 Z100.00 E5000.00 	;Setup machine max acceleration
M203 X500.00 Y500.00 Z10.00 E50.00 	;Setup machine max feedrate
M204 P500.00 R1000.00 T500.00 		;Setup Print/Retract/Travel acceleration
M205 X8.00 Y8.00 Z0.40 E5.00 		;Setup Jerk
M220 S100 				;Reset Feedrate
M221 S100 				;Reset Flowrate
G28				;Home the Machine
#G29 				;Bed Level
G92 E0
M300 P150 S587
G92 E0
G1 F1500 E-5.5
;LAYER_COUNT:100
;LAYER:0
M107
G0 F2160 X111.164 Y121.201 Z0.2
;TYPE:SKIRT
G1 F1500 E0
G1 F900 X111.613 Y120.888 E0.01365
G1 X112.103 Y120.644 E0.02731
G1 X112.624 Y120.475 E0.04097
G1 X113.419 Y120.366 E0.06099
G1 X113.845 Y120.356 E0.07162
G1 X132.862 Y120.356 E0.546
G1 X133.56 Y120.366 E0.56341
G1 X134.105 Y120.414 E0.57706
G1 X134.637 Y120.541 E0.5907
G1 X135.146 Y120.744 E0.60437
G1 X135.619 Y121.018 E0.61801
G1 X136.048 Y121.359 E0.63168
G1 X136.422 Y121.758 E0.64532
G1 X136.734 Y122.208 E0.65898
G1 X136.978 Y122.698 E0.67264
G1 X137.147 Y123.219 E0.6863
G1 X137.255 Y124.011 E0.70624
G1 X137.265 Y124.436 E0.71684
G1 X137.265 Y143.416 E1.1903
G1 X137.256 Y144.143 E1.20844
G1 X137.209 Y144.689 E1.22211
G1 X137.083 Y145.222 E1.23577
G1 X136.882 Y145.73 E1.2494
G1 X136.608 Y146.204 E1.26305
G1 X136.268 Y146.633 E1.27671
G1 X135.869 Y147.008 E1.29037
G1 X135.42 Y147.322 E1.30404
G1 X134.931 Y147.566 E1.31767
G1 X134.41 Y147.736 E1.33134
G1 X133.611 Y147.846 E1.35146
G1 X133.185 Y147.856 E1.36209
G1 X114.174 Y147.856 E1.83632
G1 X113.476 Y147.847 E1.85373
G1 X112.93 Y147.8 E1.8674
G1 X112.398 Y147.674 E1.88104
G1 X111.889 Y147.472 E1.8947
G1 X111.415 Y147.198 E1.90836
G1 X110.986 Y146.858 E1.92201
G1 X110.611 Y146.459 E1.93567
G1 X110.298 Y146.01 E1.94933
G1 X110.054 Y145.52 E1.96298
G1 X109.884 Y145 E1.97663
G1 X109.775 Y144.198 E1.99682
G1 X109.765 Y143.764 E2.00765
G1 X109.765 Y124.729 E2.48248
G1 X109.774 Y124.064 E2.49907
G1 X109.822 Y123.519 E2.51271
G1 X109.948 Y122.986 E2.52638
G1 X110.15 Y122.478 E2.54001
G1 X110.425 Y122.004 E2.55368
G1 X110.765 Y121.575 E2.56734
G1 X111.164 Y121.201 E2.58098
G0 F2160 X111.454 Y121.355
G1 F900 X111.897 Y121.073 E2.59408
G1 X112.378 Y120.861 E2.60719
G1 X112.885 Y120.725 E2.62029
G1 X113.427 Y120.666 E2.63389
G1 X113.845 Y120.656 E2.64432
G1 X132.857 Y120.656 E3.11857
G1 X133.555 Y120.666 E3.13599
G1 X134.078 Y120.714 E3.14909
G1 X134.588 Y120.84 E3.16219
G1 X135.072 Y121.042 E3.17527
G1 X135.521 Y121.315 E3.18838
G1 X135.922 Y121.653 E3.20146
G1 X136.268 Y122.049 E3.21458
G1 X136.55 Y122.492 E3.22768
G1 X136.761 Y122.972 E3.24076
G1 X136.897 Y123.479 E3.25386
G1 X136.955 Y124.019 E3.2674
G1 X136.965 Y124.436 E3.27781
G1 X136.965 Y143.413 E3.75119
G1 X136.956 Y144.14 E3.76933
G1 X136.909 Y144.663 E3.78243
G1 X136.784 Y145.172 E3.7955
G1 X136.583 Y145.657 E3.8086
G1 X136.311 Y146.106 E3.82169
G1 X135.973 Y146.508 E3.83479
G1 X135.579 Y146.855 E3.84789
G1 X135.136 Y147.137 E3.86099
G1 X134.656 Y147.35 E3.87409
G1 X134.149 Y147.486 E3.88718
G1 X133.603 Y147.546 E3.90089
G1 X133.185 Y147.556 E3.91132
G1 X114.178 Y147.556 E4.38545
G1 X113.48 Y147.547 E4.40286
G1 X112.957 Y147.5 E4.41596
G1 X112.447 Y147.375 E4.42906
G1 X111.962 Y147.173 E4.44216
G1 X111.513 Y146.901 E4.45526
G1 X111.111 Y146.563 E4.46836
G1 X110.765 Y146.168 E4.48146
G1 X110.483 Y145.726 E4.49454
G1 X110.271 Y145.246 E4.50763
G1 X110.134 Y144.739 E4.52073
G1 X110.075 Y144.19 E4.5345
G1 X110.065 Y143.764 E4.54513
G1 X110.065 Y124.733 E5.01986
G1 X110.074 Y124.068 E5.03645
G1 X110.121 Y123.545 E5.04955
G1 X110.247 Y123.036 E5.06263
G1 X110.449 Y122.551 E5.07574
G1 X110.722 Y122.103 E5.08882
G1 X111.059 Y121.701 E5.10191
G1 X111.454 Y121.355 E5.11501
G0 F2160 X111.353 Y121.832
G1 F900 X111.743 Y121.517 E5.12751
G1 X112.178 Y121.267 E5.14003
G1 X112.647 Y121.089 E5.15254
G1 X113.139 Y120.989 E5.16507
G1 X113.757 Y120.957 E5.1805
G1 X132.853 Y120.956 E5.65686
G1 X133.551 Y120.966 E5.67427
G1 X134.051 Y121.013 E5.6868
G1 X134.536 Y121.139 E5.6993
G1 X134.996 Y121.34 E5.71182
G1 X135.417 Y121.612 E5.72432
G1 X135.79 Y121.947 E5.73683
G1 X136.106 Y122.337 E5.74935
G1 X136.355 Y122.772 E5.76185
G1 X136.532 Y123.242 E5.77438
G1 X136.633 Y123.733 E5.78689
G1 X136.664 Y124.347 E5.80222
G1 X136.665 Y143.409 E6.27772
G1 X136.656 Y144.136 E6.29586
G1 X136.61 Y144.635 E6.30836
G1 X136.485 Y145.121 E6.32088
G1 X136.284 Y145.581 E6.3334
G1 X136.014 Y146.003 E6.3459
G1 X135.679 Y146.377 E6.35842
G1 X135.29 Y146.693 E6.37093
G1 X134.855 Y146.944 E6.38345
G1 X134.386 Y147.122 E6.39597
G1 X133.895 Y147.223 E6.40847
G1 X133.273 Y147.255 E6.42401
G1 X114.181 Y147.256 E6.90026
G1 X113.483 Y147.247 E6.91767
G1 X112.984 Y147.2 E6.93018
G1 X112.498 Y147.075 E6.94269
G1 X112.038 Y146.875 E6.95521
G1 X111.616 Y146.604 E6.96772
G1 X111.243 Y146.269 E6.98022
G1 X110.927 Y145.879 E6.99274
G1 X110.677 Y145.445 E7.00524
G1 X110.499 Y144.976 E7.01775
G1 X110.398 Y144.484 E7.03028
G1 X110.366 Y143.849 E7.04614
G1 X110.365 Y124.737 E7.52289
G1 X110.374 Y124.072 E7.53948
G1 X110.421 Y123.573 E7.55198
G1 X110.546 Y123.087 E7.5645
G1 X110.747 Y122.628 E7.577
G1 X111.019 Y122.206 E7.58953
G1 X111.353 Y121.832 E7.60203
G1 F1500 E2.10203
;MESH:xyzCalibration_cube.stl
G0 F2160 X113.979 Y123.441
G0 X113.979 Y124.57
G0 X132.765 Y143.356
;TYPE:WALL-INNER
G1 F1500 E7.60203
G1 F900 X114.265 Y143.356 E8.06352
G1 X114.265 Y124.856 E8.525
G1 X132.765 Y124.856 E8.98649
G1 X132.765 Y143.356 E9.44797
G0 F2160 X133.065 Y143.656
G1 F900 X113.965 Y143.656 E9.92442
G1 X113.965 Y124.556 E10.40087
G1 X133.065 Y124.556 E10.87733
G1 X133.065 Y143.656 E11.35378
G0 F2160 X133.315 Y143.906
;TYPE:WALL-OUTER
G1 F900 X113.715 Y143.906 E11.8427
G1 X113.715 Y124.306 E12.33162
G1 X133.315 Y124.306 E12.82055
G1 X133.315 Y143.906 E13.30947
G0 F2160 X133.115 Y143.906
G0 X132.985 Y143.576
G0 X132.475 Y143.066
;TYPE:SKIN
G1 F900 X114.555 Y143.066 E13.75649
G1 X114.555 Y125.146 E14.20351
G1 X132.475 Y125.146 E14.65052
G1 X132.475 Y143.066 E15.09754
G0 F2160 X132.339 Y125.551
G1 F900 X132.069 Y125.28 E15.10708
G0 F2160 X131.644 Y125.28
G1 F900 X132.339 Y125.976 E15.13162
G0 F2160 X132.339 Y126.4
G1 F900 X131.22 Y125.28 E15.17111
G0 F2160 X130.796 Y125.28
G1 F900 X132.339 Y126.824 E15.22556
G0 F2160 X132.339 Y127.248
G1 F900 X130.372 Y125.28 E15.29497
G0 F2160 X129.947 Y125.28
G1 F900 X132.339 Y127.673 E15.37937
G0 F2160 X132.339 Y128.097
G1 F900 X129.523 Y125.28 E15.47873
G0 F2160 X129.099 Y125.28
G1 F900 X132.339 Y128.521 E15.59305
G0 F2160 X132.339 Y128.945
G1 F900 X128.675 Y125.28 E15.72232
G0 F2160 X128.25 Y125.28
G1 F900 X132.339 Y129.37 E15.86659
G0 F2160 X132.339 Y129.794
G1 F900 X127.826 Y125.28 E16.02582
G0 F2160 X127.402 Y125.28
G1 F900 X132.339 Y130.218 E16.2
G0 F2160 X132.339 Y130.642
G1 F900 X126.977 Y125.28 E16.38916
G0 F2160 X126.553 Y125.28
G1 F900 X132.339 Y131.067 E16.59329
G0 F2160 X132.339 Y131.491
G1 F900 X126.129 Y125.28 E16.81239
G0 F2160 X125.705 Y125.28
G1 F900 X132.339 Y131.915 E17.04644
G0 F2160 X132.339 Y132.339
G1 F900 X125.28 Y125.28 E17.29546
G0 F2160 X124.856 Y125.28
G1 F900 X132.339 Y132.764 E17.55946
G0 F2160 X132.339 Y133.188
G1 F900 X124.432 Y125.28 E17.83842
G0 F2160 X124.008 Y125.28
G1 F900 X132.339 Y133.612 E18.13234
G0 F2160 X132.339 Y134.037
G1 F900 X123.583 Y125.28 E18.44125
G0 F2160 X123.159 Y125.28
G1 F900 X132.339 Y134.461 E18.76511
G0 F2160 X132.339 Y134.885
G1 F900 X122.735 Y125.28 E19.10394
G0 F2160 X122.311 Y125.28
G1 F900 X132.339 Y135.309 E19.45772
G0 F2160 X132.339 Y135.734
G1 F900 X121.886 Y125.28 E19.8265
G0 F2160 X121.462 Y125.28
G1 F900 X132.339 Y136.158 E20.21023
G0 F2160 X132.339 Y136.582
G1 F900 X121.038 Y125.28 E20.60892
G0 F2160 X120.614 Y125.28
G1 F900 X132.339 Y137.006 E21.02257
G0 F2160 X132.339 Y137.431
G1 F900 X120.189 Y125.28 E21.45121
G0 F2160 X119.765 Y125.28
G1 F900 X132.339 Y137.855 E21.89481
G0 F2160 X132.339 Y138.279
G1 F900 X119.341 Y125.28 E22.35337
G0 F2160 X118.916 Y125.28
G1 F900 X132.339 Y138.703 E22.8269
G0 F2160 X132.339 Y139.128
G1 F900 X118.492 Y125.28 E23.31541
G0 F2160 X118.068 Y125.28
G1 F900 X132.339 Y139.552 E23.81887
G0 F2160 X132.339 Y139.976
G1 F900 X117.644 Y125.28 E24.3373
G0 F2160 X117.219 Y125.28
G1 F900 X132.339 Y140.401 E24.87071
G0 F2160 X132.339 Y140.825
G1 F900 X116.795 Y125.28 E25.41909
G0 F2160 X116.371 Y125.28
G1 F900 X132.339 Y141.249 E25.98242
G0 F2160 X132.339 Y141.673
G1 F900 X115.947 Y125.28 E26.56071
G0 F2160 X115.522 Y125.28
G1 F900 X132.339 Y142.098 E27.15399
G0 F2160 X132.339 Y142.522
G1 F900 X115.098 Y125.28 E27.76223
G0 F2160 X114.689 Y125.296
G1 F900 X132.323 Y142.929 E28.3843
G0 F2160 X131.898 Y142.929
G1 F900 X114.689 Y125.72 E28.9914
G0 F2160 X114.689 Y126.145
G1 F900 X131.474 Y142.929 E29.58351
G0 F2160 X131.05 Y142.929
G1 F900 X114.689 Y126.569 E30.16067
G0 F2160 X114.689 Y126.993
G1 F900 X130.625 Y142.929 E30.72286
G0 F2160 X130.201 Y142.929
G1 F900 X114.689 Y127.417 E31.27009
G0 F2160 X114.689 Y127.842
G1 F900 X129.777 Y142.929 E31.80234
G0 F2160 X129.353 Y142.929
G1 F900 X114.689 Y128.266 E32.31963
G0 F2160 X114.689 Y128.69
G1 F900 X128.928 Y142.929 E32.82195
G0 F2160 X128.504 Y142.929
G1 F900 X114.689 Y129.114 E33.30932
G0 F2160 X114.689 Y129.539
G1 F900 X128.08 Y142.929 E33.7817
G0 F2160 X127.656 Y142.929
G1 F900 X114.689 Y129.963 E34.23913
G0 F2160 X114.689 Y130.387
G1 F900 X127.231 Y142.929 E34.68158
G0 F2160 X126.807 Y142.929
G1 F900 X114.689 Y130.811 E35.10908
G0 F2160 X114.689 Y131.236
G1 F900 X126.383 Y142.929 E35.5216
G0 F2160 X125.959 Y142.929
G1 F900 X114.689 Y131.66 E35.91916
G0 F2160 X114.689 Y132.084
G1 F900 X125.534 Y142.929 E36.30175
G0 F2160 X125.11 Y142.929
G1 F900 X114.689 Y132.508 E36.66938
G0 F2160 X114.689 Y132.933
G1 F900 X124.686 Y142.929 E37.02203
G0 F2160 X124.261 Y142.929
G1 F900 X114.689 Y133.357 E37.35971
G0 F2160 X114.689 Y133.781
G1 F900 X123.837 Y142.929 E37.68243
G0 F2160 X123.413 Y142.929
G1 F900 X114.689 Y134.206 E37.99017
G0 F2160 X114.689 Y134.63
G1 F900 X122.989 Y142.929 E38.28296
G0 F2160 X122.564 Y142.929
G1 F900 X114.689 Y135.054 E38.56077
G0 F2160 X114.689 Y135.478
G1 F900 X122.14 Y142.929 E38.82363
G0 F2160 X121.716 Y142.929
G1 F900 X114.689 Y135.903 E39.0715
G0 F2160 X114.689 Y136.327
G1 F900 X121.292 Y142.929 E39.30443
G0 F2160 X120.867 Y142.929
G1 F900 X114.689 Y136.751 E39.52237
G0 F2160 X114.689 Y137.175
G1 F900 X120.443 Y142.929 E39.72536
G0 F2160 X120.019 Y142.929
G1 F900 X114.689 Y137.6 E39.91337
G0 F2160 X114.689 Y138.024
G1 F900 X119.595 Y142.929 E40.08643
G0 F2160 X119.17 Y142.929
G1 F900 X114.689 Y138.448 E40.24451
G0 F2160 X114.689 Y138.872
G1 F900 X118.746 Y142.929 E40.38763
G0 F2160 X118.322 Y142.929
G1 F900 X114.689 Y139.297 E40.51577
G0 F2160 X114.689 Y139.721
G1 F900 X117.898 Y142.929 E40.62896
G0 F2160 X117.473 Y142.929
G1 F900 X114.689 Y140.145 E40.72718
G0 F2160 X114.689 Y140.569
G1 F900 X117.049 Y142.929 E40.81043
G0 F2160 X116.625 Y142.929
G1 F900 X114.689 Y140.994 E40.87871
G0 F2160 X114.689 Y141.418
G1 F900 X116.2 Y142.929 E40.93202
G0 F2160 X115.776 Y142.929
G1 F900 X114.689 Y141.842 E40.97036
G0 F2160 X114.689 Y142.267
G1 F900 X115.352 Y142.929 E40.99373
G0 F2160 X114.928 Y142.929
G1 F900 X114.689 Y142.691 E41.00215
;MESH:NONMESH
G0 F600 X114.689 Y142.691 Z0.4
G0 F2160 X132.765 Y143.356
;TIME_ELAPSED:119.618063
;LAYER:1
M106 S255
;TYPE:WALL-INNER
;MESH:xyzCalibration_cube.stl
G1 F2460 X114.265 Y143.356 E41.46363
G1 X114.265 Y124.856 E41.92512
G1 X132.765 Y124.856 E42.3866
G1 X132.765 Y143.356 E42.84808
G0 F4680 X133.065 Y143.656
G1 F2460 X113.965 Y143.656 E43.32454
G1 X113.965 Y124.556 E43.80099
G1 X133.065 Y124.556 E44.27744
G1 X133.065 Y143.656 E44.75389
G0 F4680 X133.315 Y143.906
;TYPE:WALL-OUTER
G1 F1470 X113.715 Y143.906 E45.24281
G1 X113.715 Y124.306 E45.73174
G1 X133.315 Y124.306 E46.22066
G1 X133.315 Y143.906 E46.70959
G0 F4680 X133.115 Y143.906
G0 X132.985 Y143.576
G0 X132.475 Y143.066
;TYPE:SKIN
G1 F1200 X114.555 Y143.066 E47.1566
G1 X114.555 Y125.146 E47.60362
G1 X132.475 Y125.146 E48.05064
G1 X132.475 Y143.066 E48.49765
G0 F4680 X131.992 Y142.93
G1 F1200 X132.339 Y142.583 E48.50989
G0 F4680 X132.339 Y142.159
G1 F1200 X131.568 Y142.93 E48.53709
G0 F4680 X131.144 Y142.93
G1 F1200 X132.339 Y141.735 E48.57925
G0 F4680 X132.339 Y141.311
G1 F1200 X130.72 Y142.93 E48.63636
G0 F4680 X130.295 Y142.93
G1 F1200 X132.339 Y140.886 E48.70847
G0 F4680 X132.339 Y140.462
G1 F1200 X129.871 Y142.93 E48.79554
G0 F4680 X129.447 Y142.93
G1 F1200 X132.339 Y140.038 E48.89756
G0 F4680 X132.339 Y139.613
G1 F1200 X129.022 Y142.93 E49.01458
G0 F4680 X128.598 Y142.93
G1 F1200 X132.339 Y139.189 E49.14655
G0 F4680 X132.339 Y138.765
G1 F1200 X128.174 Y142.93 E49.29348
G0 F4680 X127.75 Y142.93
G1 F1200 X132.339 Y138.341 E49.45537
G0 F4680 X132.339 Y137.916
G1 F1200 X127.325 Y142.93 E49.63225
G0 F4680 X126.901 Y142.93
G1 F1200 X132.339 Y137.492 E49.82409
G0 F4680 X132.339 Y137.068
G1 F1200 X126.477 Y142.93 E50.03089
G0 F4680 X126.053 Y142.93
G1 F1200 X132.339 Y136.644 E50.25265
G0 F4680 X132.339 Y136.219
G1 F1200 X125.628 Y142.93 E50.4894
G0 F4680 X125.204 Y142.93
G1 F1200 X132.339 Y135.795 E50.7411
G0 F4680 X132.339 Y135.371
G1 F1200 X124.78 Y142.93 E51.00777
G0 F4680 X124.356 Y142.93
G1 F1200 X132.339 Y134.947 E51.28939
G0 F4680 X132.339 Y134.522
G1 F1200 X123.931 Y142.93 E51.586
G0 F4680 X123.507 Y142.93
G1 F1200 X132.339 Y134.098 E51.89757
G0 F4680 X132.339 Y133.674
G1 F1200 X123.083 Y142.93 E52.22411
G0 F4680 X122.658 Y142.93
G1 F1200 X132.339 Y133.25 E52.56561
G0 F4680 X132.339 Y132.825
G1 F1200 X122.234 Y142.93 E52.92209
G0 F4680 X121.81 Y142.93
G1 F1200 X132.339 Y132.401 E53.29353
G0 F4680 X132.339 Y131.977
G1 F1200 X121.386 Y142.93 E53.67993
G0 F4680 X120.961 Y142.93
G1 F1200 X132.339 Y131.552 E54.08132
G0 F4680 X132.339 Y131.128
G1 F1200 X120.537 Y142.93 E54.49767
G0 F4680 X120.113 Y142.93
G1 F1200 X132.339 Y130.704 E54.92897
G0 F4680 X132.339 Y130.28
G1 F1200 X119.689 Y142.93 E55.37523
G0 F4680 X119.264 Y142.93
G1 F1200 X132.339 Y129.855 E55.83649
G0 F4680 X132.339 Y129.431
G1 F1200 X118.84 Y142.93 E56.3127
G0 F4680 X118.416 Y142.93
G1 F1200 X132.339 Y129.007 E56.80387
G0 F4680 X132.339 Y128.583
G1 F1200 X117.992 Y142.93 E57.31
G0 F4680 X117.567 Y142.93
G1 F1200 X132.339 Y128.158 E57.83113
G0 F4680 X132.339 Y127.734
G1 F1200 X117.143 Y142.93 E58.36721
G0 F4680 X116.719 Y142.93
G1 F1200 X132.339 Y127.31 E58.91824
G0 F4680 X132.339 Y126.886
G1 F1200 X116.295 Y142.93 E59.48424
G0 F4680 X115.87 Y142.93
G1 F1200 X132.339 Y126.461 E60.06523
G0 F4680 X132.339 Y126.037
G1 F1200 X115.446 Y142.93 E60.66117
G0 F4680 X115.022 Y142.93
G1 F1200 X132.339 Y125.613 E61.27208
G0 F4680 X132.248 Y125.28
G1 F1200 X114.69 Y142.837 E61.89147
G0 F4680 X114.69 Y142.413
G1 F1200 X131.823 Y125.28 E62.49588
G0 F4680 X131.399 Y125.28
G1 F1200 X114.69 Y141.989 E63.08533
G0 F4680 X114.69 Y141.564
G1 F1200 X130.975 Y125.28 E63.65981
G0 F4680 X130.551 Y125.28
G1 F1200 X114.69 Y141.14 E64.21933
G0 F4680 X114.69 Y140.716
G1 F1200 X130.126 Y125.28 E64.76388
G0 F4680 X129.702 Y125.28
G1 F1200 X114.69 Y140.292 E65.29347
G0 F4680 X114.69 Y139.867
G1 F1200 X129.278 Y125.28 E65.80808
G0 F4680 X128.853 Y125.28
G1 F1200 X114.69 Y139.443 E66.30772
G0 F4680 X114.69 Y139.019
G1 F1200 X128.429 Y125.28 E66.7924
G0 F4680 X128.005 Y125.28
G1 F1200 X114.69 Y138.595 E67.26212
G0 F4680 X114.69 Y138.17
G1 F1200 X127.581 Y125.28 E67.71687
G0 F4680 X127.156 Y125.28
G1 F1200 X114.69 Y137.746 E68.15664
G0 F4680 X114.69 Y137.322
G1 F1200 X126.732 Y125.28 E68.58146
G0 F4680 X126.308 Y125.28
G1 F1200 X114.69 Y136.897 E68.9913
G0 F4680 X114.69 Y136.473
G1 F1200 X125.884 Y125.28 E69.38618
G0 F4680 X125.459 Y125.28
G1 F1200 X114.69 Y136.049 E69.76608
G0 F4680 X114.69 Y135.625
G1 F1200 X125.035 Y125.28 E70.13103
G0 F4680 X124.611 Y125.28
G1 F1200 X114.69 Y135.2 E70.481
G0 F4680 X114.69 Y134.776
G1 F1200 X124.187 Y125.28 E70.81602
G0 F4680 X123.762 Y125.28
G1 F1200 X114.69 Y134.352 E71.13606
