;FLAVOR:Marlin
;TIME:1937
;Filament used: 1.91276m, 0m
;Layer height: 0.2
;MINX:100.557
;MINY:99.5
;MINZ:0.2
;MAXX:132.642
;MAXY:135.5
;MAXZ:34.6
;Generated with Cura_SteamEngine 4.8.0
T0
M140 S60
M105
M190 S60
M104 S200
M105
M109 S200
M82 ;absolute extrusion mode
M201 X500.00 Y500.00 Z100.00 E5000.00 	;Setup machine max acceleration
M203 X500.00 Y500.00 Z10.00 E50.00 	;Setup machine max feedrate
M204 P500.00 R1000.00 T500.00 		;Setup Print/Retract/Travel acceleration
M205 X8.00 Y8.00 Z0.40 E5.00 		;Setup Jerk
M220 S100 				;Reset Feedrate
M221 S100 				;Reset Flowrate
G28				;Home the Machine
#G29 				;Bed Level
G92 E0
M300 P150 S587
G92 E0
G1 F1500 E-5.5
;LAYER_COUNT:175
;LAYER:0
M107
G0 F2160 X106.142 Y100.719 Z0.2
;TYPE:SKIRT
G1 F1500 E0
G1 F900 X106.541 Y100.345 E0.01364
G1 X106.99 Y100.032 E0.0273
G1 X107.48 Y99.788 E0.04095
G1 X108.001 Y99.619 E0.05461
G1 X108.796 Y99.51 E0.07463
G1 X109.222 Y99.5 E0.08526
G1 X116.26 Y99.5 E0.26082
G1 X117.475 Y99.517 E0.29113
G1 X120.215 Y99.517 E0.35948
G1 X120.906 Y99.502 E0.37672
G1 X121.177 Y99.5 E0.38349
G1 X128.239 Y99.5 E0.55965
G1 X128.937 Y99.51 E0.57706
G1 X129.482 Y99.558 E0.59071
G1 X130.014 Y99.685 E0.60435
G1 X130.523 Y99.888 E0.61802
G1 X130.996 Y100.162 E0.63166
G1 X131.425 Y100.503 E0.64533
G1 X131.799 Y100.902 E0.65897
G1 X132.111 Y101.352 E0.67263
G1 X132.355 Y101.842 E0.68628
G1 X132.524 Y102.363 E0.69995
G1 X132.632 Y103.155 E0.71989
G1 X132.642 Y103.58 E0.73049
G1 X132.642 Y111.567 E0.92973
G1 X132.634 Y112.125 E0.94365
G1 X132.634 Y114.857 E1.0118
G1 X132.642 Y115.538 E1.02879
G1 X132.642 Y123.576 E1.2293
G1 X132.632 Y124.298 E1.24731
G1 X132.584 Y124.843 E1.26096
G1 X132.458 Y125.376 E1.27462
G1 X132.255 Y125.884 E1.28826
G1 X131.981 Y126.358 E1.30192
G1 X131.64 Y126.786 E1.31557
G1 X131.134 Y127.266 E1.33297
G1 X129.143 Y129.123 E1.40089
G1 X127.209 Y131.033 E1.46869
G1 X125.331 Y132.994 E1.53642
G1 X124.891 Y133.479 E1.55276
G1 X124.132 Y134.295 E1.58056
G1 X123.731 Y134.668 E1.59422
G1 X123.28 Y134.978 E1.60787
G1 X122.788 Y135.219 E1.62154
G1 X122.267 Y135.386 E1.63518
G1 X121.49 Y135.49 E1.65474
G1 X121.062 Y135.5 E1.66542
G1 X112.41 Y135.5 E1.88124
G1 X111.711 Y135.49 E1.89868
G1 X111.166 Y135.442 E1.91233
G1 X110.634 Y135.315 E1.92597
G1 X110.125 Y135.112 E1.93964
G1 X109.652 Y134.838 E1.95328
G1 X109.223 Y134.497 E1.96695
G1 X108.849 Y134.098 E1.98059
G1 X108.537 Y133.648 E1.99425
G1 X108.231 Y132.994 E2.01226
G1 X107.748 Y131.631 E2.04833
G1 X107.631 Y131.287 E2.0574
G1 X106.679 Y128.73 E2.12546
G1 X105.75 Y126.428 E2.18738
G1 X105.441 Y125.688 E2.20739
G1 X105.267 Y125.169 E2.22104
G1 X105.171 Y124.63 E2.2347
G1 X105.143 Y124.024 E2.24983
G1 X105.142 Y115.921 E2.45196
G1 X105.15 Y115.374 E2.46561
G1 X105.15 Y112.643 E2.53373
G1 X105.142 Y111.962 E2.55072
G1 X105.142 Y103.873 E2.7525
G1 X105.151 Y103.208 E2.76909
G1 X105.199 Y102.663 E2.78274
G1 X105.325 Y102.13 E2.7964
G1 X105.527 Y101.622 E2.81004
G1 X105.802 Y101.148 E2.82371
G1 X106.142 Y100.719 E2.83737
G0 F2160 X106.436 Y100.845
G1 F900 X106.831 Y100.499 E2.85046
G1 X107.274 Y100.217 E2.86356
G1 X107.755 Y100.005 E2.87668
G1 X108.262 Y99.869 E2.88977
G1 X108.804 Y99.81 E2.90337
G1 X109.222 Y99.8 E2.9138
G1 X116.256 Y99.8 E3.08926
G1 X117.471 Y99.817 E3.11958
G1 X120.221 Y99.817 E3.18817
G1 X120.909 Y99.802 E3.20534
G1 X121.18 Y99.8 E3.2121
G1 X128.234 Y99.8 E3.38806
G1 X128.932 Y99.81 E3.40548
G1 X129.455 Y99.858 E3.41858
G1 X129.965 Y99.984 E3.43168
G1 X130.449 Y100.186 E3.44477
G1 X130.898 Y100.459 E3.45787
G1 X131.299 Y100.797 E3.47096
G1 X131.645 Y101.193 E3.48407
G1 X131.927 Y101.636 E3.49717
G1 X132.138 Y102.116 E3.51025
G1 X132.274 Y102.623 E3.52335
G1 X132.332 Y103.163 E3.5369
G1 X132.342 Y103.58 E3.5473
G1 X132.342 Y111.562 E3.74641
G1 X132.334 Y112.12 E3.76033
G1 X132.334 Y114.864 E3.82878
G1 X132.342 Y115.54 E3.84565
G1 X132.342 Y123.572 E4.04601
G1 X132.332 Y124.294 E4.06402
G1 X132.284 Y124.817 E4.07712
G1 X132.159 Y125.326 E4.09019
G1 X131.957 Y125.811 E4.1033
G1 X131.684 Y126.259 E4.11639
G1 X131.198 Y126.803 E4.13458
G1 X130.951 Y127.027 E4.1429
G1 X128.939 Y128.903 E4.21152
G1 X126.993 Y130.824 E4.27973
G1 X125.1 Y132.801 E4.34801
G1 X124.671 Y133.275 E4.36396
G1 X123.912 Y134.091 E4.39176
G1 X123.526 Y134.447 E4.40486
G1 X123.091 Y134.74 E4.41794
G1 X122.616 Y134.964 E4.43104
G1 X122.113 Y135.114 E4.44413
G1 X121.482 Y135.19 E4.45999
G1 X121.062 Y135.2 E4.47047
G1 X112.415 Y135.2 E4.68617
G1 X111.716 Y135.19 E4.70361
G1 X111.193 Y135.142 E4.71671
G1 X110.683 Y135.016 E4.72981
G1 X110.199 Y134.814 E4.74289
G1 X109.75 Y134.541 E4.756
G1 X109.349 Y134.203 E4.76909
G1 X109.003 Y133.808 E4.78218
G1 X108.721 Y133.365 E4.79528
G1 X108.514 Y132.894 E4.80812
G1 X108.032 Y131.535 E4.84409
G1 X107.915 Y131.191 E4.85315
G1 X106.957 Y128.619 E4.92162
G1 X106.026 Y126.312 E4.98367
G1 X105.717 Y125.572 E5.00368
G1 X105.553 Y125.074 E5.01676
G1 X105.452 Y124.339 E5.03526
G1 X105.442 Y123.92 E5.04572
G1 X105.442 Y115.926 E5.24513
G1 X105.45 Y115.379 E5.25878
G1 X105.45 Y112.636 E5.3272
G1 X105.442 Y111.96 E5.34406
G1 X105.442 Y103.877 E5.5457
G1 X105.451 Y103.212 E5.56229
G1 X105.498 Y102.689 E5.57538
G1 X105.624 Y102.18 E5.58847
G1 X105.826 Y101.695 E5.60157
G1 X106.099 Y101.247 E5.61466
G1 X106.436 Y100.845 E5.62774
G0 F2160 X106.73 Y100.976
G1 F900 X107.12 Y100.661 E5.64025
G1 X107.555 Y100.411 E5.65276
G1 X108.024 Y100.233 E5.66528
G1 X108.516 Y100.133 E5.6778
G1 X109.134 Y100.101 E5.69324
G1 X116.252 Y100.1 E5.8708
G1 X117.467 Y100.117 E5.90111
G1 X120.228 Y100.117 E5.96998
G1 X120.911 Y100.102 E5.98702
G1 X121.182 Y100.1 E5.99378
G1 X128.23 Y100.1 E6.1696
G1 X128.928 Y100.11 E6.18701
G1 X129.428 Y100.157 E6.19954
G1 X129.913 Y100.283 E6.21204
G1 X130.373 Y100.484 E6.22456
G1 X130.794 Y100.756 E6.23706
G1 X131.167 Y101.091 E6.24957
G1 X131.483 Y101.481 E6.26209
G1 X131.732 Y101.916 E6.27459
G1 X131.909 Y102.386 E6.28712
G1 X132.01 Y102.877 E6.29963
G1 X132.041 Y103.491 E6.31496
G1 X132.042 Y111.558 E6.51619
G1 X132.034 Y112.116 E6.53012
G1 X132.034 Y114.871 E6.59884
G1 X132.042 Y115.542 E6.61558
G1 X132.042 Y123.568 E6.81579
G1 X132.032 Y124.29 E6.8338
G1 X131.985 Y124.789 E6.8463
G1 X131.859 Y125.275 E6.85883
G1 X131.658 Y125.734 E6.87133
G1 X131.387 Y126.156 E6.88384
G1 X130.997 Y126.58 E6.89821
G1 X130.765 Y126.79 E6.90601
G1 X128.737 Y128.682 E6.9752
G1 X126.76 Y130.633 E7.04449
G1 X124.89 Y132.587 E7.11195
G1 X124.451 Y133.07 E7.12824
G1 X123.692 Y133.886 E7.15603
G1 X123.323 Y134.225 E7.16853
G1 X122.904 Y134.501 E7.18105
G1 X122.446 Y134.707 E7.19358
G1 X121.962 Y134.838 E7.20609
G1 X121.149 Y134.899 E7.22642
G1 X112.419 Y134.9 E7.44419
G1 X111.72 Y134.89 E7.46163
G1 X111.221 Y134.843 E7.47413
G1 X110.735 Y134.717 E7.48666
G1 X110.276 Y134.516 E7.49916
G1 X109.854 Y134.244 E7.51168
G1 X109.481 Y133.909 E7.52419
G1 X109.165 Y133.519 E7.53671
G1 X108.916 Y133.084 E7.54921
G1 X108.796 Y132.793 E7.55706
G1 X108.316 Y131.438 E7.59292
G1 X108.199 Y131.095 E7.60196
G1 X107.24 Y128.519 E7.67053
G1 X106.303 Y126.197 E7.73299
G1 X105.994 Y125.457 E7.753
G1 X105.838 Y124.98 E7.76551
G1 X105.752 Y124.331 E7.78185
G1 X105.742 Y123.92 E7.7921
G1 X105.742 Y115.93 E7.99141
G1 X105.75 Y115.383 E8.00506
G1 X105.75 Y112.629 E8.07376
G1 X105.742 Y111.958 E8.0905
G1 X105.742 Y103.881 E8.29198
G1 X105.751 Y103.216 E8.30857
G1 X105.798 Y102.717 E8.32107
G1 X105.923 Y102.231 E8.33359
G1 X106.124 Y101.772 E8.34609
G1 X106.396 Y101.35 E8.35861
G1 X106.73 Y100.976 E8.37112
G1 F1500 E2.87112
;MESH:calicat.stl
G0 F2160 X109.356 Y102.585
G0 X109.356 Y103.714
G0 X116.142 Y111.5
;TYPE:WALL-INNER
G1 F1500 E8.37112
G1 F900 X109.642 Y111.5 E8.53326
G1 X109.642 Y104 E8.72035
G1 X116.142 Y104 E8.8825
G1 X116.142 Y111.5 E9.06958
G0 F2160 X116.442 Y111.8
G1 F900 X109.342 Y111.8 E9.24669
G1 X109.342 Y103.7 E9.44875
G1 X116.442 Y103.7 E9.62586
G1 X116.442 Y111.8 E9.82791
G0 F2160 X116.692 Y112.05
;TYPE:WALL-OUTER
G1 F900 X109.092 Y112.05 E10.0175
G1 X109.092 Y103.45 E10.23203
G1 X116.692 Y103.45 E10.42161
G1 X116.692 Y112.05 E10.63614
G0 F2160 X116.492 Y112.05
G0 X116.362 Y111.72
G0 X115.852 Y111.21
;TYPE:SKIN
G1 F900 X109.932 Y111.21 E10.78381
G1 X109.932 Y104.29 E10.95643
G1 X115.852 Y104.29 E11.10411
G1 X115.852 Y111.21 E11.27673
G0 F2160 X110.225 Y111.074
G1 F900 X110.066 Y110.915 E11.28234
G0 F2160 X110.066 Y110.491
G1 F900 X110.65 Y111.074 E11.30292
G0 F2160 X111.074 Y111.074
G1 F900 X110.066 Y110.066 E11.33848
G0 F2160 X110.066 Y109.642
G1 F900 X111.498 Y111.074 E11.389
G0 F2160 X111.922 Y111.074
G1 F900 X110.066 Y109.218 E11.45447
G0 F2160 X110.066 Y108.794
G1 F900 X112.347 Y111.074 E11.53492
G0 F2160 X112.771 Y111.074
G1 F900 X110.066 Y108.369 E11.63035
G0 F2160 X110.066 Y107.945
G1 F900 X113.195 Y111.074 E11.74073
G0 F2160 X113.62 Y111.074
G1 F900 X110.066 Y107.52 E11.86611
G0 F2160 X110.066 Y107.096
G1 F900 X114.044 Y111.074 E12.00645
G0 F2160 X114.468 Y111.074
G1 F900 X110.066 Y106.672 E12.16174
G0 F2160 X110.066 Y106.247
G1 F900 X114.892 Y111.074 E12.33201
G0 F2160 X115.317 Y111.074
G1 F900 X110.066 Y105.823 E12.51725
G0 F2160 X110.066 Y105.399
G1 F900 X115.716 Y111.049 E12.71657
G0 F2160 X115.716 Y110.625
G1 F900 X110.066 Y104.974 E12.9159
G0 F2160 X110.066 Y104.55
G1 F900 X115.716 Y110.201 E13.11524
G0 F2160 X115.716 Y109.776
G1 F900 X110.364 Y104.424 E13.30405
G0 F2160 X110.788 Y104.424
G1 F900 X115.716 Y109.352 E13.4779
G0 F2160 X115.716 Y108.928
G1 F900 X111.213 Y104.424 E13.63677
G0 F2160 X111.637 Y104.424
G1 F900 X115.716 Y108.504 E13.78068
G0 F2160 X115.716 Y108.079
G1 F900 X112.061 Y104.424 E13.90962
G0 F2160 X112.485 Y104.424
G1 F900 X115.716 Y107.655 E14.02361
G0 F2160 X115.716 Y107.231
G1 F900 X112.91 Y104.424 E14.12261
G0 F2160 X113.334 Y104.424
G1 F900 X115.716 Y106.807 E14.20666
G0 F2160 X115.716 Y106.382
G1 F900 X113.758 Y104.424 E14.27574
G0 F2160 X114.182 Y104.424
G1 F900 X115.716 Y105.958 E14.32985
G0 F2160 X115.716 Y105.534
G1 F900 X114.607 Y104.424 E14.36899
G0 F2160 X115.031 Y104.424
G1 F900 X115.716 Y105.11 E14.39318
G0 F2160 X115.716 Y104.685
G1 F900 X115.455 Y104.424 E14.40238
G1 F1500 E8.90238
G0 F2160 X116.422 Y111.5
G0 X117.557 Y111.5
G0 X120.227 Y111.5
G0 X121.362 Y111.5
G0 X128.142 Y111.5
;TYPE:WALL-INNER
G1 F1500 E14.40238
G1 F900 X121.642 Y111.5 E14.56453
G1 X121.642 Y104 E14.75161
G1 X128.142 Y104 E14.91376
G1 X128.142 Y111.5 E15.10085
G0 F2160 X128.442 Y111.8
G1 F900 X121.342 Y111.8 E15.27796
G1 X121.342 Y103.7 E15.48001
G1 X128.442 Y103.7 E15.65712
G1 X128.442 Y111.8 E15.85918
G0 F2160 X128.692 Y112.05
;TYPE:WALL-OUTER
G1 F900 X121.092 Y112.05 E16.04876
G1 X121.092 Y103.45 E16.26329
G1 X128.692 Y103.45 E16.45287
G1 X128.692 Y112.05 E16.6674
G0 F2160 X128.492 Y112.05
G0 X128.362 Y111.72
G0 X127.852 Y111.21
;TYPE:SKIN
G1 F900 X121.932 Y111.21 E16.81507
G1 X121.932 Y104.29 E16.98769
G1 X127.852 Y104.29 E17.13537
G1 X127.852 Y111.21 E17.30799
G0 F2160 X122.53 Y111.075
G1 F900 X122.066 Y110.611 E17.32436
G0 F2160 X122.066 Y110.187
G1 F900 X122.954 Y111.075 E17.35568
G0 F2160 X123.378 Y111.075
G1 F900 X122.066 Y109.762 E17.40199
G0 F2160 X122.066 Y109.338
G1 F900 X123.803 Y111.075 E17.46326
G0 F2160 X124.227 Y111.075
G1 F900 X122.066 Y108.914 E17.5395
G0 F2160 X122.066 Y108.489
G1 F900 X124.651 Y111.075 E17.63071
G0 F2160 X125.075 Y111.075
G1 F900 X122.066 Y108.065 E17.73688
G0 F2160 X122.066 Y107.641
G1 F900 X125.5 Y111.075 E17.85802
G0 F2160 X125.924 Y111.075
G1 F900 X122.066 Y107.217 E17.99412
G0 F2160 X122.066 Y106.792
G1 F900 X126.348 Y111.075 E18.1452
G0 F2160 X126.772 Y111.075
G1 F900 X122.066 Y106.368 E18.31123
G0 F2160 X122.066 Y105.944
G1 F900 X127.197 Y111.075 E18.49224
G0 F2160 X127.621 Y111.075
G1 F900 X122.066 Y105.52 E18.68821
G0 F2160 X122.066 Y105.095
G1 F900 X127.716 Y110.745 E18.88753
G0 F2160 X127.716 Y110.321
G1 F900 X122.066 Y104.671 E19.08685
G0 F2160 X122.244 Y104.425
G1 F900 X127.716 Y109.897 E19.27989
G0 F2160 X127.716 Y109.472
G1 F900 X122.668 Y104.425 E19.45795
G0 F2160 X123.093 Y104.425
G1 F900 X127.716 Y109.048 E19.62104
G0 F2160 X127.716 Y108.624
G1 F900 X123.517 Y104.425 E19.76917
G0 F2160 X123.941 Y104.425
G1 F900 X127.716 Y108.2 E19.90235
G0 F2160 X127.716 Y107.775
G1 F900 X124.365 Y104.425 E20.02054
G0 F2160 X124.79 Y104.425
G1 F900 X127.716 Y107.351 E20.12377
G0 F2160 X127.716 Y106.927
G1 F900 X125.214 Y104.425 E20.21203
G0 F2160 X125.638 Y104.425
G1 F900 X127.716 Y106.503 E20.28534
G0 F2160 X127.716 Y106.078
G1 F900 X126.062 Y104.425 E20.34367
G0 F2160 X126.487 Y104.425
G1 F900 X127.716 Y105.654 E20.38703
G0 F2160 X127.716 Y105.23
G1 F900 X126.911 Y104.425 E20.41543
G0 F2160 X127.335 Y104.425
G1 F900 X127.716 Y104.805 E20.42885
G1 F1500 E14.92885
G0 F2160 X121.356 Y111.786
G0 X121.356 Y112.915
G0 X120.239 Y114.597
G0 X120.239 Y119.597
G0 X121.356 Y120.714
G0 X120.642 Y123.5
;TYPE:WALL-INNER
G1 F1500 E20.42885
G1 F900 X120.642 Y131 E20.61594
G1 X112.507 Y131 E20.81886
G1 X112.506 Y127.649 E20.90246
G1 X112.506 Y127.5 E20.90617
G1 X112.655 Y127.5 E20.90858
G1 X117.142 Y127.5 E21.02051
G1 X117.142 Y123.5 E21.12029
G1 X109.642 Y123.5 E21.30738
G1 X109.642 Y116 E21.49447
G1 X116.142 Y116 E21.65661
G1 X116.142 Y121 E21.78133
G1 X121.642 Y121 E21.91853
G1 X121.642 Y116 E22.04326
G1 X128.142 Y116 E22.2054
G1 X128.142 Y123.5 E22.39249
G1 X120.642 Y123.5 E22.57958
G0 F2160 X120.942 Y123.8
G1 F900 X120.942 Y131.3 E22.76667
G1 X112.207 Y131.3 E22.98456
G1 X112.206 Y127.349 E23.08312
G1 X112.206 Y127.2 E23.08684
G1 X112.355 Y127.2 E23.08924
G1 X116.842 Y127.2 E23.20117
G1 X116.842 Y123.8 E23.28599
G1 X109.342 Y123.8 E23.47307
G1 X109.342 Y115.7 E23.67513
G1 X116.442 Y115.7 E23.85224
G1 X116.442 Y120.7 E23.97696
G1 X121.342 Y120.7 E24.0992
G1 X121.342 Y115.7 E24.22392
G1 X128.442 Y115.7 E24.40103
G1 X128.442 Y123.8 E24.60309
G1 X120.942 Y123.8 E24.79018
G0 F2160 X121.192 Y124.05
;TYPE:WALL-OUTER
G1 F900 X121.192 Y131.55 E24.97726
G1 X111.957 Y131.55 E25.20763
G1 X111.956 Y127.1 E25.31864
G1 X111.956 Y126.95 E25.32238
G1 X112.106 Y126.95 E25.3248
G1 X116.592 Y126.95 E25.4367
G1 X116.592 Y124.05 E25.50904
G1 X109.092 Y124.05 E25.69613
G1 X109.092 Y115.45 E25.91066
G1 X116.692 Y115.45 E26.10024
G1 X116.692 Y120.45 E26.22497
G1 X121.092 Y120.45 E26.33473
G1 X121.092 Y115.45 E26.45945
G1 X128.692 Y115.45 E26.64903
G1 X128.692 Y124.05 E26.86356
G1 X121.192 Y124.05 E27.05065
G0 F2160 X121.192 Y124.25
G0 X120.862 Y124.25
G0 X120.842 Y124.25
G0 X120.352 Y123.21
;TYPE:SKIN
G1 F900 X120.352 Y130.71 E27.23774
G1 X112.797 Y130.71 E27.4262
G1 X112.796 Y127.79 E27.49904
G1 X117.432 Y127.79 E27.61468
G1 X117.432 Y123.21 E27.72893
G1 X109.932 Y123.21 E27.91602
G1 X109.932 Y116.29 E28.08864
G1 X115.852 Y116.29 E28.23632
G1 X115.852 Y121.29 E28.36104
G1 X121.932 Y121.29 E28.51271
G1 X121.932 Y116.29 E28.63743
G1 X127.852 Y116.29 E28.78511
G1 X127.852 Y123.21 E28.95773
G1 X120.352 Y123.21 E29.14482
G0 F2160 X127.716 Y116.685
G1 F900 X127.455 Y116.425 E29.15401
G0 F2160 X127.031 Y116.425
G1 F900 X127.716 Y117.109 E29.17815
G0 F2160 X127.716 Y117.533
G1 F900 X126.607 Y116.425 E29.21726
G0 F2160 X126.183 Y116.425
G1 F900 X127.716 Y117.958 E29.27134
G0 F2160 X127.716 Y118.382
G1 F900 X125.758 Y116.425 E29.3404
G0 F2160 X125.334 Y116.425
G1 F900 X127.716 Y118.806 E29.42441
G0 F2160 X127.716 Y119.23
G1 F900 X124.91 Y116.425 E29.52338
G0 F2160 X124.486 Y116.425
G1 F900 X127.716 Y119.655 E29.63733
G0 F2160 X127.716 Y120.079
G1 F900 X124.061 Y116.425 E29.76625
G0 F2160 X123.637 Y116.425
G1 F900 X127.716 Y120.503 E29.91013
G0 F2160 X127.716 Y120.927
G1 F900 X123.213 Y116.425 E30.06897
G0 F2160 X122.789 Y116.425
G1 F900 X127.716 Y121.352 E30.24278
G0 F2160 X127.716 Y121.776
G1 F900 X122.364 Y116.425 E30.43157
G0 F2160 X122.065 Y116.55
G1 F900 X127.716 Y122.2 E30.63091
G0 F2160 X127.716 Y122.625
G1 F900 X122.065 Y116.974 E30.83026
G0 F2160 X122.065 Y117.398
G1 F900 X127.716 Y123.049 E31.02962
G0 F2160 X127.316 Y123.074
G1 F900 X122.065 Y117.823 E31.21486
G0 F2160 X122.065 Y118.247
G1 F900 X126.892 Y123.074 E31.38514
G0 F2160 X126.468 Y123.074
G1 F900 X122.065 Y118.671 E31.54047
G0 F2160 X122.065 Y119.095
G1 F900 X126.043 Y123.074 E31.68082
