;FLAVOR:Marlin
;TIME:2415
;Filament used: 3.2459m, 0m
;Layer height: 0.2
;MINX:119.745
;MINY:103.75
;MINZ:0.2
;MAXX:147.245
;MAXY:131.25
;MAXZ:20
;Generated with Cura_SteamEngine 4.8.0
T0
M140 S60
M105
M190 S60
M104 S200
M105
M109 S200
M82 ;absolute extrusion mode
M201 X500.00 Y500.00 Z100.00 E5000.00 	;Setup machine max acceleration
M203 X500.00 Y500.00 Z10.00 E50.00 	;Setup machine max feedrate
M204 P500.00 R1000.00 T500.00 		;Setup Print/Retract/Travel acceleration
M205 X8.00 Y8.00 Z0.40 E5.00 		;Setup Jerk
M220 S100 				;Reset Feedrate
M221 S100 				;Reset Flowrate
G28				;Home the Machine
#G29 				;Bed Level
G92 E0
M300 P150 S587
G92 E0
G1 F1500 E-5.5
;LAYER_COUNT:100
;LAYER:0
M107
G0 F2160 X120.745 Y104.969 Z0.2
;TYPE:SKIRT
G1 F1500 E0
G1 F900 X121.144 Y104.595 E0.01364
G1 X121.593 Y104.282 E0.0273
G1 X122.083 Y104.038 E0.04095
G1 X122.604 Y103.869 E0.05461
G1 X123.399 Y103.76 E0.07463
G1 X123.825 Y103.75 E0.08526
G1 X142.842 Y103.75 E0.55964
G1 X143.54 Y103.76 E0.57705
G1 X144.085 Y103.808 E0.5907
G1 X144.617 Y103.935 E0.60435
G1 X145.126 Y104.138 E0.61801
G1 X145.599 Y104.412 E0.63165
G1 X146.028 Y104.753 E0.64532
G1 X146.402 Y105.152 E0.65896
G1 X146.714 Y105.602 E0.67262
G1 X146.958 Y106.092 E0.68628
G1 X147.127 Y106.613 E0.69994
G1 X147.235 Y107.405 E0.71988
G1 X147.245 Y107.83 E0.73048
G1 X147.245 Y126.81 E1.20394
G1 X147.236 Y127.537 E1.22208
G1 X147.189 Y128.083 E1.23575
G1 X147.063 Y128.616 E1.24941
G1 X146.862 Y129.124 E1.26304
G1 X146.588 Y129.598 E1.2767
G1 X146.248 Y130.027 E1.29035
G1 X145.849 Y130.402 E1.30401
G1 X145.4 Y130.716 E1.31768
G1 X144.911 Y130.96 E1.33131
G1 X144.39 Y131.13 E1.34498
G1 X143.591 Y131.24 E1.3651
G1 X143.165 Y131.25 E1.37573
G1 X124.154 Y131.25 E1.84996
G1 X123.456 Y131.241 E1.86737
G1 X122.91 Y131.194 E1.88104
G1 X122.378 Y131.068 E1.89468
G1 X121.869 Y130.866 E1.90834
G1 X121.395 Y130.592 E1.922
G1 X120.966 Y130.252 E1.93565
G1 X120.591 Y129.853 E1.94931
G1 X120.278 Y129.404 E1.96297
G1 X120.034 Y128.914 E1.97662
G1 X119.864 Y128.394 E1.99027
G1 X119.755 Y127.592 E2.01046
G1 X119.745 Y127.158 E2.02129
G1 X119.745 Y108.123 E2.49612
G1 X119.754 Y107.458 E2.51271
G1 X119.802 Y106.913 E2.52636
G1 X119.928 Y106.38 E2.54002
G1 X120.13 Y105.872 E2.55365
G1 X120.405 Y105.398 E2.56732
G1 X120.745 Y104.969 E2.58098
G0 F2160 X121.039 Y105.095
G1 F900 X121.434 Y104.749 E2.59408
G1 X121.877 Y104.467 E2.60718
G1 X122.358 Y104.255 E2.62029
G1 X122.865 Y104.119 E2.63338
G1 X123.407 Y104.06 E2.64698
G1 X123.825 Y104.05 E2.65741
G1 X142.837 Y104.05 E3.13167
G1 X143.535 Y104.06 E3.14908
G1 X144.058 Y104.108 E3.16219
G1 X144.568 Y104.234 E3.17529
G1 X145.052 Y104.436 E3.18837
G1 X145.501 Y104.709 E3.20148
G1 X145.902 Y105.047 E3.21456
G1 X146.248 Y105.443 E3.22768
G1 X146.53 Y105.886 E3.24078
G1 X146.741 Y106.366 E3.25386
G1 X146.877 Y106.873 E3.26695
G1 X146.935 Y107.413 E3.2805
G1 X146.945 Y107.83 E3.29091
G1 X146.945 Y126.807 E3.76429
G1 X146.936 Y127.534 E3.78243
G1 X146.889 Y128.057 E3.79553
G1 X146.764 Y128.566 E3.8086
G1 X146.563 Y129.051 E3.8217
G1 X146.291 Y129.5 E3.83479
G1 X145.953 Y129.902 E3.84789
G1 X145.559 Y130.249 E3.86099
G1 X145.116 Y130.531 E3.87409
G1 X144.636 Y130.744 E3.88719
G1 X144.129 Y130.88 E3.90028
G1 X143.583 Y130.94 E3.91399
G1 X143.165 Y130.95 E3.92442
G1 X124.158 Y130.95 E4.39855
G1 X123.46 Y130.941 E4.41596
G1 X122.937 Y130.894 E4.42906
G1 X122.427 Y130.769 E4.44216
G1 X121.942 Y130.567 E4.45526
G1 X121.493 Y130.295 E4.46836
G1 X121.091 Y129.957 E4.48146
G1 X120.745 Y129.562 E4.49456
G1 X120.463 Y129.12 E4.50764
G1 X120.251 Y128.64 E4.52073
G1 X120.114 Y128.133 E4.53383
G1 X120.055 Y127.584 E4.5476
G1 X120.045 Y127.158 E4.55823
G1 X120.045 Y108.127 E5.03296
G1 X120.054 Y107.462 E5.04955
G1 X120.101 Y106.939 E5.06265
G1 X120.227 Y106.43 E5.07573
G1 X120.429 Y105.945 E5.08884
G1 X120.702 Y105.497 E5.10192
G1 X121.039 Y105.095 E5.11501
G0 F2160 X121.333 Y105.226
G1 F900 X121.723 Y104.911 E5.12751
G1 X122.158 Y104.661 E5.14003
G1 X122.627 Y104.483 E5.15254
G1 X123.119 Y104.383 E5.16507
G1 X123.737 Y104.351 E5.1805
G1 X142.833 Y104.35 E5.65686
G1 X143.531 Y104.36 E5.67427
G1 X144.031 Y104.407 E5.6868
G1 X144.516 Y104.533 E5.6993
G1 X144.976 Y104.734 E5.71182
G1 X145.397 Y105.006 E5.72432
G1 X145.77 Y105.341 E5.73683
G1 X146.086 Y105.731 E5.74935
G1 X146.335 Y106.166 E5.76185
G1 X146.512 Y106.636 E5.77438
G1 X146.613 Y107.127 E5.78689
G1 X146.644 Y107.741 E5.80222
G1 X146.645 Y126.803 E6.27772
G1 X146.636 Y127.53 E6.29586
G1 X146.59 Y128.029 E6.30836
G1 X146.465 Y128.515 E6.32088
G1 X146.264 Y128.975 E6.3334
G1 X145.994 Y129.397 E6.3459
G1 X145.659 Y129.771 E6.35842
G1 X145.27 Y130.087 E6.37093
G1 X144.835 Y130.338 E6.38345
G1 X144.366 Y130.516 E6.39597
G1 X143.875 Y130.617 E6.40847
G1 X143.253 Y130.649 E6.42401
G1 X124.161 Y130.65 E6.90026
G1 X123.463 Y130.641 E6.91767
G1 X122.964 Y130.594 E6.93018
G1 X122.478 Y130.469 E6.94269
G1 X122.018 Y130.269 E6.95521
G1 X121.596 Y129.998 E6.96772
G1 X121.223 Y129.663 E6.98022
G1 X120.907 Y129.273 E6.99274
G1 X120.657 Y128.839 E7.00524
G1 X120.479 Y128.37 E7.01775
G1 X120.378 Y127.878 E7.03028
G1 X120.346 Y127.243 E7.04614
G1 X120.345 Y108.131 E7.52289
G1 X120.354 Y107.466 E7.53948
G1 X120.401 Y106.967 E7.55198
G1 X120.526 Y106.481 E7.5645
G1 X120.727 Y106.022 E7.577
G1 X120.999 Y105.6 E7.58953
G1 X121.333 Y105.226 E7.60203
G1 F1500 E2.10203
;MESH:xyzCalibration_cube.stl
G0 F2160 X123.959 Y106.835
G0 X123.959 Y107.964
G0 X142.745 Y126.75
;TYPE:WALL-INNER
G1 F1500 E7.60203
G1 F900 X124.245 Y126.75 E8.06352
G1 X124.245 Y108.25 E8.525
G1 X142.745 Y108.25 E8.98649
G1 X142.745 Y126.75 E9.44797
G0 F2160 X143.045 Y127.05
G1 F900 X123.945 Y127.05 E9.92442
G1 X123.945 Y107.95 E10.40087
G1 X143.045 Y107.95 E10.87733
G1 X143.045 Y127.05 E11.35378
G0 F2160 X143.295 Y127.3
;TYPE:WALL-OUTER
G1 F900 X123.695 Y127.3 E11.8427
G1 X123.695 Y107.7 E12.33162
G1 X143.295 Y107.7 E12.82055
G1 X143.295 Y127.3 E13.30947
G0 F2160 X143.095 Y127.3
G0 X142.965 Y126.97
G0 X142.455 Y126.46
;TYPE:SKIN
G1 F900 X124.535 Y126.46 E13.75649
G1 X124.535 Y108.54 E14.20351
G1 X142.455 Y108.54 E14.65052
G1 X142.455 Y126.46 E15.09754
G0 F2160 X142.319 Y108.802
G1 F900 X142.192 Y108.675 E15.10202
G0 F2160 X141.767 Y108.675
G1 F900 X142.319 Y109.226 E15.12147
G0 F2160 X142.319 Y109.651
G1 F900 X141.343 Y108.675 E15.1559
G0 F2160 X140.919 Y108.675
G1 F900 X142.319 Y110.075 E15.20529
G0 F2160 X142.319 Y110.499
G1 F900 X140.495 Y108.675 E15.26964
G0 F2160 X140.07 Y108.675
G1 F900 X142.319 Y110.923 E15.34896
G0 F2160 X142.319 Y111.348
G1 F900 X139.646 Y108.675 E15.44326
G0 F2160 X139.222 Y108.675
G1 F900 X142.319 Y111.772 E15.55251
G0 F2160 X142.319 Y112.196
G1 F900 X138.797 Y108.675 E15.67674
G0 F2160 X138.373 Y108.675
G1 F900 X142.319 Y112.62 E15.81593
G0 F2160 X142.319 Y113.045
G1 F900 X137.949 Y108.675 E15.9701
G0 F2160 X137.525 Y108.675
G1 F900 X142.319 Y113.469 E16.13922
G0 F2160 X142.319 Y113.893
G1 F900 X137.1 Y108.675 E16.32331
G0 F2160 X136.676 Y108.675
G1 F900 X142.319 Y114.317 E16.52237
G0 F2160 X142.319 Y114.742
G1 F900 X136.252 Y108.675 E16.7364
G0 F2160 X135.828 Y108.675
G1 F900 X142.319 Y115.166 E16.96539
G0 F2160 X142.319 Y115.59
G1 F900 X135.403 Y108.675 E17.20935
G0 F2160 X134.979 Y108.675
G1 F900 X142.319 Y116.015 E17.46829
G0 F2160 X142.319 Y116.439
G1 F900 X134.555 Y108.675 E17.74218
G0 F2160 X134.131 Y108.675
G1 F900 X142.319 Y116.863 E18.03104
G0 F2160 X142.319 Y117.287
G1 F900 X133.706 Y108.675 E18.33487
G0 F2160 X133.282 Y108.675
G1 F900 X142.319 Y117.712 E18.65367
G0 F2160 X142.319 Y118.136
G1 F900 X132.858 Y108.675 E18.98743
G0 F2160 X132.434 Y108.675
G1 F900 X142.319 Y118.56 E19.33615
G0 F2160 X142.319 Y118.984
G1 F900 X132.009 Y108.675 E19.69985
G0 F2160 X131.585 Y108.675
G1 F900 X142.319 Y119.409 E20.07852
G0 F2160 X142.319 Y119.833
G1 F900 X131.161 Y108.675 E20.47215
G0 F2160 X130.736 Y108.675
G1 F900 X142.319 Y120.257 E20.88075
G0 F2160 X142.319 Y120.681
G1 F900 X130.312 Y108.675 E21.30431
G0 F2160 X129.888 Y108.675
G1 F900 X142.319 Y121.106 E21.74285
G0 F2160 X142.319 Y121.53
G1 F900 X129.464 Y108.675 E22.19635
G0 F2160 X129.039 Y108.675
G1 F900 X142.319 Y121.954 E22.66482
G0 F2160 X142.319 Y122.378
G1 F900 X128.615 Y108.675 E23.14824
G0 F2160 X128.191 Y108.675
G1 F900 X142.319 Y122.803 E23.64665
G0 F2160 X142.319 Y123.227
G1 F900 X127.767 Y108.675 E24.16001
G0 F2160 X127.342 Y108.675
G1 F900 X142.319 Y123.651 E24.68835
G0 F2160 X142.319 Y124.076
G1 F900 X126.918 Y108.675 E25.23166
G0 F2160 X126.494 Y108.675
G1 F900 X142.319 Y124.5 E25.78993
G0 F2160 X142.319 Y124.924
G1 F900 X126.07 Y108.675 E26.36315
G0 F2160 X125.645 Y108.675
G1 F900 X142.319 Y125.348 E26.95136
G0 F2160 X142.319 Y125.773
G1 F900 X125.221 Y108.675 E27.55453
G0 F2160 X124.797 Y108.675
G1 F900 X142.319 Y126.197 E28.17267
G0 F2160 X142.022 Y126.324
G1 F900 X124.669 Y108.971 E28.78484
G0 F2160 X124.669 Y109.395
G1 F900 X141.598 Y126.324 E29.38206
G0 F2160 X141.173 Y126.324
G1 F900 X124.669 Y109.82 E29.96428
G0 F2160 X124.669 Y110.244
G1 F900 X140.749 Y126.324 E30.53155
G0 F2160 X140.325 Y126.324
G1 F900 X124.669 Y110.668 E31.08386
G0 F2160 X124.669 Y111.092
G1 F900 X139.901 Y126.324 E31.62121
G0 F2160 X139.476 Y126.324
G1 F900 X124.669 Y111.517 E32.14356
G0 F2160 X124.669 Y111.941
G1 F900 X139.052 Y126.324 E32.65096
G0 F2160 X138.628 Y126.324
G1 F900 X124.669 Y112.365 E33.1434
G0 F2160 X124.669 Y112.789
G1 F900 X138.204 Y126.324 E33.62089
G0 F2160 X137.779 Y126.324
G1 F900 X124.669 Y113.214 E34.08338
G0 F2160 X124.669 Y113.638
G1 F900 X137.355 Y126.324 E34.53091
G0 F2160 X136.931 Y126.324
G1 F900 X124.669 Y114.062 E34.96349
G0 F2160 X124.669 Y114.486
G1 F900 X136.506 Y126.324 E35.38109
G0 F2160 X136.082 Y126.324
G1 F900 X124.669 Y114.911 E35.78371
G0 F2160 X124.669 Y115.335
G1 F900 X135.658 Y126.324 E36.17138
G0 F2160 X135.234 Y126.324
G1 F900 X124.669 Y115.759 E36.54409
G0 F2160 X124.669 Y116.184
G1 F900 X134.809 Y126.324 E36.9018
G0 F2160 X134.385 Y126.324
G1 F900 X124.669 Y116.608 E37.24456
G0 F2160 X124.669 Y117.032
G1 F900 X133.961 Y126.324 E37.57236
G0 F2160 X133.537 Y126.324
G1 F900 X124.669 Y117.456 E37.8852
G0 F2160 X124.669 Y117.881
G1 F900 X133.112 Y126.324 E38.18305
G0 F2160 X132.688 Y126.324
G1 F900 X124.669 Y118.305 E38.46595
G0 F2160 X124.669 Y118.729
G1 F900 X132.264 Y126.324 E38.73388
G0 F2160 X131.84 Y126.324
G1 F900 X124.669 Y119.153 E38.98686
G0 F2160 X124.669 Y119.578
G1 F900 X131.415 Y126.324 E39.22484
G0 F2160 X130.991 Y126.324
G1 F900 X124.669 Y120.002 E39.44786
G0 F2160 X124.669 Y120.426
G1 F900 X130.567 Y126.324 E39.65593
G0 F2160 X130.143 Y126.324
G1 F900 X124.669 Y120.85 E39.84904
G0 F2160 X124.669 Y121.275
G1 F900 X129.718 Y126.324 E40.02716
G0 F2160 X129.294 Y126.324
G1 F900 X124.669 Y121.699 E40.19032
G0 F2160 X124.669 Y122.123
G1 F900 X128.87 Y126.324 E40.33852
G0 F2160 X128.445 Y126.324
G1 F900 X124.669 Y122.547 E40.47175
G0 F2160 X124.669 Y122.972
G1 F900 X128.021 Y126.324 E40.59
G0 F2160 X127.597 Y126.324
G1 F900 X124.669 Y123.396 E40.69329
G0 F2160 X124.669 Y123.82
G1 F900 X127.173 Y126.324 E40.78163
G0 F2160 X126.748 Y126.324
G1 F900 X124.669 Y124.245 E40.85497
G0 F2160 X124.669 Y124.669
G1 F900 X126.324 Y126.324 E40.91335
G0 F2160 X125.9 Y126.324
G1 F900 X124.669 Y125.093 E40.95678
G0 F2160 X124.669 Y125.517
G1 F900 X125.476 Y126.324 E40.98525
G0 F2160 X125.051 Y126.324
G1 F900 X124.669 Y125.942 E40.99873
;MESH:NONMESH
G0 F600 X124.669 Y125.942 Z0.4
G0 F2160 X142.745 Y126.75
;TIME_ELAPSED:119.482890
;LAYER:1
M106 S255
;TYPE:WALL-INNER
;MESH:xyzCalibration_cube.stl
G1 F2460 X124.245 Y126.75 E41.46021
G1 X124.245 Y108.25 E41.92169
G1 X142.745 Y108.25 E42.38318
G1 X142.745 Y126.75 E42.84466
G0 F4680 X143.045 Y127.05
G1 F2460 X123.945 Y127.05 E43.32111
G1 X123.945 Y107.95 E43.79757
G1 X143.045 Y107.95 E44.27402
G1 X143.045 Y127.05 E44.75047
G0 F4680 X143.295 Y127.3
;TYPE:WALL-OUTER
G1 F1470 X123.695 Y127.3 E45.23939
G1 X123.695 Y107.7 E45.72832
G1 X143.295 Y107.7 E46.21724
G1 X143.295 Y127.3 E46.70616
G0 F4680 X143.095 Y127.3
G0 X142.965 Y126.97
G0 X142.455 Y126.46
;TYPE:SKIN
G1 F1200 X124.535 Y126.46 E47.15318
G1 X124.535 Y108.54 E47.6002
G1 X142.455 Y108.54 E48.04721
G1 X142.455 Y126.46 E48.49423
G0 F4680 X142.234 Y126.324
G1 F1200 X142.319 Y126.239 E48.49723
G0 F4680 X142.319 Y125.815
G1 F1200 X141.81 Y126.324 E48.51518
G0 F4680 X141.386 Y126.324
G1 F1200 X142.319 Y125.391 E48.5481
G0 F4680 X142.319 Y124.966
G1 F1200 X140.961 Y126.324 E48.59601
G0 F4680 X140.537 Y126.324
G1 F1200 X142.319 Y124.542 E48.65887
G0 F4680 X142.319 Y124.118
G1 F1200 X140.113 Y126.324 E48.73669
G0 F4680 X139.688 Y126.324
G1 F1200 X142.319 Y123.694 E48.82949
G0 F4680 X142.319 Y123.269
G1 F1200 X139.264 Y126.324 E48.93726
G0 F4680 X138.84 Y126.324
G1 F1200 X142.319 Y122.845 E49.06
G0 F4680 X142.319 Y122.421
G1 F1200 X138.416 Y126.324 E49.19768
G0 F4680 X137.991 Y126.324
G1 F1200 X142.319 Y121.997 E49.35035
G0 F4680 X142.319 Y121.572
G1 F1200 X137.567 Y126.324 E49.51799
G0 F4680 X137.143 Y126.324
G1 F1200 X142.319 Y121.148 E49.70059
G0 F4680 X142.319 Y120.724
G1 F1200 X136.719 Y126.324 E49.89814
G0 F4680 X136.294 Y126.324
G1 F1200 X142.319 Y120.3 E50.11067
G0 F4680 X142.319 Y119.875
G1 F1200 X135.87 Y126.324 E50.33818
G0 F4680 X135.446 Y126.324
G1 F1200 X142.319 Y119.451 E50.58064
G0 F4680 X142.319 Y119.027
G1 F1200 X135.022 Y126.324 E50.83806
G0 F4680 X134.597 Y126.324
G1 F1200 X142.319 Y118.603 E51.11046
G0 F4680 X142.319 Y118.178
G1 F1200 X134.173 Y126.324 E51.39783
G0 F4680 X133.749 Y126.324
G1 F1200 X142.319 Y117.754 E51.70016
G0 F4680 X142.319 Y117.33
G1 F1200 X133.324 Y126.324 E52.01747
G0 F4680 X132.9 Y126.324
G1 F1200 X142.319 Y116.905 E52.34975
G0 F4680 X142.319 Y116.481
G1 F1200 X132.476 Y126.324 E52.69699
G0 F4680 X132.052 Y126.324
G1 F1200 X142.319 Y116.057 E53.05918
G0 F4680 X142.319 Y115.633
G1 F1200 X131.627 Y126.324 E53.43635
G0 F4680 X131.203 Y126.324
G1 F1200 X142.319 Y115.208 E53.8285
G0 F4680 X142.319 Y114.784
G1 F1200 X130.779 Y126.324 E54.2356
G0 F4680 X130.355 Y126.324
G1 F1200 X142.319 Y114.36 E54.65767
G0 F4680 X142.319 Y113.936
G1 F1200 X129.93 Y126.324 E55.0947
G0 F4680 X129.506 Y126.324
G1 F1200 X142.319 Y113.511 E55.54672
G0 F4680 X142.319 Y113.087
G1 F1200 X129.082 Y126.324 E56.01369
G0 F4680 X128.658 Y126.324
G1 F1200 X142.319 Y112.663 E56.49562
G0 F4680 X142.319 Y112.239
G1 F1200 X128.233 Y126.324 E56.99252
G0 F4680 X127.809 Y126.324
G1 F1200 X142.319 Y111.814 E57.5044
G0 F4680 X142.319 Y111.39
G1 F1200 X127.385 Y126.324 E58.03124
G0 F4680 X126.961 Y126.324
G1 F1200 X142.319 Y110.966 E58.57303
G0 F4680 X142.319 Y110.542
G1 F1200 X126.536 Y126.324 E59.1298
G0 F4680 X126.112 Y126.324
G1 F1200 X142.319 Y110.117 E59.70155
G0 F4680 X142.319 Y109.693
G1 F1200 X125.688 Y126.324 E60.28825
G0 F4680 X125.263 Y126.324
G1 F1200 X142.319 Y109.269 E60.88993
G0 F4680 X142.319 Y108.844
G1 F1200 X124.839 Y126.324 E61.50659
G0 F4680 X124.669 Y126.07
G1 F1200 X142.065 Y108.674 E62.12028
G0 F4680 X141.641 Y108.674
G1 F1200 X124.669 Y125.645 E62.71899
G0 F4680 X124.669 Y125.221
G1 F1200 X141.217 Y108.674 E63.30275
G0 F4680 X140.792 Y108.674
G1 F1200 X124.669 Y124.797 E63.87153
G0 F4680 X124.669 Y124.373
G1 F1200 X140.368 Y108.674 E64.42536
G0 F4680 X139.944 Y108.674
G1 F1200 X124.669 Y123.948 E64.96421
G0 F4680 X124.669 Y123.524
G1 F1200 X139.519 Y108.674 E65.48808
G0 F4680 X139.095 Y108.674
G1 F1200 X124.669 Y123.1 E65.997
G0 F4680 X124.669 Y122.675
G1 F1200 X138.671 Y108.674 E66.49094
G0 F4680 X138.247 Y108.674
G1 F1200 X124.669 Y122.251 E66.96992
G0 F4680 X124.669 Y121.827
G1 F1200 X137.822 Y108.674 E67.43393
G0 F4680 X137.398 Y108.674
G1 F1200 X124.669 Y121.403 E67.88298
G0 F4680 X124.669 Y120.978
G1 F1200 X136.974 Y108.674 E68.31705
G0 F4680 X136.55 Y108.674
G1 F1200 X124.669 Y120.554 E68.73617
G0 F4680 X124.669 Y120.13
G1 F1200 X136.125 Y108.674 E69.14031
G0 F4680 X135.701 Y108.674
G1 F1200 X124.669 Y119.706 E69.52949
G0 F4680 X124.669 Y119.281
G1 F1200 X135.277 Y108.674 E69.9037
G0 F4680 X134.853 Y108.674
G1 F1200 X124.669 Y118.857 E70.26295
G0 F4680 X124.669 Y118.433
G1 F1200 X134.428 Y108.674 E70.60723
