;FLAVOR:Marlin
;TIME:3039
;Filament used: 2.38886m, 0m
;Layer height: 0.18
;MINX:62.879
;MINY:49.911
;MINZ:0.3
;MAXX:172.109
;MAXY:183.112
;MAXZ:1.92
;POSTPROCESSED
;Generated with Cura_SteamEngine 4.8.0
T0
M140 S60
M105
M190 S60
M104 S200
M105
M109 S200
M82 ;absolute extrusion mode
M201 X500.00 Y500.00 Z100.00 E5000.00 	;Setup machine max acceleration
M203 X500.00 Y500.00 Z10.00 E50.00 	;Setup machine max feedrate
M204 P500.00 R1000.00 T500.00 		;Setup Print/Retract/Travel acceleration
M205 X8.00 Y8.00 Z0.40 E5.00 		;Setup Jerk
M220 S100 				;Reset Feedrate
M221 S100 				;Reset Flowrate
G28				;Home the Machine
#G29 				;Bed Level
G92 E0
M300 P150 S587
G92 E0
G1 F1500 E-6.5
;LAYER_COUNT:10
;LAYER:0
M107
G0 F2160 X67.618 Y89.25 Z0.3
;TYPE:SKIRT
G1 F1500 E0
G1 F900 X68.208 Y88.906 E0.03407
G1 X68.357 Y88.838 E0.04224
G1 X70.669 Y87.812 E0.16844
G1 X73.121 Y86.639 E0.30405
G1 X75.576 Y85.379 E0.44172
G1 X77.922 Y84.089 E0.57529
G1 X80.302 Y82.69 E0.71302
G1 X82.589 Y81.26 E0.84759
G1 X84.897 Y79.723 E0.98593
G1 X87.095 Y78.167 E1.12028
G1 X89.285 Y76.523 E1.2569
G1 X91.394 Y74.843 E1.39143
G1 X93.499 Y73.069 E1.52876
G1 X95.53 Y71.255 E1.66462
G1 X97.51 Y69.384 E1.80053
G1 X99.437 Y67.456 E1.93653
G1 X101.307 Y65.477 E2.07237
G1 X103.124 Y63.441 E2.20851
G1 X104.878 Y61.361 E2.34425
G1 X106.591 Y59.209 E2.48148
G1 X108.208 Y57.054 E2.61589
G1 X109.803 Y54.799 E2.75369
G1 X111.181 Y52.731 E2.87767
G1 X111.953 Y51.544 E2.94832
G1 X112.278 Y51.118 E2.97505
G1 X112.663 Y50.744 E3.00183
G1 X113.099 Y50.432 E3.02857
G1 X113.577 Y50.188 E3.05535
G1 X114.085 Y50.018 E3.08207
G1 X114.613 Y49.925 E3.10882
G1 X115.149 Y49.911 E3.13557
G1 X115.682 Y49.978 E3.16237
G1 X116.198 Y50.123 E3.18911
G1 X116.687 Y50.342 E3.21584
G1 X117.138 Y50.632 E3.2426
G1 X117.541 Y50.986 E3.26936
G1 X117.97 Y51.515 E3.30334
G1 X118.619 Y52.494 E3.36194
G1 X118.872 Y52.887 E3.38525
G1 X120.414 Y55.141 E3.5215
G1 X122.024 Y57.355 E3.65808
G1 X123.697 Y59.527 E3.79486
G1 X125.397 Y61.607 E3.92888
G1 X127.201 Y63.693 E4.06647
G1 X129.024 Y65.684 E4.20115
G1 X130.936 Y67.656 E4.33819
G1 X132.899 Y69.568 E4.4749
G1 X134.892 Y71.404 E4.61009
G1 X136.935 Y73.181 E4.74518
G1 X139.071 Y74.937 E4.88313
G1 X141.21 Y76.596 E5.01818
G1 X143.417 Y78.209 E5.15456
G1 X145.666 Y79.757 E5.29077
G1 X147.932 Y81.225 E5.42548
G1 X150.255 Y82.637 E5.5611
G1 X152.646 Y84 E5.69841
G1 X155.061 Y85.288 E5.83496
G1 X157.499 Y86.501 E5.97081
G1 X159.86 Y87.595 E6.10064
G1 X160.026 Y87.674 E6.10981
G1 X160.492 Y87.94 E6.13658
G1 X160.884 Y88.246 E6.16139
G1 X161.554 Y88.848 E6.20633
G1 X161.822 Y89.095 E6.22451
G1 X162.431 Y89.67 E6.26629
G1 X163.228 Y90.472 E6.3227
G1 X163.702 Y90.977 E6.35726
G1 X164.038 Y91.393 E6.38394
G1 X164.627 Y92.248 E6.43573
G1 X165.431 Y93.459 E6.50825
G1 X166.873 Y95.571 E6.63584
G1 X167.799 Y96.889 E6.7162
G1 X170.139 Y100.208 E6.9188
G1 X170.515 Y100.759 E6.95208
G1 X170.783 Y101.223 E6.97882
G1 X170.98 Y101.722 E7.00558
G1 X171.1 Y102.245 E7.03235
G1 X171.141 Y102.765 E7.05838
G1 X171.145 Y103.441 E7.0921
G1 X171.133 Y104.922 E7.16599
G1 X171.187 Y107.616 E7.30042
G1 X171.321 Y110.383 E7.43863
G1 X171.526 Y113.066 E7.57288
G1 X171.812 Y115.778 E7.70893
G1 X171.91 Y116.51 E7.74577
G1 X172.083 Y117.913 E7.8163
G1 X172.109 Y118.449 E7.84307
G1 X172.055 Y118.983 E7.86985
G1 X171.922 Y119.502 E7.89658
G1 X171.714 Y119.996 E7.92332
G1 X171.336 Y120.584 E7.9582
G1 X170.599 Y121.518 E8.01755
G1 X170.246 Y121.952 E8.04546
G1 X168.602 Y124.096 E8.18025
G1 X167.018 Y126.286 E8.3151
G1 X165.46 Y128.577 E8.45332
G1 X163.988 Y130.877 E8.58956
G1 X162.608 Y133.174 E8.72325
G1 X161.247 Y135.591 E8.86163
G1 X159.982 Y137.995 E8.99716
G1 X158.784 Y140.437 E9.13286
G1 X157.661 Y142.901 E9.26796
G1 X156.579 Y145.46 E9.40657
G1 X155.597 Y147.989 E9.54192
G1 X154.693 Y150.519 E9.67596
G1 X153.839 Y153.143 E9.81363
G1 X153.079 Y155.724 E9.94786
G1 X152.373 Y158.396 E10.08575
G1 X151.752 Y161.045 E10.22149
G1 X151.208 Y163.719 E10.35763
G1 X150.738 Y166.407 E10.49377
G1 X150.346 Y169.093 E10.62919
G1 X150.03 Y171.787 E10.76452
G1 X149.787 Y174.532 E10.902
G1 X149.625 Y177.224 E11.03655
G1 X149.553 Y179.437 E11.14701
G1 X149.542 Y179.666 E11.15845
G1 X149.476 Y180.198 E11.1852
G1 X149.332 Y180.715 E11.21197
G1 X149.113 Y181.204 E11.2387
G1 X148.824 Y181.656 E11.26547
G1 X148.471 Y182.059 E11.2922
G1 X148.062 Y182.406 E11.31896
G1 X147.605 Y182.688 E11.34575
G1 X147.112 Y182.899 E11.3725
G1 X146.594 Y183.034 E11.39921
G1 X146.016 Y183.092 E11.42819
G1 X144.973 Y183.112 E11.48023
G1 X103.406 Y183.112 E13.55402
G1 X102.707 Y183.102 E13.5889
G1 X102.172 Y183.054 E13.61569
G1 X101.651 Y182.928 E13.64244
G1 X101.155 Y182.725 E13.66917
G1 X100.694 Y182.451 E13.69593
G1 X100.278 Y182.112 E13.7227
G1 X99.918 Y181.714 E13.74948
G1 X99.621 Y181.268 E13.77621
G1 X99.393 Y180.782 E13.80299
G1 X99.219 Y180.163 E13.83507
G1 X98.703 Y177.402 E13.9752
G1 X98.121 Y174.712 E14.11251
G1 X97.479 Y172.107 E14.24637
G1 X96.743 Y169.446 E14.38411
G1 X95.942 Y166.841 E14.52008
G1 X95.08 Y164.291 E14.65437
G1 X94.122 Y161.705 E14.79195
G1 X93.1 Y159.17 E14.92832
G1 X92.017 Y156.685 E15.06356
G1 X90.868 Y154.243 E15.1982
G1 X89.613 Y151.756 E15.33718
G1 X88.324 Y149.375 E15.47226
G1 X86.976 Y147.047 E15.60647
G1 X85.532 Y144.705 E15.74374
G1 X84.034 Y142.424 E15.87988
G1 X82.462 Y140.172 E16.0169
G1 X80.862 Y138.011 E16.15105
G1 X79.166 Y135.852 E16.28802
G1 X77.422 Y133.756 E16.42405
G1 X75.625 Y131.717 E16.55965
G1 X73.76 Y129.717 E16.69608
G1 X71.859 Y127.791 E16.83109
G1 X69.88 Y125.897 E16.96775
G1 X67.837 Y124.049 E17.10519
G1 X65.807 Y122.314 E17.23842
G1 X64.725 Y121.44 E17.30781
G1 X64.189 Y120.995 E17.34257
G1 X63.803 Y120.622 E17.36935
G1 X63.477 Y120.197 E17.39607
G1 X63.218 Y119.728 E17.4228
G1 X63.031 Y119.225 E17.44957
G1 X62.92 Y118.7 E17.47634
G1 X62.881 Y118.011 E17.51077
G1 X62.879 Y117.9 E17.51631
G1 X62.879 Y115.923 E17.61495
G1 X62.889 Y115.211 E17.65047
G1 X62.898 Y115.007 E17.66066
G1 X62.973 Y113.951 E17.71347
G1 X63.019 Y113.145 E17.75375
G1 X63.092 Y112.124 E17.80482
G1 X63.444 Y109.029 E17.96023
G1 X63.675 Y106.311 E18.09632
G1 X63.828 Y103.618 E18.23089
G1 X63.906 Y100.854 E18.36884
G1 X63.906 Y98.161 E18.50319
G1 X63.824 Y95.285 E18.64673
G1 X63.796 Y94.656 E18.67815
G1 X63.813 Y94.12 E18.7049
G1 X63.909 Y93.592 E18.73168
G1 X64.082 Y93.085 E18.7584
G1 X64.329 Y92.608 E18.7852
G1 X64.759 Y92.044 E18.82058
G1 X65.189 Y91.597 E18.85153
G1 X66.682 Y90.103 E18.9569
G1 X67.207 Y89.594 E18.99338
G1 X67.618 Y89.25 E19.02012
G0 F2160 X67.875 Y89.558
G1 F900 X68.376 Y89.27 E19.04895
G1 X68.519 Y89.204 E19.05681
G1 X70.825 Y88.181 E19.18267
G1 X73.297 Y86.999 E19.31937
G1 X75.76 Y85.734 E19.45751
G1 X78.138 Y84.426 E19.59291
G1 X80.496 Y83.041 E19.72935
G1 X82.817 Y81.589 E19.86593
G1 X85.093 Y80.074 E20.00234
G1 X87.343 Y78.48 E20.13991
G1 X89.529 Y76.84 E20.27625
G1 X91.656 Y75.146 E20.41191
G1 X93.757 Y73.374 E20.54903
G1 X95.789 Y71.561 E20.68489
G1 X97.803 Y69.657 E20.82316
G1 X99.71 Y67.749 E20.95775
G1 X101.596 Y65.753 E21.09475
G1 X103.445 Y63.681 E21.2333
G1 X105.181 Y61.622 E21.36766
G1 X106.908 Y59.452 E21.50602
G1 X108.539 Y57.28 E21.64154
G1 X110.13 Y55.03 E21.77902
G1 X111.516 Y52.949 E21.90376
G1 X112.288 Y51.762 E21.9744
G1 X112.597 Y51.362 E21.99962
G1 X112.964 Y51.014 E22.02485
G1 X113.382 Y50.729 E22.05009
G1 X113.839 Y50.514 E22.07529
G1 X114.325 Y50.373 E22.10053
G1 X114.826 Y50.31 E22.12573
G1 X115.332 Y50.327 E22.15099
G1 X115.828 Y50.424 E22.1762
G1 X116.303 Y50.597 E22.20142
G1 X116.744 Y50.843 E22.22661
G1 X117.142 Y51.156 E22.25187
G1 X117.485 Y51.527 E22.27708
G1 X117.637 Y51.737 E22.29002
G1 X118.283 Y52.71 E22.34828
G1 X118.549 Y53.124 E22.37283
G1 X120.104 Y55.397 E22.51023
G1 X121.686 Y57.572 E22.64441
G1 X123.37 Y59.757 E22.78204
G1 X125.119 Y61.898 E22.91997
G1 X126.885 Y63.94 E23.05466
G1 X128.741 Y65.967 E23.19177
G1 X130.653 Y67.939 E23.32881
G1 X132.613 Y69.848 E23.46531
G1 X134.641 Y71.717 E23.6029
G1 X136.658 Y73.471 E23.73625
G1 X138.817 Y75.246 E23.8757
G1 X140.974 Y76.919 E24.01188
G1 X143.183 Y78.534 E24.1484
G1 X145.42 Y80.073 E24.28387
G1 X147.756 Y81.587 E24.42275
G1 X150.055 Y82.984 E24.55696
G1 X152.439 Y84.343 E24.69387
G1 X154.874 Y85.641 E24.83153
G1 X157.332 Y86.865 E24.96853
G1 X159.688 Y87.957 E25.09808
G1 X159.854 Y88.036 E25.10725
G1 X160.292 Y88.288 E25.13246
G1 X160.617 Y88.544 E25.1531
G1 X161.283 Y89.142 E25.19776
G1 X161.547 Y89.386 E25.21569
G1 X162.147 Y89.952 E25.25684
G1 X162.944 Y90.754 E25.31325
G1 X163.41 Y91.25 E25.34721
G1 X163.708 Y91.62 E25.37091
G1 X164.294 Y92.469 E25.42238
G1 X165.101 Y93.684 E25.49515
G1 X166.57 Y95.835 E25.6251
G1 X167.472 Y97.12 E25.70342
G1 X169.808 Y100.433 E25.90567
G1 X170.184 Y100.984 E25.93895
G1 X170.435 Y101.423 E25.96418
G1 X170.614 Y101.896 E25.98941
G1 X170.716 Y102.391 E26.01462
G1 X170.741 Y102.768 E26.03347
G1 X170.745 Y103.438 E26.0669
G1 X170.733 Y104.927 E26.14119
G1 X170.787 Y107.643 E26.27672
G1 X170.919 Y110.363 E26.41258
G1 X171.131 Y113.138 E26.55143
G1 X171.41 Y115.788 E26.68436
G1 X171.513 Y116.559 E26.72317
G1 X171.686 Y117.962 E26.7937
G1 X171.708 Y118.467 E26.81892
G1 X171.65 Y118.97 E26.84418
G1 X171.514 Y119.457 E26.8694
G1 X171.303 Y119.916 E26.89461
G1 X171.022 Y120.336 E26.91982
G1 X170.288 Y121.265 E26.97889
G1 X169.962 Y121.666 E27.00467
G1 X168.267 Y123.877 E27.14366
G1 X166.68 Y126.073 E27.27884
G1 X165.125 Y128.358 E27.41673
G1 X163.651 Y130.661 E27.55314
G1 X162.259 Y132.978 E27.688
G1 X160.902 Y135.388 E27.82598
G1 X159.627 Y137.811 E27.96258
G1 X158.419 Y140.274 E28.09944
G1 X157.286 Y142.758 E28.23565
G1 X156.218 Y145.285 E28.37252
G1 X155.231 Y147.826 E28.50852
G1 X154.309 Y150.409 E28.64535
G1 X153.461 Y153.011 E28.78189
G1 X152.685 Y155.647 E28.91898
G1 X151.991 Y158.275 E29.05458
G1 X151.358 Y160.979 E29.19313
G1 X150.816 Y163.642 E29.32871
G1 X150.348 Y166.312 E29.46395
G1 X149.947 Y169.065 E29.60275
G1 X149.633 Y171.738 E29.73702
G1 X149.388 Y174.509 E29.87581
G1 X149.224 Y177.224 E30.01151
G1 X149.153 Y179.418 E30.12102
G1 X149.142 Y179.647 E30.13246
G1 X149.078 Y180.148 E30.15766
G1 X148.936 Y180.633 E30.18287
G1 X148.719 Y181.09 E30.20811
G1 X148.433 Y181.507 E30.23334
G1 X148.085 Y181.873 E30.25853
G1 X147.683 Y182.18 E30.28377
G1 X147.238 Y182.42 E30.30899
G1 X146.761 Y182.587 E30.33421
G1 X146.264 Y182.677 E30.35941
G1 X146.008 Y182.692 E30.3722
G1 X144.973 Y182.712 E30.42385
G1 X103.411 Y182.712 E32.49738
G1 X102.712 Y182.702 E32.53226
G1 X102.209 Y182.655 E32.55746
G1 X101.719 Y182.529 E32.58271
G1 X101.255 Y182.327 E32.60795
G1 X100.829 Y182.055 E32.63317
G1 X100.451 Y181.72 E32.65837
G1 X100.131 Y181.329 E32.68358
G1 X99.876 Y180.892 E32.70882
G1 X99.693 Y180.421 E32.73403
G1 X99.612 Y180.09 E32.75103
G1 X99.093 Y177.309 E32.89217
G1 X98.514 Y174.636 E33.02862
G1 X97.859 Y171.976 E33.16529
G1 X97.135 Y169.359 E33.30076
G1 X96.32 Y166.71 E33.43903
G1 X95.458 Y164.161 E33.57327
G1 X94.492 Y161.552 E33.71207
G1 X93.479 Y159.04 E33.8472
G1 X92.381 Y156.52 E33.98434
G1 X91.196 Y154.001 E34.12323
G1 X90.002 Y151.637 E34.25536
G1 X88.669 Y149.173 E34.39512
G1 X87.304 Y146.816 E34.53101
G1 X85.88 Y144.505 E34.66644
G1 X84.364 Y142.197 E34.8042
G1 X82.796 Y139.951 E34.94086
G1 X81.165 Y137.749 E35.07757
G1 X79.49 Y135.616 E35.21288
G1 X77.713 Y133.481 E35.35146
G1 X75.933 Y131.462 E35.48575
G1 X74.038 Y129.429 E35.6244
G1 X72.155 Y127.521 E35.75814
G1 X70.144 Y125.596 E35.89703
G1 X68.1 Y123.747 E36.03454
G1 X66.051 Y121.996 E36.169
G1 X64.981 Y121.132 E36.23762
G1 X64.445 Y120.687 E36.27237
G1 X64.083 Y120.334 E36.2976
G1 X63.78 Y119.929 E36.32283
G1 X63.546 Y119.481 E36.34805
G1 X63.385 Y119.002 E36.37326
G1 X63.291 Y118.323 E36.40746
G1 X63.279 Y117.9 E36.42857
G1 X63.279 Y115.929 E36.5269
G1 X63.289 Y115.217 E36.56243
G1 X63.297 Y115.035 E36.57152
G1 X63.372 Y113.979 E36.62434
G1 X63.418 Y113.174 E36.66456
G1 X63.491 Y112.153 E36.71563
G1 X63.842 Y109.072 E36.87034
G1 X64.072 Y106.367 E37.00578
G1 X64.228 Y103.618 E37.14315
G1 X64.306 Y100.865 E37.28055
G1 X64.306 Y98.149 E37.41605
G1 X64.224 Y95.273 E37.55959
G1 X64.196 Y94.638 E37.5913
G1 X64.214 Y94.133 E37.61651
G1 X64.311 Y93.637 E37.64173
G1 X64.485 Y93.162 E37.66697
G1 X64.732 Y92.721 E37.69218
G1 X65.051 Y92.317 E37.71787
G1 X65.475 Y91.877 E37.74835
G1 X66.998 Y90.354 E37.85581
G1 X67.485 Y89.881 E37.88968
G1 X67.875 Y89.558 E37.91494
G1 F1500 E31.41494
;MESH:Parabens7.stl
G0 F2160 X73.455 Y93.885
G0 X72.852 Y94.783
G0 X74.186 Y102.785
G0 X90.845 Y117.946
G0 X103.504 Y117.947
G0 X120.618 Y156.273
;TYPE:WALL-INNER
G1 F1500 E37.91494
G1 F900 X120.154 Y155.402 E37.96418
G1 X119.674 Y154.492 E38.01551
G1 X118.654 Y152.53 E38.12583
G1 X118.12 Y151.488 E38.18424
G1 X117.579 Y150.415 E38.24419
G1 X117.018 Y149.292 E38.30682
G1 X116.45 Y148.144 E38.37072
G1 X115.874 Y146.963 E38.43628
G1 X115.287 Y145.749 E38.50355
G1 X114.703 Y144.518 E38.57153
G1 X114.112 Y143.255 E38.6411
G1 X113.522 Y141.975 E38.71141
G1 X112.934 Y140.676 E38.78255
G1 X112.347 Y139.356 E38.85462
G1 X111.203 Y136.697 E38.99904
G1 X110.071 Y133.959 E39.14685
G1 X109.008 Y131.239 E39.29255
G1 X108.494 Y129.869 E39.36555
G1 X108.005 Y128.516 E39.43733
G1 X107.523 Y127.142 E39.50997
G1 X107.072 Y125.791 E39.58103
G1 X106.644 Y124.448 E39.65135
G1 X106.239 Y123.12 E39.72062
G1 X105.862 Y121.806 E39.78882
G1 X105.515 Y120.509 E39.8558
G1 X105.199 Y119.235 E39.92129
G1 X104.596 Y116.578 E40.05722
G1 X70.375 Y116.578 E41.76451
G1 X70.375 Y116.43 E41.77189
G1 X68.279 Y116.43 E41.87646
G1 X68.279 Y115.664 E41.91468
G1 X68.471 Y115.248 E41.93754
G1 X68.471 Y113.895 E42.00504
G1 X69.672 Y113.671 E42.06599
G1 X69.672 Y95.729 E42.96112
G1 X69.434 Y94.989 E42.9999
G1 X69.933 Y94.49 E43.03511
G1 X71.584 Y95.598 E43.13431
G1 X71.912 Y97.56 E43.23355
G1 X72.657 Y98.528 E43.29449
G1 X72.849 Y103.508 E43.54313
G1 X76.545 Y106.14 E43.7695
G1 X77.02 Y105.664 E43.80305
G1 X79.144 Y107.603 E43.94653
G1 X79.324 Y107.767 E43.95868
G1 X79.449 Y107.558 E43.96612
G1 X80.611 Y105.619 E44.07889
G1 X81.121 Y103.632 E44.18124
G1 X80.614 Y100.911 E44.31933
G1 X80.614 Y99.206 E44.40439
G1 X81.221 Y98.206 E44.46275
G1 X81.221 Y96.805 E44.53265
G1 X81.618 Y96.208 E44.56842
G1 X81.814 Y93.583 E44.69974
G1 X82.343 Y93.092 E44.73575
G1 X82.541 Y92.909 E44.7492
G1 X82.658 Y93.152 E44.75724
G1 X83.054 Y93.973 E44.80272
G1 X84.552 Y103.754 E45.29639
G1 X88.05 Y103.754 E45.4709
G1 X88.354 Y101.631 E45.5779
G1 X88.549 Y100.821 E45.61946
G1 X88.962 Y98.244 E45.74967
G1 X89.162 Y97.446 E45.79072
G1 X89.451 Y95.996 E45.86448
G1 X90.938 Y94.886 E45.95706
G1 X91.273 Y93.878 E46.01005
G1 X92.117 Y93.034 E46.0696
G1 X94.733 Y93.034 E46.20011
G1 X96.351 Y93.256 E46.28159
G1 X96.619 Y92.056 E46.34293
G1 X113.65 Y92.056 E47.19261
G1 X114.451 Y82.184 E47.68675
G1 X114.681 Y79.336 E47.8293
G1 X114.848 Y82.189 E47.90075
G1 X115.426 Y92.056 E48.39386
G1 X122.829 Y92.056 E48.7632
G1 X122.933 Y92.056 E48.76839
G1 X122.829 Y91.738 E48.77938
G1 X122.933 Y91.738
G1 X123.844 Y91.738 E48.82483
G1 X124.161 Y92.056 E48.84723
G1 X134.545 Y92.056 E49.36529
G1 X134.893 Y91.342 E49.40492
G1 X135.015 Y91.092 E49.4188
G1 X135.212 Y91.289 E49.42704
G1 X136.714 Y92.789 E49.53294
G1 X137.634 Y92.172 E49.5882
G1 X139.311 Y93.612 E49.69848
G1 X140.128 Y93.612 E49.73924
G1 X140.888 Y94.403 E49.79397
G1 X140.888 Y95.934 E49.87035
G1 X143.399 Y96.735 E50.00185
G1 X144.657 Y94.951 E50.11075
G1 X145.099 Y93.148 E50.20337
G1 X145.642 Y92.604 E50.24172
G1 X146.459 Y92.604 E50.28248
G1 X146.459 Y97.372 E50.52035
G1 X148.673 Y98.299 E50.6401
