;FLAVOR:Marlin
;TIME:5223
;Filament used: 4.61516m, 0m
;Layer height: 0.2
;MINX:34.639
;MINY:44.082
;MINZ:0.3
;MAXX:200.367
;MAXY:188.922
;MAXZ:1.9
;POSTPROCESSED
;Generated with Cura_SteamEngine 4.7.1
T0
M140 S60
M105
M190 S60
M104 S200
M105
M109 S200
M82 ;absolute extrusion mode
M201 X500.00 Y500.00 Z100.00 E5000.00 	;Setup machine max acceleration
M203 X500.00 Y500.00 Z10.00 E50.00 	;Setup machine max feedrate
M204 P500.00 R1000.00 T500.00 		;Setup Print/Retract/Travel acceleration
M205 X8.00 Y8.00 Z0.40 E5.00 		;Setup Jerk
M220 S100 				;Reset Feedrate
M221 S100 				;Reset Flowrate
G28				;Home the Machine
#G29 				;Bed Level
G92 E0
M300 P150 S587
G92 E0
G1 F1500 E-6.5
;LAYER_COUNT:9
;LAYER:0
M107
G0 F2160 X96.049 Y47.589 Z0.3
;TYPE:SKIRT
G1 F1500 E0
G1 F900 X96.295 Y47.113 E0.02673
G1 X96.61 Y46.678 E0.05353
G1 X96.985 Y46.295 E0.08027
G1 X97.413 Y45.973 E0.10699
G1 X97.884 Y45.717 E0.13373
G1 X98.389 Y45.534 E0.16053
G1 X98.914 Y45.428 E0.18725
G1 X99.45 Y45.401 E0.21403
G1 X99.984 Y45.454 E0.2408
G1 X100.503 Y45.586 E0.26752
G1 X100.851 Y45.723 E0.28618
G1 X101.871 Y46.186 E0.34206
G1 X104.374 Y47.282 E0.47838
G1 X106.888 Y48.301 E0.61372
G1 X106.9 Y48.304 E0.61434
G1 X109.48 Y49.263 E0.75166
G1 X112.063 Y50.14 E0.88775
G1 X114.664 Y50.943 E1.02356
G1 X117.308 Y51.677 E1.16046
G1 X119.933 Y52.328 E1.29538
G1 X122.574 Y52.904 E1.43024
G1 X125.286 Y53.414 E1.56792
G1 X127.961 Y53.84 E1.70305
G1 X130.666 Y54.192 E1.83914
G1 X133.418 Y54.472 E1.97715
G1 X136.114 Y54.67 E2.11202
G1 X138.798 Y54.789 E2.24605
G1 X141.567 Y54.835 E2.38422
G1 X144.298 Y54.802 E2.52048
G1 X146.989 Y54.695 E2.65484
G1 X149.753 Y54.505 E2.79306
G1 X152.436 Y54.245 E2.92754
G1 X155.138 Y53.906 E3.0634
G1 X157.846 Y53.487 E3.20011
G1 X160.531 Y52.994 E3.33631
G1 X163.19 Y52.428 E3.47194
G1 X165.809 Y51.794 E3.60638
G1 X168.482 Y51.063 E3.74463
G1 X171.073 Y50.277 E3.87971
G1 X173.689 Y49.402 E4.01733
G1 X176.205 Y48.48 E4.15102
G1 X178.774 Y47.455 E4.28901
G1 X181.251 Y46.384 E4.42365
G1 X183.747 Y45.222 E4.56101
G1 X184.083 Y45.056 E4.5797
G1 X185.336 Y44.446 E4.64923
G1 X185.834 Y44.247 E4.67598
G1 X186.357 Y44.125 E4.70278
G1 X186.891 Y44.082 E4.72951
G1 X187.426 Y44.119 E4.75626
G1 X187.95 Y44.235 E4.78304
G1 X188.45 Y44.427 E4.80976
G1 X188.917 Y44.691 E4.83652
G1 X189.339 Y45.022 E4.86328
G1 X189.707 Y45.412 E4.89003
G1 X190.013 Y45.852 E4.91677
G1 X190.251 Y46.333 E4.94354
G1 X190.414 Y46.844 E4.9703
G1 X190.505 Y47.44 E5.00038
G1 X190.571 Y48.429 E5.04983
G1 X192.236 Y82.832 E6.76821
G1 X192.408 Y85.575 E6.90533
G1 X192.652 Y88.256 E7.03964
G1 X192.982 Y91.01 E7.17802
G1 X193.376 Y93.671 E7.31223
G1 X193.855 Y96.372 E7.44908
G1 X194.406 Y99.039 E7.58495
G1 X195.029 Y101.672 E7.71994
G1 X195.738 Y104.331 E7.85723
G1 X196.52 Y106.963 E7.99421
G1 X197.354 Y109.505 E8.12769
G1 X198.41 Y112.425 E8.2826
G1 X198.817 Y113.501 E8.33999
G1 X199.052 Y114.164 E8.37509
G1 X199.301 Y114.926 E8.41508
G1 X199.388 Y115.24 E8.43134
G1 X199.532 Y115.872 E8.46368
G1 X199.648 Y116.455 E8.49333
G1 X199.669 Y116.569 E8.49911
G1 X199.805 Y117.4 E8.54113
G1 X199.874 Y117.979 E8.57022
G1 X199.972 Y119.317 E8.63715
G1 X199.981 Y119.862 E8.66434
G1 X199.93 Y120.89 E8.71569
G1 X199.83 Y123.675 E8.85473
G1 X199.807 Y126.408 E8.99108
G1 X199.862 Y129.103 E9.12556
G1 X199.995 Y131.846 E9.26257
G1 X200.284 Y135.401 E9.44052
G1 X200.333 Y136.005 E9.47075
G1 X200.365 Y136.748 E9.50785
G1 X200.367 Y136.98 E9.51943
G1 X200.35 Y137.737 E9.5572
G1 X200.327 Y138.069 E9.57381
G1 X200.25 Y138.772 E9.60909
G1 X200.232 Y138.907 E9.61588
G1 X200.105 Y139.766 E9.65921
G1 X199.932 Y140.502 E9.69693
G1 X199.743 Y141.09 E9.72774
G1 X199.496 Y141.756 E9.76318
G1 X199.402 Y141.975 E9.77507
G1 X199.165 Y142.483 E9.80303
G1 X199.069 Y142.675 E9.81374
G1 X198.689 Y143.377 E9.85357
G1 X198.286 Y144.04 E9.89228
G1 X197.989 Y144.485 E9.91897
G1 X197.511 Y145.118 E9.95854
G1 X197.377 Y145.28 E9.96903
G1 X197.032 Y145.673 E9.99512
G1 X196.861 Y145.855 E10.00758
G1 X196.234 Y146.475 E10.05157
G1 X196.001 Y146.684 E10.06719
G1 X194.966 Y147.541 E10.13423
G1 X192.886 Y149.315 E10.27062
G1 X190.882 Y151.124 E10.40531
G1 X188.893 Y153.024 E10.54254
G1 X186.969 Y154.97 E10.67906
G1 X185.118 Y156.952 E10.81436
G1 X183.325 Y158.983 E10.94952
G1 X181.556 Y161.103 E11.08728
G1 X179.882 Y163.23 E11.22232
G1 X178.261 Y165.415 E11.35805
G1 X176.701 Y167.647 E11.49391
G1 X175.193 Y169.937 E11.6307
G1 X174.355 Y171.304 E11.7107
G1 X174.261 Y171.434 E11.7187
G1 X173.941 Y171.954 E11.74916
G1 X173.641 Y172.418 E11.77673
G1 X173.345 Y172.833 E11.80216
G1 X173.021 Y173.256 E11.82874
G1 X172.56 Y173.778 E11.86349
G1 X172.189 Y174.162 E11.89013
G1 X171.68 Y174.623 E11.92439
G1 X171.293 Y174.94 E11.94935
G1 X170.766 Y175.337 E11.98226
G1 X170.269 Y175.661 E12.01186
G1 X169.739 Y175.98 E12.04272
G1 X169.599 Y176.059 E12.05074
G1 X169.15 Y176.3 E12.07617
G1 X168.744 Y176.5 E12.09875
G1 X168.053 Y176.805 E12.13643
G1 X167.494 Y177.027 E12.16644
G1 X166.903 Y177.223 E12.1975
G1 X166.808 Y177.252 E12.20246
G1 X166.31 Y177.397 E12.22833
G1 X165.705 Y177.546 E12.25942
G1 X165.168 Y177.653 E12.28674
G1 X164.42 Y177.772 E12.32452
G1 X162.037 Y178.116 E12.44465
G1 X159.349 Y178.583 E12.58076
G1 X156.679 Y179.125 E12.71668
G1 X154.043 Y179.737 E12.85169
G1 X151.359 Y180.443 E12.99015
G1 X148.798 Y181.194 E13.1233
G1 X146.173 Y182.045 E13.26097
G1 X143.609 Y182.956 E13.39673
G1 X140.627 Y184.12 E13.55643
G1 X139.888 Y184.422 E13.59626
G1 X139.161 Y184.671 E13.6346
G1 X138.648 Y184.8 E13.66099
G1 X137.985 Y184.916 E13.69457
G1 X137.408 Y184.968 E13.72347
G1 X136.877 Y184.983 E13.74997
G1 X134.734 Y184.992 E13.85689
G1 X132.007 Y185.08 E13.99301
G1 X129.312 Y185.244 E14.12771
G1 X126.562 Y185.489 E14.26545
G1 X123.883 Y185.805 E14.40004
G1 X121.182 Y186.2 E14.53622
G1 X118.489 Y186.673 E14.67263
G1 X115.796 Y187.225 E14.80978
G1 X114.547 Y187.5 E14.87359
G1 X114.437 Y187.522 E14.87918
G1 X113.937 Y187.616 E14.90457
G1 X113.291 Y187.702 E14.93708
G1 X112.796 Y187.73 E14.96181
G1 X112.272 Y187.714 E14.98797
G1 X111.764 Y187.662 E15.01345
G1 X111.27 Y187.583 E15.03841
G1 X110.885 Y187.495 E15.05811
G1 X108.207 Y186.864 E15.19537
G1 X105.601 Y186.324 E15.32815
G1 X105.581 Y186.322 E15.32915
G1 X102.862 Y185.842 E15.4669
G1 X100.19 Y185.447 E15.60166
G1 X97.447 Y185.121 E15.73947
G1 X94.756 Y184.877 E15.87427
G1 X92.031 Y184.708 E16.01049
G1 X89.304 Y184.618 E16.14661
G1 X86.573 Y184.603 E16.28286
G1 X83.842 Y184.666 E16.41915
G1 X81.15 Y184.804 E16.55363
G1 X78.395 Y185.024 E16.69151
G1 X75.712 Y185.315 E16.82615
G1 X72.968 Y185.691 E16.96433
G1 X70.316 Y186.131 E17.09845
G1 X67.624 Y186.657 E17.23529
G1 X65.005 Y187.245 E17.36921
G1 X61.241 Y188.226 E17.56327
G1 X59.909 Y188.602 E17.63232
G1 X59.386 Y188.724 E17.65911
G1 X58.794 Y188.834 E17.68915
G1 X58.082 Y188.908 E17.72487
G1 X57.537 Y188.922 E17.75207
G1 X57.368 Y188.919 E17.7605
G1 X56.01 Y188.86 E17.82831
G1 X54.929 Y188.797 E17.88234
G1 X52.236 Y188.716 E18.01675
G1 X49.471 Y188.712 E18.1547
G1 X48.057 Y188.741 E18.22526
G1 X47.506 Y188.756 E18.25276
G1 X46.707 Y188.688 E18.29276
G1 X46.043 Y188.544 E18.32666
G1 X45.541 Y188.403 E18.35267
G1 X45.184 Y188.291 E18.37134
G1 X44.596 Y188.044 E18.40316
G1 X44.104 Y187.783 E18.43095
G1 X43.974 Y187.709 E18.43841
G1 X43.463 Y187.356 E18.46939
G1 X43.038 Y187.005 E18.49689
G1 X42.517 Y186.475 E18.53397
G1 X42.09 Y185.911 E18.56926
G1 X41.787 Y185.428 E18.59771
G1 X41.464 Y184.785 E18.63361
G1 X41.275 Y184.286 E18.66023
G1 X41.114 Y183.792 E18.68615
G1 X40.957 Y183.232 E18.71517
G1 X40.606 Y181.858 E18.78592
G1 X39.768 Y178.957 E18.93657
G1 X39.758 Y178.911 E18.93892
G1 X39.49 Y178.013 E18.98567
G1 X39.214 Y177.02 E19.03709
G1 X39.14 Y176.724 E19.05231
G1 X38.77 Y175.124 E19.13424
G1 X38.427 Y173.513 E19.21642
G1 X38.326 Y173.028 E19.24113
G1 X37.922 Y171.011 E19.34376
G1 X37.712 Y169.902 E19.40007
G1 X37.394 Y168.122 E19.49028
G1 X37.264 Y167.371 E19.52831
G1 X37.128 Y166.554 E19.56963
G1 X36.641 Y163.875 E19.70547
G1 X36.137 Y161.46 E19.82856
G1 X35.981 Y160.759 E19.86438
G1 X35.712 Y159.468 E19.93018
G1 X34.863 Y155.124 E20.151
G1 X34.734 Y154.405 E20.18744
G1 X34.664 Y153.815 E20.21708
G1 X34.639 Y153.456 E20.23504
G1 X34.643 Y152.9 E20.26278
G1 X34.708 Y152.297 E20.29304
G1 X34.835 Y151.696 E20.32368
G1 X35.082 Y150.961 E20.36237
G1 X35.343 Y150.39 E20.39369
G1 X35.746 Y149.747 E20.43155
G1 X36.177 Y149.216 E20.46567
G1 X36.701 Y148.684 E20.50292
G1 X37.19 Y148.262 E20.53515
G1 X37.81 Y147.764 E20.57482
G1 X37.91 Y147.686 E20.58115
G1 X38.935 Y146.92 E20.64499
G1 X39.406 Y146.587 E20.67377
G1 X39.869 Y146.281 E20.70145
G1 X40.216 Y146.079 E20.72149
G1 X41.186 Y145.585 E20.77579
G1 X41.773 Y145.296 E20.80844
G1 X44.165 Y144.037 E20.94329
G1 X46.55 Y142.692 E21.0799
G1 X48.898 Y141.279 E21.21662
G1 X51.176 Y139.821 E21.35155
G1 X53.45 Y138.271 E21.48885
G1 X55.667 Y136.667 E21.62537
G1 X57.81 Y135.022 E21.76015
G1 X59.93 Y133.299 E21.89645
G1 X61.983 Y131.529 E22.03168
G1 X64.019 Y129.671 E22.1692
G1 X65.962 Y127.796 E22.30391
G1 X67.851 Y125.867 E22.43861
G1 X69.732 Y123.834 E22.57679
G1 X71.532 Y121.772 E22.71334
G1 X73.261 Y119.678 E22.84882
G1 X74.935 Y117.529 E22.98473
G1 X76.532 Y115.353 E23.11939
G1 X78.108 Y113.072 E23.25771
G1 X79.577 Y110.817 E23.39198
G1 X81.019 Y108.454 E23.53008
G1 X82.352 Y106.13 E23.66375
G1 X83.659 Y103.691 E23.8018
G1 X84.867 Y101.275 E23.93656
G1 X86.014 Y98.807 E24.07234
G1 X87.099 Y96.289 E24.20913
G1 X88.098 Y93.782 E24.34377
G1 X89.036 Y91.215 E24.48012
G1 X89.903 Y88.618 E24.61671
G1 X90.696 Y86 E24.75319
G1 X91.415 Y83.359 E24.88974
G1 X92.054 Y80.714 E25.0255
G1 X92.613 Y78.083 E25.15969
G1 X93.107 Y75.38 E25.29677
G1 X93.523 Y72.676 E25.43326
G1 X93.861 Y69.965 E25.56956
G1 X94.069 Y67.868 E25.6747
G1 X95.707 Y49.331 E26.60312
G1 X95.781 Y48.625 E26.63853
G1 X95.876 Y48.097 E26.6653
G1 X96.049 Y47.589 E26.69207
G0 F2160 X96.44 Y47.693
G1 F900 X96.682 Y47.249 E26.7173
G1 X96.992 Y46.849 E26.74255
G1 X97.36 Y46.503 E26.76775
G1 X97.778 Y46.219 E26.79296
G1 X98.236 Y46.004 E26.8182
G1 X98.722 Y45.865 E26.84342
G1 X99.224 Y45.803 E26.86865
G1 X99.729 Y45.821 E26.89386
G1 X100.225 Y45.919 E26.91909
G1 X100.685 Y46.087 E26.94352
G1 X101.689 Y46.543 E26.99853
G1 X104.256 Y47.666 E27.13832
G1 X106.745 Y48.675 E27.27231
G1 X106.761 Y48.679 E27.27314
G1 X109.36 Y49.645 E27.41147
G1 X111.921 Y50.515 E27.54641
G1 X114.577 Y51.334 E27.68507
G1 X117.177 Y52.056 E27.8197
G1 X119.857 Y52.721 E27.95746
G1 X122.5 Y53.297 E28.09241
G1 X125.221 Y53.809 E28.23054
G1 X127.918 Y54.238 E28.36679
G1 X130.61 Y54.589 E28.50223
G1 X133.383 Y54.87 E28.64129
G1 X136.064 Y55.067 E28.7754
G1 X138.811 Y55.19 E28.91259
G1 X141.565 Y55.235 E29.05
G1 X144.319 Y55.202 E29.18741
G1 X147.031 Y55.094 E29.32282
G1 X149.747 Y54.907 E29.45864
G1 X152.492 Y54.641 E29.59623
G1 X155.212 Y54.3 E29.733
G1 X157.908 Y53.883 E29.8691
G1 X160.588 Y53.391 E30.00504
G1 X163.288 Y52.816 E30.14276
G1 X165.912 Y52.18 E30.27747
G1 X168.589 Y51.449 E30.41591
G1 X171.21 Y50.654 E30.55256
G1 X173.773 Y49.796 E30.6874
G1 X176.384 Y48.839 E30.82614
G1 X178.914 Y47.83 E30.96203
G1 X181.43 Y46.742 E31.09879
G1 X183.903 Y45.591 E31.23487
G1 X184.259 Y45.415 E31.25469
G1 X185.511 Y44.805 E31.32417
G1 X185.982 Y44.62 E31.34941
G1 X186.476 Y44.512 E31.37464
G1 X186.98 Y44.483 E31.39983
G1 X187.484 Y44.533 E31.4251
G1 X187.972 Y44.662 E31.45028
G1 X188.435 Y44.867 E31.47554
G1 X188.859 Y45.142 E31.50075
G1 X189.235 Y45.48 E31.52598
G1 X189.553 Y45.873 E31.5512
G1 X189.805 Y46.311 E31.57641
G1 X189.984 Y46.784 E31.60164
G1 X190.106 Y47.467 E31.63626
G1 X190.171 Y48.448 E31.68531
G1 X191.835 Y82.82 E33.40214
G1 X192.009 Y85.6 E33.54111
G1 X192.259 Y88.342 E33.67847
G1 X192.582 Y91.045 E33.81429
G1 X192.98 Y93.728 E33.94961
G1 X193.463 Y96.451 E34.08758
G1 X194.011 Y99.107 E34.22288
G1 X194.648 Y101.795 E34.3607
G1 X195.353 Y104.442 E34.49736
G1 X196.132 Y107.064 E34.63382
G1 X196.984 Y109.659 E34.77009
G1 X198.018 Y112.52 E34.92186
G1 X198.44 Y113.635 E34.98134
G1 X198.702 Y114.377 E35.02059
G1 X198.921 Y115.05 E35.0559
G1 X198.998 Y115.329 E35.07034
G1 X199.142 Y115.961 E35.10268
G1 X199.256 Y116.533 E35.13178
G1 X199.274 Y116.633 E35.13685
G1 X199.41 Y117.464 E35.17886
G1 X199.475 Y118.008 E35.20619
G1 X199.58 Y119.455 E35.27857
G1 X199.582 Y119.842 E35.29788
G1 X199.528 Y120.92 E35.35173
G1 X199.43 Y123.656 E35.48832
G1 X199.407 Y126.406 E35.62552
G1 X199.462 Y129.13 E35.76145
G1 X199.595 Y131.867 E35.89816
G1 X199.886 Y135.44 E36.07701
G1 X199.933 Y136.022 E36.10614
G1 X199.965 Y136.765 E36.14324
G1 X199.967 Y136.971 E36.15352
G1 X199.95 Y137.717 E36.19075
G1 X199.929 Y138.025 E36.20615
G1 X199.852 Y138.728 E36.24143
G1 X199.837 Y138.848 E36.24747
G1 X199.71 Y139.707 E36.29079
G1 X199.546 Y140.398 E36.32622
G1 X199.364 Y140.964 E36.35588
G1 X199.123 Y141.611 E36.39033
G1 X199.04 Y141.806 E36.4009
G1 X198.803 Y142.314 E36.42887
G1 X198.717 Y142.484 E36.43837
G1 X198.337 Y143.186 E36.4782
G1 X197.946 Y143.828 E36.5157
G1 X197.663 Y144.253 E36.54117
G1 X197.196 Y144.872 E36.57986
G1 X197.077 Y145.016 E36.58918
G1 X196.732 Y145.409 E36.61527
G1 X196.58 Y145.571 E36.62635
G1 X196.023 Y146.123 E36.66547
G1 X195.746 Y146.376 E36.68419
G1 X194.711 Y147.233 E36.75123
G1 X192.622 Y149.014 E36.88819
G1 X190.62 Y150.821 E37.02273
G1 X188.598 Y152.754 E37.16229
G1 X186.692 Y154.68 E37.29748
G1 X184.825 Y156.68 E37.43398
G1 X183.004 Y158.743 E37.57126
G1 X181.264 Y160.827 E37.70671
G1 X179.563 Y162.99 E37.84399
G1 X177.928 Y165.193 E37.98086
G1 X176.371 Y167.42 E38.11643
G1 X174.848 Y169.734 E38.25464
G1 X174.014 Y171.095 E38.33427
G1 X173.932 Y171.209 E38.34128
G1 X173.644 Y171.676 E38.36865
G1 X173.305 Y172.2 E38.39979
G1 X172.972 Y172.663 E38.42824
G1 X172.525 Y173.224 E38.46403
G1 X171.902 Y173.884 E38.50931
G1 X171.417 Y174.321 E38.54188
G1 X170.753 Y174.851 E38.58426
G1 X170.053 Y175.325 E38.62644
G1 X169.534 Y175.636 E38.65663
G1 X169.409 Y175.707 E38.6638
G1 X168.885 Y175.987 E38.69344
G1 X168.582 Y176.135 E38.71026
G1 X167.891 Y176.44 E38.74795
G1 X167.349 Y176.654 E38.77702
G1 X166.781 Y176.843 E38.80688
G1 X166.199 Y177.013 E38.83713
G1 X165.613 Y177.157 E38.86724
G1 X165.105 Y177.258 E38.89308
G1 X164.363 Y177.376 E38.93056
G1 X161.983 Y177.72 E39.05053
G1 X159.267 Y178.192 E39.18807
G1 X156.588 Y178.736 E39.32445
G1 X153.948 Y179.348 E39.45965
G1 X151.292 Y180.046 E39.59666
G1 X148.625 Y180.829 E39.73533
G1 X146.051 Y181.663 E39.87032
G1 X143.466 Y182.582 E40.0072
G1 X140.532 Y183.727 E40.16433
G1 X139.747 Y184.048 E40.20664
G1 X139.063 Y184.283 E40.24272
G1 X138.55 Y184.412 E40.26911
G1 X137.927 Y184.52 E40.30066
G1 X137.379 Y184.569 E40.32811
G1 X136.875 Y184.583 E40.35326
G1 X134.719 Y184.592 E40.46083
G1 X132.006 Y184.679 E40.59625
G1 X129.253 Y184.847 E40.73385
G1 X126.551 Y185.088 E40.86919
G1 X123.81 Y185.411 E41.00688
G1 X121.12 Y185.805 E41.14252
G1 X118.41 Y186.281 E41.27979
G1 X115.694 Y186.837 E41.4181
G1 X114.46 Y187.109 E41.48115
G1 X114.363 Y187.129 E41.48609
G1 X113.863 Y187.223 E41.51147
G1 X113.263 Y187.303 E41.54167
G1 X112.313 Y187.316 E41.58907
G1 X111.805 Y187.264 E41.61455
G1 X111.146 Y187.148 E41.64793
G1 X111.003 Y187.112 E41.65529
G1 X108.301 Y186.475 E41.79378
G1 X105.66 Y185.929 E41.92833
G1 X102.947 Y185.45 E42.06578
G1 X100.229 Y185.049 E42.20285
G1 X97.491 Y184.724 E42.3404
G1 X94.784 Y184.479 E42.47601
G1 X92.034 Y184.308 E42.61347
G1 X89.321 Y184.218 E42.7489
G1 X86.566 Y184.203 E42.88635
G1 X83.848 Y184.266 E43.02199
G1 X81.099 Y184.407 E43.15932
