;FLAVOR:Marlin
;TIME:475
;Filament used: 0.50768m, 0m
;Layer height: 0.2
;MINX:84.475
;MINY:90.028
;MINZ:0.3
;MAXX:150.522
;MAXY:189.138
;MAXZ:1.7
;Generated with Cura_SteamEngine 4.7.1
T0
M140 S60
M105
M190 S60
M104 S190
M105
M109 S190
M82 ;absolute extrusion mode
M201 X500.00 Y500.00 Z100.00 E5000.00 	;Setup machine max acceleration
M203 X500.00 Y500.00 Z10.00 E50.00 	;Setup machine max feedrate
M204 P500.00 R1000.00 T500.00 		;Setup Print/Retract/Travel acceleration
M205 X8.00 Y8.00 Z0.40 E5.00 		;Setup Jerk
M220 S100 				;Reset Feedrate
M221 S100 				;Reset Flowrate
G28				;Home the Machine
#G29 				;Bed Level
G92 E0
M300 P150 S587
G92 E0
;LAYER_COUNT:8
;LAYER:0
M107
G0 F3600 X111.981 Y91.746 Z0.3
;TYPE:SKIRT
G1 F1500 X112.411 Y91.301 E0.03087
G1 X112.896 Y90.915 E0.0618
G1 X113.426 Y90.595 E0.09268
G1 X113.993 Y90.345 E0.1236
G1 X114.587 Y90.171 E0.15448
G1 X115.083 Y90.086 E0.17959
G1 X115.306 Y90.06 E0.19079
G1 X115.925 Y90.028 E0.22171
G1 X116.542 Y90.076 E0.25259
G1 X117.148 Y90.204 E0.28349
G1 X117.733 Y90.408 E0.3144
G1 X118.287 Y90.685 E0.3453
G1 X118.8 Y91.032 E0.3762
G1 X119.245 Y91.42 E0.40565
G1 X119.669 Y91.873 E0.43661
G1 X120.03 Y92.376 E0.4675
G1 X120.324 Y92.921 E0.49839
G1 X120.545 Y93.499 E0.52926
G1 X120.69 Y94.102 E0.5602
G1 X120.754 Y94.685 E0.58946
G1 X120.809 Y95.801 E0.64521
G1 X120.925 Y98.567 E0.78333
G1 X121.114 Y101.227 E0.91637
G1 X121.384 Y103.945 E1.05264
G1 X121.721 Y106.586 E1.18547
G1 X122.141 Y109.26 E1.32051
G1 X122.63 Y111.894 E1.45417
G1 X123.194 Y114.517 E1.58802
G1 X123.834 Y117.128 E1.72214
G1 X124.556 Y119.749 E1.85777
G1 X125.341 Y122.314 E1.9916
G1 X126.201 Y124.865 E2.12591
G1 X127.142 Y127.418 E2.26165
G1 X128.139 Y129.901 E2.39514
G1 X129.198 Y132.338 E2.52771
G1 X130.37 Y134.836 E2.66537
G1 X131.563 Y137.207 E2.79779
G1 X132.843 Y139.578 E2.93221
G1 X134.177 Y141.889 E3.06534
G1 X135.615 Y144.226 E3.20224
G1 X137.064 Y146.44 E3.33425
G1 X138.605 Y148.654 E3.46883
G1 X140.231 Y150.856 E3.60539
G1 X141.864 Y152.94 E3.73748
G1 X143.58 Y155.007 E3.87151
G1 X145.378 Y157.051 E4.00732
G1 X147.203 Y159.012 E4.14097
G1 X148.079 Y159.893 E4.20295
G1 X148.175 Y160.003 E4.21024
G1 X149.09 Y160.938 E4.2755
G1 X149.494 Y161.408 E4.30643
G1 X149.834 Y161.926 E4.33734
G1 X150.104 Y162.483 E4.36822
G1 X150.297 Y163.038 E4.39753
G1 X150.449 Y163.639 E4.42846
G1 X150.522 Y164.254 E4.45936
G1 X150.515 Y164.873 E4.49024
G1 X150.438 Y165.442 E4.51889
G1 X150.274 Y166.157 E4.55549
G1 X150.124 Y166.644 E4.58091
G1 X150.047 Y166.849 E4.59184
G1 X149.803 Y167.458 E4.62457
G1 X148.844 Y169.949 E4.75774
G1 X147.945 Y172.497 E4.89254
G1 X146.722 Y176.392 E5.09621
G1 X146.553 Y176.972 E5.12635
G1 X146.459 Y177.261 E5.14151
G1 X146.242 Y177.861 E5.17335
G1 X146.124 Y178.156 E5.1892
G1 X145.846 Y178.79 E5.22374
G1 X145.713 Y179.069 E5.23916
G1 X145.436 Y179.604 E5.26921
G1 X145.283 Y179.876 E5.28478
G1 X144.938 Y180.448 E5.31811
G1 X144.758 Y180.726 E5.33463
G1 X144.335 Y181.329 E5.37138
G1 X144.156 Y181.567 E5.38624
G1 X143.839 Y181.964 E5.41158
G1 X143.598 Y182.247 E5.43013
G1 X143.115 Y182.78 E5.46601
G1 X142.545 Y183.355 E5.50641
G1 X142.102 Y183.765 E5.53652
G1 X141.456 Y184.31 E5.57869
G1 X140.985 Y184.676 E5.60845
G1 X140.509 Y185.024 E5.63786
G1 X140.222 Y185.222 E5.65526
G1 X139.693 Y185.569 E5.68682
G1 X139.5 Y185.688 E5.69813
G1 X138.98 Y185.995 E5.72826
G1 X138.748 Y186.124 E5.7415
G1 X137.507 Y186.767 E5.81123
G1 X136.971 Y187.021 E5.84083
G1 X136.392 Y187.274 E5.87235
G1 X136.241 Y187.337 E5.88051
G1 X135.508 Y187.628 E5.91986
G1 X135.335 Y187.693 E5.92908
G1 X134.505 Y187.986 E5.97299
G1 X134.312 Y188.05 E5.98314
G1 X133.234 Y188.38 E6.03938
G1 X132.743 Y188.515 E6.06479
G1 X132.519 Y188.57 E6.07629
G1 X131.736 Y188.742 E6.11629
G1 X131.523 Y188.784 E6.12712
G1 X130.773 Y188.913 E6.16509
G1 X130.511 Y188.95 E6.17829
G1 X129.808 Y189.035 E6.21362
G1 X129.584 Y189.057 E6.22485
G1 X128.904 Y189.107 E6.25886
G1 X128.56 Y189.124 E6.27605
G1 X127.956 Y189.138 E6.30619
G1 X127.572 Y189.136 E6.32535
G1 X126.865 Y189.114 E6.36064
G1 X126.121 Y189.058 E6.39786
G1 X125.998 Y189.046 E6.40402
G1 X124.988 Y188.936 E6.45471
G1 X122.305 Y188.68 E6.58917
G1 X119.65 Y188.504 E6.72192
G1 X116.919 Y188.399 E6.85827
G1 X114.22 Y188.373 E6.99293
G1 X111.56 Y188.421 E7.12566
G1 X108.858 Y188.548 E7.26062
G1 X106.148 Y188.75 E7.39619
G1 X105.607 Y188.802 E7.42331
G1 X105.056 Y188.846 E7.45089
G1 X104.929 Y188.854 E7.45723
G1 X104.364 Y188.884 E7.48546
G1 X103.999 Y188.894 E7.50368
G1 X103.418 Y188.896 E7.53267
G1 X102.849 Y188.882 E7.56106
G1 X102.272 Y188.852 E7.58989
G1 X101.807 Y188.815 E7.61316
G1 X101.143 Y188.746 E7.64646
G1 X100.885 Y188.712 E7.65945
G1 X99.904 Y188.556 E7.70901
G1 X99.741 Y188.528 E7.71726
G1 X99.114 Y188.406 E7.74912
G1 X98.942 Y188.369 E7.7579
G1 X98.122 Y188.178 E7.79991
G1 X97.625 Y188.047 E7.82555
G1 X96.739 Y187.787 E7.87162
G1 X96.598 Y187.743 E7.87898
G1 X95.987 Y187.543 E7.91106
G1 X95.841 Y187.492 E7.91877
G1 X95.076 Y187.214 E7.95938
G1 X94.532 Y187 E7.98855
G1 X94.184 Y186.85 E8.00745
G1 X93.576 Y186.569 E8.04087
G1 X93.318 Y186.439 E8.05528
G1 X92.707 Y186.117 E8.08974
G1 X92.066 Y185.742 E8.12679
G1 X91.579 Y185.433 E8.15556
G1 X91.148 Y185.139 E8.18159
G1 X90.608 Y184.742 E8.21503
G1 X90.489 Y184.648 E8.2226
G1 X90.045 Y184.288 E8.25111
G1 X89.385 Y183.701 E8.29518
G1 X89.07 Y183.394 E8.31713
G1 X88.657 Y182.966 E8.3468
G1 X88.457 Y182.746 E8.36163
G1 X88.025 Y182.239 E8.39486
G1 X87.789 Y181.943 E8.41375
G1 X87.434 Y181.466 E8.44342
G1 X87.234 Y181.179 E8.46087
G1 X86.9 Y180.668 E8.49132
G1 X86.739 Y180.404 E8.50675
G1 X86.418 Y179.836 E8.5393
G1 X86.275 Y179.561 E8.55477
G1 X85.964 Y178.917 E8.59044
G1 X85.845 Y178.651 E8.60498
G1 X85.635 Y178.139 E8.63259
G1 X85.455 Y177.658 E8.65821
G1 X85.265 Y177.093 E8.68795
G1 X85.086 Y176.486 E8.71953
G1 X84.932 Y175.852 E8.75208
G1 X84.77 Y175.031 E8.79383
G1 X84.734 Y174.828 E8.80411
G1 X84.655 Y174.312 E8.83016
G1 X84.63 Y174.123 E8.83967
G1 X84.561 Y173.51 E8.87044
G1 X84.543 Y173.314 E8.88026
G1 X84.502 Y172.739 E8.90902
G1 X84.478 Y172.141 E8.93888
G1 X84.475 Y171.972 E8.94731
G1 X84.475 Y171.325 E8.97959
G1 X84.478 Y171.149 E8.98837
G1 X84.5 Y170.55 E9.01828
G1 X84.51 Y170.37 E9.02727
G1 X84.548 Y169.859 E9.05284
G1 X84.561 Y169.713 E9.06015
G1 X84.628 Y169.076 E9.0921
G1 X84.647 Y168.92 E9.09994
G1 X84.727 Y168.342 E9.12906
G1 X84.838 Y167.696 E9.16176
G1 X85.109 Y166.388 E9.2284
G1 X85.206 Y165.978 E9.24942
G1 X85.368 Y165.365 E9.28105
G1 X85.405 Y165.232 E9.28794
G1 X85.57 Y164.673 E9.31702
G1 X85.608 Y164.55 E9.32344
G1 X85.806 Y163.94 E9.35544
G1 X86.082 Y163.158 E9.39681
G1 X86.126 Y163.038 E9.40319
G1 X86.355 Y162.443 E9.43499
G1 X86.405 Y162.319 E9.44166
G1 X86.691 Y161.636 E9.47861
G1 X86.953 Y161.047 E9.51077
G1 X87.006 Y160.933 E9.51704
G1 X87.322 Y160.27 E9.55368
G1 X87.375 Y160.162 E9.55968
G1 X87.643 Y159.634 E9.58922
G1 X87.699 Y159.527 E9.59525
G1 X88.118 Y158.753 E9.63916
G1 X88.423 Y158.217 E9.66993
G1 X88.489 Y158.104 E9.67646
G1 X88.87 Y157.475 E9.71314
G1 X89.279 Y156.831 E9.75121
G1 X89.349 Y156.723 E9.75763
G1 X89.761 Y156.112 E9.79439
G1 X89.824 Y156.021 E9.79991
G1 X90.23 Y155.448 E9.83495
G1 X91.171 Y154.181 E9.91369
G1 X92.118 Y152.934 E9.99181
G1 X93.661 Y150.778 E10.12408
G1 X95.179 Y148.526 E10.25957
G1 X96.609 Y146.268 E10.39292
G1 X97.998 Y143.932 E10.52851
G1 X99.297 Y141.599 E10.66173
G1 X100.543 Y139.206 E10.79633
G1 X101.72 Y136.78 E10.93085
G1 X102.831 Y134.313 E11.06584
G1 X103.865 Y131.834 E11.19984
G1 X104.816 Y129.363 E11.33194
G1 X105.726 Y126.775 E11.4688
G1 X106.545 Y124.219 E11.60271
G1 X107.296 Y121.627 E11.73734
G1 X107.965 Y119.046 E11.87036
G1 X108.566 Y116.421 E12.00471
G1 X109.092 Y113.793 E12.13842
G1 X109.549 Y111.113 E12.27406
G1 X109.927 Y108.442 E12.40864
G1 X110.23 Y105.753 E12.54365
G1 X110.453 Y103.103 E12.67633
G1 X110.606 Y100.353 E12.81374
G1 X110.655 Y98.897 E12.88642
G1 X110.745 Y95.465 E13.0577
G1 X110.773 Y94.769 E13.09245
G1 X110.838 Y94.153 E13.12335
G1 X110.981 Y93.551 E13.15422
G1 X111.201 Y92.972 E13.18512
G1 X111.541 Y92.351 E13.22045
G1 X111.611 Y92.243 E13.22687
G1 X111.981 Y91.746 E13.25778
G0 F3600 X112.302 Y91.986
G1 F1500 X112.718 Y91.564 E13.28734
G1 X113.187 Y91.201 E13.31693
G1 X113.7 Y90.904 E13.3465
G1 X114.249 Y90.679 E13.3761
G1 X114.823 Y90.53 E13.40569
G1 X115.352 Y90.458 E13.43233
G1 X115.945 Y90.429 E13.46195
G1 X116.535 Y90.48 E13.49149
G1 X117.114 Y90.61 E13.5211
G1 X117.67 Y90.817 E13.5507
G1 X118.193 Y91.096 E13.58027
G1 X118.874 Y91.62 E13.62314
G1 X118.972 Y91.712 E13.62984
G1 X119.375 Y92.146 E13.65939
G1 X119.717 Y92.631 E13.689
G1 X119.991 Y93.157 E13.71859
G1 X120.192 Y93.715 E13.74818
G1 X120.315 Y94.295 E13.77776
G1 X120.355 Y94.705 E13.79831
G1 X120.409 Y95.818 E13.8539
G1 X120.525 Y98.576 E13.99162
G1 X120.715 Y101.261 E14.12591
G1 X120.987 Y103.999 E14.26318
G1 X121.323 Y106.627 E14.39536
G1 X121.746 Y109.323 E14.53151
G1 X122.24 Y111.98 E14.66634
G1 X122.801 Y114.591 E14.79958
G1 X123.454 Y117.257 E14.93652
G1 X124.173 Y119.867 E15.07158
G1 X124.955 Y122.421 E15.20484
G1 X125.833 Y125.026 E15.34199
G1 X126.76 Y127.54 E15.47567
G1 X127.76 Y130.031 E15.60958
G1 X128.853 Y132.547 E15.74644
G1 X129.993 Y134.977 E15.88035
G1 X131.212 Y137.398 E16.01558
G1 X132.487 Y139.762 E16.14958
G1 X133.848 Y142.12 E16.28541
G1 X135.256 Y144.407 E16.4194
G1 X136.75 Y146.689 E16.55548
G1 X138.283 Y148.891 E16.68934
G1 X139.872 Y151.044 E16.82284
G1 X141.572 Y153.214 E16.96037
G1 X143.29 Y155.284 E17.09457
G1 X145.084 Y157.323 E17.23007
G1 X146.895 Y159.269 E17.36269
G1 X147.796 Y160.175 E17.42644
G1 X147.891 Y160.285 E17.43369
G1 X148.804 Y161.218 E17.49882
G1 X149.189 Y161.669 E17.5284
G1 X149.51 Y162.168 E17.558
G1 X149.847 Y162.944 E17.60021
G1 X149.917 Y163.161 E17.61159
G1 X150.06 Y163.736 E17.64115
G1 X150.125 Y164.326 E17.67076
G1 X150.11 Y164.919 E17.70036
G1 X150.015 Y165.521 E17.73076
G1 X149.886 Y166.06 E17.75841
G1 X149.723 Y166.577 E17.78546
G1 X149.453 Y167.254 E17.82182
G1 X148.458 Y169.84 E17.96006
G1 X147.568 Y172.362 E18.09348
G1 X146.345 Y176.257 E18.29716
G1 X146.169 Y176.86 E18.3285
G1 X146.083 Y177.124 E18.34235
G1 X145.866 Y177.724 E18.37418
G1 X145.758 Y177.995 E18.38874
G1 X145.48 Y178.629 E18.42328
G1 X145.357 Y178.885 E18.43744
G1 X145.08 Y179.42 E18.4675
G1 X144.941 Y179.669 E18.48173
G1 X144.596 Y180.241 E18.51505
G1 X144.43 Y180.496 E18.53023
G1 X144.007 Y181.099 E18.56698
G1 X143.843 Y181.317 E18.58059
G1 X143.526 Y181.714 E18.60594
G1 X143.301 Y181.979 E18.62328
G1 X142.818 Y182.512 E18.65917
G1 X142.266 Y183.069 E18.69829
G1 X141.84 Y183.462 E18.72721
G1 X141.202 Y184.001 E18.76888
G1 X140.748 Y184.354 E18.79757
G1 X140.28 Y184.695 E18.82646
G1 X140.002 Y184.887 E18.84331
G1 X139.473 Y185.234 E18.87487
G1 X139.297 Y185.344 E18.88523
G1 X138.777 Y185.651 E18.91536
G1 X138.564 Y185.769 E18.9275
G1 X137.323 Y186.412 E18.99724
G1 X136.811 Y186.655 E19.02551
G1 X136.232 Y186.908 E19.05703
G1 X136.094 Y186.966 E19.0645
G1 X135.361 Y187.257 E19.10385
G1 X135.202 Y187.316 E19.11231
G1 X134.372 Y187.609 E19.15622
G1 X134.195 Y187.667 E19.16551
G1 X133.117 Y187.997 E19.22176
G1 X132.433 Y188.18 E19.25709
G1 X131.65 Y188.352 E19.29708
G1 X131.455 Y188.39 E19.30699
G1 X130.795 Y188.504 E19.34041
G1 X130.463 Y188.553 E19.35715
G1 X129.76 Y188.638 E19.39248
G1 X129.555 Y188.658 E19.40275
G1 X128.765 Y188.715 E19.44227
G1 X128.551 Y188.724 E19.45296
G1 X127.947 Y188.738 E19.4831
G1 X127.584 Y188.736 E19.50121
G1 X126.979 Y188.718 E19.53141
G1 X126.154 Y188.659 E19.57267
G1 X126.042 Y188.648 E19.57828
G1 X125.06 Y188.541 E19.62757
G1 X122.334 Y188.282 E19.76418
G1 X119.658 Y188.103 E19.89798
G1 X116.938 Y187.999 E20.03378
G1 X114.217 Y187.972 E20.16954
G1 X111.533 Y188.022 E20.30347
G1 X108.845 Y188.147 E20.43772
G1 X106.129 Y188.351 E20.5736
G1 X105.575 Y188.403 E20.60137
G1 X105.024 Y188.447 E20.62894
G1 X104.907 Y188.455 E20.63479
G1 X104.342 Y188.485 E20.66302
G1 X103.997 Y188.494 E20.68024
G1 X103.416 Y188.496 E20.70923
G1 X102.87 Y188.482 E20.73647
G1 X102.179 Y188.445 E20.771
G1 X101.848 Y188.417 E20.78757
G1 X101.184 Y188.348 E20.82088
G1 X100.948 Y188.317 E20.83275
G1 X99.967 Y188.161 E20.88231
G1 X99.818 Y188.135 E20.88985
G1 X99.191 Y188.013 E20.92172
G1 X99.033 Y187.979 E20.92979
G1 X98.213 Y187.788 E20.97179
G1 X97.738 Y187.663 E20.99629
G1 X96.852 Y187.403 E21.04236
G1 X96.722 Y187.363 E21.04915
G1 X96.111 Y187.163 E21.08122
G1 X95.977 Y187.116 E21.08831
G1 X95.212 Y186.838 E21.12891
G1 X94.681 Y186.628 E21.1574
G1 X94.351 Y186.487 E21.17531
G1 X93.86 Y186.261 E21.20227
G1 X93.504 Y186.085 E21.22209
G1 X92.903 Y185.768 E21.25598
G1 X92.271 Y185.399 E21.2925
G1 X91.803 Y185.101 E21.32018
G1 X91.382 Y184.815 E21.34557
G1 X90.85 Y184.424 E21.37851
G1 X90.741 Y184.338 E21.38543
G1 X90.297 Y183.978 E21.41395
G1 X89.655 Y183.406 E21.45685
G1 X89.358 Y183.116 E21.47756
G1 X88.945 Y182.688 E21.50723
G1 X88.762 Y182.487 E21.52079
G1 X88.33 Y181.98 E21.55403
G1 X88.11 Y181.704 E21.57163
G1 X87.755 Y181.227 E21.6013
G1 X87.569 Y180.96 E21.61753
G1 X87.235 Y180.449 E21.64799
G1 X87.087 Y180.207 E21.66214
G1 X86.766 Y179.639 E21.69469
G1 X86.635 Y179.387 E21.70886
G1 X86.324 Y178.743 E21.74454
G1 X86.215 Y178.5 E21.75783
G1 X86.005 Y177.988 E21.78544
G1 X85.688 Y177.099 E21.83253
G1 X85.531 Y176.594 E21.85891
G1 X85.376 Y176.006 E21.88925
G1 X85.324 Y175.775 E21.90106
G1 X85.162 Y174.954 E21.94281
G1 X85.13 Y174.768 E21.95223
G1 X85.051 Y174.252 E21.97827
G1 X85.028 Y174.078 E21.98703
G1 X84.959 Y173.465 E22.0178
G1 X84.942 Y173.286 E22.02677
G1 X84.901 Y172.711 E22.05553
G1 X84.878 Y172.127 E22.08469
G1 X84.875 Y171.972 E22.09242
G1 X84.875 Y171.325 E22.1247
G1 X84.878 Y171.164 E22.13274
G1 X84.9 Y170.565 E22.16264
G1 X84.909 Y170.4 E22.17089
G1 X84.947 Y169.889 E22.19645
G1 X84.959 Y169.755 E22.20316
G1 X85.026 Y169.118 E22.23512
G1 X85.044 Y168.975 E22.24231
G1 X85.124 Y168.397 E22.27142
G1 X85.23 Y167.777 E22.3028
G1 X85.501 Y166.469 E22.36944
G1 X85.593 Y166.08 E22.38938
G1 X85.755 Y165.467 E22.42102
G1 X85.789 Y165.345 E22.42734
G1 X85.954 Y164.786 E22.45641
G1 X85.989 Y164.674 E22.46227
G1 X86.187 Y164.064 E22.49426
G1 X86.225 Y163.952 E22.50017
G1 X86.459 Y163.292 E22.5351
G1 X86.5 Y163.182 E22.54096
G1 X86.774 Y162.473 E22.57888
G1 X87.016 Y161.893 E22.61023
G1 X87.319 Y161.21 E22.64751
G1 X87.367 Y161.105 E22.65327
G1 X87.683 Y160.442 E22.68991
G1 X87.731 Y160.344 E22.69536
G1 X87.999 Y159.816 E22.7249
G1 X88.051 Y159.717 E22.73048
G1 X88.418 Y159.037 E22.76903
G1 X88.771 Y158.415 E22.80471
G1 X88.832 Y158.311 E22.81072
G1 X89.263 Y157.601 E22.85216
G1 X89.616 Y157.046 E22.88498
G1 X89.681 Y156.947 E22.89089
G1 X90.151 Y156.252 E22.93274
G1 X90.557 Y155.679 E22.96778
G1 X91.489 Y154.423 E23.04581
G1 X92.433 Y153.18 E23.12368
G1 X93.996 Y150.996 E23.25767
G1 X95.521 Y148.734 E23.39377
G1 X96.948 Y146.481 E23.52682
G1 X98.342 Y144.136 E23.66293
G1 X99.651 Y141.787 E23.79709
G1 X100.907 Y139.372 E23.93289
G1 X102.081 Y136.954 E24.06699
G1 X103.194 Y134.482 E24.20225
G1 X104.232 Y131.995 E24.3367
G1 X105.195 Y129.491 E24.47054
G1 X106.109 Y126.893 E24.60794
G1 X106.924 Y124.348 E24.74127
G1 X107.681 Y121.734 E24.87704
G1 X108.356 Y119.13 E25.01124
G1 X108.964 Y116.476 E25.14708
G1 X109.484 Y113.875 E25.27942
G1 X109.946 Y111.165 E25.41657
G1 X110.326 Y108.471 E25.5523
G1 X110.624 Y105.834 E25.6847
G1 X110.855 Y103.087 E25.82223
G1 X111.005 Y100.387 E25.95714
G1 X111.055 Y98.911 E26.03082
G1 X111.145 Y95.481 E26.20201
G1 X111.173 Y94.785 E26.23676
