;FLAVOR:Marlin
;TIME:5703
;Filament used: 5.10894m, 0m
;Layer height: 0.2
;MINX:19.05
;MINY:11.776
;MINZ:0.3
;MAXX:190.87
;MAXY:169.952
;MAXZ:1.9
;POSTPROCESSED
;Generated with Cura_SteamEngine 4.7.1
T0
M140 S60
M105
M190 S60
M104 S200
M105
M109 S200
M82 ;absolute extrusion mode
M201 X500.00 Y500.00 Z100.00 E5000.00 	;Setup machine max acceleration
M203 X500.00 Y500.00 Z10.00 E50.00 	;Setup machine max feedrate
M204 P500.00 R1000.00 T500.00 		;Setup Print/Retract/Travel acceleration
M205 X8.00 Y8.00 Z0.40 E5.00 		;Setup Jerk
M220 S100 				;Reset Feedrate
M221 S100 				;Reset Flowrate
G28				;Home the Machine
#G29 				;Bed Level
G92 E0
M300 P150 S587
G92 E0
G1 F1500 E-6.5
;LAYER_COUNT:9
;LAYER:0
M107
G0 F2160 X31.129 Y30.55 Z0.3
;TYPE:SKIRT
G1 F1500 E0
G1 F900 X31.712 Y30.001 E0.03995
G1 X32.301 Y29.552 E0.0769
G1 X32.443 Y29.459 E0.08537
G1 X32.896 Y29.177 E0.11199
G1 X33.366 Y28.919 E0.13874
G1 X33.975 Y28.636 E0.17224
G1 X34.118 Y28.577 E0.17996
G1 X34.903 Y28.267 E0.22207
G1 X35.06 Y28.209 E0.23042
G1 X35.627 Y28.015 E0.26032
G1 X36.146 Y27.88 E0.28707
G1 X36.741 Y27.819 E0.31691
G1 X37.303 Y27.805 E0.34496
G1 X39.935 Y27.779 E0.47628
G1 X41.601 Y27.76 E0.5594
G1 X42.606 Y27.752 E0.60954
G1 X43.526 Y27.751 E0.65544
G1 X44.715 Y27.765 E0.71476
G1 X45.391 Y27.781 E0.7485
G1 X46.557 Y27.822 E0.80671
G1 X47.611 Y27.882 E0.85938
G1 X48.045 Y27.907 E0.88106
G1 X50.021 Y28.04 E0.97987
G1 X52.707 Y28.142 E1.11397
G1 X55.475 Y28.17 E1.25207
G1 X58.156 Y28.12 E1.38585
G1 X59.763 Y28.042 E1.46612
G1 X61.579 Y27.987 E1.55676
G1 X62.297 Y28 E1.59259
G1 X62.974 Y28.074 E1.62657
G1 X65.693 Y28.383 E1.76309
G1 X68.428 Y28.617 E1.90004
G1 X71.114 Y28.769 E2.03426
G1 X73.88 Y28.848 E2.17231
G1 X76.574 Y28.848 E2.30672
G1 X79.342 Y28.771 E2.44487
G1 X82.014 Y28.62 E2.57839
G1 X85.003 Y28.362 E2.72806
G1 X86.009 Y28.261 E2.7785
G1 X86.212 Y28.246 E2.78866
G1 X87.179 Y28.204 E2.83695
G1 X88.745 Y28.149 E2.91512
G1 X91.47 Y27.977 E3.05135
G1 X94.186 Y27.728 E3.18742
G1 X96.875 Y27.404 E3.32254
G1 X99.595 Y27 E3.45973
G1 X102.251 Y26.527 E3.59432
G1 X104.962 Y25.964 E3.73246
G1 X107.545 Y25.353 E3.86488
G1 X110.244 Y24.632 E4.00426
G1 X112.825 Y23.863 E4.13862
G1 X115.414 Y23.012 E4.27459
G1 X118 Y22.081 E4.41171
G1 X120.534 Y21.085 E4.54754
G1 X123.048 Y20.014 E4.68388
G1 X125.492 Y18.891 E4.81806
G1 X127.972 Y17.666 E4.95606
G1 X130.387 Y16.386 E5.09242
G1 X132.746 Y15.048 E5.22773
G1 X134.172 Y14.196 E5.3106
G1 X135.327 Y13.492 E5.37809
G1 X135.42 Y13.437 E5.38348
G1 X135.947 Y13.137 E5.41373
G1 X136.436 Y12.875 E5.44141
G1 X136.725 Y12.737 E5.45739
G1 X137.265 Y12.508 E5.48665
G1 X137.788 Y12.309 E5.51457
G1 X138.297 Y12.148 E5.5412
G1 X138.949 Y11.984 E5.57474
G1 X139.715 Y11.856 E5.61349
G1 X140.124 Y11.815 E5.634
G1 X140.876 Y11.781 E5.67155
G1 X141.198 Y11.776 E5.68762
G1 X141.838 Y11.82 E5.71962
G1 X142.003 Y11.841 E5.72792
G1 X142.662 Y11.94 E5.76117
G1 X143.017 Y12.005 E5.77917
G1 X143.678 Y12.143 E5.81286
G1 X144.076 Y12.25 E5.83342
G1 X145.427 Y12.699 E5.90445
G1 X145.664 Y12.781 E5.91696
G1 X148.261 Y13.602 E6.05285
G1 X150.882 Y14.347 E6.18879
G1 X153.507 Y15.015 E6.32392
G1 X156.013 Y15.58 E6.45209
G1 X157.236 Y15.842 E6.51449
G1 X157.637 Y15.952 E6.53523
G1 X158.248 Y16.159 E6.56742
G1 X158.856 Y16.391 E6.59988
G1 X159.05 Y16.472 E6.61037
G1 X159.637 Y16.739 E6.64254
G1 X159.939 Y16.894 E6.65948
G1 X160.566 Y17.254 E6.69555
G1 X161.052 Y17.585 E6.72489
G1 X161.528 Y17.966 E6.7553
G1 X162.059 Y18.442 E6.79088
G1 X162.231 Y18.61 E6.80288
G1 X162.609 Y19.005 E6.83015
G1 X162.695 Y19.099 E6.83651
G1 X163.105 Y19.559 E6.86725
G1 X163.322 Y19.815 E6.884
G1 X163.621 Y20.227 E6.90939
G1 X163.919 Y20.707 E6.93758
G1 X164.267 Y21.307 E6.97218
G1 X164.474 Y21.699 E6.9943
G1 X164.833 Y22.471 E7.03678
G1 X165.05 Y23.035 E7.06693
G1 X165.109 Y23.216 E7.07642
G1 X165.31 Y23.897 E7.11185
G1 X165.48 Y24.592 E7.14754
G1 X165.5 Y24.681 E7.15209
G1 X165.619 Y25.262 E7.18168
G1 X165.678 Y25.664 E7.20195
G1 X165.735 Y26.303 E7.23396
G1 X165.743 Y26.41 E7.23931
G1 X165.79 Y27.217 E7.27964
G1 X165.8 Y27.585 E7.29801
G1 X165.797 Y28.142 E7.3258
G1 X165.767 Y28.675 E7.35243
G1 X165.709 Y29.258 E7.38166
G1 X165.624 Y29.878 E7.41288
G1 X165.596 Y30.038 E7.42099
G1 X165.414 Y30.953 E7.46753
G1 X165.389 Y31.067 E7.47335
G1 X165.254 Y31.647 E7.50306
G1 X165.23 Y31.744 E7.50805
G1 X165.084 Y32.302 E7.53682
G1 X164.413 Y35.029 E7.67693
G1 X163.843 Y37.658 E7.81114
G1 X163.345 Y40.317 E7.94611
G1 X162.914 Y43.049 E8.08409
G1 X162.568 Y45.728 E8.21886
G1 X162.295 Y48.448 E8.35524
G1 X162.099 Y51.17 E8.49139
G1 X161.98 Y53.898 E8.62762
G1 X161.939 Y56.621 E8.76349
G1 X161.974 Y59.359 E8.9001
G1 X162.087 Y62.087 E9.03632
G1 X162.276 Y64.781 E9.17105
G1 X162.545 Y67.526 E9.30866
G1 X162.884 Y70.204 E9.44333
G1 X163.305 Y72.905 E9.57971
G1 X163.801 Y75.591 E9.71598
G1 X164.362 Y78.208 E9.84951
G1 X165.022 Y80.915 E9.98852
G1 X165.736 Y83.52 E10.12327
G1 X166.544 Y86.169 E10.26144
G1 X167.398 Y88.711 E10.39523
G1 X168.346 Y91.289 E10.53227
G1 X169.36 Y93.823 E10.66844
G1 X170.437 Y96.308 E10.80356
G1 X171.595 Y98.782 E10.93984
G1 X172.824 Y101.229 E11.07645
G1 X174.11 Y103.62 E11.2119
G1 X175.468 Y105.978 E11.34765
G1 X176.912 Y108.33 E11.48535
G1 X178.38 Y110.578 E11.61929
G1 X179.942 Y112.826 E11.75586
G1 X181.577 Y115.046 E11.89342
G1 X183.235 Y117.166 E12.02769
G1 X184.977 Y119.268 E12.16389
G1 X186.246 Y120.712 E12.2598
G1 X186.292 Y120.773 E12.26361
G1 X187.278 Y121.895 E12.33813
G1 X187.622 Y122.316 E12.36525
G1 X187.981 Y122.787 E12.3948
G1 X188.418 Y123.396 E12.43219
G1 X188.714 Y123.831 E12.45844
G1 X189.302 Y124.747 E12.51275
G1 X189.616 Y125.268 E12.5431
G1 X189.85 Y125.728 E12.56884
G1 X190.089 Y126.296 E12.59959
G1 X190.321 Y126.914 E12.63252
G1 X190.478 Y127.455 E12.66063
G1 X190.609 Y127.992 E12.6882
G1 X190.669 Y128.304 E12.70405
G1 X190.766 Y128.958 E12.73704
G1 X190.841 Y129.666 E12.77256
G1 X190.87 Y130.268 E12.80263
G1 X190.869 Y130.584 E12.81839
G1 X190.838 Y131.249 E12.85161
G1 X190.8 Y131.673 E12.87284
G1 X190.695 Y132.445 E12.91171
G1 X190.566 Y133.1 E12.94502
G1 X190.325 Y133.89 E12.98623
G1 X190.115 Y134.452 E13.01616
G1 X189.798 Y135.145 E13.05418
G1 X189.387 Y135.852 E13.09498
G1 X189.062 Y136.332 E13.1239
G1 X188.703 Y136.809 E13.15368
G1 X188.153 Y137.499 E13.1977
G1 X186.441 Y139.71 E13.33721
G1 X184.841 Y141.9 E13.47253
G1 X183.328 Y144.102 E13.60582
G1 X181.801 Y146.462 E13.74606
G1 X180.405 Y148.762 E13.88029
G1 X180.155 Y149.199 E13.9054
G1 X179.74 Y149.901 E13.94609
G1 X179.621 Y150.089 E13.95719
G1 X179.257 Y150.626 E13.98955
G1 X178.808 Y151.166 E14.02459
G1 X178.212 Y151.73 E14.06553
G1 X177.814 Y152.047 E14.09091
G1 X177.486 Y152.268 E14.11065
G1 X177.026 Y152.555 E14.1377
G1 X176.555 Y152.813 E14.16449
G1 X175.946 Y153.096 E14.19799
G1 X175.803 Y153.155 E14.20571
G1 X175.018 Y153.465 E14.24782
G1 X174.863 Y153.523 E14.25607
G1 X174.297 Y153.717 E14.28592
G1 X173.778 Y153.852 E14.31268
G1 X173.179 Y153.913 E14.34272
G1 X172.618 Y153.927 E14.37071
G1 X169.986 Y153.953 E14.50203
G1 X168.32 Y153.972 E14.58515
G1 X167.315 Y153.98 E14.6353
G1 X166.395 Y153.981 E14.68119
G1 X165.206 Y153.967 E14.74052
G1 X164.53 Y153.951 E14.77425
G1 X163.337 Y153.909 E14.83381
G1 X162.344 Y153.852 E14.88343
G1 X161.91 Y153.825 E14.90513
G1 X159.838 Y153.689 E15.00872
G1 X157.143 Y153.588 E15.14327
G1 X154.377 Y153.562 E15.28127
G1 X151.695 Y153.614 E15.4151
G1 X150.122 Y153.691 E15.49367
G1 X148.341 Y153.745 E15.58257
G1 X147.622 Y153.732 E15.61845
G1 X146.968 Y153.661 E15.65127
G1 X144.203 Y153.346 E15.7901
G1 X141.486 Y153.115 E15.92615
G1 X138.792 Y152.962 E16.06077
G1 X136.028 Y152.884 E16.19872
G1 X133.335 Y152.884 E16.33307
G1 X130.565 Y152.962 E16.47132
G1 X127.89 Y153.113 E16.60499
G1 X124.963 Y153.364 E16.75156
G1 X123.928 Y153.469 E16.80346
G1 X123.683 Y153.486 E16.81571
G1 X122.677 Y153.531 E16.86595
G1 X121.235 Y153.58 E16.93793
G1 X118.512 Y153.75 E17.07405
G1 X115.794 Y153.997 E17.21021
G1 X113.111 Y154.318 E17.34502
G1 X110.414 Y154.718 E17.48104
G1 X107.688 Y155.202 E17.61917
G1 X105.058 Y155.746 E17.75316
G1 X102.425 Y156.366 E17.88811
G1 X99.754 Y157.079 E18.02604
G1 X97.132 Y157.858 E18.1625
G1 X94.542 Y158.707 E18.29848
G1 X91.997 Y159.623 E18.43343
G1 X89.441 Y160.625 E18.57039
G1 X86.939 Y161.688 E18.70602
G1 X84.454 Y162.828 E18.84242
G1 X82.029 Y164.024 E18.97732
G1 X79.613 Y165.303 E19.1137
G1 X77.213 Y166.662 E19.2513
G1 X75.702 Y167.563 E19.33907
G1 X74.551 Y168.264 E19.4063
G1 X74.463 Y168.316 E19.4114
G1 X73.895 Y168.639 E19.444
G1 X73.193 Y168.996 E19.48329
G1 X72.584 Y169.252 E19.51625
G1 X72.105 Y169.432 E19.54178
G1 X71.389 Y169.652 E19.57915
G1 X70.988 Y169.744 E19.59968
G1 X70.331 Y169.856 E19.63293
G1 X69.702 Y169.93 E19.66452
G1 X68.908 Y169.952 E19.70415
G1 X68.156 Y169.907 E19.74174
G1 X67.932 Y169.883 E19.75298
G1 X67.231 Y169.784 E19.7883
G1 X66.729 Y169.697 E19.81371
G1 X65.858 Y169.486 E19.85842
G1 X65.204 Y169.263 E19.8929
G1 X62.585 Y168.408 E20.03035
G1 X59.952 Y167.631 E20.16731
G1 X57.346 Y166.942 E20.30179
G1 X54.715 Y166.322 E20.43665
G1 X54.011 Y166.183 E20.47245
G1 X53.876 Y166.146 E20.47943
G1 X52.684 Y165.89 E20.54026
G1 X52.284 Y165.78 E20.56095
G1 X51.673 Y165.573 E20.59314
G1 X51.529 Y165.52 E20.60079
G1 X51.056 Y165.337 E20.62609
G1 X50.861 Y165.255 E20.63665
G1 X50.267 Y164.984 E20.66922
G1 X49.969 Y164.831 E20.68593
G1 X49.375 Y164.49 E20.72011
G1 X48.799 Y164.092 E20.75503
G1 X48.243 Y163.638 E20.79085
G1 X47.846 Y163.275 E20.81768
G1 X47.344 Y162.761 E20.85353
G1 X47.265 Y162.675 E20.85935
G1 X46.797 Y162.151 E20.89441
G1 X46.598 Y161.915 E20.90981
G1 X46.303 Y161.508 E20.93489
G1 X46.004 Y161.027 E20.96314
G1 X45.947 Y160.932 E20.96867
G1 X45.645 Y160.41 E20.99876
G1 X45.441 Y160.022 E21.02063
G1 X45.087 Y159.26 E21.06254
G1 X44.869 Y158.692 E21.0929
G1 X44.813 Y158.516 E21.10211
G1 X44.612 Y157.836 E21.13749
G1 X44.436 Y157.12 E21.17427
G1 X44.416 Y157.03 E21.17887
G1 X44.301 Y156.468 E21.20749
G1 X44.242 Y156.063 E21.22791
G1 X44.178 Y155.329 E21.26467
G1 X44.136 Y154.629 E21.29965
G1 X44.121 Y154.121 E21.32501
G1 X44.124 Y153.588 E21.3516
G1 X44.156 Y153.031 E21.37944
G1 X44.208 Y152.512 E21.40546
G1 X44.305 Y151.813 E21.44067
G1 X44.332 Y151.657 E21.44857
G1 X44.507 Y150.778 E21.49328
G1 X44.532 Y150.665 E21.49905
G1 X44.693 Y149.976 E21.53435
G1 X44.858 Y149.346 E21.56684
G1 X45.505 Y146.714 E21.70206
G1 X46.083 Y144.043 E21.83841
G1 X46.583 Y141.373 E21.97393
G1 X47.005 Y138.686 E22.10963
G1 X47.359 Y135.938 E22.24786
G1 X47.628 Y133.252 E22.38253
G1 X47.823 Y130.529 E22.51873
G1 X47.941 Y127.803 E22.65486
G1 X47.981 Y125.072 E22.79112
G1 X47.944 Y122.316 E22.92863
G1 X47.831 Y119.614 E23.06356
G1 X47.642 Y116.919 E23.19834
G1 X47.372 Y114.176 E23.33585
G1 X47.03 Y111.493 E23.47079
G1 X46.61 Y108.8 E23.60677
G1 X46.109 Y106.096 E23.74397
G1 X45.548 Y103.475 E23.87769
G1 X44.888 Y100.778 E24.01621
G1 X44.172 Y98.171 E24.15109
G1 X43.38 Y95.574 E24.28655
G1 X42.508 Y92.982 E24.42299
G1 X41.56 Y90.409 E24.55979
G1 X40.546 Y87.875 E24.69596
G1 X39.465 Y85.384 E24.83143
G1 X38.312 Y82.922 E24.96706
G1 X37.096 Y80.503 E25.10214
G1 X35.778 Y78.057 E25.24076
G1 X34.427 Y75.711 E25.37582
G1 X33.012 Y73.407 E25.51072
G1 X31.516 Y71.119 E25.6471
G1 X29.953 Y68.872 E25.78366
G1 X28.337 Y66.679 E25.91956
G1 X26.664 Y64.542 E26.05496
G1 X24.897 Y62.412 E26.19304
G1 X23.673 Y61.017 E26.28562
G1 X23.643 Y60.977 E26.28812
G1 X22.644 Y59.841 E26.36359
G1 X22.264 Y59.373 E26.39367
G1 X21.952 Y58.961 E26.41945
G1 X21.516 Y58.354 E26.45674
G1 X21.183 Y57.864 E26.48629
G1 X20.647 Y57.029 E26.5358
G1 X20.592 Y56.94 E26.54102
G1 X20.305 Y56.463 E26.56879
G1 X20.072 Y56.004 E26.59447
G1 X19.785 Y55.32 E26.63148
G1 X19.659 Y54.973 E26.6499
G1 X19.478 Y54.391 E26.6803
G1 X19.309 Y53.722 E26.71473
G1 X19.244 Y53.39 E26.73161
G1 X19.157 Y52.791 E26.7618
G1 X19.098 Y52.275 E26.78772
G1 X19.05 Y51.462 E26.82835
G1 X19.051 Y51.142 E26.84431
G1 X19.082 Y50.485 E26.87713
G1 X19.119 Y50.068 E26.89801
G1 X19.23 Y49.26 E26.9387
G1 X19.355 Y48.632 E26.97065
G1 X19.596 Y47.842 E27.01185
G1 X19.806 Y47.28 E27.04179
G1 X20.123 Y46.587 E27.07981
G1 X20.534 Y45.88 E27.1206
G1 X20.857 Y45.403 E27.14935
G1 X21.159 Y45 E27.17447
G1 X21.222 Y44.918 E27.17963
G1 X21.792 Y44.202 E27.22529
G1 X23.48 Y42.022 E27.36284
G1 X25.08 Y39.832 E27.49815
G1 X26.602 Y37.616 E27.63228
G1 X28.12 Y35.27 E27.77168
G1 X29.516 Y32.97 E27.90591
G1 X29.765 Y32.534 E27.93096
G1 X30.192 Y31.811 E27.97285
G1 X30.311 Y31.624 E27.98391
G1 X30.657 Y31.113 E28.0147
G1 X31.129 Y30.55 E28.05135
G0 F2160 X31.407 Y30.837
G1 F900 X31.982 Y30.295 E28.09078
G1 X32.529 Y29.881 E28.125
G1 X32.655 Y29.798 E28.13253
G1 X33.108 Y29.516 E28.15915
G1 X33.82 Y29.145 E28.19921
G1 X34.265 Y28.949 E28.22346
G1 X35.05 Y28.639 E28.26557
G1 X35.189 Y28.587 E28.27298
G1 X35.756 Y28.393 E28.30287
G1 X36.246 Y28.268 E28.3281
G1 X36.761 Y28.218 E28.35392
G1 X37.306 Y28.205 E28.38111
G1 X39.939 Y28.179 E28.51248
G1 X41.604 Y28.16 E28.59555
G1 X42.606 Y28.152 E28.64555
G1 X43.521 Y28.151 E28.6912
G1 X44.706 Y28.165 E28.75032
G1 X45.376 Y28.181 E28.78376
G1 X46.615 Y28.225 E28.84561
G1 X47.584 Y28.281 E28.89403
G1 X48.018 Y28.306 E28.91572
G1 X49.978 Y28.438 E29.01373
G1 X52.724 Y28.543 E29.15083
G1 X55.478 Y28.57 E29.28823
G1 X58.182 Y28.52 E29.42316
G1 X59.841 Y28.439 E29.50602
G1 X61.591 Y28.386 E29.59337
G1 X62.261 Y28.399 E29.6268
G1 X62.893 Y28.467 E29.65852
G1 X65.686 Y28.784 E29.79875
G1 X68.372 Y29.014 E29.93325
G1 X71.114 Y29.169 E30.07027
G1 X73.869 Y29.248 E30.20777
G1 X76.586 Y29.248 E30.34332
G1 X79.338 Y29.171 E30.48067
G1 X82.07 Y29.017 E30.61719
G1 X85.01 Y28.764 E30.76441
G1 X86.049 Y28.659 E30.81651
G1 X86.23 Y28.646 E30.82556
G1 X87.193 Y28.604 E30.87365
G1 X88.75 Y28.549 E30.95138
G1 X91.493 Y28.376 E31.0885
G1 X94.237 Y28.125 E31.22597
G1 X96.94 Y27.799 E31.3618
G1 X99.658 Y27.395 E31.49889
G1 X102.331 Y26.919 E31.63435
G1 X105.029 Y26.359 E31.77182
G1 X107.676 Y25.733 E31.90752
G1 X110.314 Y25.028 E32.04375
G1 X112.959 Y24.24 E32.18144
G1 X115.57 Y23.382 E32.31856
G1 X118.102 Y22.47 E32.45283
G1 X120.7 Y21.449 E32.59209
G1 X123.193 Y20.387 E32.72728
G1 X125.701 Y19.235 E32.86497
G1 X128.144 Y18.028 E33.00092
G1 X130.565 Y16.745 E33.13762
G1 X132.935 Y15.4 E33.27357
G1 X134.406 Y14.523 E33.35901
G1 X135.618 Y13.785 E33.42981
G1 X136.145 Y13.485 E33.46006
G1 X136.625 Y13.228 E33.48722
G1 X136.882 Y13.105 E33.50144
G1 X137.422 Y12.876 E33.5307
G1 X137.911 Y12.69 E33.5568
G1 X138.408 Y12.532 E33.58282
G1 X139.015 Y12.378 E33.61406
G1 X139.771 Y12.252 E33.6523
G1 X140.142 Y12.214 E33.67091
G1 X140.894 Y12.18 E33.70846
G1 X141.2 Y12.176 E33.72373
G1 X141.797 Y12.218 E33.75359
G1 X141.944 Y12.237 E33.76098
G1 X142.592 Y12.334 E33.79367
G1 X142.935 Y12.397 E33.81107
G1 X143.596 Y12.535 E33.84476
G1 X143.95 Y12.63 E33.86305
G1 X145.295 Y13.077 E33.93376
G1 X145.548 Y13.165 E33.94712
G1 X148.127 Y13.98 E34.08206
G1 X150.779 Y14.734 E34.21961
G1 X153.411 Y15.404 E34.35511
G1 X155.925 Y15.97 E34.48367
G1 X157.152 Y16.233 E34.54628
G1 X157.509 Y16.331 E34.56475
G1 X158.12 Y16.538 E34.59694
G1 X158.712 Y16.764 E34.62855
G1 X158.884 Y16.836 E34.63785
G1 X159.471 Y17.103 E34.67002
G1 X159.739 Y17.241 E34.68506
G1 X160.366 Y17.601 E34.72113
G1 X160.813 Y17.906 E34.74813
G1 X161.277 Y18.277 E34.77777
G1 X161.789 Y18.737 E34.81211
G1 X161.942 Y18.887 E34.8228
G1 X162.32 Y19.282 E34.85008
G1 X162.397 Y19.365 E34.85572
G1 X162.807 Y19.825 E34.88647
G1 X163.281 Y20.438 E34.92513
G1 X163.579 Y20.918 E34.95331
