;FLAVOR:Marlin
;TIME:699
;Filament used: 0.627935m, 0m
;Layer height: 0.2
;MINX:86.948
;MINY:84.988
;MINZ:0.3
;MAXX:148.046
;MAXY:148.225
;MAXZ:1.7
;POSTPROCESSED
;Generated with Cura_SteamEngine 4.7.1
T0
M140 S60
M105
M190 S60
M104 S200
M105
M109 S200
M82 ;absolute extrusion mode
M201 X500.00 Y500.00 Z100.00 E5000.00 	;Setup machine max acceleration
M203 X500.00 Y500.00 Z10.00 E50.00 	;Setup machine max feedrate
M204 P500.00 R1000.00 T500.00 		;Setup Print/Retract/Travel acceleration
M205 X8.00 Y8.00 Z0.40 E5.00 		;Setup Jerk
M220 S100 				;Reset Feedrate
M221 S100 				;Reset Flowrate
G28				;Home the Machine
#G29 				;Bed Level
G92 E0
M300 P150 S587
G92 E0
G1 F1500 E-6.5
;LAYER_COUNT:8
;LAYER:0
M107
G0 F2160 X107.182 Y86.187 Z0.3
;TYPE:SKIRT
G1 F1500 E0
G1 F900 X107.567 Y85.814 E0.02674
G1 X108.004 Y85.503 E0.0535
G1 X108.482 Y85.26 E0.08026
G1 X108.991 Y85.091 E0.10701
G1 X109.52 Y85 E0.13379
G1 X110.056 Y84.988 E0.16054
G1 X110.588 Y85.056 E0.1873
G1 X111.104 Y85.202 E0.21405
G1 X111.593 Y85.423 E0.24082
G1 X112.043 Y85.714 E0.26756
G1 X112.443 Y86.068 E0.29421
G1 X112.592 Y86.221 E0.30486
G1 X114.307 Y88.071 E0.43072
G1 X116.216 Y90.016 E0.56668
G1 X118.178 Y91.905 E0.70256
G1 X120.177 Y93.724 E0.8374
G1 X122.263 Y95.517 E0.97464
G1 X124.388 Y97.242 E1.11119
G1 X126.528 Y98.879 E1.24561
G1 X128.754 Y100.486 E1.38258
G1 X131.009 Y102.018 E1.51859
G1 X133.291 Y103.477 E1.65372
G1 X135.647 Y104.888 E1.79073
G1 X138.977 Y106.736 E1.98073
G1 X139.934 Y107.243 E2.03476
G1 X140.393 Y107.522 E2.06156
G1 X140.869 Y107.856 E2.09057
G1 X141.027 Y107.976 E2.10047
G1 X141.448 Y108.313 E2.12737
G1 X141.82 Y108.638 E2.15201
G1 X142.235 Y109.038 E2.18077
G1 X142.861 Y109.728 E2.22725
G1 X143.244 Y110.208 E2.25789
G1 X143.648 Y110.787 E2.29311
G1 X144.126 Y111.58 E2.33931
G1 X144.46 Y112.236 E2.37603
G1 X144.507 Y112.34 E2.38173
G1 X144.762 Y112.923 E2.41347
G1 X144.853 Y113.148 E2.42558
G1 X145.039 Y113.655 E2.45252
G1 X145.216 Y114.187 E2.4805
G1 X145.509 Y115.149 E2.53067
G1 X145.821 Y116.223 E2.58646
G1 X146.671 Y118.862 E2.72478
G1 X147.199 Y120.379 E2.80492
G1 X147.67 Y121.698 E2.8748
G1 X147.816 Y122.203 E2.90102
G1 X147.93 Y122.709 E2.9269
G1 X148.004 Y123.21 E2.95217
G1 X148.046 Y123.891 E2.98621
G1 X148.044 Y124.578 E3.02048
G1 X148 Y125.339 E3.05851
G1 X147.932 Y125.857 E3.08458
G1 X147.793 Y126.595 E3.12204
G1 X147.586 Y127.301 E3.15875
G1 X147.398 Y127.789 E3.18484
G1 X147.082 Y128.434 E3.22067
G1 X146.873 Y128.797 E3.24157
G1 X145.466 Y131.139 E3.37788
G1 X144.12 Y133.532 E3.51485
G1 X142.853 Y135.941 E3.65065
G1 X141.657 Y138.381 E3.78622
G1 X140.531 Y140.852 E3.92169
G1 X139.475 Y143.352 E4.05709
G1 X138.936 Y144.709 E4.12993
G1 X138.46 Y145.932 E4.19541
G1 X138.229 Y146.416 E4.22216
G1 X137.928 Y146.86 E4.24893
G1 X137.565 Y147.254 E4.27565
G1 X137.147 Y147.591 E4.30244
G1 X136.684 Y147.861 E4.32918
G1 X136.186 Y148.06 E4.35594
G1 X135.664 Y148.182 E4.38268
G1 X135.043 Y148.225 E4.41374
G1 X134.512 Y148.212 E4.44024
G1 X126.162 Y147.832 E4.85725
G1 X125.356 Y147.784 E4.89753
G1 X122.627 Y147.66 E5.03382
G1 X119.933 Y147.614 E5.16825
G1 X117.168 Y147.647 E5.3062
G1 X114.442 Y147.755 E5.44231
G1 X112.321 Y147.893 E5.54835
G1 X111.731 Y147.937 E5.57787
G1 X111.206 Y147.953 E5.60407
G1 X110.416 Y147.948 E5.64349
G1 X109.8 Y147.921 E5.67425
G1 X108.95 Y147.85 E5.7168
G1 X108.522 Y147.81 E5.73825
G1 X107.472 Y147.706 E5.79089
G1 X105.641 Y147.519 E5.88272
G1 X103.959 Y147.339 E5.96711
G1 X101.993 Y147.122 E6.06579
G1 X100.26 Y146.926 E6.1528
G1 X99.6 Y146.841 E6.186
G1 X99.075 Y146.733 E6.21274
G1 X98.571 Y146.548 E6.23953
G1 X98.101 Y146.29 E6.26627
G1 X97.674 Y145.966 E6.29302
G1 X97.3 Y145.581 E6.31979
G1 X96.987 Y145.146 E6.34653
G1 X96.781 Y144.755 E6.36858
G1 X96.262 Y143.61 E6.4313
G1 X96.15 Y143.352 E6.44533
G1 X94.994 Y140.891 E6.58098
G1 X93.766 Y138.454 E6.71713
G1 X92.477 Y136.069 E6.85238
G1 X91.103 Y133.69 E6.98944
G1 X89.681 Y131.382 E7.12469
G1 X88.253 Y129.207 E7.2545
G1 X88.111 Y128.972 E7.2682
G1 X87.759 Y128.335 E7.30451
G1 X87.501 Y127.75 E7.33641
G1 X87.301 Y127.153 E7.36782
G1 X87.167 Y126.63 E7.39475
G1 X87.067 Y126.069 E7.42318
G1 X86.997 Y125.506 E7.45149
G1 X86.966 Y125.005 E7.47653
G1 X86.948 Y124.464 E7.50353
G1 X86.958 Y123.936 E7.52988
G1 X86.986 Y123.608 E7.5463
G1 X87.071 Y122.965 E7.57866
G1 X87.216 Y122.324 E7.61145
G1 X87.386 Y121.801 E7.63889
G1 X87.546 Y121.351 E7.66271
G1 X88.432 Y118.777 E7.79853
G1 X89.248 Y116.165 E7.93505
G1 X89.455 Y115.451 E7.97214
G1 X89.836 Y114.162 E8.0392
G1 X90.016 Y113.631 E8.06717
G1 X90.265 Y112.992 E8.10139
G1 X90.531 Y112.403 E8.13363
G1 X90.637 Y112.189 E8.14554
G1 X91.02 Y111.472 E8.1861
G1 X91.278 Y111.038 E8.21129
G1 X91.623 Y110.533 E8.2418
G1 X91.98 Y110.065 E8.27117
G1 X93.026 Y108.794 E8.35329
G1 X93.198 Y108.591 E8.36656
G1 X94.888 Y106.479 E8.50151
G1 X96.558 Y104.266 E8.63983
G1 X98.124 Y102.064 E8.77464
G1 X99.644 Y99.793 E8.91097
G1 X101.093 Y97.488 E9.0468
G1 X102.484 Y95.133 E9.18326
G1 X103.794 Y92.765 E9.31827
G1 X105.048 Y90.334 E9.45474
G1 X106.5 Y87.292 E9.62291
G1 X106.596 Y87.082 E9.63443
G1 X106.855 Y86.612 E9.6612
G1 X107.182 Y86.187 E9.68796
G0 F2160 X107.519 Y86.41
G1 F900 X107.891 Y86.067 E9.7132
G1 X108.312 Y85.787 E9.73842
G1 X108.771 Y85.577 E9.76361
G1 X109.258 Y85.442 E9.78882
G1 X109.761 Y85.385 E9.81408
G1 X110.266 Y85.408 E9.8393
G1 X110.761 Y85.51 E9.86451
G1 X111.234 Y85.689 E9.88974
G1 X111.673 Y85.94 E9.91497
G1 X112.157 Y86.347 E9.94652
G1 X112.299 Y86.493 E9.95668
G1 X114.029 Y88.359 E10.08363
G1 X115.935 Y90.301 E10.21939
G1 X117.896 Y92.189 E10.35519
G1 X119.911 Y94.022 E10.49109
G1 X122.016 Y95.832 E10.6296
G1 X124.117 Y97.538 E10.76462
G1 X126.296 Y99.205 E10.9015
G1 X128.517 Y100.808 E11.03815
G1 X130.814 Y102.369 E11.1767
G1 X133.075 Y103.814 E11.31057
G1 X135.448 Y105.236 E11.44859
G1 X138.756 Y107.071 E11.63732
G1 X139.747 Y107.596 E11.69327
G1 X140.178 Y107.859 E11.71846
G1 X140.636 Y108.182 E11.74642
G1 X140.777 Y108.288 E11.75522
G1 X141.198 Y108.625 E11.78213
G1 X141.543 Y108.926 E11.80497
G1 X141.958 Y109.326 E11.83373
G1 X142.558 Y109.989 E11.87834
G1 X142.919 Y110.442 E11.90724
G1 X143.317 Y111.012 E11.94192
G1 X143.779 Y111.779 E11.98659
G1 X144.099 Y112.409 E12.02184
G1 X144.141 Y112.501 E12.02689
G1 X144.372 Y113.027 E12.05555
G1 X144.477 Y113.286 E12.06949
G1 X144.696 Y113.886 E12.10136
G1 X144.833 Y114.303 E12.12326
G1 X145.125 Y115.261 E12.17322
G1 X145.442 Y116.352 E12.2299
G1 X146.288 Y118.977 E12.3675
G1 X146.823 Y120.514 E12.44869
G1 X147.294 Y121.833 E12.51857
G1 X147.457 Y122.419 E12.54891
G1 X147.606 Y123.24 E12.59054
G1 X147.647 Y123.91 E12.62403
G1 X147.644 Y124.573 E12.65711
G1 X147.603 Y125.288 E12.69284
G1 X147.537 Y125.796 E12.7184
G1 X147.407 Y126.489 E12.75357
G1 X147.204 Y127.184 E12.7897
G1 X146.888 Y127.931 E12.83016
G1 X146.599 Y128.479 E12.86107
G1 X146.532 Y128.588 E12.86745
G1 X145.118 Y130.943 E13.0045
G1 X143.775 Y133.329 E13.1411
G1 X142.498 Y135.758 E13.27801
G1 X141.298 Y138.205 E13.41398
G1 X140.16 Y140.704 E13.55097
G1 X139.088 Y143.242 E13.68842
G1 X138.564 Y144.561 E13.75923
G1 X138.087 Y145.787 E13.82486
G1 X137.867 Y146.242 E13.85008
G1 X137.578 Y146.657 E13.87531
G1 X137.227 Y147.021 E13.90054
G1 X136.824 Y147.325 E13.92572
G1 X136.377 Y147.562 E13.95096
G1 X135.899 Y147.726 E13.97617
G1 X135.401 Y147.812 E14.00139
G1 X134.761 Y147.821 E14.03332
G1 X134.53 Y147.813 E14.04485
G1 X126.186 Y147.432 E14.46157
G1 X125.425 Y147.387 E14.4996
G1 X122.651 Y147.261 E14.63814
G1 X119.9 Y147.215 E14.77541
G1 X117.147 Y147.247 E14.91276
G1 X114.44 Y147.354 E15.04792
G1 X112.291 Y147.494 E15.15536
G1 X111.779 Y147.533 E15.18098
G1 X111.209 Y147.553 E15.20944
G1 X110.419 Y147.548 E15.24885
G1 X109.833 Y147.523 E15.27811
G1 X108.987 Y147.452 E15.32047
G1 X108.561 Y147.412 E15.34181
G1 X107.513 Y147.308 E15.39436
G1 X105.684 Y147.121 E15.48608
G1 X104.003 Y146.942 E15.57042
G1 X102.038 Y146.725 E15.66905
G1 X100.311 Y146.529 E15.75576
G1 X99.651 Y146.444 E15.78896
G1 X99.156 Y146.34 E15.8142
G1 X98.684 Y146.159 E15.83942
G1 X98.246 Y145.906 E15.86465
G1 X97.854 Y145.588 E15.88984
G1 X97.516 Y145.212 E15.91506
G1 X97.145 Y144.59 E15.95119
G1 X96.629 Y143.451 E16.01358
G1 X96.518 Y143.195 E16.0275
G1 X95.356 Y140.72 E16.16391
G1 X94.112 Y138.252 E16.3018
G1 X92.817 Y135.858 E16.43759
G1 X91.463 Y133.512 E16.57272
G1 X90.012 Y131.158 E16.71068
G1 X88.587 Y128.987 E16.84024
G1 X88.461 Y128.779 E16.85238
G1 X88.109 Y128.142 E16.88869
G1 X87.879 Y127.621 E16.9171
G1 X87.684 Y127.039 E16.94772
G1 X87.48 Y126.114 E16.99498
G1 X87.396 Y125.482 E17.02679
G1 X87.365 Y124.981 E17.05183
G1 X87.348 Y124.462 E17.07774
G1 X87.358 Y123.952 E17.10319
G1 X87.383 Y123.661 E17.11776
G1 X87.468 Y123.018 E17.15012
G1 X87.597 Y122.448 E17.17927
G1 X87.767 Y121.925 E17.20671
G1 X87.908 Y121.528 E17.22773
G1 X88.816 Y118.89 E17.36692
G1 X89.635 Y116.268 E17.50396
G1 X89.838 Y115.564 E17.54051
G1 X90.219 Y114.275 E17.60757
G1 X90.394 Y113.762 E17.63461
G1 X90.63 Y113.157 E17.66701
G1 X90.896 Y112.568 E17.69926
G1 X90.989 Y112.377 E17.70986
G1 X91.372 Y111.66 E17.75041
G1 X91.659 Y111.184 E17.77814
G1 X91.951 Y110.762 E17.80374
G1 X92.289 Y110.319 E17.83154
G1 X93.331 Y109.053 E17.91335
G1 X93.499 Y108.855 E17.9263
G1 X95.221 Y106.702 E18.06385
G1 X96.871 Y104.516 E18.20048
G1 X98.455 Y102.288 E18.33687
G1 X99.966 Y100.031 E18.47238
G1 X101.433 Y97.699 E18.60983
G1 X102.835 Y95.323 E18.74746
G1 X104.141 Y92.962 E18.88207
G1 X105.413 Y90.498 E19.02042
G1 X106.874 Y87.436 E19.18968
G1 X106.96 Y87.248 E19.19999
G1 X107.206 Y86.807 E19.22519
G1 X107.519 Y86.41 E19.25041
G1 F1500 E12.75041
;MESH:Oculos.stl
G0 F2160 X108.994 Y93.016
G0 X109.859 Y93.054
G0 X110.009 Y101.641
G0 X110.369 Y109.994
G0 X113.503 Y113.776
;TYPE:WALL-INNER
G1 F1500 E19.25041
G1 F900 X113.639 Y113.991 E19.2631
G1 X113.833 Y114.327 E19.28246
G1 X113.921 Y114.479 E19.29122
G1 X114.121 Y114.863 E19.31282
G1 X114.206 Y115.043 E19.32275
G1 X114.343 Y115.334 E19.3388
G1 X114.508 Y115.722 E19.35983
G1 X114.549 Y115.829 E19.36555
G1 X114.674 Y116.154 E19.38292
G1 X114.829 Y116.598 E19.40638
G1 X114.854 Y116.676 E19.41047
G1 X114.976 Y117.055 E19.43033
G1 X115.063 Y117.377 E19.44698
G1 X114.956 Y117.063 E19.44736
G1 X114.826 Y116.686 E19.44863
G1 X114.797 Y116.611
G1 X114.627 Y116.173 E19.4511
G1 X114.5 Y115.849 E19.45336
G1 X114.456 Y115.745 E19.45406
G1 X114.289 Y115.358 E19.45709
G1 X114.163 Y115.064 E19.45914
G1 X114.078 Y114.884 E19.46036
G1 X113.891 Y114.494 E19.4625
G1 X113.816 Y114.338 E19.46303
G1 X113.627 Y113.998 E19.4639
G1 X113.503 Y113.776 E19.46411
G0 F2160 X117.153 Y120.333
G0 X121.363 Y113.908
G1 F900 X121.296 Y114.029 E19.47101
G1 X121.203 Y114.198 E19.48063
G1 X121.044 Y114.529 E19.49895
G1 X120.86 Y114.91 E19.52006
G1 X120.654 Y115.392 E19.54621
G1 X120.527 Y115.689 E19.56233
G1 X120.499 Y115.761 E19.56618
G1 X120.311 Y116.246 E19.59213
G1 X120.203 Y116.522 E19.60692
G1 X120.158 Y116.655 E19.61392
G1 X120 Y117.114 E19.63814
G1 X119.984 Y117.159 E19.64052
G1 X119.996 Y117.113
G1 X120.133 Y116.647 E19.64144
G1 X120.177 Y116.514 E19.64192
G1 X120.272 Y116.232 E19.64321
G1 X120.453 Y115.744 E19.64616
G1 X120.482 Y115.671
G1 X120.605 Y115.372 E19.6482
G1 X120.824 Y114.891 E19.65133
G1 X121.014 Y114.515 E19.65321
G1 X121.194 Y114.194 E19.65427
G1 X121.289 Y114.026 E19.65449
G1 X121.363 Y113.908 E19.65457
G0 F2160 X117.837 Y120.341
G0 X111.606 Y113.477
G0 X109.922 Y112.561
G0 X108.401 Y112.206
G0 X106.144 Y112.01
G0 X103.862 Y112.052
G0 X101.425 Y112.304
G0 X99.27 Y112.707
G0 X95.576 Y114.364
G1 F900 X95.519 Y114.516 E19.66267
G1 X95.354 Y114.959 E19.68626
G1 X95.326 Y115.034 E19.69025
G1 X95.216 Y115.406 E19.70961
G1 X95.108 Y115.771 E19.7286
G1 X95.067 Y115.941 E19.73732
G1 X94.962 Y116.371 E19.7594
G1 X94.912 Y116.575 E19.76988
G1 X94.843 Y116.93 E19.78792
G1 X94.763 Y117.334 E19.80847
G1 X94.748 Y117.429 E19.81327
G1 X94.667 Y117.926 E19.83839
G1 X94.664 Y117.943 E19.83925
G1 X94.64 Y118.08 E19.84619
G1 X94.583 Y118.491 E19.86689
G1 X94.534 Y118.834 E19.88418
G1 X94.439 Y119.559 E19.92066
G1 X94.388 Y120.005 E19.94306
G1 X94.307 Y120.698 E19.97787
G1 X94.256 Y121.132 E19.99967
G1 X94.233 Y121.307 E20.00847
G1 X94.183 Y121.674 E20.02695
G1 X94.114 Y122.114 E20.04917
G1 X94.113 Y122.474 E20.06713
G1 X94.111 Y123.069 E20.09682
G1 X94.449 Y124.066 E20.14934
G1 X95.101 Y124.878 E20.20129
G1 X95.924 Y125.432 E20.25079
G1 X96.711 Y125.746 E20.29306
G1 X97.521 Y125.955 E20.3348
G1 X98.142 Y126.066 E20.36627
G1 X98.727 Y126.139 E20.39568
G1 X99.28 Y126.189 E20.42338
G1 X99.82 Y126.224 E20.45038
G1 X99.904 Y126.232 E20.45459
G1 X100.549 Y126.265 E20.48681
G1 X101.179 Y126.288 E20.51826
G1 X101.825 Y126.308 E20.55051
G1 X102.773 Y126.329 E20.59781
G1 X103.713 Y126.345 E20.64472
G1 X104.641 Y126.353 E20.69102
G1 X105.547 Y126.356 E20.73622
G1 X106.305 Y126.353 E20.77404
G1 X107.175 Y126.343 E20.81744
G1 X108.137 Y126.321 E20.86545
G1 X108.875 Y126.298 E20.90229
G1 X109.642 Y126.262 E20.94059
G1 X110.365 Y126.221 E20.97672
G1 X111.043 Y126.173 E21.01063
G1 X111.677 Y126.113 E21.04241
G1 X112.264 Y126.041 E21.07191
G1 X112.852 Y125.949 E21.1016
G1 X113.571 Y125.792 E21.13832
G1 X114.356 Y125.492 E21.18025
G1 X115.064 Y124.911 E21.22594
G1 X115.603 Y124.052 E21.27653
G1 X115.871 Y123.146 E21.32367
G1 X115.963 Y122.092 E21.37645
G1 X115.952 Y121.848 E21.38864
G1 X115.946 Y121.693 E21.39638
G1 X115.924 Y121.19 E21.4215
G1 X115.901 Y121.012 E21.43045
G1 X115.939 Y121.186 E21.43059
G1 X116.05 Y121.688 E21.43474
G1 X116.205 Y121.689 E21.4404
G1 X118.908 Y121.724 E21.57527
G1 X119.083 Y121.011 E21.6119
G1 X119.117 Y120.874 E21.61894
G1 X119.101 Y120.998
G1 X119.098 Y121.014
G1 X119.098 Y121.028
G1 X119.056 Y121.732 E21.62598
G1 X119.045 Y121.897 E21.63201
G1 X119.091 Y122.788 E21.67652
G1 X119.302 Y123.73 E21.72468
G1 X119.767 Y124.636 E21.77549
G1 X120.406 Y125.27 E21.8204
G1 X121.15 Y125.646 E21.86199
G1 X121.195 Y125.656 E21.86429
G1 X121.939 Y125.834 E21.90245
G1 X122.679 Y125.947 E21.9398
G1 X123.264 Y126.017 E21.96919
G1 X123.89 Y126.073 E22.00055
G1 X124.558 Y126.12 E22.03396
G1 X125.334 Y126.166 E22.07274
G1 X126.101 Y126.196 E22.11104
G1 X126.839 Y126.216 E22.14787
G1 X127.733 Y126.234 E22.19248
G1 X128.601 Y126.242 E22.23579
G1 X129.489 Y126.243 E22.28009
G1 X130.265 Y126.239 E22.3188
G1 X131.329 Y126.223 E22.37189
G1 X132.269 Y126.203 E22.4188
G1 X133.218 Y126.175 E22.46617
G1 X133.772 Y126.155 E22.49382
G1 X134.501 Y126.118 E22.53024
G1 X135.117 Y126.084 E22.56102
G1 X135.724 Y126.041 E22.59138
G1 X136.275 Y125.988 E22.61899
G1 X136.856 Y125.911 E22.64823
G1 X137.478 Y125.801 E22.67975
G1 X138.258 Y125.6 E22.71993
G1 X139.073 Y125.277 E22.76367
G1 X139.867 Y124.756 E22.81105
G1 X140.507 Y124 E22.86047
G1 X140.852 Y123.195 E22.90416
G1 X140.945 Y122.271 E22.95049
G1 X140.948 Y122.236 E22.95225
G1 X140.95 Y122.218 E22.95315
G1 X140.814 Y121.159 E23.00642
G1 X140.75 Y120.67 E23.03102
G1 X140.727 Y120.479 E23.04062
G1 X140.644 Y119.794 E23.07504
G1 X140.601 Y119.442 E23.09274
G1 X140.597 Y119.41 E23.09434
G1 X140.497 Y118.666 E23.1318
G1 X140.49 Y118.617 E23.13427
G1 X140.425 Y118.166 E23.157
G1 X140.398 Y117.984 E23.16618
G1 X140.345 Y117.665 E23.18231
G1 X140.263 Y117.182 E23.20675
G1 X140.251 Y117.116 E23.2101
G1 X140.165 Y116.696 E23.23149
G1 X140.096 Y116.36 E23.2486
G1 X140.047 Y116.156 E23.25907
G1 X139.937 Y115.704 E23.28228
G1 X139.927 Y115.665 E23.28429
G1 X139.777 Y115.158 E23.31066
G1 X139.707 Y114.924 E23.32285
G1 X139.606 Y114.656 E23.33714
