;FLAVOR:Marlin
;TIME:1392
;Filament used: 1.20757m, 0m
;Layer height: 0.2
;MINX:30.604
;MINY:76.524
;MINZ:0.3
;MAXX:130.752
;MAXY:186.888
;MAXZ:1.5
;POSTPROCESSED
;Generated with Cura_SteamEngine 4.7.1
T0
M140 S60
M105
M190 S60
M104 S200
M105
M109 S200
M82 ;absolute extrusion mode
M201 X500.00 Y500.00 Z100.00 E5000.00 	;Setup machine max acceleration
M203 X500.00 Y500.00 Z10.00 E50.00 	;Setup machine max feedrate
M204 P500.00 R1000.00 T500.00 		;Setup Print/Retract/Travel acceleration
M205 X8.00 Y8.00 Z0.40 E5.00 		;Setup Jerk
M220 S100 				;Reset Feedrate
M221 S100 				;Reset Flowrate
G28				;Home the Machine
#G29 				;Bed Level
G92 E0
M300 P150 S587
G92 E0
G1 F1500 E-6.5
;LAYER_COUNT:7
;LAYER:0
M107
G0 F2160 X53.225 Y87.862 Z0.3
;TYPE:SKIRT
G1 F1500 E0
G1 F900 X53.685 Y87.587 E0.02674
G1 X54.18 Y87.383 E0.05345
G1 X54.701 Y87.254 E0.08023
G1 X55.235 Y87.205 E0.10698
G1 X55.902 Y87.255 E0.14035
G1 X56.289 Y87.321 E0.15994
G1 X58.266 Y87.686 E0.26024
G1 X60.975 Y88.108 E0.39702
G1 X63.652 Y88.447 E0.53164
G1 X66.398 Y88.716 E0.6693
G1 X69.095 Y88.905 E0.80418
G1 X71.819 Y89.017 E0.94019
G1 X74.551 Y89.052 E1.07651
G1 X77.279 Y89.011 E1.21262
G1 X80.011 Y88.891 E1.34905
G1 X82.735 Y88.695 E1.48531
G1 X85.443 Y88.424 E1.62108
G1 X88.128 Y88.076 E1.75616
G1 X90.831 Y87.649 E1.89268
G1 X93.529 Y87.145 E2.02962
G1 X96.207 Y86.565 E2.16632
G1 X98.812 Y85.921 E2.3002
G1 X101.476 Y85.184 E2.4381
G1 X104.04 Y84.396 E2.57192
G1 X106.653 Y83.512 E2.70954
G1 X109.197 Y82.57 E2.84488
G1 X111.728 Y81.55 E2.98102
G1 X114.224 Y80.461 E3.11689
G1 X116.699 Y79.298 E3.25332
G1 X119.139 Y78.065 E3.38971
G1 X120.135 Y77.522 E3.4463
G1 X121.24 Y76.938 E3.50866
G1 X121.731 Y76.724 E3.53538
G1 X122.249 Y76.584 E3.56215
G1 X122.782 Y76.524 E3.58891
G1 X123.318 Y76.543 E3.61567
G1 X123.845 Y76.641 E3.64241
G1 X124.352 Y76.817 E3.66919
G1 X124.827 Y77.066 E3.69594
G1 X125.259 Y77.383 E3.72268
G1 X125.64 Y77.761 E3.74945
G1 X125.961 Y78.191 E3.77622
G1 X126.214 Y78.664 E3.80298
G1 X126.394 Y79.169 E3.82973
G1 X126.502 Y79.739 E3.85867
G1 X126.581 Y80.481 E3.8959
G1 X126.909 Y83.206 E4.03283
G1 X127.308 Y85.879 E4.16767
G1 X127.791 Y88.583 E4.30471
G1 X128.334 Y91.203 E4.4382
G1 X128.974 Y93.9 E4.57649
G1 X129.684 Y96.551 E4.71341
G1 X130.176 Y98.208 E4.79964
G1 X130.576 Y99.545 E4.86927
G1 X130.691 Y100.069 E4.89603
G1 X130.727 Y100.604 E4.92278
G1 X130.662 Y101.311 E4.9582
G1 X130.606 Y101.669 E4.97628
G1 X130.219 Y104.365 E5.11217
G1 X129.912 Y107.038 E5.2464
G1 X129.672 Y109.8 E5.38471
G1 X129.514 Y112.528 E5.52104
G1 X129.434 Y115.221 E5.65546
G1 X129.43 Y117.988 E5.7935
G1 X129.434 Y118.745 E5.83127
G1 X129.383 Y119.402 E5.86415
G1 X129.156 Y121.063 E5.94778
G1 X129.136 Y121.262 E5.95776
G1 X129.001 Y122.218 E6.00593
G1 X128.696 Y124.912 E6.14119
G1 X128.468 Y127.624 E6.27697
G1 X128.317 Y130.319 E6.41164
G1 X128.241 Y133.083 E6.54959
G1 X128.243 Y135.815 E6.68589
G1 X128.321 Y138.508 E6.8203
G1 X128.477 Y141.232 E6.95642
G1 X128.711 Y143.957 E7.09287
G1 X129.021 Y146.668 E7.22901
G1 X129.408 Y149.368 E7.36509
G1 X129.994 Y152.712 E7.53446
G1 X130.104 Y153.283 E7.56347
G1 X130.29 Y154.378 E7.61888
G1 X130.461 Y155.503 E7.67566
G1 X130.668 Y156.745 E7.73847
G1 X130.752 Y157.644 E7.78352
G1 X130.75 Y158.256 E7.81405
G1 X130.708 Y158.79 E7.84078
G1 X130.609 Y159.256 E7.86455
G1 X129.99 Y161.997 E8.00474
G1 X129.478 Y164.6 E8.13709
G1 X129.024 Y167.332 E8.27526
G1 X128.653 Y170.018 E8.41054
G1 X128.355 Y172.743 E8.5473
G1 X128.063 Y176.678 E8.74416
G1 X128.013 Y177.612 E8.79082
G1 X127.944 Y178.144 E8.81758
G1 X127.798 Y178.66 E8.84434
G1 X127.576 Y179.148 E8.87109
G1 X127.284 Y179.598 E8.89785
G1 X126.929 Y180 E8.92461
G1 X126.518 Y180.344 E8.95134
G1 X126.06 Y180.624 E8.97813
G1 X125.566 Y180.832 E9.00487
G1 X125.046 Y180.965 E9.03165
G1 X124.383 Y181.02 E9.06484
G1 X123.853 Y181.011 E9.09128
G1 X119.04 Y180.815 E9.3316
G1 X118.47 Y180.783 E9.36008
G1 X115.702 Y180.667 E9.4983
G1 X112.971 Y180.631 E9.63456
G1 X110.227 Y180.671 E9.77148
G1 X107.011 Y180.818 E9.93209
G1 X106.065 Y180.877 E9.97938
G1 X105.343 Y180.887 E10.0154
G1 X103.409 Y180.863 E10.1119
G1 X100.681 Y180.905 E10.24802
G1 X97.952 Y181.025 E10.3843
G1 X95.228 Y181.222 E10.52055
G1 X92.51 Y181.496 E10.65684
G1 X89.837 Y181.842 E10.79131
G1 X87.101 Y182.275 E10.92951
G1 X84.446 Y182.773 E11.06428
G1 X81.778 Y183.351 E11.20047
G1 X79.172 Y183.993 E11.33437
G1 X76.509 Y184.731 E11.47224
G1 X73.885 Y185.538 E11.6092
G1 X71.295 Y186.433 E11.74591
G1 X70.49 Y186.702 E11.78826
G1 X69.97 Y186.834 E11.81503
G1 X69.291 Y186.888 E11.84901
G1 X68.877 Y186.879 E11.86967
G1 X61.78 Y186.557 E12.2241
G1 X61.662 Y186.559 E12.22999
G1 X59.92 Y186.485 E12.31698
G1 X57.185 Y186.446 E12.45344
G1 X54.458 Y186.483 E12.5895
G1 X51.724 Y186.599 E12.72603
G1 X51.409 Y186.62 E12.74178
G1 X50.721 Y186.656 E12.77615
G1 X50.175 Y186.673 E12.8034
G1 X49.731 Y186.672 E12.82555
G1 X49.174 Y186.649 E12.85337
G1 X49.016 Y186.639 E12.86126
G1 X48.129 Y186.563 E12.90568
G1 X47.129 Y186.464 E12.95581
G1 X45.713 Y186.319 E13.02683
G1 X43.535 Y186.085 E13.13611
G1 X41.502 Y185.856 E13.23818
G1 X40.882 Y185.776 E13.26937
G1 X40.357 Y185.668 E13.29611
G1 X39.854 Y185.483 E13.32285
G1 X39.383 Y185.226 E13.34962
G1 X38.956 Y184.901 E13.37639
G1 X38.582 Y184.517 E13.40313
G1 X38.27 Y184.081 E13.42988
G1 X38.025 Y183.604 E13.45663
G1 X37.913 Y183.301 E13.47275
G1 X37.756 Y182.806 E13.49866
G1 X36.89 Y180.223 E13.63457
G1 X35.954 Y177.674 E13.77005
G1 X34.939 Y175.135 E13.90646
G1 X33.859 Y172.638 E14.04219
G1 X32.698 Y170.149 E14.17921
G1 X32.465 Y169.661 E14.20619
G1 X32.274 Y169.16 E14.23294
G1 X32.201 Y168.871 E14.24781
G1 X32.095 Y168.364 E14.27366
G1 X32.009 Y167.612 E14.31142
G1 X31.998 Y167.041 E14.33991
G1 X32.036 Y166.497 E14.36712
G1 X32.179 Y165.739 E14.4056
G1 X32.268 Y165.427 E14.42179
G1 X32.985 Y162.748 E14.56015
G1 X33.607 Y160.14 E14.69391
G1 X34.166 Y157.452 E14.83088
G1 X34.651 Y154.739 E14.96838
G1 X35.051 Y152.064 E15.10332
G1 X35.377 Y149.361 E15.23915
G1 X35.629 Y146.636 E15.37568
G1 X35.803 Y143.91 E15.51196
G1 X35.899 Y141.183 E15.6481
G1 X35.92 Y138.45 E15.78445
G1 X35.862 Y135.747 E15.91933
G1 X35.726 Y132.996 E16.05675
G1 X35.516 Y130.306 E16.19136
G1 X35.225 Y127.571 E16.32858
G1 X34.858 Y124.855 E16.46532
G1 X34.426 Y122.221 E16.59848
G1 X33.901 Y119.508 E16.73635
G1 X33.303 Y116.819 E16.87378
G1 X32.645 Y114.217 E17.00768
G1 X31.903 Y111.593 E17.14372
G1 X30.952 Y108.583 E17.30121
G1 X30.788 Y108.091 E17.32708
G1 X30.657 Y107.571 E17.35384
G1 X30.604 Y107.038 E17.38056
G1 X30.631 Y106.502 E17.40733
G1 X30.738 Y105.977 E17.43407
G1 X30.921 Y105.473 E17.46082
G1 X31.178 Y105.002 E17.48759
G1 X31.501 Y104.574 E17.51434
G1 X31.885 Y104.199 E17.54111
G1 X32.367 Y103.856 E17.57063
G1 X33.566 Y103.145 E17.64017
G1 X33.859 Y102.975 E17.65707
G1 X36.184 Y101.544 E17.79328
G1 X38.462 Y100.052 E17.92913
G1 X40.694 Y98.497 E18.06485
G1 X42.915 Y96.858 E18.20256
G1 X45.025 Y95.204 E18.33632
G1 X47.163 Y93.428 E18.47498
G1 X49.17 Y91.664 E18.60829
G1 X51.186 Y89.789 E18.74565
G1 X52.226 Y88.763 E18.81853
G1 X52.811 Y88.203 E18.85893
G1 X53.225 Y87.862 E18.88569
G0 F2160 X53.479 Y88.173
G1 F900 X53.916 Y87.919 E18.91091
G1 X54.388 Y87.737 E18.93615
G1 X54.882 Y87.631 E18.96136
G1 X55.387 Y87.605 E18.98658
G1 X56.171 Y87.706 E19.02602
G1 X58.209 Y88.082 E19.12941
G1 X60.895 Y88.5 E19.26503
G1 X63.634 Y88.847 E19.40277
G1 X66.367 Y89.115 E19.53978
G1 X69.086 Y89.305 E19.67576
G1 X71.796 Y89.416 E19.81107
G1 X74.552 Y89.452 E19.94858
G1 X77.303 Y89.411 E20.08585
G1 X80.019 Y89.291 E20.22148
G1 X82.77 Y89.093 E20.35908
G1 X85.463 Y88.824 E20.49411
G1 X88.211 Y88.468 E20.63235
G1 X90.89 Y88.045 E20.76766
G1 X93.622 Y87.534 E20.90633
G1 X96.289 Y86.956 E21.04247
G1 X98.943 Y86.301 E21.17885
G1 X101.552 Y85.579 E21.31391
G1 X104.18 Y84.771 E21.45108
G1 X106.783 Y83.89 E21.58818
G1 X109.349 Y82.94 E21.72469
G1 X111.889 Y81.917 E21.8613
G1 X114.389 Y80.826 E21.99739
G1 X116.871 Y79.659 E22.13422
G1 X119.306 Y78.429 E22.27032
G1 X120.322 Y77.876 E22.32803
G1 X121.427 Y77.292 E22.39038
G1 X121.891 Y77.092 E22.41559
G1 X122.381 Y76.967 E22.44082
G1 X122.884 Y76.921 E22.46602
G1 X123.389 Y76.955 E22.49127
G1 X123.882 Y77.068 E22.51651
G1 X124.35 Y77.258 E22.54171
G1 X124.784 Y77.518 E22.56695
G1 X125.17 Y77.844 E22.59215
G1 X125.501 Y78.226 E22.61737
G1 X125.767 Y78.656 E22.6426
G1 X125.962 Y79.123 E22.66784
G1 X126.104 Y79.781 E22.70143
G1 X126.184 Y80.526 E22.73881
G1 X126.51 Y83.242 E22.87528
G1 X126.918 Y85.972 E23.013
G1 X127.399 Y88.662 E23.14933
G1 X127.948 Y91.312 E23.28435
G1 X128.584 Y93.991 E23.42172
G1 X129.287 Y96.62 E23.55749
G1 X129.793 Y98.323 E23.64612
G1 X130.193 Y99.66 E23.71575
G1 X130.299 Y100.154 E23.74095
G1 X130.326 Y100.659 E23.76618
G1 X130.265 Y101.259 E23.79627
G1 X130.211 Y101.606 E23.81379
G1 X129.824 Y104.298 E23.94948
G1 X129.51 Y107.03 E24.08667
G1 X129.275 Y109.744 E24.22258
G1 X129.116 Y112.493 E24.35996
G1 X129.034 Y115.238 E24.49697
G1 X129.03 Y118.013 E24.63542
G1 X129.034 Y118.742 E24.67179
G1 X128.986 Y119.348 E24.70211
G1 X128.748 Y121.091 E24.78988
G1 X128.74 Y121.206 E24.79563
G1 X128.606 Y122.153 E24.84335
G1 X128.299 Y124.867 E24.97961
G1 X128.069 Y127.602 E25.11654
G1 X127.917 Y130.321 E25.25241
G1 X127.841 Y133.072 E25.38971
G1 X127.843 Y135.791 E25.52536
G1 X127.923 Y138.543 E25.66272
G1 X128.08 Y141.288 E25.79989
G1 X128.311 Y143.978 E25.93459
G1 X128.622 Y146.7 E26.07127
G1 X129.012 Y149.428 E26.20876
G1 X129.602 Y152.79 E26.37905
G1 X129.709 Y153.351 E26.40754
G1 X129.895 Y154.438 E26.46256
G1 X130.061 Y155.531 E26.51772
G1 X130.274 Y156.811 E26.58245
G1 X130.352 Y157.642 E26.62409
G1 X130.35 Y158.254 E26.65463
G1 X130.26 Y158.997 E26.69197
G1 X130.207 Y159.216 E26.70321
G1 X129.608 Y161.869 E26.8389
G1 X129.082 Y164.546 E26.97501
G1 X128.632 Y167.248 E27.11167
G1 X128.253 Y169.99 E27.24977
G1 X127.958 Y172.695 E27.38552
G1 X127.659 Y176.723 E27.58703
G1 X127.613 Y177.591 E27.6304
G1 X127.547 Y178.092 E27.65561
G1 X127.402 Y178.577 E27.68086
G1 X127.182 Y179.032 E27.70608
G1 X126.894 Y179.447 E27.73128
G1 X126.544 Y179.812 E27.75651
G1 X126.14 Y180.117 E27.78176
G1 X125.694 Y180.354 E27.80696
G1 X125.216 Y180.519 E27.83219
G1 X124.718 Y180.606 E27.85741
G1 X124.079 Y180.617 E27.8893
G1 X123.869 Y180.611 E27.89978
G1 X119.062 Y180.416 E28.1398
G1 X118.445 Y180.381 E28.17063
G1 X115.723 Y180.268 E28.30655
G1 X112.971 Y180.231 E28.44386
G1 X110.235 Y180.271 E28.58037
G1 X106.971 Y180.42 E28.74338
G1 X106.041 Y180.478 E28.78987
G1 X105.342 Y180.487 E28.82475
G1 X103.409 Y180.463 E28.92119
G1 X100.656 Y180.505 E29.05855
G1 X97.942 Y180.625 E29.19409
G1 X95.195 Y180.823 E29.33149
G1 X92.49 Y181.096 E29.46713
G1 X89.755 Y181.45 E29.60472
G1 X87.036 Y181.88 E29.74206
G1 X84.366 Y182.381 E29.87759
G1 X81.704 Y182.958 E30.01348
G1 X79.066 Y183.608 E30.14903
G1 X76.389 Y184.35 E30.28762
G1 X73.763 Y185.157 E30.42468
G1 X71.168 Y186.054 E30.56166
G1 X70.363 Y186.323 E30.604
G1 X69.873 Y186.445 E30.62919
G1 X69.297 Y186.488 E30.65801
G1 X68.895 Y186.48 E30.67807
G1 X61.746 Y186.155 E31.0351
G1 X61.679 Y186.159 E31.03845
G1 X59.943 Y186.086 E31.12514
G1 X57.185 Y186.046 E31.26275
G1 X54.436 Y186.084 E31.39991
G1 X51.72 Y186.199 E31.53554
G1 X51.388 Y186.221 E31.55214
G1 X50.629 Y186.26 E31.59005
G1 X50.067 Y186.275 E31.6181
G1 X49.748 Y186.272 E31.63402
G1 X49.191 Y186.249 E31.66183
G1 X49.05 Y186.24 E31.66888
G1 X48.168 Y186.165 E31.71304
G1 X47.169 Y186.066 E31.76312
G1 X45.755 Y185.922 E31.83403
G1 X43.579 Y185.688 E31.94322
G1 X41.553 Y185.46 E32.04494
G1 X40.933 Y185.38 E32.07612
G1 X40.439 Y185.276 E32.10131
G1 X39.967 Y185.095 E32.12653
G1 X39.529 Y184.842 E32.15177
G1 X39.136 Y184.523 E32.17702
G1 X38.799 Y184.147 E32.20221
G1 X38.525 Y183.722 E32.22744
G1 X38.295 Y183.179 E32.25686
G1 X38.151 Y182.728 E32.28048
G1 X37.268 Y180.095 E32.41903
G1 X36.325 Y177.524 E32.55565
G1 X35.306 Y174.976 E32.69256
G1 X34.217 Y172.459 E32.82938
G1 X33.062 Y169.982 E32.96574
G1 X32.827 Y169.492 E32.99285
G1 X32.593 Y168.789 E33.02981
G1 X32.487 Y168.282 E33.05565
G1 X32.408 Y167.583 E33.09075
G1 X32.398 Y167.039 E33.11789
G1 X32.475 Y166.262 E33.15685
G1 X32.665 Y165.495 E33.19627
G1 X33.366 Y162.873 E33.33168
G1 X33.998 Y160.226 E33.46745
G1 X33.999 Y160.212 E33.46815
G1 X34.566 Y157.492 E33.60677
G1 X35.04 Y154.837 E33.74132
G1 X35.45 Y152.1 E33.87939
G1 X35.779 Y149.375 E34.01633
G1 X36.026 Y146.7 E34.15036
G1 X36.203 Y143.915 E34.28958
G1 X36.299 Y141.2 E34.42512
G1 X36.32 Y138.436 E34.56302
G1 X36.262 Y135.729 E34.6981
G1 X36.126 Y132.981 E34.83537
G1 X35.914 Y130.266 E34.97123
G1 X35.623 Y127.53 E35.1085
G1 X35.26 Y124.837 E35.24407
G1 X34.811 Y122.102 E35.38235
G1 X34.29 Y119.41 E35.51914
G1 X33.695 Y116.741 E35.65557
G1 X33.023 Y114.082 E35.7924
G1 X32.284 Y111.47 E35.92783
G1 X31.349 Y108.511 E36.08265
G1 X31.167 Y107.965 E36.11136
G1 X31.046 Y107.474 E36.13659
G1 X31.003 Y106.97 E36.16182
G1 X31.04 Y106.466 E36.18704
G1 X31.156 Y105.974 E36.21226
G1 X31.349 Y105.507 E36.23747
G1 X31.612 Y105.075 E36.2627
G1 X31.94 Y104.69 E36.28793
G1 X32.325 Y104.362 E36.31316
G1 X32.571 Y104.201 E36.32783
G1 X33.77 Y103.49 E36.39738
G1 X34.062 Y103.32 E36.41423
G1 X36.391 Y101.887 E36.55066
G1 X38.68 Y100.387 E36.6872
G1 X40.938 Y98.815 E36.82446
G1 X43.154 Y97.179 E36.96188
G1 X45.282 Y95.511 E37.09678
G1 X47.4 Y93.752 E37.23413
G1 X49.461 Y91.94 E37.37104
G1 X51.457 Y90.083 E37.50706
G1 X52.502 Y89.052 E37.5803
G1 X53.087 Y88.492 E37.6207
G1 X53.479 Y88.173 E37.64591
G1 F1500 E31.14591
;MESH:Adorote.stl
G0 F2160 X52.344 Y105.158
G0 X52.338 Y106.243
G0 X51.277 Y107.751
;TYPE:WALL-INNER
G1 F1500 E37.64591
G1 F900 X51.559 Y107.667 E37.66059
G1 X51.943 Y107.62 E37.67989
G1 X52.25 Y107.624 E37.69521
G1 X52.608 Y107.662 E37.71317
G1 X52.902 Y107.723 E37.72815
G1 X53.188 Y107.823 E37.74327
G1 X55.532 Y108.91 E37.87217
G1 X55.813 Y109.04 E37.88762
G1 X55.813 Y108.731 E37.89654
G1 X55.814 Y108.73 E37.89661
G1 X55.82 Y107.905 E37.93777
G1 X55.821 Y107.904 E37.93784
G1 X55.821 Y107.69 E37.94852
G1 X56.035 Y107.708 E37.95529
G1 X56.309 Y107.731 E37.96901
G1 X56.309 Y108.493 E38.00702
G1 X58.64 Y109.375 E38.13136
G1 X59.723 Y108.141 E38.21327
G1 X59.933 Y107.958 E38.22717
G1 X60.171 Y107.81 E38.24115
G1 X60.398 Y107.717 E38.25339
G1 X60.691 Y107.648 E38.26841
G1 X61.088 Y107.618 E38.28827
G1 X61.496 Y107.645 E38.30867
G1 X61.864 Y107.707 E38.32729
G1 X62.158 Y107.804 E38.34274
G1 X62.389 Y107.924 E38.35572
G1 X62.658 Y108.119 E38.3723
G1 X62.875 Y108.324 E38.38719
G1 X63.015 Y108.504 E38.39857
G1 X63.196 Y108.833 E38.4173
G1 X63.74 Y110.195 E38.49047
G1 X68.95 Y110.112 E38.75043
G1 X68.99 Y109.765 E38.76786
G1 X69.176 Y108.19 E38.84698
G1 X69.223 Y108.028 E38.8554
G1 X69.282 Y107.914 E38.8618
G1 X69.352 Y107.832 E38.86718
G1 X69.492 Y107.733 E38.87574
G1 X69.639 Y107.67 E38.88372
G1 X69.843 Y107.623 E38.89416
G1 X69.88 Y107.615 E38.89605
G1 X70.205 Y107.59 E38.91231
G1 X70.211 Y107.627 E38.91418
G1 X70.396 Y108.658 E38.96644
G1 X70.397 Y108.659 E38.96651
G1 X70.441 Y108.911 E38.97927
G1 X70.674 Y108.805 E38.98698
G1 X72.997 Y107.744 E39.1144
G1 X73.279 Y107.664 E39.12902
G1 X73.626 Y107.619 E39.14648
G1 X74.054 Y107.619 E39.16783
G1 X74.449 Y107.657 E39.18763
G1 X74.78 Y107.737 E39.20462
G1 X74.933 Y107.792 E39.21273
G1 X75.131 Y107.862 E39.22321
G1 X75.18 Y107.888 E39.22597
G1 X75.072 Y108.067 E39.23292
G1 X73.984 Y109.873 E39.33811
G1 X75.226 Y110.805 E39.41558
G1 X75.248 Y110.821 E39.41693
G1 X75.269 Y110.837 E39.41825
G1 X75.22 Y110.907 E39.42251
