;FLAVOR:Marlin
;TIME:2500
;Filament used: 2.26207m, 0m
;Layer height: 0.2
;MINX:28.193
;MINY:56.186
;MINZ:0.3
;MAXX:206.798
;MAXY:178.814
;MAXZ:1.7
;Generated with Cura_SteamEngine 4.7.1
T0
M140 S60
M105
M190 S60
M104 S200
M105
M109 S200
M82 ;absolute extrusion mode
M201 X500.00 Y500.00 Z100.00 E5000.00 	;Setup machine max acceleration
M203 X500.00 Y500.00 Z10.00 E50.00 	;Setup machine max feedrate
M204 P500.00 R1000.00 T500.00 		;Setup Print/Retract/Travel acceleration
M205 X8.00 Y8.00 Z0.40 E5.00 		;Setup Jerk
M220 S100 				;Reset Feedrate
M221 S100 				;Reset Flowrate
G28				;Home the Machine
#G29 				;Bed Level
G92 E0
M300 P150 S587
G92 E0
G1 F1500 E-6.5
;LAYER_COUNT:8
;LAYER:0
M107
G0 F2160 X35.16 Y59.436 Z0.3
;TYPE:SKIRT
G1 F1500 E0
G1 F900 X35.814 Y59.056 E0.03774
G1 X36.261 Y58.817 E0.06302
G1 X36.351 Y58.771 E0.06807
G1 X36.808 Y58.545 E0.0935
G1 X37.05 Y58.434 E0.10679
G1 X37.668 Y58.167 E0.14037
G1 X37.858 Y58.093 E0.15054
G1 X38.803 Y57.744 E0.2008
G1 X39.325 Y57.569 E0.22827
G1 X39.779 Y57.429 E0.25197
G1 X40.781 Y57.15 E0.30387
G1 X41.266 Y57.031 E0.32878
G1 X42.317 Y56.807 E0.38239
G1 X42.93 Y56.698 E0.41345
G1 X43.056 Y56.679 E0.41981
G1 X43.988 Y56.552 E0.46674
G1 X44.495 Y56.498 E0.49218
G1 X44.735 Y56.479 E0.50419
G1 X45.568 Y56.434 E0.54581
G1 X45.743 Y56.429 E0.55454
G1 X46.311 Y56.426 E0.58288
G1 X46.847 Y56.438 E0.60963
G1 X47.433 Y56.469 E0.6389
G1 X48.43 Y56.547 E0.6888
G1 X49.816 Y56.672 E0.75822
G1 X52.547 Y56.843 E0.89474
G1 X55.276 Y56.935 E1.03097
G1 X58.006 Y56.95 E1.16717
G1 X60.736 Y56.888 E1.30341
G1 X63.428 Y56.751 E1.43788
G1 X66.186 Y56.532 E1.57592
G1 X67.975 Y56.347 E1.66564
G1 X68.696 Y56.266 E1.70184
G1 X69.059 Y56.235 E1.72002
G1 X69.67 Y56.199 E1.75055
G1 X69.915 Y56.191 E1.76278
G1 X70.505 Y56.186 E1.79222
G1 X70.899 Y56.194 E1.81188
G1 X71.543 Y56.223 E1.84404
G1 X71.793 Y56.243 E1.85655
G1 X72.486 Y56.311 E1.89129
G1 X72.712 Y56.34 E1.90266
G1 X73.398 Y56.441 E1.93726
G1 X73.567 Y56.47 E1.94581
G1 X74.326 Y56.619 E1.9844
G1 X74.498 Y56.658 E1.9932
G1 X75.14 Y56.817 E2.0262
G1 X75.267 Y56.85 E2.03274
G1 X77.929 Y57.613 E2.1709
G1 X80.531 Y58.28 E2.30491
G1 X83.23 Y58.892 E2.44298
G1 X85.881 Y59.414 E2.57778
G1 X88.567 Y59.865 E2.71366
G1 X91.286 Y60.242 E2.85061
G1 X93.978 Y60.539 E2.98573
G1 X96.697 Y60.76 E3.12183
G1 X99.424 Y60.905 E3.25807
G1 X102.166 Y60.973 E3.39491
G1 X103.208 Y60.977 E3.4469
G1 X103.708 Y60.988 E3.47185
G1 X104.326 Y61.018 E3.50272
G1 X104.421 Y61.024 E3.50747
G1 X105.251 Y61.088 E3.549
G1 X106.993 Y61.242 E3.63625
G1 X109.681 Y61.404 E3.77059
G1 X112.415 Y61.492 E3.90706
G1 X115.144 Y61.503 E4.04322
G1 X117.874 Y61.435 E4.17946
G1 X120.604 Y61.291 E4.31585
G1 X123.306 Y61.072 E4.45109
G1 X124.874 Y60.909 E4.52974
G1 X125.796 Y60.807 E4.57602
G1 X126.521 Y60.758 E4.61228
G1 X126.957 Y60.743 E4.63404
G1 X127.533 Y60.739 E4.66278
G1 X127.831 Y60.745 E4.67765
G1 X128.337 Y60.767 E4.70292
G1 X128.824 Y60.802 E4.72728
G1 X129.455 Y60.865 E4.75891
G1 X129.62 Y60.885 E4.7672
G1 X130.301 Y60.985 E4.80154
G1 X130.546 Y61.028 E4.81395
G1 X131.422 Y61.201 E4.8585
G1 X131.69 Y61.26 E4.87219
G1 X134.409 Y61.821 E5.0107
G1 X137.11 Y62.299 E5.14755
G1 X139.779 Y62.693 E5.28215
G1 X142.518 Y63.019 E5.41976
G1 X145.207 Y63.263 E5.55447
G1 X147.933 Y63.432 E5.69073
G1 X150.66 Y63.523 E5.82686
G1 X153.39 Y63.538 E5.96306
G1 X156.104 Y63.475 E6.0985
G1 X158.464 Y63.36 E6.21638
G1 X160.536 Y63.234 E6.31994
G1 X161.17 Y63.219 E6.35158
G1 X161.796 Y63.233 E6.38282
G1 X162.325 Y63.26 E6.40925
G1 X163.596 Y63.358 E6.47285
G1 X165.01 Y63.483 E6.54366
G1 X167.702 Y63.645 E6.67821
G1 X170.434 Y63.732 E6.81458
G1 X173.164 Y63.742 E6.95078
G1 X175.897 Y63.674 E7.08717
G1 X178.617 Y63.531 E7.22306
G1 X181.358 Y63.307 E7.36027
G1 X183.039 Y63.131 E7.44459
G1 X183.709 Y63.056 E7.47823
G1 X184.055 Y63.027 E7.49555
G1 X184.605 Y62.995 E7.52304
G1 X184.921 Y62.985 E7.53881
G1 X185.531 Y62.98 E7.56924
G1 X185.8 Y62.986 E7.58267
G1 X186.5 Y63.018 E7.61763
G1 X186.771 Y63.039 E7.63119
G1 X187.363 Y63.096 E7.66086
G1 X187.661 Y63.133 E7.67584
G1 X188.366 Y63.237 E7.71139
G1 X188.533 Y63.265 E7.71984
G1 X189.232 Y63.402 E7.75538
G1 X189.509 Y63.463 E7.76953
G1 X190.22 Y63.639 E7.80607
G1 X190.366 Y63.679 E7.81362
G1 X191.022 Y63.871 E7.84773
G1 X191.196 Y63.927 E7.85684
G1 X192.283 Y64.306 E7.91428
G1 X192.419 Y64.356 E7.92151
G1 X193.182 Y64.657 E7.96243
G1 X193.314 Y64.712 E7.96956
G1 X194.055 Y65.039 E8.00997
G1 X194.178 Y65.096 E8.01673
G1 X195.057 Y65.524 E8.06551
G1 X195.577 Y65.797 E8.09481
G1 X195.721 Y65.878 E8.10305
G1 X196.369 Y66.26 E8.14058
G1 X196.549 Y66.373 E8.15118
G1 X197.141 Y66.762 E8.18652
G1 X197.29 Y66.866 E8.19559
G1 X197.851 Y67.278 E8.23032
G1 X198.383 Y67.704 E8.26432
G1 X198.807 Y68.07 E8.29226
G1 X199.179 Y68.411 E8.31744
G1 X199.575 Y68.801 E8.34517
G1 X199.652 Y68.882 E8.35074
G1 X200.075 Y69.341 E8.38188
G1 X200.273 Y69.572 E8.39706
G1 X200.63 Y70.011 E8.42529
G1 X200.763 Y70.184 E8.43618
G1 X201.176 Y70.76 E8.47154
G1 X201.316 Y70.971 E8.48417
G1 X201.654 Y71.52 E8.51634
G1 X201.764 Y71.712 E8.52738
G1 X202.082 Y72.308 E8.56108
G1 X202.189 Y72.526 E8.5732
G1 X202.44 Y73.084 E8.60372
G1 X202.529 Y73.3 E8.61538
G1 X202.756 Y73.907 E8.64771
G1 X202.832 Y74.134 E8.65965
G1 X203.287 Y75.651 E8.73866
G1 X204.126 Y78.307 E8.87763
G1 X205.019 Y80.88 E9.01351
G1 X205.984 Y83.427 E9.14939
G1 X206.135 Y83.8 E9.16947
G1 X206.423 Y84.556 E9.20983
G1 X206.529 Y84.86 E9.22589
G1 X206.659 Y85.345 E9.25094
G1 X206.735 Y85.737 E9.27086
G1 X206.798 Y86.269 E9.29759
G1 X206.781 Y86.805 E9.32434
G1 X206.684 Y87.333 E9.35113
G1 X206.511 Y87.857 E9.37866
G1 X206.294 Y88.347 E9.40539
G1 X206.006 Y88.799 E9.43213
G1 X205.705 Y89.152 E9.45528
G1 X205.187 Y89.686 E9.49239
G1 X204.267 Y90.608 E9.55737
G1 X202.393 Y92.596 E9.69368
G1 X200.569 Y94.641 E9.83039
G1 X198.841 Y96.696 E9.96434
G1 X197.109 Y98.876 E10.10325
G1 X195.495 Y101.032 E10.23761
G1 X193.928 Y103.252 E10.37318
G1 X192.416 Y105.529 E10.50955
G1 X190.957 Y107.865 E10.64695
G1 X189.589 Y110.2 E10.78197
G1 X188.283 Y112.582 E10.9175
G1 X187.03 Y115.031 E11.05474
G1 X185.859 Y117.484 E11.19035
G1 X184.762 Y119.965 E11.32569
G1 X183.739 Y122.46 E11.46022
G1 X183.735 Y122.475 E11.461
G1 X182.767 Y125.046 E11.59805
G1 X181.883 Y127.61 E11.73336
G1 X181.049 Y130.275 E11.87268
G1 X180.329 Y132.824 E12.00482
G1 X179.656 Y135.497 E12.14234
G1 X179.069 Y138.13 E12.27693
G1 X178.551 Y140.821 E12.41365
G1 X178.107 Y143.532 E12.5507
G1 X177.744 Y146.23 E12.68652
G1 X177.456 Y148.947 E12.82283
G1 X177.247 Y151.649 E12.95804
G1 X177.093 Y155.026 E13.12669
G1 X177.079 Y155.509 E13.1508
G1 X177.051 Y156.148 E13.18271
G1 X176.984 Y156.696 E13.21025
G1 X176.955 Y156.833 E13.21724
G1 X176.359 Y159.423 E13.34983
G1 X175.812 Y162.146 E13.48839
G1 X175.286 Y165.249 E13.64541
G1 X175.188 Y165.886 E13.67757
G1 X175.12 Y166.235 E13.69531
G1 X174.998 Y166.754 E13.7219
G1 X174.959 Y166.907 E13.72978
G1 X174.807 Y167.446 E13.75772
G1 X174.629 Y167.991 E13.78632
G1 X174.43 Y168.536 E13.81527
G1 X174.301 Y168.854 E13.83239
G1 X174.052 Y169.421 E13.86329
G1 X173.963 Y169.609 E13.87366
G1 X173.692 Y170.14 E13.90341
G1 X173.583 Y170.338 E13.91468
G1 X173.229 Y170.936 E13.94935
G1 X173.102 Y171.135 E13.96113
G1 X172.723 Y171.689 E13.99462
G1 X172.588 Y171.873 E14.006
G1 X172.155 Y172.425 E14.04101
G1 X172.042 Y172.558 E14.04971
G1 X171.569 Y173.089 E14.08519
G1 X171.414 Y173.252 E14.09641
G1 X170.955 Y173.705 E14.12859
G1 X170.786 Y173.861 E14.14006
G1 X170.288 Y174.295 E14.17302
G1 X170.094 Y174.453 E14.1855
G1 X169.655 Y174.794 E14.21323
G1 X168.98 Y175.27 E14.25444
G1 X168.522 Y175.564 E14.28159
G1 X167.868 Y175.944 E14.31933
G1 X167.421 Y176.183 E14.34462
G1 X167.331 Y176.229 E14.34966
G1 X166.874 Y176.455 E14.37509
G1 X166.632 Y176.566 E14.38838
G1 X166.014 Y176.833 E14.42196
G1 X165.824 Y176.907 E14.43214
G1 X164.879 Y177.256 E14.48239
G1 X164.357 Y177.431 E14.50986
G1 X163.903 Y177.571 E14.53356
G1 X162.901 Y177.85 E14.58546
G1 X162.416 Y177.969 E14.61037
G1 X161.365 Y178.193 E14.66398
G1 X160.752 Y178.302 E14.69505
G1 X160.626 Y178.321 E14.7014
G1 X159.694 Y178.448 E14.74833
G1 X159.187 Y178.502 E14.77377
G1 X158.947 Y178.521 E14.78578
G1 X158.114 Y178.566 E14.8274
G1 X157.939 Y178.571 E14.83613
G1 X157.371 Y178.574 E14.86447
G1 X156.835 Y178.562 E14.89122
G1 X156.249 Y178.531 E14.92049
G1 X155.252 Y178.453 E14.97039
G1 X153.866 Y178.328 E15.03982
G1 X151.135 Y178.157 E15.17633
G1 X148.406 Y178.065 E15.31256
G1 X145.676 Y178.05 E15.44876
G1 X142.946 Y178.112 E15.585
G1 X140.254 Y178.249 E15.71948
G1 X137.496 Y178.468 E15.85751
G1 X135.707 Y178.653 E15.94724
G1 X134.986 Y178.734 E15.98343
G1 X134.623 Y178.765 E16.00161
G1 X134.012 Y178.801 E16.03214
G1 X133.767 Y178.809 E16.04437
G1 X133.177 Y178.814 E16.07381
G1 X132.783 Y178.806 E16.09347
G1 X132.139 Y178.777 E16.12563
G1 X131.889 Y178.757 E16.13815
G1 X131.196 Y178.689 E16.17289
G1 X130.97 Y178.66 E16.18425
G1 X130.284 Y178.559 E16.21885
G1 X130.114 Y178.529 E16.22746
G1 X129.351 Y178.379 E16.26625
G1 X129.185 Y178.343 E16.27473
G1 X127.552 Y177.941 E16.35863
G1 X124.831 Y177.312 E16.49796
G1 X122.178 Y176.777 E16.63299
G1 X119.463 Y176.31 E16.77043
G1 X116.816 Y175.929 E16.90385
G1 X114.07 Y175.615 E17.04174
G1 X111.354 Y175.382 E17.17774
G1 X108.624 Y175.224 E17.31417
G1 X105.94 Y175.145 E17.44813
G1 X101.906 Y175.168 E17.64939
G1 X100.442 Y175.206 E17.72245
G1 X100.277 Y175.206 E17.73069
G1 X99.615 Y175.192 E17.76372
G1 X99.147 Y175.168 E17.7871
G1 X98.033 Y175.084 E17.84284
G1 X96.498 Y174.946 E17.91973
G1 X93.812 Y174.783 E18.05398
G1 X91.083 Y174.694 E18.1902
G1 X88.353 Y174.682 E18.3264
G1 X85.623 Y174.748 E18.46264
G1 X82.894 Y174.891 E18.59898
G1 X80.209 Y175.107 E18.73337
G1 X78.509 Y175.284 E18.81864
G1 X77.714 Y175.372 E18.85854
G1 X77.417 Y175.396 E18.87341
G1 X76.748 Y175.434 E18.90684
G1 X76.531 Y175.441 E18.91767
G1 X75.889 Y175.445 E18.9497
G1 X75.592 Y175.438 E18.96452
G1 X74.984 Y175.41 E18.99489
G1 X74.618 Y175.382 E19.0132
G1 X73.982 Y175.319 E19.04509
G1 X73.816 Y175.299 E19.05343
G1 X73.159 Y175.203 E19.08655
G1 X72.887 Y175.156 E19.10033
G1 X72.142 Y175.009 E19.13821
G1 X71.978 Y174.972 E19.1466
G1 X71.357 Y174.819 E19.17851
G1 X71.177 Y174.77 E19.18781
G1 X69.889 Y174.381 E19.25494
G1 X69.298 Y174.178 E19.28611
G1 X68.265 Y173.77 E19.34153
G1 X68.135 Y173.716 E19.34855
G1 X67.427 Y173.404 E19.38715
G1 X67.304 Y173.347 E19.39391
G1 X66.373 Y172.894 E19.44557
G1 X65.882 Y172.636 E19.47324
G1 X65.741 Y172.557 E19.4813
G1 X65.013 Y172.127 E19.52348
G1 X64.904 Y172.057 E19.52995
G1 X64.303 Y171.662 E19.56583
G1 X64.154 Y171.559 E19.57486
G1 X63.593 Y171.147 E19.60959
G1 X63.061 Y170.721 E19.64359
G1 X62.637 Y170.355 E19.67154
G1 X62.264 Y170.014 E19.69675
G1 X61.843 Y169.597 E19.72631
G1 X61.774 Y169.524 E19.73132
G1 X61.389 Y169.107 E19.75964
G1 X61.175 Y168.859 E19.77598
G1 X60.8 Y168.398 E19.80563
G1 X60.661 Y168.215 E19.81709
G1 X60.255 Y167.645 E19.85201
G1 X60.123 Y167.446 E19.86392
G1 X59.793 Y166.911 E19.89528
G1 X59.679 Y166.712 E19.90672
G1 X59.356 Y166.105 E19.94103
G1 X59.252 Y165.893 E19.95281
G1 X59.006 Y165.347 E19.98269
G1 X58.915 Y165.126 E19.99461
G1 X58.679 Y164.493 E20.02831
G1 X58.604 Y164.27 E20.04005
G1 X58.141 Y162.727 E20.12042
G1 X57.322 Y160.131 E20.25623
G1 X56.425 Y157.546 E20.39274
G1 X55.456 Y154.991 E20.52907
G1 X55.315 Y154.64 E20.54794
G1 X55.01 Y153.839 E20.5907
G1 X54.78 Y153.064 E20.63103
G1 X54.675 Y152.489 E20.6602
G1 X54.638 Y152.106 E20.67939
G1 X54.609 Y151.47 E20.71116
G1 X54.485 Y149.212 E20.82398
G1 X54.462 Y148.622 E20.85343
G1 X54.371 Y145.156 E21.02641
G1 X54.262 Y142.452 E21.16143
G1 X54.072 Y139.686 E21.29975
G1 X53.812 Y137.008 E21.43398
G1 X53.471 Y134.297 E21.5703
G1 X53.054 Y131.599 E21.7065
G1 X52.559 Y128.904 E21.84321
G1 X51.995 Y126.258 E21.97818
G1 X51.354 Y123.617 E22.11377
G1 X50.634 Y120.977 E22.25029
G1 X49.838 Y118.36 E22.38676
G1 X48.97 Y115.765 E22.52327
G1 X48.039 Y113.226 E22.65819
G1 X47.025 Y110.685 E22.79468
G1 X45.945 Y108.187 E22.93046
G1 X44.784 Y105.696 E23.06757
G1 X43.572 Y103.276 E23.2026
G1 X42.271 Y100.853 E23.33981
G1 X40.934 Y98.525 E23.47374
G1 X39.494 Y96.174 E23.61129
G1 X38 Y93.882 E23.74778
G1 X36.46 Y91.66 E23.88266
G1 X34.843 Y89.46 E24.01888
G1 X34.328 Y88.79 E24.06104
G1 X33.726 Y87.98 E24.11139
G1 X33.321 Y87.407 E24.14639
G1 X32.807 Y86.643 E24.19233
G1 X32.415 Y86.026 E24.2288
G1 X32.035 Y85.398 E24.26542
G1 X31.625 Y84.679 E24.30672
G1 X31.28 Y84.039 E24.34299
G1 X30.943 Y83.375 E24.38014
G1 X30.639 Y82.742 E24.41517
G1 X30.596 Y82.65 E24.42024
G1 X30.258 Y81.887 E24.46187
G1 X30.042 Y81.367 E24.48996
G1 X29.691 Y80.454 E24.53876
G1 X29.497 Y79.904 E24.56786
G1 X29.261 Y79.18 E24.60585
G1 X29.23 Y79.081 E24.61103
G1 X29.074 Y78.551 E24.63859
G1 X28.877 Y77.807 E24.67699
G1 X28.85 Y77.7 E24.68249
G1 X28.728 Y77.174 E24.70943
G1 X28.563 Y76.365 E24.75063
G1 X28.542 Y76.255 E24.75621
G1 X28.455 Y75.745 E24.78202
G1 X28.438 Y75.635 E24.78758
G1 X28.352 Y75.015 E24.81881
G1 X28.338 Y74.9 E24.82459
G1 X28.275 Y74.307 E24.85434
G1 X28.264 Y74.187 E24.86035
G1 X28.223 Y73.62 E24.88871
G1 X28.217 Y73.497 E24.89485
G1 X28.197 Y72.972 E24.92107
G1 X28.194 Y72.84 E24.92765
G1 X28.193 Y72.181 E24.96053
G1 X28.208 Y71.657 E24.98668
G1 X28.216 Y71.507 E24.99418
G1 X28.277 Y70.685 E25.0353
G1 X28.343 Y70.104 E25.06447
G1 X28.497 Y69.095 E25.11539
G1 X28.565 Y68.747 E25.13308
G1 X28.684 Y68.243 E25.15892
G1 X28.723 Y68.093 E25.16665
G1 X28.875 Y67.554 E25.19459
G1 X29.053 Y67.009 E25.2232
G1 X29.252 Y66.464 E25.25214
G1 X29.38 Y66.149 E25.26911
G1 X29.626 Y65.588 E25.29967
G1 X29.727 Y65.376 E25.31138
G1 X29.996 Y64.85 E25.34086
G1 X30.103 Y64.655 E25.35195
G1 X30.453 Y64.064 E25.38622
G1 X30.58 Y63.865 E25.398
G1 X30.959 Y63.311 E25.43149
G1 X31.094 Y63.127 E25.44287
G1 X31.463 Y62.655 E25.47276
G1 X31.644 Y62.437 E25.4869
G1 X32.09 Y61.936 E25.52036
G1 X32.276 Y61.74 E25.53384
G1 X32.725 Y61.296 E25.56535
G1 X32.906 Y61.129 E25.57763
G1 X33.326 Y60.763 E25.60543
G1 X33.608 Y60.531 E25.62365
G1 X34.028 Y60.205 E25.65017
G1 X34.702 Y59.73 E25.69131
G1 X35.16 Y59.436 E25.71846
G0 F2160 X35.367 Y59.779
G1 F900 X36.011 Y59.404 E25.75564
G1 X36.528 Y59.13 E25.78483
G1 X36.985 Y58.904 E25.81027
G1 X37.209 Y58.801 E25.82257
G1 X37.733 Y58.574 E25.85106
G1 X37.996 Y58.468 E25.86521
G1 X38.941 Y58.119 E25.91546
G1 X39.444 Y57.951 E25.94192
G1 X39.887 Y57.814 E25.96506
G1 X40.889 Y57.535 E26.01695
G1 X41.349 Y57.422 E26.04058
G1 X42.4 Y57.198 E26.09419
G1 X42.998 Y57.093 E26.12448
G1 X43.11 Y57.075 E26.13014
G1 X44.042 Y56.948 E26.17707
G1 X44.621 Y56.888 E26.20611
G1 X44.756 Y56.879 E26.21286
G1 X45.589 Y56.834 E26.25448
G1 X45.745 Y56.829 E26.26227
G1 X46.313 Y56.826 E26.2906
G1 X46.827 Y56.837 E26.31625
G1 X47.402 Y56.868 E26.34498
G1 X48.394 Y56.945 E26.39462
G1 X49.791 Y57.071 E26.4646
G1 X52.543 Y57.243 E26.60217
G1 X55.261 Y57.335 E26.73785
G1 X58.013 Y57.35 E26.87515
G1 X60.729 Y57.288 E27.01068
G1 X63.482 Y57.148 E27.14821
G1 X66.215 Y56.931 E27.28499
G1 X67.988 Y56.748 E27.37391
G1 X68.741 Y56.663 E27.41172
G1 X69.083 Y56.635 E27.42884
G1 X69.694 Y56.599 E27.45937
G1 X69.919 Y56.591 E27.47061
G1 X70.509 Y56.586 E27.50004
G1 X70.882 Y56.593 E27.51866
G1 X71.514 Y56.622 E27.55022
G1 X71.755 Y56.641 E27.56228
G1 X72.345 Y56.698 E27.59185
G1 X72.654 Y56.736 E27.60738
G1 X73.34 Y56.837 E27.64198
G1 X73.49 Y56.863 E27.64957
G1 X74.249 Y57.012 E27.68816
G1 X74.402 Y57.046 E27.69598
G1 X75.044 Y57.205 E27.72898
G1 X75.156 Y57.235 E27.73476
