;FLAVOR:Marlin
;TIME:154
;Filament used: 0.133862m, 0m
;Layer height: 0.2
;MINX:103.1
;MINY:107.2
;MINZ:0.3
;MAXX:131.9
;MAXY:126
;MAXZ:1.7
;POSTPROCESSED
;Generated with Cura_SteamEngine 4.7.1
T0
M140 S60
M105
M190 S60
M104 S200
M105
M109 S200
M82 ;absolute extrusion mode
M201 X500.00 Y500.00 Z100.00 E5000.00 	;Setup machine max acceleration
M203 X500.00 Y500.00 Z10.00 E50.00 	;Setup machine max feedrate
M204 P500.00 R1000.00 T500.00 		;Setup Print/Retract/Travel acceleration
M205 X8.00 Y8.00 Z0.40 E5.00 		;Setup Jerk
M220 S100 				;Reset Feedrate
M221 S100 				;Reset Flowrate
G28				;Home the Machine
#G29 				;Bed Level
G92 E0
M300 P150 S587
G92 E0
G1 F1500 E-6.5
;LAYER_COUNT:8
;LAYER:0
M107
G0 F2160 X104.516 Y108.384 Z0.3
;TYPE:SKIRT
G1 F1500 E0
G1 F900 X104.977 Y108.011 E0.02958
G1 X105.484 Y107.703 E0.05918
G1 X106.027 Y107.466 E0.08874
G1 X106.598 Y107.304 E0.11835
G1 X107.386 Y107.211 E0.15794
G1 X107.83 Y107.2 E0.1801
G1 X126.856 Y107.2 E1.12931
G1 X127.554 Y107.21 E1.16413
G1 X128.145 Y107.259 E1.19372
G1 X128.724 Y107.386 E1.22329
G1 X129.281 Y107.59 E1.25289
G1 X129.805 Y107.868 E1.28248
G1 X130.287 Y108.213 E1.31205
G1 X130.719 Y108.62 E1.34166
G1 X131.091 Y109.081 E1.37122
G1 X131.399 Y109.588 E1.40081
G1 X131.635 Y110.132 E1.4304
G1 X131.796 Y110.702 E1.45995
G1 X131.889 Y111.486 E1.49934
G1 X131.9 Y111.93 E1.52149
G1 X131.9 Y120.918 E1.96991
G1 X131.891 Y121.645 E2.00618
G1 X131.843 Y122.237 E2.03581
G1 X131.717 Y122.816 E2.06537
G1 X131.514 Y123.373 E2.09495
G1 X131.238 Y123.898 E2.12454
G1 X130.894 Y124.381 E2.15413
G1 X130.488 Y124.813 E2.1837
G1 X130.027 Y125.186 E2.21329
G1 X129.521 Y125.495 E2.24287
G1 X128.978 Y125.732 E2.27243
G1 X128.407 Y125.895 E2.30205
G1 X127.614 Y125.989 E2.34189
G1 X127.17 Y126 E2.36405
G1 X108.15 Y126 E3.31296
G1 X107.452 Y125.991 E3.34779
G1 X106.861 Y125.943 E3.37737
G1 X106.282 Y125.816 E3.40694
G1 X105.725 Y125.613 E3.43652
G1 X105.2 Y125.337 E3.46611
G1 X104.718 Y124.992 E3.49568
G1 X104.286 Y124.586 E3.52526
G1 X103.912 Y124.125 E3.55488
G1 X103.604 Y123.619 E3.58443
G1 X103.367 Y123.075 E3.61403
G1 X103.205 Y122.505 E3.6436
G1 X103.111 Y121.71 E3.68354
G1 X103.1 Y121.258 E3.70609
G1 X103.1 Y112.214 E4.1573
G1 X103.109 Y111.549 E4.19048
G1 X103.157 Y110.958 E4.22006
G1 X103.284 Y110.379 E4.24964
G1 X103.488 Y109.822 E4.27923
G1 X103.765 Y109.298 E4.3088
G1 X104.11 Y108.816 E4.33837
G1 X104.516 Y108.384 E4.36795
G0 F2160 X104.906 Y108.572
G1 F900 X105.36 Y108.235 E4.39616
G1 X105.857 Y107.966 E4.42435
G1 X106.387 Y107.769 E4.45256
G1 X106.94 Y107.65 E4.48078
G1 X107.718 Y107.602 E4.51967
G1 X107.83 Y107.6 E4.52526
G1 X126.85 Y107.6 E5.47417
G1 X127.548 Y107.61 E5.509
G1 X128.112 Y107.658 E5.53724
G1 X128.662 Y107.785 E5.5654
G1 X129.19 Y107.989 E5.59364
G1 X129.684 Y108.264 E5.62185
G1 X130.133 Y108.607 E5.65003
G1 X130.53 Y109.009 E5.67822
G1 X130.867 Y109.464 E5.70647
G1 X131.135 Y109.961 E5.73464
G1 X131.331 Y110.491 E5.76283
G1 X131.451 Y111.044 E5.79106
G1 X131.498 Y111.818 E5.82975
G1 X131.5 Y111.93 E5.83534
G1 X131.5 Y120.914 E6.28355
G1 X131.491 Y121.641 E6.31983
G1 X131.444 Y122.204 E6.34801
G1 X131.318 Y122.755 E6.37621
G1 X131.116 Y123.283 E6.40441
G1 X130.841 Y123.777 E6.43262
G1 X130.499 Y124.227 E6.46082
G1 X130.097 Y124.625 E6.48904
G1 X129.644 Y124.962 E6.51721
G1 X129.147 Y125.232 E6.54543
G1 X128.617 Y125.429 E6.57364
G1 X128.065 Y125.55 E6.60183
G1 X127.282 Y125.598 E6.64097
G1 X127.17 Y125.6 E6.64656
G1 X108.155 Y125.6 E7.59522
G1 X107.457 Y125.591 E7.63005
G1 X106.894 Y125.543 E7.65824
G1 X106.343 Y125.417 E7.68644
G1 X105.815 Y125.215 E7.71464
G1 X105.321 Y124.94 E7.74285
G1 X104.871 Y124.598 E7.77105
G1 X104.473 Y124.196 E7.79927
G1 X104.137 Y123.742 E7.82745
G1 X103.867 Y123.245 E7.85566
G1 X103.67 Y122.715 E7.88387
G1 X103.55 Y122.163 E7.91206
G1 X103.501 Y121.366 E7.95189
G1 X103.5 Y112.22 E8.40819
G1 X103.509 Y111.555 E8.44137
G1 X103.557 Y110.992 E8.46956
G1 X103.683 Y110.441 E8.49776
G1 X103.886 Y109.913 E8.52598
G1 X104.162 Y109.419 E8.55421
G1 X104.504 Y108.969 E8.58241
G1 X104.906 Y108.572 E8.6106
G0 F2160 X104.897 Y109.131
G1 F900 X105.294 Y108.771 E8.63734
G1 X105.741 Y108.473 E8.66414
G1 X106.226 Y108.245 E8.69088
G1 X106.74 Y108.092 E8.71763
G1 X107.408 Y108.01 E8.75121
G1 X107.83 Y108 E8.77227
G1 X126.845 Y108 E9.72093
G1 X127.543 Y108.01 E9.75576
G1 X128.077 Y108.058 E9.7825
G1 X128.598 Y108.184 E9.80925
G1 X129.095 Y108.387 E9.83603
G1 X129.556 Y108.661 E9.86279
G1 X129.971 Y109 E9.88952
G1 X130.331 Y109.398 E9.91629
G1 X130.628 Y109.844 E9.94303
G1 X130.856 Y110.33 E9.96981
G1 X131.008 Y110.844 E9.99655
G1 X131.09 Y111.509 E10.02998
G1 X131.1 Y111.93 E10.05099
G1 X131.1 Y120.909 E10.49895
G1 X131.091 Y121.636 E10.53523
G1 X131.044 Y122.17 E10.56197
G1 X130.919 Y122.691 E10.5887
G1 X130.717 Y123.188 E10.61547
G1 X130.444 Y123.65 E10.64224
G1 X130.106 Y124.066 E10.66898
G1 X129.709 Y124.427 E10.69575
G1 X129.263 Y124.725 E10.72251
G1 X128.778 Y124.953 E10.74925
G1 X128.264 Y125.107 E10.77602
G1 X127.592 Y125.19 E10.8098
G1 X127.17 Y125.2 E10.83086
G1 X108.161 Y125.2 E11.77922
G1 X107.463 Y125.191 E11.81405
G1 X106.928 Y125.144 E11.84084
G1 X106.407 Y125.018 E11.86758
G1 X105.91 Y124.816 E11.89435
G1 X105.449 Y124.543 E11.92108
G1 X105.033 Y124.204 E11.94785
G1 X104.672 Y123.808 E11.97459
G1 X104.374 Y123.362 E12.00135
G1 X104.146 Y122.876 E12.02813
G1 X103.993 Y122.362 E12.05488
G1 X103.91 Y121.688 E12.08876
G1 X103.9 Y121.258 E12.11022
G1 X103.9 Y112.225 E12.56088
G1 X103.909 Y111.56 E12.59406
G1 X103.957 Y111.026 E12.62081
G1 X104.083 Y110.505 E12.64755
G1 X104.285 Y110.008 E12.67432
G1 X104.558 Y109.547 E12.70105
G1 X104.897 Y109.131 E12.72782
G0 F2160 X105.289 Y109.304
G1 F900 X105.68 Y108.983 E12.75306
G1 X106.117 Y108.728 E12.7783
G1 X106.588 Y108.544 E12.80353
G1 X107.082 Y108.438 E12.82874
G1 X107.74 Y108.401 E12.86162
G1 X126.839 Y108.4 E13.81447
G1 X127.537 Y108.41 E13.8493
G1 X128.04 Y108.457 E13.8745
G1 X128.53 Y108.583 E13.89974
G1 X128.994 Y108.785 E13.92499
G1 X129.42 Y109.057 E13.9502
G1 X129.798 Y109.392 E13.9754
G1 X130.118 Y109.783 E14.00061
G1 X130.373 Y110.22 E14.02585
G1 X130.556 Y110.691 E14.05106
G1 X130.663 Y111.185 E14.07628
G1 X130.699 Y111.84 E14.10901
G1 X130.7 Y120.904 E14.56121
G1 X130.691 Y121.631 E14.59748
G1 X130.645 Y122.134 E14.62268
G1 X130.52 Y122.624 E14.64791
G1 X130.319 Y123.088 E14.67314
G1 X130.048 Y123.515 E14.69837
G1 X129.713 Y123.894 E14.72361
G1 X129.323 Y124.215 E14.74881
G1 X128.887 Y124.471 E14.77403
G1 X128.416 Y124.654 E14.79924
G1 X127.922 Y124.762 E14.82447
G1 X127.26 Y124.799 E14.85755
G1 X108.166 Y124.8 E15.81015
G1 X107.468 Y124.791 E15.84498
G1 X106.964 Y124.744 E15.87023
G1 X106.474 Y124.619 E15.89546
G1 X106.01 Y124.418 E15.92069
G1 X105.584 Y124.147 E15.94588
G1 X105.205 Y123.812 E15.97112
G1 X104.884 Y123.421 E15.99635
G1 X104.629 Y122.985 E16.02155
G1 X104.445 Y122.514 E16.04678
G1 X104.338 Y122.02 E16.072
G1 X104.301 Y121.344 E16.10577
G1 X104.3 Y112.231 E16.56042
G1 X104.309 Y111.566 E16.5936
G1 X104.356 Y111.062 E16.61886
G1 X104.482 Y110.573 E16.64405
G1 X104.683 Y110.109 E16.66928
G1 X104.954 Y109.682 E16.69451
G1 X105.289 Y109.304 E16.71971
G1 F1500 E10.21971
;MESH:Sample.stl
G0 F2160 X108.114 Y110.935
G0 X108.114 Y112.214
G0 X125.7 Y119.8
;TYPE:WALL-INNER
G1 F1500 E16.71971
G1 F900 X109.3 Y119.8 E17.53791
G1 X109.3 Y113.4 E17.85721
G1 X125.7 Y113.4 E18.6754
G1 X125.7 Y119.8 E18.9947
G0 F2160 X126.1 Y120.2
G1 F900 X108.9 Y120.2 E19.85281
G1 X108.9 Y113 E20.21202
G1 X126.1 Y113 E21.07013
G1 X126.1 Y120.2 E21.42934
G0 F2160 X126.5 Y120.6
G1 F900 X108.5 Y120.6 E22.32737
G1 X108.5 Y112.6 E22.72649
G1 X126.5 Y112.6 E23.62451
G1 X126.5 Y120.6 E24.02363
G0 F2160 X126.9 Y121
G1 F900 X108.1 Y121 E24.96157
G1 X108.1 Y112.2 E25.4006
G1 X126.9 Y112.2 E26.33854
G1 X126.9 Y121 E26.77757
G0 F2160 X127.3 Y121.4
;TYPE:WALL-OUTER
G1 F900 X107.7 Y121.4 E27.75542
G1 X107.7 Y111.8 E28.23437
G1 X127.3 Y111.8 E29.21222
G1 X127.3 Y121.4 E29.69116
G0 F2160 X127.1 Y121.4
G0 X126.86 Y120.96
G0 X126.8 Y120.96
G0 X125.31 Y119.41
;TYPE:SKIN
G1 F900 X109.69 Y119.41 E30.47045
G1 X109.69 Y113.79 E30.75083
G1 X125.31 Y113.79 E31.53011
G1 X125.31 Y119.41 E31.8105
G0 F2160 X125.129 Y114.381
G1 F900 X124.718 Y113.97 E31.8395
G0 F2160 X124.152 Y113.97
G1 F900 X125.129 Y114.947 E31.90843
G0 F2160 X125.129 Y115.512
G1 F900 X123.586 Y113.97 E32.01726
G0 F2160 X123.021 Y113.97
G1 F900 X125.129 Y116.078 E32.16599
G0 F2160 X125.129 Y116.644
G1 F900 X122.455 Y113.97 E32.35466
G0 F2160 X121.889 Y113.97
G1 F900 X125.129 Y117.21 E32.58326
G0 F2160 X125.129 Y117.775
G1 F900 X121.323 Y113.97 E32.85175
G0 F2160 X120.758 Y113.97
G1 F900 X125.129 Y118.341 E33.16015
G0 F2160 X125.129 Y118.907
G1 F900 X120.192 Y113.97 E33.50848
G0 F2160 X119.626 Y113.97
G1 F900 X124.886 Y119.229 E33.87957
G0 F2160 X124.32 Y119.229
G1 F900 X119.061 Y113.97 E34.25062
G0 F2160 X118.495 Y113.97
G1 F900 X123.755 Y119.229 E34.62171
G0 F2160 X123.189 Y119.229
G1 F900 X117.929 Y113.97 E34.99279
G0 F2160 X117.364 Y113.97
G1 F900 X122.623 Y119.229 E35.36384
G0 F2160 X122.057 Y119.229
G1 F900 X116.798 Y113.97 E35.73489
G0 F2160 X116.232 Y113.97
G1 F900 X121.492 Y119.229 E36.10598
G0 F2160 X120.926 Y119.229
G1 F900 X115.667 Y113.97 E36.47703
G0 F2160 X115.101 Y113.97
G1 F900 X120.36 Y119.229 E36.84808
G0 F2160 X119.795 Y119.229
G1 F900 X114.535 Y113.97 E37.21917
G0 F2160 X113.97 Y113.97
G1 F900 X119.229 Y119.229 E37.59022
G0 F2160 X118.663 Y119.229
G1 F900 X113.404 Y113.97 E37.96127
G0 F2160 X112.838 Y113.97
G1 F900 X118.098 Y119.229 E38.33236
G0 F2160 X117.532 Y119.229
G1 F900 X112.273 Y113.97 E38.70341
G0 F2160 X111.707 Y113.97
G1 F900 X116.966 Y119.229 E39.07446
G0 F2160 X116.401 Y119.229
G1 F900 X111.141 Y113.97 E39.44554
G0 F2160 X110.575 Y113.97
G1 F900 X115.835 Y119.229 E39.81663
G0 F2160 X115.269 Y119.229
G1 F900 X110.01 Y113.97 E40.18768
G0 F2160 X109.869 Y114.395
G1 F900 X114.704 Y119.229 E40.52878
G0 F2160 X114.138 Y119.229
G1 F900 X109.869 Y114.96 E40.82998
G0 F2160 X109.869 Y115.526
G1 F900 X113.572 Y119.229 E41.09125
G0 F2160 X113.006 Y119.229
G1 F900 X109.869 Y116.092 E41.31258
G0 F2160 X109.869 Y116.657
G1 F900 X112.441 Y119.229 E41.49405
G0 F2160 X111.875 Y119.229
G1 F900 X109.869 Y117.223 E41.63558
G0 F2160 X109.869 Y117.789
G1 F900 X111.309 Y119.229 E41.73718
G0 F2160 X110.744 Y119.229
G1 F900 X109.869 Y118.354 E41.79892
G0 F2160 X109.869 Y118.92
G1 F900 X110.178 Y119.229 E41.82072
;MESH:NONMESH
G0 F600 X110.178 Y119.229 Z0.5
G0 F2160 X125.7 Y119.8
;TIME_ELAPSED:64.205730
;LAYER:1
M106 S255
;TYPE:WALL-INNER
;MESH:Sample.stl
G1 F2460 X109.3 Y119.8 E42.36619
G1 X109.3 Y113.4 E42.57905
G1 X125.7 Y113.4 E43.12452
G1 X125.7 Y119.8 E43.33738
G0 F4680 X126.1 Y120.2
G1 F2460 X108.9 Y120.2 E43.90946
G1 X108.9 Y113 E44.14893
G1 X126.1 Y113 E44.721
G1 X126.1 Y120.2 E44.96048
G0 F4680 X126.5 Y120.6
G1 F2460 X108.5 Y120.6 E45.55916
G1 X108.5 Y112.6 E45.82524
G1 X126.5 Y112.6 E46.42392
G1 X126.5 Y120.6 E46.69
G0 F4680 X126.9 Y121
G1 F2460 X108.1 Y121 E47.3153
G1 X108.1 Y112.2 E47.60798
G1 X126.9 Y112.2 E48.23328
G1 X126.9 Y121 E48.52596
G0 F4680 X127.3 Y121.4
;TYPE:WALL-OUTER
G1 F1470 X107.7 Y121.4 E49.17786
G1 X107.7 Y111.8 E49.49716
G1 X127.3 Y111.8 E50.14906
G1 X127.3 Y121.4 E50.46836
G0 F4680 X127.1 Y121.4
G0 X126.86 Y120.96
G0 X126.8 Y120.96
G0 X125.31 Y119.41
;TYPE:SKIN
G1 F1200 X109.69 Y119.41 E50.98788
G1 X109.69 Y113.79 E51.1748
G1 X125.31 Y113.79 E51.69432
G1 X125.31 Y119.41 E51.88125
G0 F4680 X125.128 Y118.681
G1 F1200 X124.58 Y119.23 E51.90705
G0 F4680 X124.014 Y119.23
G1 F1200 X125.128 Y118.115 E51.95947
G0 F4680 X125.128 Y117.55
G1 F1200 X123.448 Y119.23 E52.03849
G0 F4680 X122.883 Y119.23
G1 F1200 X125.128 Y116.984 E52.14411
G0 F4680 X125.128 Y116.418
G1 F1200 X122.317 Y119.23 E52.27636
G0 F4680 X121.751 Y119.23
G1 F1200 X125.128 Y115.853 E52.4352
G0 F4680 X125.128 Y115.287
G1 F1200 X121.186 Y119.23 E52.62064
G0 F4680 X120.62 Y119.23
G1 F1200 X125.128 Y114.721 E52.83271
G0 F4680 X125.128 Y114.156
G1 F1200 X120.054 Y119.23 E53.07138
G0 F4680 X119.489 Y119.23
G1 F1200 X124.749 Y113.969 E53.31881
G0 F4680 X124.184 Y113.969
G1 F1200 X118.923 Y119.23 E53.56627
G0 F4680 X118.357 Y119.23
G1 F1200 X123.618 Y113.969 E53.81374
G0 F4680 X123.052 Y113.969
G1 F1200 X117.791 Y119.23 E54.0612
G0 F4680 X117.226 Y119.23
G1 F1200 X122.487 Y113.969 E54.30866
G0 F4680 X121.921 Y113.969
G1 F1200 X116.66 Y119.23 E54.55612
G0 F4680 X116.094 Y119.23
G1 F1200 X121.355 Y113.969 E54.80358
G0 F4680 X120.79 Y113.969
G1 F1200 X115.529 Y119.23 E55.05104
G0 F4680 X114.963 Y119.23
G1 F1200 X120.224 Y113.969 E55.2985
G0 F4680 X119.658 Y113.969
G1 F1200 X114.397 Y119.23 E55.54596
G0 F4680 X113.832 Y119.23
G1 F1200 X119.093 Y113.969 E55.79343
G0 F4680 X118.527 Y113.969
G1 F1200 X113.266 Y119.23 E56.04089
G0 F4680 X112.7 Y119.23
G1 F1200 X117.961 Y113.969 E56.28835
G0 F4680 X117.395 Y113.969
G1 F1200 X112.135 Y119.23 E56.53579
G0 F4680 X111.569 Y119.23
G1 F1200 X116.83 Y113.969 E56.78325
G0 F4680 X116.264 Y113.969
G1 F1200 X111.003 Y119.23 E57.03071
G0 F4680 X110.438 Y119.23
G1 F1200 X115.698 Y113.969 E57.27815
G0 F4680 X115.133 Y113.969
G1 F1200 X109.872 Y119.23 E57.52561
G0 F4680 X109.87 Y118.666
G1 F1200 X114.567 Y113.969 E57.74654
G0 F4680 X114.001 Y113.969
G1 F1200 X109.87 Y118.1 E57.94085
G0 F4680 X109.87 Y117.535
G1 F1200 X113.436 Y113.969 E58.10858
G0 F4680 X112.87 Y113.969
G1 F1200 X109.87 Y116.969 E58.24969
G0 F4680 X109.87 Y116.403
G1 F1200 X112.304 Y113.969 E58.36418
G0 F4680 X111.739 Y113.969
G1 F1200 X109.87 Y115.838 E58.45209
G0 F4680 X109.87 Y115.272
G1 F1200 X111.173 Y113.969 E58.51338
G0 F4680 X110.607 Y113.969
G1 F1200 X109.87 Y114.706 E58.54805
G0 F4680 X109.87 Y114.141
G1 F1200 X110.042 Y113.969 E58.55614
;MESH:NONMESH
G0 F600 X110.042 Y113.969 Z0.7
G0 F4680 X125.7 Y119.8
;TIME_ELAPSED:84.907850
;LAYER:2
;TYPE:WALL-INNER
;MESH:Sample.stl
G1 F4020 X109.3 Y119.8 E59.10161
G1 X109.3 Y113.4 E59.31447
G1 X125.7 Y113.4 E59.85994
G1 X125.7 Y119.8 E60.0728
G0 F7200 X126.1 Y120.2
G1 F4020 X108.9 Y120.2 E60.64488
G1 X108.9 Y113 E60.88435
G1 X126.1 Y113 E61.45642
G1 X126.1 Y120.2 E61.6959
G0 F7200 X126.5 Y120.6
G1 F4020 X108.5 Y120.6 E62.29458
G1 X108.5 Y112.6 E62.56066
G1 X126.5 Y112.6 E63.15934
G1 X126.5 Y120.6 E63.42542
G0 F7200 X126.9 Y121
G1 F4020 X108.1 Y121 E64.05071
G1 X108.1 Y112.2 E64.3434
G1 X126.9 Y112.2 E64.96869
G1 X126.9 Y121 E65.26138
G0 F7200 X127.3 Y121.4
;TYPE:WALL-OUTER
G1 F2040 X107.7 Y121.4 E65.91328
G1 X107.7 Y111.8 E66.23258
G1 X127.3 Y111.8 E66.88448
G1 X127.3 Y121.4 E67.20378
G0 F7200 X127.1 Y121.4
G0 X126.86 Y120.96
G0 X126.8 Y120.96
G0 X125.31 Y119.41
;TYPE:SKIN
G1 F1500 X109.69 Y119.41 E67.7233
G1 X109.69 Y113.79 E67.91022
G1 X125.31 Y113.79 E68.42974
G1 X125.31 Y119.41 E68.61667
G0 F7200 X125.129 Y114.381
G1 F1500 X124.718 Y113.97 E68.636
G0 F7200 X124.152 Y113.97
G1 F1500 X125.129 Y114.947 E68.68195
G0 F7200 X125.129 Y115.512
G1 F1500 X123.586 Y113.97 E68.75451
G0 F7200 X123.021 Y113.97
G1 F1500 X125.129 Y116.078 E68.85366
G0 F7200 X125.129 Y116.644
G1 F1500 X122.455 Y113.97 E68.97944
G0 F7200 X121.889 Y113.97
G1 F1500 X125.129 Y117.21 E69.13184
G0 F7200 X125.129 Y117.775
G1 F1500 X121.323 Y113.97 E69.31084
G0 F7200 X120.758 Y113.97
G1 F1500 X125.129 Y118.341 E69.51644
G0 F7200 X125.129 Y118.907
G1 F1500 X120.192 Y113.97 E69.74866
G0 F7200 X119.626 Y113.97
G1 F1500 X124.886 Y119.229 E69.99605
G0 F7200 X124.32 Y119.229
G1 F1500 X119.061 Y113.97 E70.24342
G0 F7200 X118.495 Y113.97
G1 F1500 X123.755 Y119.229 E70.49081
G0 F7200 X123.189 Y119.229
