;FLAVOR:Marlin
;TIME:655
;Filament used: 0.493405m, 0m
;Layer height: 0.18
;MINX:87.503
;MINY:85.983
;MINZ:0.3
;MAXX:147.487
;MAXY:147.415
;MAXZ:1.56
;POSTPROCESSED
;Generated with Cura_SteamEngine 4.8.0
T0
M140 S60
M105
M190 S60
M104 S200
M105
M109 S200
M82 ;absolute extrusion mode
M201 X500.00 Y500.00 Z100.00 E5000.00 	;Setup machine max acceleration
M203 X500.00 Y500.00 Z10.00 E50.00 	;Setup machine max feedrate
M204 P500.00 R1000.00 T500.00 		;Setup Print/Retract/Travel acceleration
M205 X8.00 Y8.00 Z0.40 E5.00 		;Setup Jerk
M220 S100 				;Reset Feedrate
M221 S100 				;Reset Flowrate
G28				;Home the Machine
#G29 				;Bed Level
G92 E0
M300 P150 S587
G92 E0
G1 F1500 E-6.5
;LAYER_COUNT:8
;LAYER:0
M107
G0 F2160 X114.966 Y87.298 Z0.3
;TYPE:SKIRT
G1 F1500 E0
G1 F900 X115.337 Y86.91 E0.02678
G1 X115.76 Y86.581 E0.05352
G1 X116.228 Y86.319 E0.08028
G1 X116.73 Y86.13 E0.10704
G1 X117.254 Y86.017 E0.13378
G1 X117.79 Y85.983 E0.16058
G1 X118.324 Y86.029 E0.18732
G1 X118.845 Y86.154 E0.21405
G1 X119.343 Y86.355 E0.24084
G1 X119.804 Y86.628 E0.26757
G1 X120.22 Y86.966 E0.29431
G1 X120.727 Y87.562 E0.33335
G1 X120.816 Y87.693 E0.34125
G1 X122.219 Y89.834 E0.46896
G1 X123.728 Y91.999 E0.60062
G1 X125.382 Y94.233 E0.73929
G1 X127.085 Y96.405 E0.87699
G1 X128.794 Y98.461 E1.01037
G1 X130.61 Y100.524 E1.14749
G1 X132.467 Y102.518 E1.28343
G1 X134.38 Y104.458 E1.41936
G1 X136.347 Y106.343 E1.55528
G1 X138.366 Y108.171 E1.69116
G1 X140.449 Y109.952 E1.82789
G1 X142.581 Y111.674 E1.96462
G1 X144.71 Y113.296 E2.09815
G1 X144.879 Y113.42 E2.10861
G1 X145.693 Y114.027 E2.15927
G1 X146.098 Y114.379 E2.18604
G1 X146.446 Y114.787 E2.21279
G1 X146.73 Y115.242 E2.23955
G1 X146.942 Y115.734 E2.26628
G1 X147.093 Y116.298 E2.29541
G1 X147.191 Y116.791 E2.32048
G1 X147.437 Y118.239 E2.39376
G1 X147.487 Y118.768 E2.42027
G1 X147.479 Y119.502 E2.45689
G1 X147.457 Y119.806 E2.4721
G1 X147.36 Y120.643 E2.51413
G1 X147.181 Y122.034 E2.5841
G1 X147.12 Y122.385 E2.60188
G1 X146.897 Y123.419 E2.65465
G1 X146.361 Y126.081 E2.79012
G1 X145.889 Y128.83 E2.92928
G1 X145.776 Y129.595 E2.96786
G1 X145.657 Y130.297 E3.00338
G1 X145.529 Y130.817 E3.0301
G1 X145.383 Y131.189 E3.05004
G1 X145.118 Y131.77 E3.0819
G1 X144.907 Y132.166 E3.10428
G1 X144.603 Y132.659 E3.13318
G1 X144.218 Y133.194 E3.16606
G1 X143.76 Y133.726 E3.20108
G1 X143.244 Y134.216 E3.23658
G1 X142.709 Y134.656 E3.27114
G1 X142.476 Y134.824 E3.28547
G1 X141.637 Y135.379 E3.33566
G1 X141.049 Y135.757 E3.37054
G1 X138.782 Y137.302 E3.50741
G1 X136.554 Y138.915 E3.64463
G1 X134.382 Y140.585 E3.78132
G1 X132.308 Y142.273 E3.91473
G1 X130.235 Y144.059 E4.05125
G1 X128.788 Y145.37 E4.14866
G1 X128.316 Y145.785 E4.18002
G1 X127.892 Y146.11 E4.20667
G1 X127.296 Y146.481 E4.24169
G1 X126.74 Y146.745 E4.2724
G1 X126.228 Y146.933 E4.29961
G1 X125.58 Y147.094 E4.33292
G1 X125.07 Y147.176 E4.35869
G1 X124.412 Y147.216 E4.39158
G1 X124.102 Y147.217 E4.40705
G1 X123.549 Y147.195 E4.43466
G1 X120.775 Y147.124 E4.5731
G1 X118.044 Y147.131 E4.70935
G1 X115.34 Y147.214 E4.84432
G1 X112.817 Y147.361 E4.9704
G1 X112.049 Y147.415 E5.00881
G1 X111.432 Y147.412 E5.0396
G1 X110.916 Y147.371 E5.06542
G1 X110.386 Y147.286 E5.0922
G1 X109.824 Y147.152 E5.12103
G1 X109.635 Y147.102 E5.13078
G1 X109.152 Y146.932 E5.15633
G1 X108.47 Y146.627 E5.1936
G1 X107.9 Y146.309 E5.22616
G1 X107.347 Y145.932 E5.25955
G1 X107.182 Y145.81 E5.26979
G1 X106.706 Y145.435 E5.30002
G1 X106.313 Y145.114 E5.32534
G1 X104.151 Y143.442 E5.46169
G1 X101.954 Y141.842 E5.59729
G1 X99.707 Y140.3 E5.73325
G1 X97.413 Y138.819 E5.86948
G1 X95.085 Y137.409 E6.00526
G1 X92.364 Y135.871 E6.1612
G1 X91.384 Y135.338 E6.21685
G1 X90.914 Y135.048 E6.24441
G1 X90.622 Y134.845 E6.26215
G1 X90.22 Y134.52 E6.28794
G1 X89.689 Y133.993 E6.32526
G1 X89.344 Y133.583 E6.352
G1 X89.064 Y133.125 E6.37878
G1 X88.855 Y132.632 E6.40549
G1 X88.721 Y132.112 E6.43228
G1 X88.673 Y131.715 E6.45223
G1 X88.63 Y131.054 E6.48528
G1 X88.604 Y130.543 E6.51081
G1 X88.406 Y127.762 E6.6499
G1 X88.137 Y125.063 E6.78523
G1 X87.685 Y121.638 E6.95758
G1 X87.543 Y120.692 E7.00531
G1 X87.503 Y120.157 E7.03207
G1 X87.543 Y119.622 E7.05884
G1 X87.662 Y119.099 E7.0856
G1 X87.858 Y118.6 E7.11234
G1 X88.126 Y118.135 E7.13912
G1 X88.485 Y117.688 E7.16772
G1 X88.909 Y117.252 E7.19806
G1 X91.181 Y115.004 E7.35752
G1 X91.712 Y114.492 E7.39432
G1 X91.906 Y114.319 E7.40729
G1 X94.005 Y112.57 E7.5436
G1 X96.042 Y110.77 E7.67922
G1 X98.021 Y108.923 E7.81427
G1 X99.984 Y106.984 E7.95193
G1 X101.875 Y105.005 E8.08849
G1 X103.686 Y102.999 E8.22332
G1 X105.458 Y100.921 E8.35957
G1 X107.174 Y98.791 E8.49603
G1 X108.815 Y96.63 E8.6314
G1 X110.412 Y94.399 E8.76828
G1 X111.923 Y92.157 E8.90317
G1 X113.998 Y88.841 E9.09833
G1 X114.658 Y87.736 E9.16254
G1 X114.966 Y87.298 E9.18925
G0 F2160 X115.294 Y87.529
G1 F900 X115.648 Y87.169 E9.21444
G1 X116.054 Y86.868 E9.23966
G1 X116.503 Y86.635 E9.26489
G1 X116.983 Y86.476 E9.29012
G1 X117.482 Y86.394 E9.31535
G1 X117.987 Y86.392 E9.34054
G1 X118.487 Y86.47 E9.36579
G1 X118.968 Y86.625 E9.391
G1 X119.419 Y86.854 E9.41624
G1 X119.828 Y87.151 E9.44146
G1 X120.185 Y87.509 E9.46668
G1 X120.481 Y87.913 E9.49167
G1 X121.862 Y90.019 E9.61731
G1 X123.43 Y92.27 E9.75417
G1 X125.061 Y94.473 E9.89093
G1 X126.747 Y96.623 E10.02724
G1 X128.517 Y98.752 E10.16537
G1 X130.301 Y100.778 E10.30005
G1 X132.174 Y102.789 E10.43715
G1 X134.119 Y104.762 E10.57537
G1 X136.066 Y106.627 E10.70988
G1 X138.103 Y108.473 E10.84703
G1 X140.2 Y110.265 E10.98465
G1 X142.316 Y111.974 E11.12035
G1 X144.516 Y113.651 E11.25836
G1 X144.64 Y113.741 E11.266
G1 X145.454 Y114.348 E11.31666
G1 X145.834 Y114.681 E11.34187
G1 X146.157 Y115.07 E11.36709
G1 X146.415 Y115.505 E11.39232
G1 X146.66 Y116.2 E11.42909
G1 X146.781 Y116.773 E11.45831
G1 X146.797 Y116.858 E11.46262
G1 X147.043 Y118.306 E11.5359
G1 X147.091 Y118.97 E11.56911
G1 X147.079 Y119.49 E11.59506
G1 X147.06 Y119.76 E11.60857
G1 X146.963 Y120.592 E11.65036
G1 X146.784 Y121.983 E11.72032
G1 X146.729 Y122.301 E11.73643
G1 X146.506 Y123.335 E11.7892
G1 X145.969 Y126.006 E11.92512
G1 X145.502 Y128.723 E12.06266
G1 X145.382 Y129.528 E12.10327
G1 X145.263 Y130.23 E12.13879
G1 X145.139 Y130.72 E12.16401
G1 X145.019 Y131.023 E12.18026
G1 X144.754 Y131.604 E12.21212
G1 X144.567 Y131.956 E12.23201
G1 X144.263 Y132.449 E12.26091
G1 X143.909 Y132.939 E12.29106
G1 X143.475 Y133.445 E12.32432
G1 X142.973 Y133.922 E12.35887
G1 X142.462 Y134.341 E12.39184
G1 X142.255 Y134.49 E12.40456
G1 X141.379 Y135.069 E12.45695
G1 X140.812 Y135.433 E12.49057
G1 X138.567 Y136.963 E12.62611
G1 X136.321 Y138.59 E12.76447
G1 X134.149 Y140.259 E12.90113
G1 X132.04 Y141.976 E13.03681
G1 X129.966 Y143.763 E13.17339
G1 X128.52 Y145.073 E13.27074
G1 X128.073 Y145.468 E13.3005
G1 X127.649 Y145.793 E13.32715
G1 X127.119 Y146.122 E13.35827
G1 X126.574 Y146.381 E13.38838
G1 X125.995 Y146.583 E13.41897
G1 X125.488 Y146.705 E13.44499
G1 X124.875 Y146.792 E13.47587
G1 X124.118 Y146.817 E13.51366
G1 X123.569 Y146.795 E13.54107
G1 X120.785 Y146.724 E13.68001
G1 X118.03 Y146.731 E13.81746
G1 X115.342 Y146.814 E13.95163
G1 X112.794 Y146.962 E14.07896
G1 X112.021 Y147.016 E14.11762
G1 X111.449 Y147.012 E14.14616
G1 X110.949 Y146.972 E14.17119
G1 X110.479 Y146.897 E14.19493
G1 X109.917 Y146.763 E14.22376
G1 X109.311 Y146.565 E14.25556
G1 X108.655 Y146.272 E14.29141
G1 X108.119 Y145.975 E14.32198
G1 X107.575 Y145.604 E14.35483
G1 X107.429 Y145.495 E14.36392
G1 X106.959 Y145.125 E14.39376
G1 X106.57 Y144.807 E14.41883
G1 X104.402 Y143.131 E14.55554
G1 X102.177 Y141.51 E14.69288
G1 X99.92 Y139.962 E14.82942
G1 X97.632 Y138.484 E14.96532
G1 X95.297 Y137.07 E15.10151
G1 X92.509 Y135.494 E15.26129
G1 X91.575 Y134.986 E15.31433
G1 X91.142 Y134.719 E15.33971
G1 X90.493 Y134.228 E15.38031
G1 X89.976 Y133.714 E15.41668
G1 X89.652 Y133.325 E15.44194
G1 X89.394 Y132.891 E15.46713
G1 X89.207 Y132.421 E15.49236
G1 X89.072 Y131.689 E15.5295
G1 X89.029 Y131.036 E15.56215
G1 X89 Y130.469 E15.59047
G1 X88.805 Y127.73 E15.72747
G1 X88.536 Y125.036 E15.86254
G1 X88.081 Y121.586 E16.03615
G1 X87.938 Y120.633 E16.08423
G1 X87.903 Y120.128 E16.10949
G1 X87.948 Y119.625 E16.13468
G1 X88.071 Y119.134 E16.15993
G1 X88.271 Y118.67 E16.18514
G1 X88.541 Y118.242 E16.21039
G1 X88.91 Y117.821 E16.23832
G1 X89.216 Y117.511 E16.26005
G1 X91.459 Y115.292 E16.41746
G1 X91.99 Y114.78 E16.45426
G1 X92.162 Y114.626 E16.46578
G1 X94.262 Y112.876 E16.60216
G1 X96.314 Y111.063 E16.73877
G1 X98.329 Y109.182 E16.87629
G1 X100.255 Y107.28 E17.01134
G1 X102.161 Y105.284 E17.14903
G1 X103.989 Y103.26 E17.28509
G1 X105.755 Y101.19 E17.42084
G1 X107.488 Y99.039 E17.55865
G1 X109.143 Y96.859 E17.6952
G1 X110.736 Y94.634 E17.83173
G1 X112.261 Y92.371 E17.96787
G1 X114.346 Y89.038 E18.16401
G1 X115.001 Y87.942 E18.22771
G1 X115.294 Y87.529 E18.25297
G1 F1500 E11.75297
;MESH:GirlPower.stl
G0 F2160 X116.867 Y94.502
G0 X117.732 Y94.539
G0 X117.86 Y104.094
G0 X118.328 Y116.689
G0 X125.685 Y134.268
;TYPE:WALL-INNER
G1 F1500 E18.25297
G1 F900 X124.152 Y133.518 E18.33812
G1 X123.949 Y133.419 E18.34939
G1 X123.877 Y133.632 E18.35637
G1 X123.876 Y133.633 E18.35644
G1 X123.803 Y133.847 E18.36772
G1 X123.238 Y135.491 E18.45445
G1 X122.956 Y136.408 E18.50232
G1 X123.915 Y137.491 E18.57449
G1 X123.931 Y137.508 E18.57565
G1 X124.25 Y137.913 E18.60137
G1 X124.545 Y138.347 E18.62755
G1 X124.973 Y139.085 E18.67011
G1 X125.297 Y139.868 E18.71239
G1 X125.41 Y140.304 E18.73486
G1 X125.476 Y140.801 E18.75987
G1 X125.429 Y141.407 E18.7902
G1 X125.249 Y141.808 E18.81213
G1 X124.973 Y142.062 E18.83084
G1 X124.556 Y142.206 E18.85285
G1 X123.976 Y142.198 E18.88179
G1 X123.689 Y142.112 E18.89674
G1 X123.235 Y141.819 E18.92369
G1 X122.964 Y141.52 E18.94383
G1 X122.573 Y140.853 E18.9824
G1 X122.314 Y140.174 E19.01866
G1 X122.189 Y139.75 E19.04071
G1 X122.042 Y139.047 E19.07654
G1 X121.777 Y137.622 E19.14885
G1 X119.58 Y138.024 E19.26028
G1 X119.111 Y138.515 E19.29416
G1 X119.08 Y138.548 E19.29642
G1 X119.043 Y138.572 E19.29862
G1 X118.807 Y138.729 E19.31276
G1 X118.351 Y138.864 E19.33648
G1 X118.08 Y138.859 E19.35001
G1 X117.328 Y138.731 E19.38806
G1 X117.093 Y138.69 E19.39997
G1 X116.381 Y139.596 E19.45745
G1 X116.249 Y139.696 E19.46572
G1 X116.043 Y139.749 E19.47633
G1 X114.47 Y139.488 E19.55588
G1 X113.795 Y141.026 E19.63967
G1 X113.572 Y141.41 E19.66183
G1 X113.328 Y141.723 E19.68163
G1 X113.064 Y141.969 E19.69963
G1 X112.775 Y142.166 E19.71708
G1 X112.457 Y142.315 E19.7346
G1 X112.147 Y142.399 E19.75062
G1 X111.782 Y142.43 E19.7689
G1 X111.389 Y142.401 E19.78856
G1 X111.015 Y142.305 E19.80782
G1 X110.638 Y142.134 E19.82848
G1 X110.266 Y141.882 E19.85089
G1 X109.702 Y141.34 E19.88992
G1 X109.307 Y140.831 E19.92206
G1 X109.099 Y140.512 E19.94106
G1 X108.779 Y139.897 E19.97565
G1 X108.607 Y139.488 E19.99778
G1 X108.378 Y138.788 E20.03453
G1 X108.251 Y138.261 E20.06157
G1 X108.119 Y137.292 E20.11036
G1 X108.097 Y136.786 E20.13563
G1 X108.143 Y135.941 E20.17785
G1 X108.235 Y135.394 E20.20552
G1 X108.363 Y134.914 E20.23031
G1 X108.552 Y134.426 E20.25642
G1 X108.76 Y134.03 E20.27873
G1 X108.977 Y133.724 E20.29745
G1 X109.738 Y132.862 E20.35482
G1 X108.765 Y131.126 E20.4541
G1 X106.945 Y131.451 E20.54634
G1 X106.509 Y131.451 E20.56809
G1 X105.593 Y131.417 E20.61382
G1 X105.213 Y131.417 E20.63278
G1 X104.482 Y131.129 E20.67198
G1 X104.02 Y130.965 E20.69643
G1 X103.389 Y130.642 E20.7318
G1 X103.124 Y130.384 E20.75025
G1 X102.715 Y130.008 E20.77797
G1 X101.327 Y128.898 E20.86664
G1 X100.133 Y130.166 E20.95353
G1 X99.879 Y130.388 E20.97036
G1 X99.486 Y130.629 E20.99336
G1 X98.921 Y130.84 E21.02345
G1 X98.627 Y130.927 E21.03875
G1 X98.576 Y130.929 E21.04129
G1 X97.925 Y130.962 E21.07381
G1 X97.878 Y130.965 E21.07616
G1 X97.362 Y130.88 E21.10225
G1 X96.738 Y131.007 E21.13402
G1 X96.375 Y131.007 E21.15213
G1 X94.276 Y131.07 E21.2569
G1 X93.728 Y130.917 E21.28528
G1 X93.655 Y130.864 E21.28979
G1 X93.654 Y130.173 E21.32426
G1 X93.563 Y129.829 E21.34201
G1 X93.535 Y129.442 E21.36137
G1 X93.512 Y128.852 E21.39083
G1 X93.49 Y128.172 E21.42477
G1 X93.485 Y127.928 E21.43695
G1 X93.556 Y127.27 E21.46996
G1 X93.524 Y126.744 E21.49626
G1 X93.522 Y126.72 E21.49746
G1 X93.559 Y126.099 E21.52849
G1 X93.457 Y125.513 E21.55817
G1 X93.518 Y124.123 E21.62758
G1 X93.519 Y123.668 E21.65028
G1 X93.606 Y123.106 E21.67866
G1 X93.611 Y123.079 E21.68003
G1 X93.622 Y122.545 E21.70667
G1 X93.658 Y122.435 E21.71245
G1 X94.434 Y121.574 E21.77027
G1 X94.572 Y121.422 E21.78052
G1 X94.415 Y121.29 E21.78707
G1 X93.077 Y120.159 E21.87447
G1 X93.388 Y119.852 E21.89628
G1 X94.198 Y119.051 E21.95311
G1 X94.203 Y119.056 E21.95346
G1 X95.525 Y118.613 E22.02302
G1 X96.187 Y117.988 E22.06844
G1 X96.567 Y117.658 E22.09355
G1 X96.823 Y117.457 E22.10979
G1 X96.849 Y117.436 E22.11146
G1 X97.242 Y117.213 E22.134
G1 X97.808 Y116.97 E22.16473
G1 X98.355 Y117.226 E22.19486
G1 X98.766 Y117.461 E22.21848
G1 X100.094 Y118.354 E22.29832
G1 X101.2 Y117.4 E22.37119
G1 X101.465 Y117.236 E22.38674
G1 X102.007 Y117.071 E22.41501
G1 X102.322 Y117.05 E22.43076
G1 X102.546 Y117.08 E22.44203
G1 X102.914 Y117.198 E22.46131
G1 X103.229 Y117.359 E22.47896
G1 X103.757 Y117.667 E22.50946
G1 X104.601 Y118.105 E22.5569
G1 X105.621 Y117.352 E22.62015
G1 X105.885 Y117.22 E22.63488
G1 X106.458 Y117.116 E22.66393
G1 X107.058 Y117.208 E22.69421
G1 X107.783 Y117.553 E22.73427
G1 X108.182 Y117.821 E22.75825
G1 X109.008 Y118.408 E22.80881
G1 X110.229 Y117.567 E22.88277
G1 X110.255 Y117.555 E22.8842
G1 X110.472 Y117.448 E22.89627
G1 X111.003 Y117.315 E22.92358
G1 X111.673 Y117.385 E22.95719
G1 X112.099 Y117.542 E22.97984
G1 X112.86 Y117.939 E23.02266
G1 X113.831 Y117.53 E23.07523
G1 X114.099 Y117.472 E23.08891
G1 X114.443 Y117.462 E23.10608
G1 X114.988 Y117.598 E23.1341
G1 X115.311 Y117.76 E23.15213
G1 X116.448 Y118.523 E23.22044
G1 X117.913 Y117.787 E23.30224
G1 X117.92 Y117.633 E23.30993
G1 X119.061 Y117.716 E23.36701
G1 X119.585 Y117.892 E23.39458
G1 X119.998 Y118.158 E23.41909
G1 X121.081 Y118.696 E23.47942
G1 X122.119 Y117.983 E23.54225
G1 X122.365 Y117.861 E23.55595
G1 X122.72 Y117.759 E23.57438
G1 X122.999 Y117.731 E23.58836
G1 X123.298 Y117.753 E23.60332
G1 X123.637 Y117.839 E23.62077
G1 X124.061 Y118.024 E23.64385
G1 X124.387 Y118.221 E23.66285
G1 X125.448 Y118.935 E23.72666
G1 X126.627 Y118.142 E23.79754
G1 X127.021 Y117.955 E23.8193
G1 X127.406 Y117.855 E23.83915
G1 X127.713 Y117.837 E23.85449
G1 X127.769 Y117.833 E23.85729
G1 X128.39 Y117.961 E23.88892
G1 X128.729 Y118.11 E23.9074
G1 X129.839 Y118.797 E23.97253
G1 X131.122 Y117.981 E24.04838
G1 X131.148 Y117.969 E24.04981
G1 X131.456 Y117.82 E24.06688
G1 X131.756 Y117.731 E24.08249
G1 X132.073 Y117.697 E24.0984
G1 X132.413 Y117.713 E24.11538
G1 X132.959 Y117.902 E24.14421
G1 X133.292 Y118.113 E24.16388
G1 X134.242 Y118.826 E24.22313
G1 X135.451 Y117.919 E24.29854
G1 X135.695 Y117.784 E24.31245
G1 X135.744 Y117.772 E24.31497
G1 X136.264 Y117.636 E24.34178
G1 X136.518 Y117.629 E24.35446
G1 X137.003 Y117.704 E24.37894
G1 X137.341 Y117.814 E24.39668
G1 X137.979 Y118.108 E24.43173
G1 X139.088 Y119.208 E24.50965
G1 X142.229 Y118.59 E24.66936
G1 X142.429 Y118.551 E24.67953
G1 X142.463 Y118.752 E24.68606
G1 X142.499 Y118.963 E24.69673
G1 X142.446 Y119.468 E24.72207
G1 X142.309 Y119.774 E24.73879
G1 X142.12 Y120.04 E24.75507
G1 X141.026 Y121.045 E24.82919
G1 X141.526 Y122.443 E24.90326
G1 X140.761 Y123.791 E24.98059
G1 X140.263 Y124.436 E25.02124
G1 X139.514 Y125.781 E25.09805
G1 X140.589 Y126.835 E25.17316
G1 X140.788 Y127.271 E25.19707
G1 X140.865 Y127.606 E25.21422
