;FLAVOR:Marlin
;TIME:2924
;Filament used: 2.27148m, 0m
;Layer height: 0.18
;MINX:71.83
;MINY:49.973
;MINZ:0.3
;MAXX:163.185
;MAXY:183.459
;MAXZ:1.92
;POSTPROCESSED
;Generated with Cura_SteamEngine 4.8.0
T0
M140 S60
M105
M190 S60
M104 S200
M105
M109 S200
M82 ;absolute extrusion mode
M201 X500.00 Y500.00 Z100.00 E5000.00 	;Setup machine max acceleration
M203 X500.00 Y500.00 Z10.00 E50.00 	;Setup machine max feedrate
M204 P500.00 R1000.00 T500.00 		;Setup Print/Retract/Travel acceleration
M205 X8.00 Y8.00 Z0.40 E5.00 		;Setup Jerk
M220 S100 				;Reset Feedrate
M221 S100 				;Reset Flowrate
G28				;Home the Machine
#G29 				;Bed Level
G92 E0
M300 P150 S587
G92 E0
G1 F1500 E-6.5
;LAYER_COUNT:10
;LAYER:0
M107
G0 F2160 X78.225 Y93.527 Z0.3
;TYPE:SKIRT
G1 F1500 E0
G1 F900 X78.696 Y93.142 E0.03035
G1 X79.753 Y92.416 E0.09432
G1 X82.043 Y90.795 E0.2343
G1 X84.189 Y89.185 E0.36815
G1 X86.341 Y87.472 E0.50537
G1 X88.424 Y85.716 E0.64129
G1 X90.454 Y83.903 E0.77708
G1 X92.438 Y82.029 E0.91324
G1 X94.363 Y80.103 E1.04909
G1 X96.233 Y78.125 E1.18489
G1 X98.05 Y76.089 E1.32104
G1 X99.822 Y73.987 E1.4582
G1 X101.502 Y71.878 E1.59272
G1 X103.14 Y69.695 E1.72888
G1 X104.719 Y67.464 E1.86524
G1 X106.234 Y65.189 E2.00161
G1 X107.671 Y62.89 E2.13687
G1 X109.056 Y60.531 E2.27334
G1 X110.367 Y58.147 E2.40908
G1 X111.616 Y55.712 E2.54561
G1 X112.786 Y53.267 E2.68084
G1 X113.121 Y52.521 E2.72164
G1 X113.35 Y52.034 E2.74849
G1 X113.614 Y51.567 E2.77525
G1 X113.944 Y51.145 E2.80198
G1 X114.333 Y50.776 E2.82873
G1 X114.773 Y50.469 E2.85549
G1 X115.254 Y50.231 E2.88227
G1 X115.764 Y50.066 E2.90901
G1 X116.293 Y49.98 E2.93575
G1 X116.83 Y49.973 E2.96254
G1 X117.361 Y50.046 E2.98928
G1 X117.876 Y50.197 E3.01606
G1 X118.362 Y50.422 E3.04278
G1 X118.81 Y50.718 E3.06956
G1 X119.208 Y51.076 E3.09627
G1 X119.549 Y51.49 E3.12303
G1 X119.906 Y52.123 E3.15929
G1 X120.024 Y52.392 E3.17394
G1 X120.901 Y54.473 E3.28661
G1 X122.02 Y56.931 E3.42135
G1 X123.21 Y59.36 E3.55629
G1 X124.491 Y61.799 E3.69374
G1 X125.829 Y64.18 E3.83
G1 X127.222 Y66.502 E3.96509
G1 X128.694 Y68.807 E4.10153
G1 X130.229 Y71.065 E4.23775
G1 X131.823 Y73.273 E4.37361
G1 X133.467 Y75.421 E4.50856
G1 X135.203 Y77.562 E4.64608
G1 X136.984 Y79.633 E4.78235
G1 X138.805 Y81.635 E4.91737
G1 X140.694 Y83.597 E5.05325
G1 X142.65 Y85.515 E5.18992
G1 X144.656 Y87.375 E5.3264
G1 X146.705 Y89.17 E5.46231
G1 X148.792 Y90.896 E5.59742
G1 X150.932 Y92.567 E5.73288
G1 X154.158 Y94.912 E5.93185
G1 X155.254 Y95.676 E5.99851
G1 X155.652 Y95.997 E6.02402
G1 X155.78 Y96.116 E6.03274
G1 X157.521 Y97.669 E6.14913
G1 X158.446 Y98.505 E6.21133
G1 X158.532 Y98.585 E6.21719
G1 X159.318 Y99.345 E6.27174
G1 X161.66 Y101.684 E6.43688
G1 X162.153 Y102.19 E6.47212
G1 X162.498 Y102.601 E6.49889
G1 X162.778 Y103.058 E6.52563
G1 X162.986 Y103.552 E6.55237
G1 X163.119 Y104.072 E6.57915
G1 X163.173 Y104.57 E6.60414
G1 X163.185 Y105.203 E6.63573
G1 X163.185 Y115.967 E7.17275
G1 X163.175 Y116.669 E7.20777
G1 X163.127 Y117.203 E7.23452
G1 X163.001 Y117.725 E7.26131
G1 X162.798 Y118.221 E7.28805
G1 X162.325 Y118.991 E7.33314
G1 X160.863 Y121.293 E7.46919
G1 X159.459 Y123.647 E7.60593
G1 X158.142 Y126.005 E7.74068
G1 X156.877 Y128.43 E7.87713
G1 X155.674 Y130.9 E8.0142
G1 X154.565 Y133.358 E8.14873
G1 X153.509 Y135.881 E8.28519
G1 X152.509 Y138.472 E8.42375
G1 X151.617 Y140.999 E8.55744
G1 X150.789 Y143.576 E8.69248
G1 X150.019 Y146.223 E8.83002
G1 X149.333 Y148.855 E8.96571
G1 X148.72 Y151.516 E9.10195
G1 X148.182 Y154.189 E9.23798
G1 X147.722 Y156.88 E9.37418
G1 X147.339 Y159.567 E9.50959
G1 X147.031 Y162.277 E9.64567
G1 X146.797 Y165.006 E9.78232
G1 X146.645 Y167.692 E9.91653
G1 X146.566 Y170.458 E10.05459
G1 X146.566 Y173.154 E10.18909
G1 X146.643 Y175.922 E10.32724
G1 X146.796 Y178.628 E10.46246
G1 X146.861 Y179.592 E10.51066
G1 X146.857 Y180.128 E10.5374
G1 X146.773 Y180.658 E10.56418
G1 X146.612 Y181.169 E10.59091
G1 X146.377 Y181.651 E10.61766
G1 X146.072 Y182.093 E10.64445
G1 X145.706 Y182.484 E10.67117
G1 X145.285 Y182.817 E10.69795
G1 X144.82 Y183.083 E10.72468
G1 X144.32 Y183.277 E10.75143
G1 X143.797 Y183.395 E10.77818
G1 X143.34 Y183.433 E10.80106
G1 X142.303 Y183.453 E10.85281
G1 X138.749 Y183.453 E11.03012
G1 X136.899 Y183.427 E11.12242
G1 X136.603 Y183.435 E11.1372
G1 X134.95 Y183.4 E11.21968
G1 X131.25 Y183.399 E11.40428
G1 X130.582 Y183.394 E11.4376
G1 X129.66 Y183.394 E11.4836
G1 X128.587 Y183.4 E11.53714
G1 X127.488 Y183.412 E11.59197
G1 X124.537 Y183.412 E11.73919
G1 X122.966 Y183.444 E11.81759
G1 X122.797 Y183.435 E11.82603
G1 X120.936 Y183.459 E11.91888
G1 X115.366 Y183.459 E12.19677
G1 X113.175 Y183.427 E12.30609
G1 X111.811 Y183.417 E12.37415
G1 X108.143 Y183.418 E12.55714
G1 X106.568 Y183.423 E12.63572
G1 X99.913 Y183.422 E12.96774
G1 X98.499 Y183.412 E13.03829
G1 X94.191 Y183.412 E13.25321
G1 X92.353 Y183.386 E13.34492
G1 X90.965 Y183.376 E13.41417
G1 X86.789 Y183.376 E13.62251
G1 X86.091 Y183.366 E13.65734
G1 X85.557 Y183.318 E13.68409
G1 X85.036 Y183.192 E13.71083
G1 X84.539 Y182.989 E13.73761
G1 X84.078 Y182.715 E13.76437
G1 X83.663 Y182.376 E13.7911
G1 X83.303 Y181.978 E13.81788
G1 X83.006 Y181.532 E13.84461
G1 X82.778 Y181.046 E13.87139
G1 X82.626 Y180.532 E13.89813
G1 X82.544 Y179.864 E13.93171
G1 X82.534 Y179.434 E13.95317
G1 X82.534 Y178.548 E13.99737
G1 X82.544 Y177.866 E14.0314
G1 X82.579 Y177.213 E14.06403
G1 X82.746 Y174.857 E14.18186
G1 X82.792 Y174.316 E14.20895
G1 X82.949 Y171.585 E14.34543
G1 X83.027 Y168.889 E14.47999
G1 X83.033 Y166.466 E14.60087
G1 X83.024 Y165.566 E14.64577
G1 X83.03 Y164.283 E14.70978
G1 X82.964 Y161.553 E14.84602
G1 X82.821 Y158.827 E14.98221
G1 X82.604 Y156.141 E15.11665
G1 X82.302 Y153.385 E15.25497
G1 X81.934 Y150.719 E15.38924
G1 X81.484 Y148.029 E15.52531
G1 X80.956 Y145.337 E15.66217
G1 X80.355 Y142.676 E15.79828
G1 X79.677 Y140.024 E15.93484
G1 X78.937 Y137.437 E16.06908
G1 X78.106 Y134.817 E16.20621
G1 X77.204 Y132.225 E16.34313
G1 X76.257 Y129.739 E16.47585
G1 X75.197 Y127.17 E16.6145
G1 X74.09 Y124.691 E16.74995
G1 X72.904 Y122.227 E16.88638
G1 X72.572 Y121.574 E16.92293
G1 X72.38 Y121.182 E16.94471
G1 X72.181 Y120.684 E16.97146
G1 X72.057 Y120.162 E16.99823
G1 X72.005 Y119.38 E17.03733
G1 X72.003 Y119.27 E17.04282
G1 X72.003 Y117.165 E17.14784
G1 X71.963 Y114.358 E17.28789
G1 X71.88 Y112.235 E17.39389
G1 X71.83 Y111.25 E17.4431
G1 X71.841 Y110.731 E17.46899
G1 X71.935 Y110.176 E17.49708
G1 X72.613 Y107.489 E17.63533
G1 X73.208 Y104.823 E17.77161
G1 X73.727 Y102.114 E17.90922
G1 X73.966 Y100.69 E17.98126
G1 X74.017 Y100.429 E17.99453
G1 X74.164 Y99.914 E18.02125
G1 X74.327 Y99.538 E18.04169
G1 X74.98 Y98.241 E18.11414
G1 X75.278 Y97.667 E18.14641
G1 X75.918 Y96.387 E18.2178
G1 X76.242 Y95.762 E18.25293
G1 X76.524 Y95.306 E18.27967
G1 X76.842 Y94.925 E18.30443
G1 X77.582 Y94.155 E18.35771
G1 X77.741 Y93.997 E18.3689
G1 X78.225 Y93.527 E18.40256
G0 F2160 X78.504 Y93.814
G1 F900 X78.922 Y93.472 E18.4295
G1 X80.022 Y92.717 E18.49606
G1 X82.252 Y91.139 E18.63235
G1 X84.432 Y89.502 E18.76837
G1 X86.602 Y87.775 E18.90673
G1 X88.682 Y86.021 E19.04247
G1 X90.732 Y84.191 E19.17957
G1 X92.713 Y82.32 E19.31551
G1 X94.654 Y80.378 E19.4525
G1 X96.506 Y78.419 E19.58699
G1 X98.371 Y76.329 E19.72674
G1 X100.125 Y74.249 E19.86248
G1 X101.819 Y72.122 E19.99814
G1 X103.454 Y69.944 E20.13401
G1 X105.062 Y67.67 E20.27296
G1 X106.563 Y65.417 E20.40803
G1 X108.013 Y63.099 E20.54443
G1 X109.418 Y60.705 E20.68292
G1 X110.716 Y58.343 E20.81738
G1 X111.972 Y55.895 E20.95465
G1 X113.174 Y53.382 E21.09363
G1 X113.483 Y52.691 E21.13139
G1 X113.712 Y52.204 E21.15824
G1 X113.963 Y51.765 E21.18347
G1 X114.279 Y51.371 E21.20867
G1 X114.654 Y51.032 E21.23389
G1 X115.078 Y50.756 E21.25913
G1 X115.539 Y50.55 E21.28432
G1 X116.028 Y50.419 E21.30958
G1 X116.531 Y50.367 E21.33481
G1 X117.035 Y50.395 E21.35999
G1 X117.53 Y50.502 E21.38526
G1 X118.001 Y50.685 E21.41046
G1 X118.437 Y50.94 E21.43566
G1 X118.828 Y51.261 E21.4609
G1 X119.163 Y51.64 E21.48614
G1 X119.54 Y52.283 E21.52333
G1 X119.655 Y52.547 E21.53769
G1 X120.532 Y54.629 E21.6504
G1 X121.648 Y57.08 E21.78476
G1 X122.862 Y59.557 E21.92238
G1 X124.146 Y62.002 E22.06016
G1 X125.48 Y64.376 E22.19602
G1 X126.875 Y66.702 E22.33134
G1 X128.37 Y69.042 E22.46987
G1 X129.89 Y71.279 E22.6048
G1 X131.509 Y73.522 E22.74281
G1 X133.163 Y75.682 E22.87854
G1 X134.887 Y77.809 E23.01514
G1 X136.686 Y79.9 E23.15275
G1 X138.504 Y81.899 E23.28756
G1 X140.409 Y83.877 E23.42457
G1 X142.399 Y85.829 E23.56364
G1 X144.384 Y87.669 E23.69867
G1 X146.432 Y89.463 E23.8345
G1 X148.536 Y91.203 E23.97072
G1 X150.699 Y92.893 E24.10766
G1 X153.907 Y95.224 E24.3055
G1 X155.026 Y96.004 E24.37355
G1 X155.525 Y96.425 E24.40612
G1 X157.253 Y97.966 E24.52163
G1 X158.178 Y98.802 E24.58384
G1 X158.254 Y98.873 E24.58903
G1 X159.036 Y99.628 E24.64326
G1 X161.374 Y101.963 E24.80811
G1 X161.867 Y102.469 E24.84336
G1 X162.19 Y102.858 E24.86858
G1 X162.448 Y103.293 E24.89381
G1 X162.634 Y103.763 E24.91903
G1 X162.744 Y104.256 E24.94423
G1 X162.781 Y104.831 E24.97298
G1 X162.785 Y105.207 E24.99174
G1 X162.785 Y115.962 E25.52831
G1 X162.775 Y116.664 E25.56333
G1 X162.728 Y117.167 E25.58854
G1 X162.602 Y117.657 E25.61378
G1 X162.4 Y118.12 E25.63898
G1 X161.99 Y118.772 E25.67741
G1 X160.515 Y121.095 E25.81469
G1 X159.125 Y123.426 E25.95009
G1 X157.781 Y125.832 E26.08758
G1 X156.52 Y128.249 E26.22359
G1 X155.321 Y130.711 E26.36021
G1 X154.196 Y133.205 E26.49671
G1 X153.125 Y135.761 E26.63498
G1 X152.145 Y138.302 E26.77085
G1 X151.235 Y140.881 E26.90729
G1 X150.407 Y143.457 E27.04228
G1 X149.633 Y146.116 E27.18045
G1 X148.942 Y148.769 E27.31722
G1 X148.332 Y151.418 E27.45284
G1 X147.782 Y154.147 E27.59173
G1 X147.331 Y156.792 E27.72559
G1 X146.94 Y159.532 E27.86368
G1 X146.633 Y162.234 E27.99935
G1 X146.4 Y164.95 E28.13535
G1 X146.245 Y167.692 E28.27236
G1 X146.166 Y170.447 E28.40987
G1 X146.166 Y173.166 E28.54552
G1 X146.243 Y175.919 E28.68292
G1 X146.397 Y178.655 E28.81964
G1 X146.462 Y179.619 E28.86784
G1 X146.456 Y180.124 E28.89303
G1 X146.37 Y180.623 E28.9183
G1 X146.207 Y181.101 E28.94349
G1 X145.971 Y181.548 E28.96871
G1 X145.667 Y181.952 E28.99394
G1 X145.304 Y182.304 E29.01916
G1 X144.89 Y182.593 E29.04435
G1 X144.435 Y182.814 E29.06959
G1 X143.951 Y182.961 E29.09482
G1 X143.332 Y183.033 E29.12591
G1 X142.303 Y183.053 E29.17726
G1 X138.755 Y183.053 E29.35427
G1 X136.77 Y183.025 E29.45331
G1 X136.611 Y183.035 E29.46126
G1 X134.958 Y183 E29.54375
G1 X131.253 Y182.999 E29.72859
G1 X130.585 Y182.994 E29.76192
G1 X129.658 Y182.994 E29.80817
G1 X128.583 Y183 E29.8618
G1 X127.484 Y183.012 E29.91663
G1 X124.529 Y183.012 E30.06406
G1 X122.958 Y183.044 E30.14245
G1 X122.798 Y183.035 E30.15045
G1 X120.931 Y183.059 E30.2436
G1 X115.372 Y183.059 E30.52094
G1 X113.19 Y183.027 E30.62981
G1 X111.814 Y183.017 E30.69846
G1 X108.141 Y183.018 E30.88171
G1 X106.569 Y183.023 E30.96014
G1 X99.915 Y183.022 E31.29211
G1 X98.501 Y183.012 E31.36265
G1 X94.197 Y183.012 E31.57738
G1 X92.359 Y182.986 E31.66909
G1 X90.967 Y182.976 E31.73854
G1 X86.795 Y182.976 E31.94668
G1 X86.097 Y182.966 E31.98151
G1 X85.594 Y182.919 E32.00671
G1 X85.104 Y182.793 E32.03195
G1 X84.64 Y182.591 E32.0572
G1 X84.214 Y182.319 E32.08241
G1 X83.836 Y181.984 E32.10761
G1 X83.516 Y181.593 E32.13282
G1 X83.261 Y181.156 E32.15806
G1 X83.078 Y180.685 E32.18327
G1 X82.971 Y180.191 E32.20849
G1 X82.935 Y179.521 E32.24196
G1 X82.934 Y178.554 E32.29021
G1 X82.944 Y177.872 E32.32424
G1 X82.978 Y177.237 E32.35596
G1 X83.145 Y174.891 E32.4733
G1 X83.189 Y174.373 E32.49924
G1 X83.347 Y171.62 E32.63681
G1 X83.427 Y168.863 E32.77442
G1 X83.433 Y166.467 E32.89395
G1 X83.424 Y165.568 E32.93881
G1 X83.43 Y164.275 E33.00332
G1 X83.364 Y161.558 E33.13891
G1 X83.22 Y158.81 E33.27619
G1 X82.999 Y156.067 E33.41349
G1 X82.702 Y153.359 E33.5494
G1 X82.325 Y150.63 E33.68684
G1 X81.877 Y147.95 E33.8224
G1 X81.347 Y145.25 E33.95968
G1 X80.747 Y142.594 E34.09552
G1 X80.072 Y139.953 E34.23152
G1 X79.307 Y137.279 E34.37028
G1 X78.49 Y134.701 E34.5052
G1 X77.595 Y132.129 E34.64106
G1 X76.617 Y129.561 E34.77816
G1 X75.569 Y127.021 E34.91524
G1 X74.451 Y124.519 E35.05196
G1 X73.255 Y122.033 E35.1896
G1 X72.931 Y121.398 E35.22516
G1 X72.739 Y121.006 E35.24694
G1 X72.553 Y120.535 E35.2722
G1 X72.444 Y120.042 E35.29739
G1 X72.404 Y119.368 E35.33108
G1 X72.403 Y117.159 E35.44129
G1 X72.364 Y114.376 E35.58014
G1 X72.279 Y112.219 E35.68784
G1 X72.229 Y111.23 E35.73725
G1 X72.239 Y110.767 E35.76035
G1 X72.323 Y110.274 E35.7853
G1 X73.006 Y107.568 E35.92454
G1 X73.597 Y104.919 E36.05995
G1 X74.114 Y102.22 E36.19705
G1 X74.36 Y100.757 E36.27106
G1 X74.409 Y100.51 E36.28362
G1 X74.55 Y100.024 E36.30887
G1 X74.684 Y99.718 E36.32554
G1 X75.335 Y98.426 E36.39772
G1 X75.633 Y97.852 E36.42998
G1 X76.273 Y96.571 E36.50142
G1 X76.597 Y95.946 E36.53655
G1 X76.864 Y95.517 E36.56175
G1 X77.131 Y95.202 E36.58236
G1 X77.865 Y94.438 E36.63521
G1 X78.02 Y94.284 E36.64611
G1 X78.504 Y93.814 E36.67977
G1 F1500 E30.17977
;MESH:SpiderMan_Francisco.stl
G0 F2160 X84.538 Y95.446
G0 X86.165 Y97.031
G0 X87.238 Y97.136
G0 X90.57 Y101.592
G0 X140.7 Y109.048
;TYPE:WALL-INNER
G1 F1500 E36.67977
G1 F900 X140.892 Y109.321 E36.69642
G1 X141.041 Y109.023 E36.70591
G1 X144.316 Y102.484 E37.07077
G1 X146.674 Y100.902 E37.21243
G1 X147.338 Y99.751 E37.27873
G1 X148.396 Y98.487 E37.36096
G1 X148.975 Y98.184 E37.39357
G1 X149.361 Y98.608 E37.42217
G1 X148.665 Y100.138 E37.50603
G1 X148.538 Y100.419 E37.52142
G1 X148.846 Y100.419 E37.53033
G1 X148.847 Y100.419 E37.53038
G1 X152.445 Y100.419 E37.70989
G1 X153.86 Y101.864 E37.81079
G1 X154.227 Y102.038 E37.83105
G1 X154.532 Y102.363 E37.85329
G1 X155.011 Y102.677 E37.88186
G1 X157.785 Y105.445 E38.07737
G1 X157.785 Y116.011 E38.60451
G1 X157.106 Y116.895 E38.66012
G1 X156.425 Y117.935 E38.72214
G1 X149.458 Y117.935 E39.06973
G1 X149.464 Y117.97 E39.0715
G1 X145.24 Y117.97 E39.28224
G1 X144.474 Y116.465 E39.36649
G1 X141.563 Y113.523 E39.57297
G1 X139.16 Y114.873 E39.71048
G1 X139.899 Y117.746 E39.85848
G1 X139.962 Y117.994 E39.87125
G1 X139.707 Y117.994 E39.87894
G1 X139.705 Y117.994 E39.87904
G1 X135.752 Y117.994 E40.07626
G1 X136.373 Y120.829 E40.22105
G1 X136.498 Y121.461 E40.25319
G1 X136.601 Y122.076 E40.2843
G1 X136.695 Y122.711 E40.31633
G1 X136.774 Y123.347 E40.3483
G1 X136.836 Y123.974 E40.37973
G1 X136.885 Y124.644 E40.41325
G1 X136.915 Y125.239 E40.44297
G1 X136.932 Y125.869 E40.47441
G1 X136.933 Y126.496 E40.50569
G1 X136.918 Y127.118 E40.53674
G1 X136.886 Y127.784 E40.57
G1 X136.846 Y128.356 E40.59861
G1 X136.785 Y128.972 E40.62949
G1 X136.709 Y129.576 E40.65986
G1 X136.613 Y130.22 E40.69235
G1 X136.417 Y131.274 E40.74583
G1 X136.165 Y132.334 E40.80019
G1 X135.853 Y133.422 E40.85666
G1 X135.496 Y134.474 E40.91208
G1 X135.125 Y135.417 E40.96264
G1 X134.662 Y136.444 E41.01884
G1 X134.199 Y137.353 E41.06974
G1 X133.659 Y138.295 E41.12391
G1 X133.147 Y139.102 E41.17159
G1 X132.658 Y139.806 E41.21435
G1 X132.128 Y140.509 E41.25828
G1 X131.552 Y141.211 E41.30358
G1 X130.929 Y141.912 E41.35037
G1 X130.331 Y142.533 E41.39338
G1 X129.638 Y143.196 E41.44123
G1 X127.766 Y144.854 E41.56599
G1 X129.215 Y146.982 E41.69443
G1 X129.684 Y147.739 E41.73886
G1 X130.089 Y148.463 E41.78024
G1 X130.516 Y149.315 E41.82779
G1 X130.857 Y150.088 E41.86994
G1 X131.132 Y150.799 E41.90797
G1 X131.406 Y151.628 E41.95153
G1 X131.613 Y152.38 E41.99045
G1 X131.801 Y153.228 E42.03378
G1 X131.918 Y153.94 E42.06978
G1 X132.015 Y154.814 E42.11365
G1 X132.058 Y155.529 E42.14939
G1 X132.06 Y156.395 E42.19259
G1 X132.024 Y157.103 E42.22796
