;FLAVOR:Marlin
;TIME:4863
;Filament used: 3.25281m, 0m
;Layer height: 0.15
;MINX:78.91
;MINY:72.665
;MINZ:0.3
;MAXX:156.09
;MAXY:179.604
;MAXZ:3.9
;POSTPROCESSED
;Generated with Cura_SteamEngine 4.7.1
T0
M140 S60
M105
M190 S60
M104 S190
M105
M109 S190
M82 ;absolute extrusion mode
M201 X500.00 Y500.00 Z100.00 E5000.00 	;Setup machine max acceleration
M203 X500.00 Y500.00 Z10.00 E50.00 	;Setup machine max feedrate
M204 P500.00 R1000.00 T500.00 		;Setup Print/Retract/Travel acceleration
M205 X8.00 Y8.00 Z0.40 E5.00 		;Setup Jerk
M220 S100 				;Reset Feedrate
M221 S100 				;Reset Flowrate
G28				;Home the Machine
G29 				;Bed Level
G92 E0
M300 P150 S587
G92 E0
G1 F1500 E-6.5
;LAYER_COUNT:25
;LAYER:0
M107
G0 F1800 X89.483 Y84.713 Z0.3
;TYPE:SKIRT
G1 F1500 E0
G1 X90.315 Y83.861 E0.05941
G1 X90.403 Y83.774 E0.06559
G1 X91.273 Y82.942 E0.12564
G1 X91.366 Y82.856 E0.13196
G1 X92.282 Y82.04 E0.19317
G1 X92.377 Y81.959 E0.19939
G1 X93.298 Y81.194 E0.25913
G1 X93.392 Y81.118 E0.26516
G1 X94.362 Y80.366 E0.32639
G1 X94.465 Y80.289 E0.33281
G1 X95.454 Y79.577 E0.3936
G1 X95.555 Y79.507 E0.39973
G1 X96.543 Y78.846 E0.45904
G1 X96.649 Y78.778 E0.46532
G1 X97.701 Y78.126 E0.52707
G1 X97.81 Y78.061 E0.5334
G1 X98.828 Y77.479 E0.5919
G1 X98.933 Y77.421 E0.59789
G1 X100.055 Y76.828 E0.6612
G1 X100.171 Y76.77 E0.66767
G1 X101.218 Y76.264 E0.72569
G1 X101.327 Y76.213 E0.73169
G1 X102.466 Y75.709 E0.79383
G1 X102.586 Y75.658 E0.80034
G1 X103.721 Y75.204 E0.86132
G1 X103.833 Y75.162 E0.86729
G1 X104.933 Y74.764 E0.92565
G1 X105.052 Y74.723 E0.93193
G1 X106.235 Y74.341 E0.99395
G1 X106.356 Y74.304 E1.00027
G1 X107.523 Y73.972 E1.0608
G1 X107.646 Y73.94 E1.06714
G1 X108.83 Y73.648 E1.12798
G1 X108.945 Y73.621 E1.13387
G1 X110.119 Y73.372 E1.19375
G1 X110.247 Y73.348 E1.20024
G1 X111.439 Y73.14 E1.26061
G1 X111.557 Y73.121 E1.26657
G1 X112.767 Y72.951 E1.32753
G1 X112.895 Y72.935 E1.33397
G1 X114.103 Y72.809 E1.39456
G1 X114.229 Y72.798 E1.40087
G1 X115.421 Y72.716 E1.46048
G1 X115.542 Y72.71 E1.46653
G1 X116.772 Y72.667 E1.52793
G1 X116.898 Y72.665 E1.53422
G1 X118.102 Y72.665 E1.59429
G1 X118.228 Y72.667 E1.60057
G1 X119.458 Y72.71 E1.66197
G1 X119.579 Y72.716 E1.66802
G1 X120.771 Y72.798 E1.72763
G1 X120.897 Y72.809 E1.73394
G1 X122.105 Y72.935 E1.79453
G1 X122.232 Y72.951 E1.80092
G1 X123.443 Y73.121 E1.86193
G1 X123.562 Y73.14 E1.86794
G1 X124.753 Y73.348 E1.92826
G1 X124.878 Y73.372 E1.93461
G1 X126.052 Y73.62 E1.99447
G1 X126.173 Y73.647 E2.00066
G1 X127.357 Y73.94 E2.06151
G1 X127.48 Y73.973 E2.06786
G1 X128.647 Y74.306 E2.12841
G1 X128.763 Y74.341 E2.13445
G1 X129.946 Y74.722 E2.19646
G1 X130.067 Y74.764 E2.20285
G1 X131.167 Y75.162 E2.26121
G1 X131.279 Y75.204 E2.26718
G1 X132.414 Y75.658 E2.32817
G1 X132.535 Y75.709 E2.33472
G1 X133.673 Y76.213 E2.39681
G1 X133.78 Y76.263 E2.4027
G1 X134.828 Y76.769 E2.46076
G1 X134.944 Y76.828 E2.46726
G1 X136.065 Y77.42 E2.5305
G1 X136.172 Y77.478 E2.53657
G1 X137.191 Y78.061 E2.59515
G1 X137.299 Y78.126 E2.60143
G1 X138.351 Y78.778 E2.66318
G1 X138.457 Y78.846 E2.66946
G1 X139.445 Y79.507 E2.72877
G1 X139.546 Y79.577 E2.7349
G1 X140.535 Y80.289 E2.7957
G1 X140.638 Y80.366 E2.80211
G1 X141.608 Y81.118 E2.86335
G1 X141.702 Y81.194 E2.86938
G1 X142.623 Y81.959 E2.92911
G1 X142.718 Y82.04 E2.93534
G1 X143.634 Y82.856 E2.99654
G1 X143.727 Y82.942 E3.00286
G1 X144.597 Y83.774 E3.06292
G1 X144.685 Y83.861 E3.06909
G1 X145.517 Y84.713 E3.1285
G1 X145.603 Y84.804 E3.13475
G1 X146.449 Y85.733 E3.19744
G1 X146.532 Y85.828 E3.20373
G1 X147.327 Y86.765 E3.26504
G1 X147.404 Y86.859 E3.2711
G1 X148.097 Y87.734 E3.32679
G1 X148.174 Y87.834 E3.33308
G1 X148.957 Y88.897 E3.39895
G1 X149.029 Y88.999 E3.40518
G1 X149.677 Y89.946 E3.46243
G1 X149.747 Y90.052 E3.46876
G1 X150.409 Y91.097 E3.53048
G1 X150.474 Y91.203 E3.53668
G1 X151.093 Y92.259 E3.59775
G1 X151.152 Y92.364 E3.60376
G1 X151.719 Y93.41 E3.66312
G1 X151.777 Y93.522 E3.66941
G1 X152.324 Y94.621 E3.73066
G1 X152.379 Y94.737 E3.73706
G1 X152.873 Y95.825 E3.79668
G1 X152.923 Y95.94 E3.80293
G1 X153.388 Y97.067 E3.86376
G1 X153.432 Y97.179 E3.86976
G1 X153.862 Y98.329 E3.93101
G1 X153.905 Y98.451 E3.93747
G1 X154.282 Y99.581 E3.9969
G1 X154.319 Y99.697 E4.00297
G1 X154.676 Y100.902 E4.06567
G1 X154.709 Y101.023 E4.07193
G1 X155.007 Y102.175 E4.1313
G1 X155.036 Y102.293 E4.13736
G1 X155.296 Y103.459 E4.19696
G1 X155.321 Y103.585 E4.20337
G1 X155.544 Y104.785 E4.26426
G1 X155.565 Y104.909 E4.27053
G1 X155.747 Y106.122 E4.33173
G1 X155.764 Y106.246 E4.33797
G1 X155.899 Y107.423 E4.39708
G1 X155.91 Y107.544 E4.40314
G1 X156.011 Y108.798 E4.46591
G1 X156.019 Y108.923 E4.47215
G1 X156.073 Y110.109 E4.53139
G1 X156.077 Y110.234 E4.53763
G1 X156.09 Y111.445 E4.59805
G1 X156.089 Y111.571 E4.60433
G1 X156.06 Y112.77 E4.66417
G1 X156.055 Y112.893 E4.67031
G1 X155.982 Y114.143 E4.73278
G1 X155.972 Y114.272 E4.73923
G1 X155.864 Y115.415 E4.79651
G1 X155.851 Y115.534 E4.80248
G1 X155.686 Y116.819 E4.86712
G1 X155.667 Y116.946 E4.87353
G1 X155.48 Y118.082 E4.93096
G1 X155.459 Y118.2 E4.93694
G1 X155.213 Y119.435 E4.99977
G1 X155.185 Y119.561 E5.00621
G1 X154.918 Y120.69 E5.06409
G1 X154.887 Y120.812 E5.07037
G1 X154.555 Y122.024 E5.13306
G1 X154.52 Y122.144 E5.1393
G1 X154.162 Y123.293 E5.19934
G1 X154.125 Y123.406 E5.20527
G1 X153.729 Y124.543 E5.26534
G1 X153.684 Y124.664 E5.27178
G1 X153.252 Y125.775 E5.33125
G1 X153.205 Y125.891 E5.3375
G1 X152.709 Y127.046 E5.40021
G1 X152.658 Y127.158 E5.40635
G1 X152.161 Y128.214 E5.46457
G1 X152.106 Y128.327 E5.47084
G1 X151.525 Y129.457 E5.53424
G1 X151.465 Y129.568 E5.54053
G1 X150.887 Y130.602 E5.59963
G1 X150.824 Y130.71 E5.60587
G1 X150.196 Y131.747 E5.66635
G1 X150.131 Y131.85 E5.67243
G1 X149.482 Y132.844 E5.73165
G1 X149.412 Y132.948 E5.73791
G1 X148.682 Y133.985 E5.80118
G1 X148.419 Y134.336 E5.82306
G1 X146.808 Y136.528 E5.95878
G1 X145.26 Y138.766 E6.09454
G1 X143.752 Y141.082 E6.23242
G1 X142.359 Y143.36 E6.36563
G1 X140.985 Y145.758 E6.50352
G1 X139.699 Y148.156 E6.63927
G1 X138.475 Y150.603 E6.77577
G1 X137.336 Y153.05 E6.91043
G1 X136.25 Y155.569 E7.04729
G1 X135.245 Y158.09 E7.18269
G1 X134.305 Y160.657 E7.31907
G1 X133.435 Y163.264 E7.45619
G1 X132.658 Y165.828 E7.58985
G1 X131.921 Y168.534 E7.72977
G1 X131.297 Y171.109 E7.86196
G1 X130.728 Y173.785 E7.99845
G1 X130.467 Y175.249 E8.07264
G1 X130.442 Y175.345 E8.07759
G1 X130.2 Y176.652 E8.1439
G1 X130.063 Y177.17 E8.17063
G1 X129.85 Y177.663 E8.19743
G1 X129.567 Y178.118 E8.22416
G1 X129.22 Y178.526 E8.25088
G1 X128.815 Y178.879 E8.27768
G1 X128.363 Y179.167 E8.30442
G1 X127.873 Y179.385 E8.33118
G1 X127.356 Y179.527 E8.35793
G1 X126.761 Y179.594 E8.3878
G1 X126.339 Y179.604 E8.40886
G1 X108.407 Y179.604 E9.30349
G1 X107.708 Y179.593 E9.33837
G1 X107.174 Y179.544 E9.36512
G1 X106.653 Y179.417 E9.39187
G1 X106.157 Y179.214 E9.41861
G1 X105.696 Y178.939 E9.44539
G1 X105.282 Y178.599 E9.47212
G1 X104.922 Y178.201 E9.49889
G1 X104.625 Y177.755 E9.52563
G1 X104.399 Y177.269 E9.55237
G1 X104.217 Y176.604 E9.58676
G1 X103.989 Y175.274 E9.65409
G1 X103.98 Y175.216 E9.65702
G1 X103.479 Y172.53 E9.79333
G1 X102.901 Y169.85 E9.93011
G1 X102.247 Y167.192 E10.06667
G1 X101.531 Y164.596 E10.20103
G1 X100.729 Y161.979 E10.33758
G1 X99.85 Y159.376 E10.47465
G1 X98.915 Y156.845 E10.60926
G1 X97.885 Y154.287 E10.74684
G1 X96.804 Y151.801 E10.88208
G1 X95.644 Y149.33 E11.01827
G1 X94.418 Y146.899 E11.15411
G1 X93.132 Y144.52 E11.28903
G1 X91.745 Y142.117 E11.42745
G1 X90.334 Y139.83 E11.56152
G1 X88.835 Y137.541 E11.69802
G1 X87.275 Y135.304 E11.83408
G1 X86.698 Y134.52 E11.88265
G1 X86.46 Y134.185 E11.90315
G1 X85.589 Y132.947 E11.97867
G1 X85.52 Y132.846 E11.98477
G1 X84.87 Y131.852 E12.04403
G1 X84.803 Y131.746 E12.05028
G1 X84.175 Y130.708 E12.11081
G1 X84.113 Y130.602 E12.11693
G1 X83.535 Y129.569 E12.17599
G1 X83.475 Y129.457 E12.18233
G1 X82.894 Y128.327 E12.24572
G1 X82.839 Y128.214 E12.25199
G1 X82.342 Y127.158 E12.31022
G1 X82.291 Y127.044 E12.31645
G1 X81.796 Y125.89 E12.37909
G1 X81.749 Y125.777 E12.3852
G1 X81.316 Y124.665 E12.44474
G1 X81.272 Y124.544 E12.45116
G1 X80.876 Y123.408 E12.51118
G1 X80.838 Y123.293 E12.51722
G1 X80.48 Y122.143 E12.57731
G1 X80.445 Y122.023 E12.58355
G1 X80.113 Y120.809 E12.64634
G1 X80.082 Y120.689 E12.65252
G1 X79.815 Y119.562 E12.7103
G1 X79.788 Y119.436 E12.71673
G1 X79.542 Y118.203 E12.77946
G1 X79.52 Y118.083 E12.78555
G1 X79.333 Y116.945 E12.84308
G1 X79.314 Y116.82 E12.84939
G1 X79.149 Y115.536 E12.91398
G1 X79.136 Y115.415 E12.92005
G1 X79.028 Y114.271 E12.97738
G1 X79.018 Y114.143 E12.98378
G1 X78.945 Y112.895 E13.04615
G1 X78.94 Y112.772 E13.05229
G1 X78.911 Y111.571 E13.11223
G1 X78.91 Y111.445 E13.11851
G1 X78.923 Y110.236 E13.17884
G1 X78.927 Y110.112 E13.18503
G1 X78.981 Y108.924 E13.24436
G1 X78.989 Y108.798 E13.25065
G1 X79.09 Y107.544 E13.31342
G1 X79.101 Y107.423 E13.31948
G1 X79.236 Y106.246 E13.37859
G1 X79.253 Y106.121 E13.38488
G1 X79.435 Y104.91 E13.44598
G1 X79.455 Y104.788 E13.45214
G1 X79.678 Y103.586 E13.51314
G1 X79.703 Y103.465 E13.5193
G1 X79.961 Y102.3 E13.57883
G1 X79.992 Y102.171 E13.58545
G1 X80.292 Y101.018 E13.64489
G1 X80.324 Y100.902 E13.65089
G1 X80.681 Y99.697 E13.71359
G1 X80.718 Y99.581 E13.71967
G1 X81.095 Y98.451 E13.7791
G1 X81.137 Y98.332 E13.78539
G1 X81.566 Y97.182 E13.84663
G1 X81.612 Y97.064 E13.85295
G1 X82.078 Y95.937 E13.91379
G1 X82.128 Y95.822 E13.92005
G1 X82.623 Y94.734 E13.97968
G1 X82.676 Y94.623 E13.98582
G1 X83.222 Y93.524 E14.04704
G1 X83.279 Y93.415 E14.05318
G1 X83.844 Y92.369 E14.11249
G1 X83.908 Y92.255 E14.11901
G1 X84.529 Y91.199 E14.18013
G1 X84.591 Y91.097 E14.18609
G1 X85.253 Y90.052 E14.2478
G1 X85.323 Y89.946 E14.25414
G1 X85.971 Y88.999 E14.31139
G1 X86.043 Y88.897 E14.31762
G1 X86.826 Y87.834 E14.38348
G1 X86.903 Y87.734 E14.38978
G1 X87.596 Y86.859 E14.44547
G1 X87.673 Y86.765 E14.45153
G1 X88.468 Y85.828 E14.51283
G1 X88.551 Y85.733 E14.51913
G1 X89.397 Y84.804 E14.58181
G1 X89.483 Y84.713 E14.58806
G0 F1800 X89.77 Y84.992
G1 F1500 X90.602 Y84.14 E14.64747
G1 X90.679 Y84.063 E14.65291
G1 X91.549 Y83.231 E14.71296
G1 X91.632 Y83.155 E14.71858
G1 X92.548 Y82.339 E14.77978
G1 X92.632 Y82.266 E14.78533
G1 X93.553 Y81.501 E14.84507
G1 X93.637 Y81.434 E14.85043
G1 X94.607 Y80.682 E14.91166
G1 X94.698 Y80.614 E14.91733
G1 X95.687 Y79.902 E14.97812
G1 X95.778 Y79.839 E14.98365
G1 X96.766 Y79.178 E15.04295
G1 X96.859 Y79.118 E15.04847
G1 X97.911 Y78.466 E15.11022
G1 X98.009 Y78.408 E15.1159
G1 X99.027 Y77.826 E15.1744
G1 X99.12 Y77.775 E15.1797
G1 X100.242 Y77.182 E15.24301
G1 X100.345 Y77.13 E15.24877
G1 X101.392 Y76.624 E15.30678
G1 X101.489 Y76.579 E15.31212
G1 X102.628 Y76.075 E15.37426
G1 X102.735 Y76.03 E15.38005
G1 X103.87 Y75.576 E15.44104
G1 X103.969 Y75.538 E15.44633
G1 X105.069 Y75.14 E15.50469
G1 X105.175 Y75.104 E15.51027
G1 X106.358 Y74.722 E15.57229
G1 X106.465 Y74.689 E15.57788
G1 X107.632 Y74.357 E15.63841
G1 X107.742 Y74.328 E15.64409
G1 X108.926 Y74.036 E15.70493
G1 X109.028 Y74.013 E15.71014
G1 X110.202 Y73.764 E15.77002
G1 X110.316 Y73.742 E15.77581
G1 X111.508 Y73.534 E15.83618
G1 X111.613 Y73.517 E15.84148
G1 X112.823 Y73.347 E15.90244
G1 X112.936 Y73.333 E15.90812
G1 X114.144 Y73.207 E15.96872
G1 X114.256 Y73.198 E15.97432
G1 X115.448 Y73.116 E16.03393
G1 X115.556 Y73.11 E16.03933
G1 X116.786 Y73.067 E16.10073
G1 X116.898 Y73.065 E16.10632
G1 X118.102 Y73.065 E16.16639
G1 X118.214 Y73.067 E16.17198
G1 X119.444 Y73.11 E16.23338
G1 X119.552 Y73.116 E16.23878
G1 X120.744 Y73.198 E16.29839
G1 X120.856 Y73.207 E16.30399
G1 X122.064 Y73.333 E16.36459
G1 X122.177 Y73.347 E16.37027
G1 X123.388 Y73.517 E16.43128
G1 X123.494 Y73.534 E16.43663
G1 X124.685 Y73.742 E16.49695
G1 X124.795 Y73.763 E16.50254
G1 X125.969 Y74.011 E16.5624
G1 X126.077 Y74.036 E16.56793
G1 X127.261 Y74.329 E16.62878
G1 X127.37 Y74.358 E16.63441
G1 X128.537 Y74.691 E16.69496
G1 X128.64 Y74.722 E16.70032
G1 X129.823 Y75.103 E16.76233
G1 X129.931 Y75.14 E16.76802
G1 X131.031 Y75.538 E16.82639
G1 X131.13 Y75.576 E16.83168
G1 X132.265 Y76.03 E16.89266
G1 X132.373 Y76.075 E16.8985
G1 X133.511 Y76.579 E16.96059
G1 X133.606 Y76.623 E16.96582
G1 X134.654 Y77.129 E17.02388
G1 X134.757 Y77.181 E17.02963
G1 X135.878 Y77.773 E17.09288
G1 X135.973 Y77.825 E17.09828
G1 X136.992 Y78.408 E17.15685
G1 X137.089 Y78.466 E17.16249
G1 X138.141 Y79.118 E17.22424
G1 X138.234 Y79.178 E17.22976
G1 X139.222 Y79.839 E17.28907
G1 X139.313 Y79.902 E17.29459
G1 X140.302 Y80.614 E17.35539
G1 X140.393 Y80.682 E17.36106
G1 X141.363 Y81.434 E17.42229
G1 X141.447 Y81.501 E17.42765
G1 X142.368 Y82.266 E17.48738
G1 X142.452 Y82.339 E17.49293
G1 X143.368 Y83.155 E17.55414
G1 X143.451 Y83.231 E17.55975
G1 X144.321 Y84.063 E17.61981
G1 X144.398 Y84.14 E17.62524
G1 X145.23 Y84.992 E17.68465
G1 X145.307 Y85.073 E17.69023
G1 X146.153 Y86.002 E17.75291
G1 X146.227 Y86.087 E17.75854
G1 X147.091 Y87.107 E17.82523
G1 X147.784 Y87.982 E17.88091
G1 X147.851 Y88.071 E17.88647
G1 X148.634 Y89.134 E17.95234
G1 X148.699 Y89.225 E17.95792
G1 X149.347 Y90.172 E18.01517
G1 X149.409 Y90.267 E18.02083
G1 X150.071 Y91.312 E18.08254
G1 X150.129 Y91.406 E18.08805
G1 X150.748 Y92.462 E18.14912
G1 X150.8 Y92.555 E18.15444
G1 X151.367 Y93.601 E18.2138
G1 X151.419 Y93.7 E18.21938
G1 X151.966 Y94.799 E18.28062
G1 X152.015 Y94.902 E18.28631
G1 X152.509 Y95.99 E18.34593
G1 X152.553 Y96.092 E18.35147
G1 X153.018 Y97.219 E18.41229
G1 X153.057 Y97.319 E18.41765
G1 X153.487 Y98.469 E18.4789
G1 X153.526 Y98.577 E18.48463
G1 X153.903 Y99.707 E18.54406
G1 X153.935 Y99.811 E18.54949
G1 X154.292 Y101.016 E18.61219
G1 X154.322 Y101.124 E18.61778
G1 X154.62 Y102.276 E18.67715
G1 X154.645 Y102.381 E18.68253
G1 X154.905 Y103.547 E18.74213
G1 X154.928 Y103.658 E18.74779
G1 X155.151 Y104.858 E18.80868
G1 X155.17 Y104.968 E18.81425
G1 X155.352 Y106.181 E18.87544
G1 X155.366 Y106.291 E18.88098
G1 X155.501 Y107.468 E18.94008
G1 X155.512 Y107.576 E18.9455
G1 X155.613 Y108.83 E19.00826
G1 X155.62 Y108.941 E19.01381
G1 X155.674 Y110.127 E19.07304
G1 X155.677 Y110.239 E19.07863
G1 X155.69 Y111.45 E19.13905
G1 X155.689 Y111.561 E19.14459
G1 X155.66 Y112.76 E19.20443
G1 X155.656 Y112.87 E19.20992
G1 X155.583 Y114.12 E19.27239
G1 X155.574 Y114.234 E19.27809
G1 X155.466 Y115.377 E19.33537
G1 X155.454 Y115.484 E19.34074
G1 X155.289 Y116.769 E19.40538
G1 X155.273 Y116.881 E19.41102
G1 X155.086 Y118.017 E19.46846
G1 X154.82 Y119.357 E19.53662
G1 X154.796 Y119.468 E19.54228
G1 X154.529 Y120.597 E19.60016
G1 X154.501 Y120.706 E19.60578
G1 X154.169 Y121.918 E19.66847
G1 X154.138 Y122.025 E19.67403
G1 X153.78 Y123.174 E19.73407
G1 X153.747 Y123.275 E19.73937
G1 X153.351 Y124.412 E19.79944
G1 X153.311 Y124.519 E19.80514
G1 X152.879 Y125.63 E19.86461
G1 X152.837 Y125.733 E19.87016
G1 X152.341 Y126.888 E19.93287
G1 X152.296 Y126.988 E19.93834
G1 X151.799 Y128.044 E19.99657
G1 X151.75 Y128.144 E20.00213
G1 X151.169 Y129.274 E20.06552
G1 X151.116 Y129.372 E20.07107
G1 X150.538 Y130.406 E20.13017
G1 X150.482 Y130.503 E20.13576
G1 X149.854 Y131.54 E20.19625
G1 X149.796 Y131.631 E20.20163
G1 X149.085 Y132.718 E20.26643
G1 X148.355 Y133.755 E20.3297
G1 X148.1 Y134.094 E20.35086
G1 X146.489 Y136.286 E20.48658
G1 X144.929 Y138.541 E20.62338
G1 X143.419 Y140.86 E20.76144
G1 X142.014 Y143.158 E20.89582
G1 X140.628 Y145.577 E21.03491
G1 X139.353 Y147.953 E21.16944
G1 X138.12 Y150.42 E21.30703
G1 X136.97 Y152.888 E21.44287
G1 X135.882 Y155.412 E21.58
G1 X134.862 Y157.972 E21.71748
G1 X133.926 Y160.53 E21.85337
G1 X133.055 Y163.137 E21.99051
