;FLAVOR:Marlin
;TIME:5101
;Filament used: 3.25281m, 0m
;Layer height: 0.15
;MINX:78.91
;MINY:72.665
;MINZ:0.3
;MAXX:156.09
;MAXY:179.604
;MAXZ:3.9
;POSTPROCESSED
;Generated with Cura_SteamEngine 4.7.1
T0
M140 S60
M105
M190 S60
M104 S190
M105
M109 S190
M82 ;absolute extrusion mode
M201 X500.00 Y500.00 Z100.00 E5000.00 	;Setup machine max acceleration
M203 X500.00 Y500.00 Z10.00 E50.00 	;Setup machine max feedrate
M204 P500.00 R1000.00 T500.00 		;Setup Print/Retract/Travel acceleration
M205 X8.00 Y8.00 Z0.40 E5.00 		;Setup Jerk
M220 S100 				;Reset Feedrate
M221 S100 				;Reset Flowrate
G28				;Home the Machine
G29 				;Bed Level
G92 E0
M300 P150 S587
G92 E0
G1 F1500 E-6.5
;LAYER_COUNT:25
;LAYER:0
M107
G0 F1800 X89.483 Y84.713 Z0.3
;TYPE:SKIRT
G1 F1500 E0
G1 X90.315 Y83.861 E0.05941
G1 X90.403 Y83.774 E0.06559
G1 X91.273 Y82.942 E0.12564
G1 X91.366 Y82.856 E0.13196
G1 X92.282 Y82.04 E0.19317
G1 X92.377 Y81.959 E0.19939
G1 X93.298 Y81.194 E0.25913
G1 X93.392 Y81.118 E0.26516
G1 X94.362 Y80.366 E0.32639
G1 X94.465 Y80.289 E0.33281
G1 X95.454 Y79.577 E0.3936
G1 X95.555 Y79.507 E0.39973
G1 X96.543 Y78.846 E0.45904
G1 X96.649 Y78.778 E0.46532
G1 X97.701 Y78.126 E0.52707
G1 X97.81 Y78.061 E0.5334
G1 X98.828 Y77.479 E0.5919
G1 X98.933 Y77.421 E0.59789
G1 X100.055 Y76.828 E0.6612
G1 X100.171 Y76.77 E0.66767
G1 X101.218 Y76.264 E0.72569
G1 X101.327 Y76.213 E0.73169
G1 X102.466 Y75.709 E0.79383
G1 X102.586 Y75.658 E0.80034
G1 X103.721 Y75.204 E0.86132
G1 X103.833 Y75.162 E0.86729
G1 X104.933 Y74.764 E0.92565
G1 X105.052 Y74.723 E0.93193
G1 X106.235 Y74.341 E0.99395
G1 X106.356 Y74.304 E1.00027
G1 X107.523 Y73.972 E1.0608
G1 X107.646 Y73.94 E1.06714
G1 X108.83 Y73.648 E1.12798
G1 X108.946 Y73.621 E1.13392
G1 X110.112 Y73.374 E1.19338
G1 X110.236 Y73.35 E1.19968
G1 X111.434 Y73.14 E1.26036
G1 X111.558 Y73.121 E1.26662
G1 X112.776 Y72.951 E1.32798
G1 X112.9 Y72.936 E1.33421
G1 X114.105 Y72.81 E1.39466
G1 X114.231 Y72.799 E1.40097
G1 X115.42 Y72.717 E1.46043
G1 X115.542 Y72.71 E1.46652
G1 X116.772 Y72.667 E1.52792
G1 X116.898 Y72.665 E1.53421
G1 X118.102 Y72.665 E1.59428
G1 X118.228 Y72.667 E1.60057
G1 X119.458 Y72.71 E1.66197
G1 X119.58 Y72.717 E1.66807
G1 X120.769 Y72.799 E1.72753
G1 X120.895 Y72.81 E1.73384
G1 X122.1 Y72.936 E1.79428
G1 X122.223 Y72.951 E1.80046
G1 X123.442 Y73.121 E1.86187
G1 X123.567 Y73.14 E1.86818
G1 X124.764 Y73.35 E1.92881
G1 X124.885 Y73.374 E1.93496
G1 X126.051 Y73.62 E1.99441
G1 X126.173 Y73.647 E2.00065
G1 X127.357 Y73.94 E2.0615
G1 X127.48 Y73.973 E2.06785
G1 X128.647 Y74.306 E2.1284
G1 X128.763 Y74.341 E2.13444
G1 X129.946 Y74.722 E2.19645
G1 X130.067 Y74.764 E2.20284
G1 X131.167 Y75.162 E2.2612
G1 X131.279 Y75.204 E2.26717
G1 X132.414 Y75.658 E2.32816
G1 X132.535 Y75.709 E2.33471
G1 X133.673 Y76.213 E2.3968
G1 X133.78 Y76.263 E2.40269
G1 X134.828 Y76.769 E2.46075
G1 X134.944 Y76.828 E2.46725
G1 X136.065 Y77.42 E2.53049
G1 X136.172 Y77.478 E2.53656
G1 X137.191 Y78.061 E2.59513
G1 X137.299 Y78.126 E2.60142
G1 X138.351 Y78.778 E2.66317
G1 X138.457 Y78.846 E2.66945
G1 X139.445 Y79.507 E2.72876
G1 X139.546 Y79.577 E2.73489
G1 X140.535 Y80.289 E2.79569
G1 X140.638 Y80.366 E2.8021
G1 X141.608 Y81.118 E2.86334
G1 X141.702 Y81.194 E2.86937
G1 X142.623 Y81.959 E2.9291
G1 X142.718 Y82.04 E2.93533
G1 X143.634 Y82.856 E2.99653
G1 X143.727 Y82.942 E3.00285
G1 X144.597 Y83.774 E3.06291
G1 X144.685 Y83.861 E3.06908
G1 X145.517 Y84.713 E3.12849
G1 X145.603 Y84.804 E3.13474
G1 X146.449 Y85.733 E3.19743
G1 X146.532 Y85.828 E3.20372
G1 X147.327 Y86.765 E3.26503
G1 X147.404 Y86.859 E3.27109
G1 X148.097 Y87.734 E3.32678
G1 X148.174 Y87.834 E3.33307
G1 X148.957 Y88.897 E3.39894
G1 X149.029 Y88.999 E3.40517
G1 X149.677 Y89.946 E3.46242
G1 X149.747 Y90.052 E3.46875
G1 X150.409 Y91.097 E3.53047
G1 X150.474 Y91.203 E3.53667
G1 X151.093 Y92.259 E3.59774
G1 X151.152 Y92.364 E3.60375
G1 X151.719 Y93.41 E3.66311
G1 X151.777 Y93.522 E3.6694
G1 X152.324 Y94.621 E3.73065
G1 X152.379 Y94.737 E3.73705
G1 X152.873 Y95.825 E3.79667
G1 X152.923 Y95.94 E3.80292
G1 X153.388 Y97.067 E3.86375
G1 X153.432 Y97.179 E3.86975
G1 X153.862 Y98.329 E3.931
G1 X153.905 Y98.451 E3.93746
G1 X154.282 Y99.581 E3.99689
G1 X154.319 Y99.697 E4.00296
G1 X154.676 Y100.902 E4.06566
G1 X154.709 Y101.023 E4.07192
G1 X155.007 Y102.175 E4.13129
G1 X155.036 Y102.293 E4.13735
G1 X155.296 Y103.459 E4.19695
G1 X155.321 Y103.585 E4.20336
G1 X155.544 Y104.785 E4.26425
G1 X155.565 Y104.909 E4.27052
G1 X155.747 Y106.122 E4.33172
G1 X155.764 Y106.246 E4.33796
G1 X155.899 Y107.423 E4.39707
G1 X155.91 Y107.544 E4.40313
G1 X156.011 Y108.798 E4.4659
G1 X156.019 Y108.923 E4.47214
G1 X156.073 Y110.109 E4.53138
G1 X156.077 Y110.234 E4.53761
G1 X156.09 Y111.445 E4.59804
G1 X156.089 Y111.571 E4.60432
G1 X156.06 Y112.77 E4.66416
G1 X156.055 Y112.893 E4.6703
G1 X155.982 Y114.143 E4.73277
G1 X155.972 Y114.272 E4.73922
G1 X155.864 Y115.415 E4.7965
G1 X155.851 Y115.534 E4.80247
G1 X155.686 Y116.819 E4.86711
G1 X155.667 Y116.946 E4.87352
G1 X155.48 Y118.082 E4.93095
G1 X155.459 Y118.2 E4.93693
G1 X155.213 Y119.435 E4.99976
G1 X155.185 Y119.561 E5.0062
G1 X154.918 Y120.69 E5.06408
G1 X154.887 Y120.812 E5.07036
G1 X154.555 Y122.024 E5.13305
G1 X154.52 Y122.144 E5.13929
G1 X154.162 Y123.293 E5.19933
G1 X154.125 Y123.406 E5.20526
G1 X153.729 Y124.543 E5.26533
G1 X153.684 Y124.664 E5.27177
G1 X153.252 Y125.775 E5.33124
G1 X153.205 Y125.891 E5.33749
G1 X152.709 Y127.046 E5.4002
G1 X152.658 Y127.158 E5.40634
G1 X152.161 Y128.214 E5.46456
G1 X152.106 Y128.327 E5.47083
G1 X151.525 Y129.457 E5.53423
G1 X151.465 Y129.568 E5.54052
G1 X150.887 Y130.602 E5.59962
G1 X150.824 Y130.71 E5.60586
G1 X150.196 Y131.747 E5.66634
G1 X150.131 Y131.85 E5.67242
G1 X149.482 Y132.844 E5.73164
G1 X149.412 Y132.948 E5.7379
G1 X148.682 Y133.985 E5.80117
G1 X148.419 Y134.336 E5.82305
G1 X146.808 Y136.528 E5.95877
G1 X145.26 Y138.766 E6.09453
G1 X143.752 Y141.082 E6.23241
G1 X142.359 Y143.36 E6.36562
G1 X140.985 Y145.758 E6.50351
G1 X139.699 Y148.156 E6.63926
G1 X138.475 Y150.603 E6.77576
G1 X137.336 Y153.05 E6.91042
G1 X136.25 Y155.569 E7.04728
G1 X135.245 Y158.09 E7.18268
G1 X134.305 Y160.657 E7.31906
G1 X133.435 Y163.264 E7.45618
G1 X132.658 Y165.828 E7.58984
G1 X131.921 Y168.534 E7.72976
G1 X131.297 Y171.109 E7.86194
G1 X130.728 Y173.785 E7.99844
G1 X130.467 Y175.249 E8.07263
G1 X130.442 Y175.345 E8.07758
G1 X130.2 Y176.652 E8.14389
G1 X130.063 Y177.17 E8.17062
G1 X129.85 Y177.663 E8.19742
G1 X129.567 Y178.118 E8.22415
G1 X129.22 Y178.526 E8.25087
G1 X128.815 Y178.879 E8.27767
G1 X128.363 Y179.167 E8.30441
G1 X127.873 Y179.385 E8.33117
G1 X127.356 Y179.527 E8.35792
G1 X126.761 Y179.594 E8.38779
G1 X126.339 Y179.604 E8.40885
G1 X108.407 Y179.604 E9.30348
G1 X107.708 Y179.593 E9.33836
G1 X107.174 Y179.544 E9.36511
G1 X106.653 Y179.417 E9.39186
G1 X106.157 Y179.214 E9.4186
G1 X105.696 Y178.939 E9.44538
G1 X105.282 Y178.599 E9.47211
G1 X104.922 Y178.201 E9.49888
G1 X104.625 Y177.755 E9.52562
G1 X104.399 Y177.269 E9.55236
G1 X104.217 Y176.604 E9.58675
G1 X103.989 Y175.274 E9.65408
G1 X103.98 Y175.216 E9.657
G1 X103.479 Y172.53 E9.79332
G1 X102.901 Y169.85 E9.9301
G1 X102.247 Y167.192 E10.06666
G1 X101.531 Y164.596 E10.20101
G1 X100.729 Y161.979 E10.33757
G1 X99.85 Y159.376 E10.47464
G1 X98.915 Y156.845 E10.60925
G1 X97.885 Y154.287 E10.74683
G1 X96.804 Y151.801 E10.88207
G1 X95.644 Y149.33 E11.01826
G1 X94.418 Y146.899 E11.15409
G1 X93.132 Y144.52 E11.28901
G1 X91.745 Y142.117 E11.42744
G1 X90.334 Y139.83 E11.56151
G1 X88.835 Y137.541 E11.69801
G1 X87.275 Y135.304 E11.83407
G1 X86.698 Y134.52 E11.88264
G1 X86.46 Y134.185 E11.90314
G1 X85.589 Y132.947 E11.97866
G1 X85.52 Y132.846 E11.98476
G1 X84.87 Y131.852 E12.04402
G1 X84.803 Y131.746 E12.05027
G1 X84.175 Y130.708 E12.1108
G1 X84.113 Y130.602 E12.11692
G1 X83.535 Y129.569 E12.17598
G1 X83.475 Y129.457 E12.18232
G1 X82.894 Y128.327 E12.24571
G1 X82.839 Y128.214 E12.25198
G1 X82.342 Y127.158 E12.31021
G1 X82.291 Y127.044 E12.31644
G1 X81.796 Y125.89 E12.37908
G1 X81.749 Y125.777 E12.38519
G1 X81.316 Y124.665 E12.44473
G1 X81.272 Y124.544 E12.45115
G1 X80.876 Y123.408 E12.51117
G1 X80.838 Y123.293 E12.51721
G1 X80.48 Y122.143 E12.5773
G1 X80.445 Y122.023 E12.58354
G1 X80.113 Y120.809 E12.64633
G1 X80.082 Y120.689 E12.65251
G1 X79.815 Y119.562 E12.71029
G1 X79.788 Y119.436 E12.71672
G1 X79.542 Y118.203 E12.77945
G1 X79.52 Y118.083 E12.78554
G1 X79.333 Y116.945 E12.84307
G1 X79.314 Y116.82 E12.84938
G1 X79.149 Y115.536 E12.91397
G1 X79.136 Y115.415 E12.92004
G1 X79.028 Y114.271 E12.97737
G1 X79.018 Y114.143 E12.98377
G1 X78.945 Y112.895 E13.04614
G1 X78.94 Y112.772 E13.05228
G1 X78.911 Y111.571 E13.11222
G1 X78.91 Y111.445 E13.1185
G1 X78.923 Y110.236 E13.17883
G1 X78.927 Y110.112 E13.18501
G1 X78.981 Y108.924 E13.24435
G1 X78.989 Y108.798 E13.25064
G1 X79.09 Y107.544 E13.31341
G1 X79.101 Y107.423 E13.31947
G1 X79.236 Y106.246 E13.37858
G1 X79.253 Y106.121 E13.38487
G1 X79.435 Y104.91 E13.44597
G1 X79.455 Y104.788 E13.45213
G1 X79.678 Y103.586 E13.51312
G1 X79.703 Y103.465 E13.51929
G1 X79.961 Y102.3 E13.57882
G1 X79.992 Y102.171 E13.58544
G1 X80.292 Y101.018 E13.64488
G1 X80.324 Y100.902 E13.65088
G1 X80.681 Y99.697 E13.71358
G1 X80.718 Y99.581 E13.71966
G1 X81.095 Y98.451 E13.77909
G1 X81.137 Y98.332 E13.78538
G1 X81.566 Y97.182 E13.84662
G1 X81.612 Y97.064 E13.85294
G1 X82.078 Y95.937 E13.91378
G1 X82.128 Y95.822 E13.92004
G1 X82.623 Y94.734 E13.97967
G1 X82.676 Y94.623 E13.98581
G1 X83.222 Y93.524 E14.04703
G1 X83.279 Y93.415 E14.05317
G1 X83.844 Y92.369 E14.11248
G1 X83.908 Y92.255 E14.119
G1 X84.529 Y91.199 E14.18012
G1 X84.591 Y91.097 E14.18607
G1 X85.253 Y90.052 E14.24779
G1 X85.323 Y89.946 E14.25413
G1 X85.971 Y88.999 E14.31138
G1 X86.043 Y88.897 E14.31761
G1 X86.826 Y87.834 E14.38347
G1 X86.903 Y87.734 E14.38977
G1 X87.596 Y86.859 E14.44546
G1 X87.673 Y86.765 E14.45152
G1 X88.468 Y85.828 E14.51282
G1 X88.551 Y85.733 E14.51912
G1 X89.397 Y84.804 E14.5818
G1 X89.483 Y84.713 E14.58805
G0 F1800 X89.77 Y84.992
G1 F1500 X90.602 Y84.14 E14.64746
G1 X90.679 Y84.063 E14.6529
G1 X91.549 Y83.231 E14.71295
G1 X91.632 Y83.155 E14.71857
G1 X92.548 Y82.339 E14.77977
G1 X92.632 Y82.266 E14.78532
G1 X93.553 Y81.501 E14.84506
G1 X93.637 Y81.434 E14.85042
G1 X94.607 Y80.682 E14.91165
G1 X94.698 Y80.614 E14.91732
G1 X95.687 Y79.902 E14.97811
G1 X95.778 Y79.839 E14.98364
G1 X96.766 Y79.178 E15.04294
G1 X96.859 Y79.118 E15.04846
G1 X97.911 Y78.466 E15.11021
G1 X98.009 Y78.408 E15.11589
G1 X99.027 Y77.826 E15.17439
G1 X99.12 Y77.775 E15.17969
G1 X100.242 Y77.182 E15.243
G1 X100.345 Y77.13 E15.24876
G1 X101.392 Y76.624 E15.30677
G1 X101.489 Y76.579 E15.31211
G1 X102.628 Y76.075 E15.37425
G1 X102.735 Y76.03 E15.38004
G1 X103.87 Y75.576 E15.44102
G1 X103.969 Y75.538 E15.44632
G1 X105.069 Y75.14 E15.50468
G1 X105.175 Y75.104 E15.51026
G1 X106.358 Y74.722 E15.57228
G1 X106.465 Y74.689 E15.57787
G1 X107.632 Y74.357 E15.6384
G1 X107.742 Y74.328 E15.64408
G1 X108.926 Y74.036 E15.70492
G1 X109.029 Y74.012 E15.71019
G1 X110.195 Y73.765 E15.76965
G1 X110.305 Y73.744 E15.77524
G1 X111.503 Y73.534 E15.83592
G1 X111.614 Y73.517 E15.84152
G1 X112.832 Y73.347 E15.90288
G1 X112.941 Y73.333 E15.90836
G1 X114.146 Y73.207 E15.96881
G1 X114.259 Y73.198 E15.97446
G1 X115.448 Y73.116 E16.03392
G1 X115.556 Y73.11 E16.03932
G1 X116.786 Y73.067 E16.10072
G1 X116.898 Y73.065 E16.10631
G1 X118.102 Y73.065 E16.16638
G1 X118.214 Y73.067 E16.17197
G1 X119.444 Y73.11 E16.23337
G1 X119.552 Y73.116 E16.23877
G1 X120.741 Y73.198 E16.29823
G1 X120.854 Y73.207 E16.30388
G1 X122.059 Y73.333 E16.36433
G1 X122.168 Y73.347 E16.36981
G1 X123.387 Y73.517 E16.43121
G1 X123.498 Y73.534 E16.43682
G1 X124.695 Y73.744 E16.49745
G1 X124.803 Y73.765 E16.50294
G1 X125.969 Y74.011 E16.56239
G1 X126.077 Y74.036 E16.56792
G1 X127.261 Y74.329 E16.62877
G1 X127.37 Y74.358 E16.6344
G1 X128.537 Y74.691 E16.69494
G1 X128.64 Y74.722 E16.70031
G1 X129.823 Y75.103 E16.76232
G1 X129.931 Y75.14 E16.76801
G1 X131.031 Y75.538 E16.82637
G1 X131.13 Y75.576 E16.83166
G1 X132.265 Y76.03 E16.89265
G1 X132.373 Y76.075 E16.89849
G1 X133.511 Y76.579 E16.96058
G1 X133.606 Y76.623 E16.96581
G1 X134.654 Y77.129 E17.02387
G1 X134.757 Y77.181 E17.02962
G1 X135.878 Y77.773 E17.09287
G1 X135.973 Y77.825 E17.09827
G1 X136.992 Y78.408 E17.15684
G1 X137.089 Y78.466 E17.16248
G1 X138.141 Y79.118 E17.22423
G1 X138.234 Y79.178 E17.22975
G1 X139.222 Y79.839 E17.28906
G1 X139.313 Y79.902 E17.29458
G1 X140.302 Y80.614 E17.35538
G1 X140.393 Y80.682 E17.36104
G1 X141.363 Y81.434 E17.42228
G1 X141.447 Y81.501 E17.42764
G1 X142.368 Y82.266 E17.48737
G1 X142.452 Y82.339 E17.49292
G1 X143.368 Y83.155 E17.55412
G1 X143.451 Y83.231 E17.55974
G1 X144.321 Y84.063 E17.6198
G1 X144.398 Y84.14 E17.62523
G1 X145.23 Y84.992 E17.68464
G1 X145.307 Y85.073 E17.69022
G1 X146.153 Y86.002 E17.7529
G1 X146.227 Y86.087 E17.75852
G1 X147.091 Y87.107 E17.82522
G1 X147.784 Y87.982 E17.8809
G1 X147.851 Y88.071 E17.88646
G1 X148.634 Y89.134 E17.95233
G1 X148.699 Y89.225 E17.95791
G1 X149.347 Y90.172 E18.01515
G1 X149.409 Y90.267 E18.02081
G1 X150.071 Y91.312 E18.08253
G1 X150.129 Y91.406 E18.08804
G1 X150.748 Y92.462 E18.14911
G1 X150.8 Y92.555 E18.15443
G1 X151.367 Y93.601 E18.21378
G1 X151.419 Y93.7 E18.21936
G1 X151.966 Y94.799 E18.28061
G1 X152.015 Y94.902 E18.2863
G1 X152.509 Y95.99 E18.34591
G1 X152.553 Y96.092 E18.35145
G1 X153.018 Y97.219 E18.41228
G1 X153.057 Y97.319 E18.41763
G1 X153.487 Y98.469 E18.47889
G1 X153.526 Y98.577 E18.48462
G1 X153.903 Y99.707 E18.54405
G1 X153.935 Y99.811 E18.54948
G1 X154.292 Y101.016 E18.61218
G1 X154.322 Y101.124 E18.61777
G1 X154.62 Y102.276 E18.67713
G1 X154.645 Y102.381 E18.68252
G1 X154.905 Y103.547 E18.74212
G1 X154.928 Y103.658 E18.74777
G1 X155.151 Y104.858 E18.80867
G1 X155.17 Y104.968 E18.81424
G1 X155.352 Y106.181 E18.87543
G1 X155.366 Y106.291 E18.88096
G1 X155.501 Y107.468 E18.94007
G1 X155.512 Y107.576 E18.94549
G1 X155.613 Y108.83 E19.00825
G1 X155.62 Y108.941 E19.0138
G1 X155.674 Y110.127 E19.07303
G1 X155.677 Y110.239 E19.07862
G1 X155.69 Y111.45 E19.13904
G1 X155.689 Y111.561 E19.14458
G1 X155.66 Y112.76 E19.20441
G1 X155.656 Y112.87 E19.20991
G1 X155.583 Y114.12 E19.27237
G1 X155.574 Y114.234 E19.27808
G1 X155.466 Y115.377 E19.33536
G1 X155.454 Y115.484 E19.34073
G1 X155.289 Y116.769 E19.40537
G1 X155.273 Y116.881 E19.41101
G1 X155.086 Y118.017 E19.46845
G1 X154.82 Y119.357 E19.5366
G1 X154.796 Y119.468 E19.54227
G1 X154.529 Y120.597 E19.60015
G1 X154.501 Y120.706 E19.60577
G1 X154.169 Y121.918 E19.66846
G1 X154.138 Y122.025 E19.67402
G1 X153.78 Y123.174 E19.73406
G1 X153.747 Y123.275 E19.73936
G1 X153.351 Y124.412 E19.79943
G1 X153.311 Y124.519 E19.80513
G1 X152.879 Y125.63 E19.8646
G1 X152.837 Y125.733 E19.87015
G1 X152.341 Y126.888 E19.93286
G1 X152.296 Y126.988 E19.93833
G1 X151.799 Y128.044 E19.99656
G1 X151.75 Y128.144 E20.00211
G1 X151.169 Y129.274 E20.0655
G1 X151.116 Y129.372 E20.07106
G1 X150.538 Y130.406 E20.13016
G1 X150.482 Y130.503 E20.13575
G1 X149.854 Y131.54 E20.19623
G1 X149.796 Y131.631 E20.20162
G1 X149.085 Y132.718 E20.26642
G1 X148.355 Y133.755 E20.32969
G1 X148.1 Y134.094 E20.35085
G1 X146.489 Y136.286 E20.48657
G1 X144.929 Y138.541 E20.62337
G1 X143.419 Y140.86 E20.76143
G1 X142.014 Y143.158 E20.89581
G1 X140.628 Y145.577 E21.0349
G1 X139.353 Y147.953 E21.16943
G1 X138.12 Y150.42 E21.30702
G1 X136.97 Y152.888 E21.44286
G1 X135.882 Y155.412 E21.57998
G1 X134.862 Y157.972 E21.71747
G1 X133.926 Y160.53 E21.85336
G1 X133.055 Y163.137 E21.99049
G1 X132.278 Y165.7 E22.12411
