;FLAVOR:Marlin
;TIME:7686
;Filament used: 3.23551m, 0m
;Layer height: 0.2
;MINX:70.72
;MINY:81.951
;MINZ:0.3
;MAXX:147.9
;MAXY:167.616
;MAXZ:3.9
;POSTPROCESSED
;Generated with Cura_SteamEngine 4.7.1
T0
M140 S60
M105
M190 S60
M104 S200
M105
M109 S200
M82 ;absolute extrusion mode
M201 X500.00 Y500.00 Z100.00 E5000.00 	;Setup machine max acceleration
M203 X500.00 Y500.00 Z10.00 E50.00 	;Setup machine max feedrate
M204 P500.00 R1000.00 T500.00 		;Setup Print/Retract/Travel acceleration
M205 X8.00 Y8.00 Z0.40 E5.00 		;Setup Jerk
M220 S100 				;Reset Feedrate
M221 S100 				;Reset Flowrate
G28				;Home the Machine
G29 				;Bed Level
G92 E0
M300 P150 S587
G92 E0
G1 F1500 E-6.5
;LAYER_COUNT:19
;LAYER:0
M107
G0 F2400 X83.178 Y92.141 Z0.3
;TYPE:SKIRT
G1 F1500 E0
G1 F1050 X84.089 Y91.328 E0.06092
G1 X84.187 Y91.244 E0.06736
G1 X85.105 Y90.482 E0.12688
G1 X85.201 Y90.405 E0.13302
G1 X86.186 Y89.643 E0.19515
G1 X86.285 Y89.569 E0.20131
G1 X87.265 Y88.863 E0.26157
G1 X87.368 Y88.791 E0.26784
G1 X88.349 Y88.135 E0.32672
G1 X88.454 Y88.068 E0.33293
G1 X89.524 Y87.405 E0.39573
G1 X89.633 Y87.34 E0.40206
G1 X90.64 Y86.764 E0.45994
G1 X90.744 Y86.707 E0.46586
G1 X91.816 Y86.14 E0.52636
G1 X91.931 Y86.082 E0.53279
G1 X93.088 Y85.522 E0.59692
G1 X93.203 Y85.468 E0.60325
G1 X94.266 Y84.999 E0.66122
G1 X94.379 Y84.952 E0.66733
G1 X95.521 Y84.494 E0.72871
G1 X95.638 Y84.449 E0.73497
G1 X96.745 Y84.049 E0.79369
G1 X96.862 Y84.009 E0.79986
G1 X98.045 Y83.627 E0.86188
G1 X98.168 Y83.59 E0.86829
G1 X99.331 Y83.26 E0.9286
G1 X99.451 Y83.228 E0.9348
G1 X100.626 Y82.938 E0.99518
G1 X100.741 Y82.912 E1.00106
G1 X101.951 Y82.655 E1.06277
G1 X102.078 Y82.63 E1.06923
G1 X103.243 Y82.426 E1.12824
G1 X103.365 Y82.407 E1.1344
G1 X104.579 Y82.237 E1.19555
G1 X104.705 Y82.221 E1.20189
G1 X105.913 Y82.095 E1.26248
G1 X106.039 Y82.084 E1.26879
G1 X107.231 Y82.002 E1.3284
G1 X107.352 Y81.996 E1.33445
G1 X108.582 Y81.953 E1.39585
G1 X108.708 Y81.951 E1.40214
G1 X109.919 Y81.951 E1.46255
G1 X110.045 Y81.953 E1.46884
G1 X111.249 Y81.995 E1.52895
G1 X111.373 Y82.002 E1.53514
G1 X112.594 Y82.087 E1.59621
G1 X112.716 Y82.097 E1.60231
G1 X113.908 Y82.221 E1.6621
G1 X114.033 Y82.237 E1.66839
G1 X115.252 Y82.407 E1.72979
G1 X115.378 Y82.426 E1.73615
G1 X116.551 Y82.632 E1.79557
G1 X116.669 Y82.655 E1.80157
G1 X117.871 Y82.908 E1.86285
G1 X117.997 Y82.937 E1.8693
G1 X119.186 Y83.232 E1.93042
G1 X119.304 Y83.263 E1.9365
G1 X120.432 Y83.584 E1.99501
G1 X120.551 Y83.62 E2.00122
G1 X121.749 Y84.006 E2.06401
G1 X121.87 Y84.048 E2.0704
G1 X123.009 Y84.46 E2.13083
G1 X123.124 Y84.504 E2.13697
G1 X124.229 Y84.947 E2.19637
G1 X124.346 Y84.996 E2.20269
G1 X125.433 Y85.477 E2.262
G1 X125.542 Y85.527 E2.26798
G1 X126.687 Y86.08 E2.33142
G1 X126.802 Y86.139 E2.33787
G1 X127.855 Y86.695 E2.39727
G1 X127.961 Y86.753 E2.4033
G1 X129 Y87.347 E2.46301
G1 X129.109 Y87.412 E2.46934
G1 X130.161 Y88.064 E2.53109
G1 X130.267 Y88.132 E2.53737
G1 X131.255 Y88.793 E2.59668
G1 X131.358 Y88.864 E2.60292
G1 X132.371 Y89.594 E2.66521
G1 X132.468 Y89.667 E2.67127
G1 X133.386 Y90.377 E2.72917
G1 X133.485 Y90.456 E2.73549
G1 X134.461 Y91.267 E2.7988
G1 X134.556 Y91.349 E2.80506
G1 X135.426 Y92.125 E2.86322
G1 X135.518 Y92.21 E2.86947
G1 X136.407 Y93.06 E2.93083
G1 X136.495 Y93.147 E2.93701
G1 X137.327 Y93.999 E2.99642
G1 X137.413 Y94.09 E3.00267
G1 X138.268 Y95.029 E3.06602
G1 X138.35 Y95.122 E3.07221
G1 X139.106 Y96.012 E3.13047
G1 X139.185 Y96.108 E3.13667
G1 X139.945 Y97.068 E3.19776
G1 X140.022 Y97.17 E3.20413
G1 X140.753 Y98.164 E3.26569
G1 X140.823 Y98.263 E3.27174
G1 X141.486 Y99.231 E3.33028
G1 X141.557 Y99.338 E3.33668
G1 X142.219 Y100.383 E3.3984
G1 X142.284 Y100.489 E3.4046
G1 X142.903 Y101.545 E3.46567
G1 X142.962 Y101.65 E3.47168
G1 X143.529 Y102.696 E3.53104
G1 X143.587 Y102.808 E3.53733
G1 X144.134 Y103.907 E3.59858
G1 X144.189 Y104.023 E3.60498
G1 X144.683 Y105.111 E3.66459
G1 X144.733 Y105.226 E3.67085
G1 X145.2 Y106.358 E3.73194
G1 X145.243 Y106.469 E3.73788
G1 X145.662 Y107.588 E3.79749
G1 X145.706 Y107.711 E3.80401
G1 X146.115 Y108.937 E3.86849
G1 X146.151 Y109.051 E3.87446
G1 X146.463 Y110.101 E3.9291
G1 X146.498 Y110.227 E3.93563
G1 X146.828 Y111.506 E4.00153
G1 X146.856 Y111.622 E4.00748
G1 X147.105 Y112.74 E4.06462
G1 X147.13 Y112.863 E4.07089
G1 X147.357 Y114.08 E4.13265
G1 X147.378 Y114.207 E4.13907
G1 X147.556 Y115.395 E4.199
G1 X147.572 Y115.514 E4.20499
G1 X147.71 Y116.707 E4.26491
G1 X147.723 Y116.835 E4.27133
G1 X147.823 Y118.09 E4.33414
G1 X147.83 Y118.214 E4.34033
G1 X147.883 Y119.393 E4.39921
G1 X147.887 Y119.516 E4.40535
G1 X147.9 Y120.728 E4.46583
G1 X147.899 Y120.855 E4.47216
G1 X147.87 Y122.047 E4.53165
G1 X147.865 Y122.169 E4.53774
G1 X147.792 Y123.417 E4.60011
G1 X147.782 Y123.542 E4.60637
G1 X147.668 Y124.762 E4.6675
G1 X147.654 Y124.888 E4.67382
G1 X147.506 Y126.033 E4.73142
G1 X147.489 Y126.153 E4.73747
G1 X147.283 Y127.412 E4.80111
G1 X147.26 Y127.539 E4.80755
G1 X147.026 Y128.706 E4.86693
G1 X147 Y128.824 E4.87296
G1 X146.729 Y129.974 E4.93191
G1 X146.697 Y130.098 E4.9383
G1 X146.374 Y131.279 E4.99938
G1 X146.339 Y131.399 E5.00562
G1 X145.97 Y132.584 E5.06754
G1 X145.932 Y132.701 E5.07367
G1 X145.532 Y133.846 E5.13418
G1 X145.489 Y133.963 E5.1404
G1 X145.06 Y135.067 E5.19949
G1 X145.012 Y135.183 E5.20576
G1 X144.527 Y136.313 E5.26711
G1 X144.475 Y136.428 E5.2734
G1 X143.956 Y137.529 E5.33413
G1 X143.903 Y137.638 E5.34018
G1 X143.348 Y138.719 E5.4008
G1 X143.288 Y138.831 E5.40714
G1 X142.698 Y139.887 E5.46749
G1 X142.634 Y139.996 E5.47379
G1 X141.989 Y141.061 E5.53591
G1 X141.924 Y141.164 E5.54199
G1 X141.301 Y142.118 E5.59883
G1 X141.229 Y142.224 E5.60523
G1 X140.505 Y143.251 E5.66792
G1 X140.433 Y143.351 E5.67406
G1 X139.715 Y144.299 E5.73339
G1 X139.639 Y144.395 E5.7395
G1 X138.843 Y145.375 E5.80249
G1 X138.76 Y145.473 E5.8089
G1 X138.007 Y146.335 E5.866
G1 X137.926 Y146.425 E5.87204
G1 X137.038 Y147.375 E5.93692
G1 X136.947 Y147.469 E5.94345
G1 X136.132 Y148.28 E6.00081
G1 X136.046 Y148.363 E6.00677
G1 X135.174 Y149.175 E6.06622
G1 X135.079 Y149.26 E6.07258
G1 X134.089 Y150.118 E6.13794
G1 X133.998 Y150.195 E6.14388
G1 X133.138 Y150.892 E6.19911
G1 X133.034 Y150.973 E6.20569
G1 X132.004 Y151.747 E6.26997
G1 X131.904 Y151.821 E6.27617
G1 X130.945 Y152.491 E6.33454
G1 X130.552 Y152.748 E6.35796
G1 X128.254 Y154.286 E6.49592
G1 X126.011 Y155.879 E6.63317
G1 X123.855 Y157.507 E6.76796
G1 X121.714 Y159.219 E6.90472
G1 X119.644 Y160.973 E7.04008
G1 X117.608 Y162.798 E7.1765
G1 X115.635 Y164.67 E7.31218
G1 X115.426 Y164.879 E7.32693
G1 X114.928 Y165.358 E7.3614
G1 X114.491 Y165.734 E7.39017
G1 X114.386 Y165.818 E7.39687
G1 X113.962 Y166.146 E7.42362
G1 X113.54 Y166.428 E7.44894
G1 X113.067 Y166.686 E7.47582
G1 X112.614 Y166.914 E7.50112
G1 X112.12 Y167.118 E7.52779
G1 X111.608 Y167.279 E7.55456
G1 X111.126 Y167.414 E7.57954
G1 X110.563 Y167.524 E7.60815
G1 X110.147 Y167.569 E7.62903
G1 X109.603 Y167.613 E7.65626
G1 X109.052 Y167.616 E7.68375
G1 X108.584 Y167.579 E7.70717
G1 X108.072 Y167.524 E7.73286
G1 X107.551 Y167.429 E7.75928
G1 X107.045 Y167.288 E7.78549
G1 X106.584 Y167.144 E7.80958
G1 X106.105 Y166.956 E7.83526
G1 X105.612 Y166.716 E7.86261
G1 X105.165 Y166.475 E7.88795
G1 X104.676 Y166.16 E7.91697
G1 X104.269 Y165.845 E7.94264
G1 X103.871 Y165.516 E7.96841
G1 X103.651 Y165.318 E7.98317
G1 X102.951 Y164.635 E8.03196
G1 X100.98 Y162.766 E8.16748
G1 X98.941 Y160.94 E8.30403
G1 X96.835 Y159.159 E8.44164
G1 X94.755 Y157.497 E8.57447
G1 X92.552 Y155.838 E8.71205
G1 X90.315 Y154.25 E8.84892
G1 X88.114 Y152.777 E8.98105
G1 X87.661 Y152.48 E9.00808
G1 X86.722 Y151.824 E9.06522
G1 X86.619 Y151.75 E9.07155
G1 X85.601 Y150.984 E9.13511
G1 X85.504 Y150.908 E9.14126
G1 X84.595 Y150.174 E9.19955
G1 X84.496 Y150.091 E9.20599
G1 X83.552 Y149.271 E9.26838
G1 X83.464 Y149.192 E9.27428
G1 X82.587 Y148.378 E9.33397
G1 X82.49 Y148.285 E9.34068
G1 X81.643 Y147.438 E9.40044
G1 X81.563 Y147.355 E9.40619
G1 X80.731 Y146.468 E9.46686
G1 X80.644 Y146.372 E9.47332
G1 X79.844 Y145.455 E9.53404
G1 X79.765 Y145.361 E9.54016
G1 X78.982 Y144.399 E9.60204
G1 X78.902 Y144.296 E9.60855
G1 X78.185 Y143.347 E9.66789
G1 X78.114 Y143.25 E9.67389
G1 X77.4 Y142.236 E9.73576
G1 X77.329 Y142.132 E9.74204
G1 X76.679 Y141.137 E9.80134
G1 X76.613 Y141.032 E9.80752
G1 X75.985 Y139.994 E9.86805
G1 X75.923 Y139.888 E9.87418
G1 X75.345 Y138.855 E9.93323
G1 X75.285 Y138.743 E9.93957
G1 X74.716 Y137.636 E10.00167
G1 X74.661 Y137.523 E10.00794
G1 X74.122 Y136.378 E10.07108
G1 X74.07 Y136.264 E10.07733
G1 X73.627 Y135.231 E10.1334
G1 X73.581 Y135.118 E10.13949
G1 X73.124 Y133.944 E10.20234
G1 X73.08 Y133.825 E10.20867
G1 X72.687 Y132.7 E10.26812
G1 X72.648 Y132.58 E10.27442
G1 X72.28 Y131.394 E10.33637
G1 X72.246 Y131.278 E10.3424
G1 X71.935 Y130.142 E10.40116
G1 X71.904 Y130.02 E10.40744
G1 X71.618 Y128.812 E10.46938
G1 X71.59 Y128.687 E10.47577
G1 X71.353 Y127.498 E10.53625
G1 X71.331 Y127.377 E10.54239
G1 X71.142 Y126.225 E10.60063
G1 X71.125 Y126.103 E10.60678
G1 X70.963 Y124.847 E10.66996
G1 X70.949 Y124.72 E10.67633
G1 X70.834 Y123.486 E10.73816
G1 X70.824 Y123.363 E10.74432
G1 X70.758 Y122.24 E10.80044
G1 X70.753 Y122.118 E10.80654
G1 X70.721 Y120.827 E10.87096
G1 X70.72 Y120.698 E10.8774
G1 X70.733 Y119.521 E10.93612
G1 X70.737 Y119.398 E10.94226
G1 X70.791 Y118.21 E11.00159
G1 X70.799 Y118.084 E11.00789
G1 X70.9 Y116.83 E11.07066
G1 X70.911 Y116.711 E11.07662
G1 X71.044 Y115.544 E11.13522
G1 X71.061 Y115.414 E11.14176
G1 X71.251 Y114.158 E11.20514
G1 X71.271 Y114.039 E11.21116
G1 X71.477 Y112.929 E11.26748
G1 X71.502 Y112.81 E11.27355
G1 X71.779 Y111.556 E11.33762
G1 X71.81 Y111.425 E11.34433
G1 X72.102 Y110.304 E11.40213
G1 X72.134 Y110.19 E11.40803
G1 X72.487 Y108.997 E11.4701
G1 X72.525 Y108.875 E11.47648
G1 X72.913 Y107.716 E11.53745
G1 X72.954 Y107.601 E11.54355
G1 X73.385 Y106.445 E11.6051
G1 X73.431 Y106.329 E11.61132
G1 X73.863 Y105.283 E11.66778
G1 X73.914 Y105.165 E11.6742
G1 X74.454 Y103.979 E11.73921
G1 X74.506 Y103.87 E11.74524
G1 X75.03 Y102.815 E11.80401
G1 X75.087 Y102.704 E11.81023
G1 X75.642 Y101.677 E11.86847
G1 X75.705 Y101.565 E11.87488
G1 X76.356 Y100.457 E11.939
G1 X76.42 Y100.352 E11.94513
G1 X77.045 Y99.367 E12.00333
G1 X77.113 Y99.264 E12.00949
G1 X77.816 Y98.236 E12.07162
G1 X77.889 Y98.133 E12.07792
G1 X78.602 Y97.165 E12.1379
G1 X78.677 Y97.067 E12.14406
G1 X79.406 Y96.145 E12.2027
G1 X79.486 Y96.048 E12.20897
G1 X80.318 Y95.068 E12.2731
G1 X80.401 Y94.974 E12.27936
G1 X81.169 Y94.131 E12.33625
G1 X81.255 Y94.04 E12.3425
G1 X82.134 Y93.14 E12.40526
G1 X82.221 Y93.053 E12.4114
G1 X83.087 Y92.225 E12.47118
G1 X83.178 Y92.141 E12.47736
G0 F2400 X83.444 Y92.439
G1 F1050 X84.355 Y91.626 E12.53827
G1 X84.442 Y91.552 E12.54397
G1 X85.36 Y90.79 E12.60349
G1 X85.446 Y90.721 E12.60899
G1 X86.431 Y89.959 E12.67112
G1 X86.519 Y89.894 E12.67658
G1 X87.499 Y89.188 E12.73684
G1 X87.59 Y89.124 E12.74239
G1 X88.571 Y88.468 E12.80127
G1 X88.665 Y88.408 E12.80683
G1 X89.735 Y87.745 E12.86963
G1 X89.831 Y87.687 E12.87523
G1 X90.838 Y87.111 E12.9331
G1 X90.931 Y87.06 E12.9384
G1 X92.003 Y86.493 E12.9989
G1 X92.105 Y86.442 E13.00459
G1 X93.262 Y85.882 E13.06872
G1 X93.364 Y85.834 E13.07434
G1 X94.427 Y85.365 E13.13231
G1 X94.528 Y85.323 E13.13776
G1 X95.67 Y84.865 E13.19915
G1 X95.774 Y84.825 E13.20471
G1 X96.881 Y84.425 E13.26343
G1 X96.985 Y84.39 E13.26891
G1 X98.168 Y84.008 E13.33093
G1 X98.277 Y83.975 E13.33661
G1 X99.44 Y83.645 E13.39692
G1 X99.547 Y83.616 E13.40245
G1 X100.722 Y83.326 E13.46283
G1 X100.824 Y83.303 E13.46805
G1 X102.034 Y83.046 E13.52976
G1 X102.147 Y83.024 E13.53551
G1 X103.312 Y82.82 E13.59451
G1 X103.42 Y82.803 E13.59997
G1 X104.634 Y82.633 E13.66113
G1 X104.746 Y82.619 E13.66676
G1 X105.954 Y82.493 E13.72735
G1 X106.066 Y82.484 E13.73296
G1 X107.258 Y82.402 E13.79257
G1 X107.366 Y82.396 E13.79796
G1 X108.596 Y82.353 E13.85937
G1 X108.708 Y82.351 E13.86495
G1 X109.919 Y82.351 E13.92537
G1 X110.031 Y82.353 E13.93096
G1 X111.235 Y82.395 E13.99106
G1 X111.345 Y82.401 E13.99656
G1 X112.566 Y82.486 E14.05762
G1 X112.675 Y82.495 E14.06308
G1 X113.867 Y82.619 E14.12287
G1 X113.978 Y82.633 E14.12845
G1 X115.197 Y82.803 E14.18986
G1 X115.309 Y82.82 E14.19551
G1 X116.482 Y83.026 E14.25493
G1 X117.789 Y83.3 E14.32155
G1 X117.901 Y83.325 E14.32727
G1 X119.09 Y83.62 E14.38839
G1 X119.195 Y83.648 E14.39381
G1 X120.323 Y83.969 E14.45232
G1 X120.428 Y84.001 E14.4578
G1 X121.626 Y84.387 E14.52059
G1 X121.733 Y84.424 E14.52624
G1 X122.872 Y84.836 E14.58667
G1 X122.975 Y84.875 E14.59217
G1 X124.08 Y85.318 E14.65156
G1 X124.184 Y85.362 E14.65719
G1 X125.368 Y85.887 E14.72181
G1 X126.513 Y86.44 E14.78525
G1 X126.615 Y86.492 E14.79096
G1 X127.668 Y87.048 E14.85037
G1 X127.762 Y87.1 E14.85573
G1 X128.801 Y87.694 E14.91544
G1 X128.899 Y87.752 E14.92112
G1 X129.951 Y88.404 E14.98287
G1 X130.044 Y88.464 E14.98839
G1 X131.032 Y89.125 E15.04769
G1 X131.124 Y89.189 E15.05328
G1 X132.137 Y89.919 E15.11558
G1 X132.224 Y89.984 E15.121
G1 X133.142 Y90.694 E15.1789
G1 X133.229 Y90.764 E15.18447
G1 X134.205 Y91.575 E15.24778
G1 X134.29 Y91.648 E15.25337
G1 X135.16 Y92.424 E15.31153
G1 X135.241 Y92.499 E15.31703
G1 X136.13 Y93.349 E15.3784
G1 X136.208 Y93.426 E15.38387
G1 X137.04 Y94.278 E15.44328
G1 X137.117 Y94.36 E15.44889
G1 X137.972 Y95.299 E15.51225
G1 X138.045 Y95.381 E15.51772
G1 X138.801 Y96.271 E15.57598
G1 X138.871 Y96.357 E15.58152
G1 X139.631 Y97.317 E15.6426
G1 X139.7 Y97.407 E15.64826
G1 X140.431 Y98.401 E15.70982
G1 X140.493 Y98.489 E15.71519
G1 X141.156 Y99.457 E15.77372
G1 X141.219 Y99.553 E15.77945
G1 X141.881 Y100.598 E15.84117
G1 X141.939 Y100.692 E15.84668
G1 X142.558 Y101.748 E15.90775
G1 X142.61 Y101.841 E15.91306
G1 X143.177 Y102.887 E15.97242
G1 X143.229 Y102.986 E15.978
G1 X143.776 Y104.085 E16.03925
G1 X143.825 Y104.188 E16.04494
G1 X144.319 Y105.276 E16.10455
G1 X144.363 Y105.379 E16.11014
G1 X144.83 Y106.511 E16.17123
G1 X144.869 Y106.609 E16.17649
G1 X145.288 Y107.728 E16.23611
G1 X145.327 Y107.837 E16.24188
G1 X145.736 Y109.063 E16.30636
G1 X146.079 Y110.215 E16.36633
G1 X146.111 Y110.327 E16.37214
G1 X146.441 Y111.606 E16.43804
G1 X146.714 Y112.827 E16.50046
G1 X146.737 Y112.936 E16.50602
G1 X146.964 Y114.153 E16.56778
G1 X146.983 Y114.266 E16.5735
G1 X147.161 Y115.454 E16.63343
G1 X147.175 Y115.56 E16.63876
G1 X147.313 Y116.753 E16.69868
G1 X147.324 Y116.867 E16.70439
G1 X147.424 Y118.122 E16.7672
G1 X147.431 Y118.232 E16.7727
G1 X147.484 Y119.411 E16.83158
G1 X147.487 Y119.521 E16.83707
G1 X147.5 Y120.733 E16.89754
G1 X147.499 Y120.845 E16.90313
G1 X147.47 Y122.037 E16.96262
G1 X147.466 Y122.146 E16.96806
G1 X147.393 Y123.394 E17.03043
G1 X147.384 Y123.505 E17.03598
G1 X147.27 Y124.725 E17.09711
G1 X147.258 Y124.837 E17.10273
G1 X147.11 Y125.982 E17.16033
G1 X147.094 Y126.089 E17.16573
G1 X146.888 Y127.348 E17.22938
G1 X146.868 Y127.46 E17.23505
G1 X146.634 Y128.627 E17.29444
G1 X146.611 Y128.732 E17.2998
G1 X146.34 Y129.882 E17.35874
G1 X146.312 Y129.992 E17.36441
G1 X145.989 Y131.173 E17.42549
G1 X145.957 Y131.28 E17.43106
G1 X145.588 Y132.465 E17.49298
G1 X145.554 Y132.569 E17.49844
G1 X145.154 Y133.714 E17.55895
G1 X145.116 Y133.818 E17.56447
G1 X144.687 Y134.922 E17.62357
G1 X144.645 Y135.025 E17.62912
G1 X144.16 Y136.155 E17.69046
G1 X144.114 Y136.257 E17.69605
G1 X143.595 Y137.358 E17.75677
G1 X143.547 Y137.456 E17.76222
G1 X142.992 Y138.537 E17.82284
G1 X142.939 Y138.636 E17.82844
G1 X142.349 Y139.692 E17.88879
G1 X142.292 Y139.789 E17.89441
G1 X141.647 Y140.854 E17.95652
G1 X141.589 Y140.946 E17.96195
