;FLAVOR:Marlin
;TIME:4809
;Filament used: 2.90532m, 0m
;Layer height: 0.2
;MINX:79.06
;MINY:72.815
;MINZ:0.3
;MAXX:155.94
;MAXY:158.181
;MAXZ:3.9
;POSTPROCESSED
;Generated with Cura_SteamEngine 4.7.1
T0
M140 S60
M105
M190 S60
M104 S200
M105
M109 S200
M82 ;absolute extrusion mode
M201 X500.00 Y500.00 Z100.00 E5000.00 	;Setup machine max acceleration
M203 X500.00 Y500.00 Z10.00 E50.00 	;Setup machine max feedrate
M204 P500.00 R1000.00 T500.00 		;Setup Print/Retract/Travel acceleration
M205 X8.00 Y8.00 Z0.40 E5.00 		;Setup Jerk
M220 S100 				;Reset Feedrate
M221 S100 				;Reset Flowrate
G28				;Home the Machine
G29 				;Bed Level
G92 E0
M300 P150 S587
G92 E0
G1 F1500 E-6.5
;LAYER_COUNT:19
;LAYER:0
M107
G0 F2400 X89.508 Y84.905 Z0.3
;TYPE:SKIRT
G1 F1500 E0
G1 X89.591 Y84.818 E0.00346
G1 X90.423 Y83.966 E0.03777
G1 X90.507 Y83.883 E0.04118
G1 X91.377 Y83.051 E0.07586
G1 X91.466 Y82.968 E0.07937
G1 X92.382 Y82.152 E0.11471
G1 X92.473 Y82.074 E0.11816
G1 X93.394 Y81.309 E0.15266
G1 X93.484 Y81.236 E0.156
G1 X94.454 Y80.484 E0.19136
G1 X94.552 Y80.411 E0.19488
G1 X95.541 Y79.699 E0.22999
G1 X95.639 Y79.632 E0.23341
G1 X96.627 Y78.971 E0.26766
G1 X96.728 Y78.906 E0.27112
G1 X97.78 Y78.254 E0.30678
G1 X97.885 Y78.191 E0.31031
G1 X98.903 Y77.609 E0.34409
G1 X99.003 Y77.554 E0.34738
G1 X100.125 Y76.961 E0.38395
G1 X100.236 Y76.905 E0.38753
G1 X101.283 Y76.399 E0.42103
G1 X101.388 Y76.35 E0.42437
G1 X102.527 Y75.846 E0.46026
G1 X102.642 Y75.798 E0.46385
G1 X103.777 Y75.344 E0.49907
G1 X103.884 Y75.303 E0.50237
G1 X104.984 Y74.905 E0.53607
G1 X105.098 Y74.866 E0.53954
G1 X106.281 Y74.484 E0.57536
G1 X106.397 Y74.449 E0.57885
G1 X107.564 Y74.117 E0.61381
G1 X107.682 Y74.085 E0.61733
G1 X108.866 Y73.793 E0.65247
G1 X108.977 Y73.768 E0.65574
G1 X110.143 Y73.521 E0.69008
G1 X110.262 Y73.498 E0.69358
G1 X111.46 Y73.288 E0.72862
G1 X111.579 Y73.269 E0.73209
G1 X112.797 Y73.099 E0.76752
G1 X112.915 Y73.085 E0.77095
G1 X114.12 Y72.959 E0.80585
G1 X114.242 Y72.948 E0.80938
G1 X115.431 Y72.866 E0.84372
G1 X115.547 Y72.86 E0.84707
G1 X116.777 Y72.817 E0.88253
G1 X116.898 Y72.815 E0.88601
G1 X118.102 Y72.815 E0.9207
G1 X118.223 Y72.817 E0.92419
G1 X119.453 Y72.86 E0.95965
G1 X119.569 Y72.866 E0.963
G1 X120.758 Y72.948 E0.99734
G1 X120.88 Y72.959 E1.00086
G1 X122.085 Y73.085 E1.03577
G1 X122.203 Y73.099 E1.0392
G1 X123.422 Y73.269 E1.07466
G1 X123.541 Y73.288 E1.07813
G1 X124.738 Y73.498 E1.11314
G1 X124.854 Y73.52 E1.11654
G1 X126.02 Y73.766 E1.15088
G1 X126.137 Y73.793 E1.15434
G1 X127.321 Y74.086 E1.18948
G1 X127.439 Y74.117 E1.193
G1 X128.606 Y74.45 E1.22796
G1 X128.717 Y74.484 E1.23131
G1 X129.9 Y74.865 E1.26711
G1 X130.016 Y74.905 E1.27065
G1 X131.116 Y75.303 E1.30435
G1 X131.223 Y75.344 E1.30765
G1 X132.358 Y75.798 E1.34287
G1 X132.474 Y75.847 E1.3465
G1 X133.612 Y76.351 E1.38236
G1 X133.715 Y76.398 E1.38562
G1 X134.763 Y76.904 E1.41915
G1 X134.874 Y76.96 E1.42273
G1 X135.995 Y77.552 E1.45926
G1 X136.097 Y77.608 E1.46261
G1 X137.116 Y78.191 E1.49644
G1 X137.22 Y78.254 E1.49994
G1 X138.272 Y78.906 E1.5356
G1 X138.373 Y78.971 E1.53906
G1 X139.361 Y79.632 E1.57331
G1 X139.459 Y79.699 E1.57673
G1 X140.448 Y80.411 E1.61184
G1 X140.546 Y80.484 E1.61536
G1 X141.516 Y81.236 E1.65072
G1 X141.606 Y81.309 E1.65406
G1 X142.527 Y82.074 E1.68856
G1 X142.618 Y82.152 E1.69201
G1 X143.534 Y82.968 E1.72735
G1 X143.623 Y83.051 E1.73086
G1 X144.493 Y83.883 E1.76554
G1 X144.577 Y83.966 E1.76895
G1 X145.409 Y84.818 E1.80326
G1 X145.492 Y84.905 E1.80672
G1 X146.338 Y85.834 E1.84292
G1 X146.418 Y85.925 E1.84641
G1 X147.213 Y86.862 E1.88182
G1 X147.287 Y86.952 E1.88517
G1 X147.98 Y87.827 E1.91733
G1 X148.053 Y87.923 E1.92081
G1 X148.836 Y88.986 E1.95885
G1 X148.905 Y89.084 E1.9623
G1 X149.553 Y90.031 E1.99536
G1 X149.62 Y90.133 E1.99888
G1 X150.282 Y91.178 E2.03452
G1 X150.344 Y91.279 E2.03793
G1 X150.963 Y92.335 E2.0732
G1 X151.02 Y92.436 E2.07654
G1 X151.587 Y93.482 E2.11082
G1 X151.643 Y93.589 E2.1143
G1 X152.19 Y94.688 E2.14967
G1 X152.242 Y94.799 E2.1532
G1 X152.736 Y95.887 E2.18763
G1 X152.784 Y95.997 E2.19109
G1 X153.249 Y97.124 E2.22621
G1 X153.291 Y97.232 E2.22955
G1 X153.721 Y98.382 E2.26492
G1 X153.763 Y98.498 E2.26848
G1 X154.14 Y99.628 E2.3028
G1 X154.175 Y99.74 E2.30618
G1 X154.532 Y100.945 E2.34239
G1 X154.564 Y101.061 E2.34586
G1 X154.862 Y102.213 E2.38014
G1 X154.889 Y102.326 E2.38349
G1 X155.149 Y103.492 E2.41791
G1 X155.174 Y103.613 E2.42147
G1 X155.397 Y104.813 E2.45663
G1 X155.417 Y104.931 E2.46008
G1 X155.599 Y106.144 E2.49542
G1 X155.615 Y106.263 E2.49888
G1 X155.75 Y107.44 E2.53301
G1 X155.761 Y107.556 E2.53637
G1 X155.862 Y108.81 E2.57262
G1 X155.869 Y108.93 E2.57608
G1 X155.923 Y110.116 E2.61029
G1 X155.927 Y110.236 E2.61375
G1 X155.94 Y111.447 E2.64864
G1 X155.939 Y111.567 E2.6521
G1 X155.91 Y112.766 E2.68665
G1 X155.905 Y112.884 E2.69005
G1 X155.832 Y114.134 E2.72613
G1 X155.823 Y114.258 E2.72971
G1 X155.715 Y115.401 E2.76279
G1 X155.702 Y115.515 E2.7661
G1 X155.537 Y116.8 E2.80342
G1 X155.519 Y116.921 E2.80695
G1 X155.332 Y118.057 E2.84012
G1 X155.312 Y118.171 E2.84345
G1 X155.066 Y119.406 E2.87973
G1 X155.039 Y119.526 E2.88328
G1 X154.772 Y120.655 E2.9167
G1 X154.742 Y120.772 E2.92018
G1 X154.41 Y121.984 E2.95639
G1 X154.377 Y122.099 E2.95984
G1 X154.019 Y123.248 E2.99451
G1 X153.983 Y123.357 E2.99782
G1 X153.587 Y124.494 E3.03251
G1 X153.544 Y124.609 E3.03605
G1 X153.112 Y125.72 E3.07039
G1 X153.067 Y125.831 E3.07384
G1 X152.571 Y126.986 E3.11006
G1 X152.523 Y127.094 E3.11346
G1 X152.026 Y128.15 E3.14709
G1 X151.972 Y128.259 E3.15059
G1 X151.391 Y129.389 E3.1872
G1 X151.334 Y129.494 E3.19064
G1 X150.756 Y130.528 E3.22477
G1 X150.696 Y130.632 E3.22823
G1 X150.068 Y131.669 E3.26316
G1 X150.006 Y131.768 E3.26653
G1 X149.357 Y132.762 E3.30073
G1 X149.288 Y132.863 E3.30425
G1 X148.573 Y133.878 E3.34003
G1 X148.503 Y133.974 E3.34345
G1 X147.785 Y134.922 E3.37771
G1 X147.713 Y135.014 E3.38108
G1 X146.931 Y135.977 E3.41682
G1 X146.85 Y136.073 E3.42044
G1 X146.049 Y136.989 E3.4555
G1 X145.971 Y137.075 E3.45884
G1 X145.14 Y137.963 E3.49388
G1 X145.058 Y138.048 E3.49728
G1 X144.21 Y138.894 E3.5318
G1 X144.123 Y138.978 E3.53528
G1 X143.247 Y139.793 E3.56975
G1 X143.157 Y139.874 E3.57324
G1 X142.212 Y140.693 E3.60927
G1 X142.123 Y140.767 E3.61261
G1 X141.198 Y141.516 E3.6469
G1 X141.099 Y141.593 E3.65051
G1 X140.142 Y142.312 E3.685
G1 X140.049 Y142.381 E3.68834
G1 X139.036 Y143.09 E3.72396
G1 X138.696 Y143.313 E3.73568
G1 X136.389 Y144.856 E3.81564
G1 X134.137 Y146.455 E3.89522
G1 X131.989 Y148.073 E3.9727
G1 X129.838 Y149.793 E4.05205
G1 X127.769 Y151.545 E4.13016
G1 X125.717 Y153.383 E4.20953
G1 X123.751 Y155.247 E4.28759
G1 X123.603 Y155.395 E4.29362
G1 X123.026 Y155.953 E4.31674
G1 X122.527 Y156.379 E4.33565
G1 X122.464 Y156.43 E4.33798
G1 X122.068 Y156.737 E4.35242
G1 X121.521 Y157.088 E4.37114
G1 X120.738 Y157.493 E4.39654
G1 X120.146 Y157.728 E4.41489
G1 X119.789 Y157.838 E4.42566
G1 X119.306 Y157.975 E4.44012
G1 X118.78 Y158.081 E4.45558
G1 X118.31 Y158.135 E4.46921
G1 X117.772 Y158.178 E4.48476
G1 X117.263 Y158.181 E4.49943
G1 X116.805 Y158.147 E4.51266
G1 X116.268 Y158.087 E4.52823
G1 X115.721 Y157.982 E4.54427
G1 X115.304 Y157.866 E4.55674
G1 X114.781 Y157.703 E4.57253
G1 X114.279 Y157.502 E4.58811
G1 X113.891 Y157.307 E4.60062
G1 X113.402 Y157.042 E4.61664
G1 X112.966 Y156.761 E4.63159
G1 X112.605 Y156.485 E4.64468
G1 X112.189 Y156.144 E4.66018
G1 X111.972 Y155.95 E4.66856
G1 X111.159 Y155.16 E4.70123
G1 X109.137 Y153.249 E4.78138
G1 X107.117 Y151.446 E4.8594
G1 X105.005 Y149.665 E4.93899
G1 X102.871 Y147.965 E5.0176
G1 X100.705 Y146.34 E5.09562
G1 X98.466 Y144.757 E5.17462
G1 X96.359 Y143.35 E5.24762
G1 X95.981 Y143.103 E5.26063
G1 X94.947 Y142.378 E5.29701
G1 X94.855 Y142.311 E5.30029
G1 X93.9 Y141.593 E5.33472
G1 X93.805 Y141.519 E5.33819
G1 X92.879 Y140.771 E5.37248
G1 X92.785 Y140.692 E5.37602
G1 X91.841 Y139.872 E5.41205
G1 X91.756 Y139.796 E5.41533
G1 X90.879 Y138.982 E5.44981
G1 X90.786 Y138.893 E5.45351
G1 X89.939 Y138.046 E5.48803
G1 X89.031 Y137.079 E5.52624
G1 X88.947 Y136.987 E5.52983
G1 X88.147 Y136.07 E5.56489
G1 X88.071 Y135.98 E5.56829
G1 X87.288 Y135.018 E5.60403
G1 X87.211 Y134.92 E5.60762
G1 X86.494 Y133.971 E5.64189
G1 X86.426 Y133.877 E5.64523
G1 X85.712 Y132.863 E5.68096
G1 X85.645 Y132.764 E5.6844
G1 X84.995 Y131.769 E5.71865
G1 X84.931 Y131.668 E5.72209
G1 X84.303 Y130.63 E5.75704
G1 X84.244 Y130.529 E5.76041
G1 X83.666 Y129.496 E5.79452
G1 X83.609 Y129.389 E5.79801
G1 X83.028 Y128.259 E5.83462
G1 X82.974 Y128.15 E5.83813
G1 X82.477 Y127.094 E5.87175
G1 X82.428 Y126.985 E5.87519
G1 X81.933 Y125.831 E5.91137
G1 X81.889 Y125.723 E5.91473
G1 X81.456 Y124.611 E5.94911
G1 X81.413 Y124.495 E5.95268
G1 X81.017 Y123.359 E5.98734
G1 X80.981 Y123.248 E5.9907
G1 X80.623 Y122.098 E6.0254
G1 X80.589 Y121.983 E6.02886
G1 X80.257 Y120.769 E6.06512
G1 X80.228 Y120.654 E6.06854
G1 X79.961 Y119.527 E6.10191
G1 X79.935 Y119.407 E6.10545
G1 X79.689 Y118.174 E6.14167
G1 X79.668 Y118.058 E6.14507
G1 X79.481 Y116.92 E6.17829
G1 X79.463 Y116.801 E6.18176
G1 X79.298 Y115.517 E6.21906
G1 X79.285 Y115.401 E6.22242
G1 X79.177 Y114.257 E6.25553
G1 X79.168 Y114.134 E6.25908
G1 X79.095 Y112.886 E6.2951
G1 X79.09 Y112.768 E6.2985
G1 X79.061 Y111.567 E6.33312
G1 X79.06 Y111.447 E6.33657
G1 X79.073 Y110.238 E6.37141
G1 X79.077 Y110.118 E6.37487
G1 X79.131 Y108.93 E6.40913
G1 X79.138 Y108.81 E6.4126
G1 X79.239 Y107.556 E6.44884
G1 X79.25 Y107.44 E6.4522
G1 X79.385 Y106.263 E6.48633
G1 X79.401 Y106.143 E6.48982
G1 X79.583 Y104.932 E6.5251
G1 X79.603 Y104.816 E6.5285
G1 X79.826 Y103.614 E6.56372
G1 X79.85 Y103.497 E6.56716
G1 X80.108 Y102.332 E6.60154
G1 X80.137 Y102.209 E6.60518
G1 X80.437 Y101.056 E6.6395
G1 X80.468 Y100.945 E6.64282
G1 X80.825 Y99.74 E6.67903
G1 X80.86 Y99.628 E6.68242
G1 X81.237 Y98.498 E6.71674
G1 X81.278 Y98.384 E6.72023
G1 X81.707 Y97.234 E6.75559
G1 X81.751 Y97.122 E6.75906
G1 X82.217 Y95.995 E6.79419
G1 X82.265 Y95.884 E6.79768
G1 X82.76 Y94.796 E6.83212
G1 X82.81 Y94.69 E6.83549
G1 X83.356 Y93.591 E6.87085
G1 X83.411 Y93.486 E6.87427
G1 X83.976 Y92.44 E6.90852
G1 X84.037 Y92.331 E6.91212
G1 X84.658 Y91.275 E6.94741
G1 X84.718 Y91.178 E6.9507
G1 X85.38 Y90.133 E6.98634
G1 X85.447 Y90.031 E6.98986
G1 X86.095 Y89.084 E7.02292
G1 X86.164 Y88.986 E7.02637
G1 X86.947 Y87.923 E7.06441
G1 X87.02 Y87.827 E7.06788
G1 X87.713 Y86.952 E7.10004
G1 X87.787 Y86.862 E7.1034
G1 X88.582 Y85.925 E7.1388
G1 X88.662 Y85.834 E7.1423
G1 X89.508 Y84.905 E7.1785
G0 F2400 X89.73 Y85.107
G1 F1500 X89.805 Y85.027 E7.18166
G1 X90.637 Y84.175 E7.21597
G1 X90.714 Y84.099 E7.21908
G1 X91.584 Y83.267 E7.25377
G1 X91.666 Y83.192 E7.25697
G1 X92.582 Y82.376 E7.29231
G1 X92.664 Y82.305 E7.29544
G1 X93.585 Y81.54 E7.32993
G1 X93.668 Y81.474 E7.33299
G1 X94.638 Y80.722 E7.36835
G1 X94.728 Y80.655 E7.37158
G1 X95.717 Y79.943 E7.40669
G1 X95.805 Y79.881 E7.4098
G1 X96.793 Y79.22 E7.44404
G1 X96.886 Y79.161 E7.44722
G1 X97.938 Y78.509 E7.48288
G1 X98.034 Y78.451 E7.48611
G1 X99.052 Y77.869 E7.51989
G1 X99.143 Y77.819 E7.52289
G1 X100.265 Y77.226 E7.55945
G1 X100.366 Y77.175 E7.56271
G1 X101.413 Y76.669 E7.59621
G1 X101.509 Y76.624 E7.59927
G1 X102.648 Y76.12 E7.63515
G1 X102.753 Y76.076 E7.63843
G1 X103.888 Y75.622 E7.67365
G1 X103.986 Y75.585 E7.67667
G1 X105.086 Y75.187 E7.71037
G1 X105.19 Y75.151 E7.71355
G1 X106.373 Y74.769 E7.74936
G1 X106.479 Y74.737 E7.75255
G1 X107.646 Y74.405 E7.78751
G1 X107.754 Y74.377 E7.79072
G1 X109.039 Y74.061 E7.82885
G1 X110.205 Y73.814 E7.86319
G1 X110.314 Y73.793 E7.86639
G1 X111.512 Y73.583 E7.90143
G1 X111.621 Y73.566 E7.90461
G1 X112.839 Y73.396 E7.94004
G1 X112.946 Y73.383 E7.94315
G1 X114.151 Y73.257 E7.97806
G1 X114.262 Y73.247 E7.98127
G1 X115.451 Y73.165 E8.0156
G1 X115.558 Y73.16 E8.01869
G1 X116.788 Y73.117 E8.05415
G1 X116.898 Y73.115 E8.05732
G1 X118.102 Y73.115 E8.09201
G1 X118.212 Y73.117 E8.09518
G1 X119.442 Y73.16 E8.13064
G1 X119.549 Y73.165 E8.13373
G1 X120.738 Y73.247 E8.16806
G1 X120.849 Y73.257 E8.17127
G1 X122.054 Y73.383 E8.20618
G1 X122.161 Y73.396 E8.20929
G1 X123.38 Y73.566 E8.24475
G1 X123.489 Y73.583 E8.24793
G1 X124.686 Y73.793 E8.28294
G1 X124.792 Y73.814 E8.28605
G1 X125.958 Y74.06 E8.32039
G1 X126.065 Y74.084 E8.32355
G1 X127.249 Y74.377 E8.35869
G1 X127.356 Y74.406 E8.36188
G1 X128.523 Y74.739 E8.39685
G1 X128.625 Y74.77 E8.39992
G1 X129.808 Y75.151 E8.43573
G1 X129.914 Y75.187 E8.43895
G1 X131.014 Y75.585 E8.47266
G1 X131.112 Y75.622 E8.47568
G1 X132.247 Y76.076 E8.5109
G1 X132.353 Y76.121 E8.51421
G1 X133.491 Y76.625 E8.55007
G1 X133.585 Y76.668 E8.55305
G1 X134.633 Y77.174 E8.58658
G1 X134.734 Y77.226 E8.58985
G1 X135.855 Y77.818 E8.62638
G1 X135.948 Y77.869 E8.62944
G1 X136.967 Y78.452 E8.66326
G1 X137.062 Y78.509 E8.66645
G1 X138.114 Y79.161 E8.70211
G1 X138.207 Y79.22 E8.70528
G1 X139.195 Y79.881 E8.73953
G1 X139.283 Y79.943 E8.74263
G1 X140.272 Y80.655 E8.77775
G1 X140.362 Y80.722 E8.78098
G1 X141.332 Y81.474 E8.81634
G1 X141.415 Y81.54 E8.8194
G1 X142.336 Y82.305 E8.85389
G1 X142.418 Y82.376 E8.85702
G1 X143.334 Y83.192 E8.89236
G1 X143.416 Y83.267 E8.89556
G1 X144.286 Y84.099 E8.93025
G1 X144.363 Y84.175 E8.93336
G1 X145.195 Y85.027 E8.96767
G1 X145.27 Y85.107 E8.97083
G1 X146.116 Y86.036 E9.00703
G1 X146.189 Y86.119 E9.01022
G1 X146.984 Y87.056 E9.04562
G1 X147.051 Y87.138 E9.04867
G1 X147.744 Y88.013 E9.08083
G1 X147.811 Y88.101 E9.08402
G1 X148.594 Y89.164 E9.12206
G1 X148.658 Y89.253 E9.12522
G1 X149.306 Y90.2 E9.15828
G1 X149.367 Y90.293 E9.16148
G1 X150.029 Y91.338 E9.19712
G1 X150.086 Y91.431 E9.20026
G1 X150.705 Y92.487 E9.23553
G1 X151.323 Y93.625 E9.27284
G1 X151.374 Y93.722 E9.276
G1 X151.921 Y94.821 E9.31137
G1 X151.969 Y94.923 E9.31462
G1 X152.463 Y96.011 E9.34904
G1 X152.507 Y96.112 E9.35222
G1 X152.972 Y97.239 E9.38734
G1 X153.01 Y97.337 E9.39037
G1 X153.44 Y98.487 E9.42575
G1 X153.478 Y98.593 E9.42899
G1 X153.855 Y99.723 E9.46331
G1 X153.887 Y99.825 E9.46639
G1 X154.244 Y101.03 E9.5026
G1 X154.274 Y101.136 E9.50578
G1 X154.572 Y102.288 E9.54006
G1 X154.856 Y103.557 E9.57752
G1 X154.879 Y103.667 E9.58076
G1 X155.102 Y104.867 E9.61593
G1 X155.12 Y104.976 E9.61911
G1 X155.302 Y106.189 E9.65445
G1 X155.316 Y106.297 E9.65759
G1 X155.451 Y107.474 E9.69172
G1 X155.462 Y107.58 E9.69479
G1 X155.563 Y108.834 E9.73104
G1 X155.57 Y108.944 E9.73422
G1 X155.624 Y110.13 E9.76842
G1 X155.627 Y110.239 E9.77156
G1 X155.64 Y111.45 E9.80646
G1 X155.639 Y111.56 E9.80963
G1 X155.61 Y112.759 E9.84418
G1 X155.606 Y112.867 E9.84729
G1 X155.533 Y114.117 E9.88337
G1 X155.524 Y114.229 E9.88661
G1 X155.416 Y115.372 E9.91969
G1 X155.404 Y115.477 E9.92273
G1 X155.239 Y116.762 E9.96006
G1 X155.223 Y116.873 E9.96329
G1 X155.036 Y118.009 E9.99646
G1 X155.017 Y118.112 E9.99948
G1 X154.771 Y119.347 E10.03576
G1 X154.747 Y119.457 E10.039
G1 X154.48 Y120.586 E10.07243
G1 X154.453 Y120.693 E10.07561
G1 X154.121 Y121.905 E10.11181
G1 X154.09 Y122.01 E10.11497
G1 X153.732 Y123.159 E10.14964
G1 X153.7 Y123.258 E10.15264
G1 X153.304 Y124.395 E10.18733
G1 X153.265 Y124.501 E10.19058
G1 X152.833 Y125.612 E10.22493
G1 X152.791 Y125.713 E10.22808
G1 X152.295 Y126.868 E10.26429
G1 X152.251 Y126.966 E10.26739
G1 X151.754 Y128.022 E10.30102
G1 X151.705 Y128.121 E10.3042
G1 X151.073 Y129.348 E10.34396
G1 X150.495 Y130.382 E10.37809
G1 X150.439 Y130.477 E10.38127
G1 X149.811 Y131.514 E10.4162
G1 X149.755 Y131.604 E10.41925
G1 X149.106 Y132.598 E10.45346
G1 X149.043 Y132.69 E10.45667
G1 X148.328 Y133.705 E10.49244
G1 X148.264 Y133.793 E10.49558
