;FLAVOR:Marlin
;TIME:5185
;Filament used: 3.12791m, 0m
;Layer height: 0.15
;MINX:77.502
;MINY:71.251
;MINZ:0.3
;MAXX:157.498
;MAXY:159.748
;MAXZ:3.9
;POSTPROCESSED
;Generated with Cura_SteamEngine 4.7.1
T0
M140 S60
M105
M190 S60
M104 S190
M105
M109 S190
M82 ;absolute extrusion mode
M201 X500.00 Y500.00 Z100.00 E5000.00 	;Setup machine max acceleration
M203 X500.00 Y500.00 Z10.00 E50.00 	;Setup machine max feedrate
M204 P500.00 R1000.00 T500.00 		;Setup Print/Retract/Travel acceleration
M205 X8.00 Y8.00 Z0.40 E5.00 		;Setup Jerk
M220 S100 				;Reset Feedrate
M221 S100 				;Reset Flowrate
G28				;Home the Machine
G29 				;Bed Level
G92 E0
M300 P150 S587
G92 E0
G1 F1500 E-6.5
;LAYER_COUNT:25
;LAYER:0
M107
G0 F1800 X88.815 Y83.372 Z0.3
;TYPE:SKIRT
G1 F1500 E0
G1 X88.939 Y83.245 E0.00886
G1 X89.802 Y82.392 E0.06939
G1 X89.924 Y82.275 E0.07783
G1 X90.815 Y81.452 E0.13834
G1 X90.948 Y81.334 E0.14721
G1 X91.869 Y80.542 E0.20781
G1 X91.998 Y80.435 E0.21617
G1 X92.943 Y79.676 E0.27664
G1 X93.084 Y79.567 E0.28554
G1 X94.057 Y78.841 E0.3461
G1 X94.199 Y78.739 E0.35482
G1 X95.196 Y78.048 E0.41534
G1 X95.334 Y77.955 E0.42365
G1 X96.354 Y77.297 E0.4842
G1 X96.509 Y77.201 E0.4933
G1 X97.552 Y76.581 E0.55384
G1 X97.693 Y76.5 E0.56195
G1 X98.756 Y75.914 E0.62251
G1 X98.914 Y75.831 E0.63141
G1 X99.998 Y75.283 E0.69201
G1 X100.154 Y75.207 E0.70067
G1 X101.254 Y74.698 E0.76114
G1 X101.416 Y74.627 E0.76996
G1 X102.534 Y74.157 E0.83047
G1 X102.69 Y74.094 E0.83886
G1 X103.825 Y73.661 E0.89947
G1 X103.989 Y73.602 E0.90816
G1 X105.138 Y73.209 E0.96875
G1 X105.304 Y73.155 E0.97745
G1 X106.464 Y72.803 E1.03793
G1 X106.632 Y72.756 E1.04664
G1 X107.806 Y72.444 E1.10724
G1 X107.972 Y72.403 E1.11577
G1 X109.153 Y72.132 E1.17622
G1 X109.323 Y72.096 E1.18489
G1 X110.514 Y71.866 E1.24541
G1 X110.683 Y71.836 E1.25397
G1 X111.882 Y71.647 E1.31453
G1 X112.056 Y71.623 E1.32329
G1 X113.262 Y71.476 E1.3839
G1 X113.434 Y71.458 E1.39253
G1 X114.642 Y71.353 E1.45303
G1 X114.816 Y71.341 E1.46173
G1 X116.029 Y71.278 E1.52233
G1 X116.201 Y71.272 E1.53091
G1 X117.413 Y71.251 E1.59139
G1 X117.587 Y71.251 E1.60007
G1 X118.8 Y71.272 E1.6606
G1 X118.973 Y71.278 E1.66923
G1 X120.184 Y71.341 E1.72973
G1 X120.356 Y71.353 E1.73833
G1 X121.566 Y71.458 E1.79893
G1 X121.74 Y71.476 E1.80765
G1 X122.944 Y71.623 E1.86817
G1 X123.117 Y71.647 E1.87688
G1 X124.316 Y71.836 E1.93744
G1 X124.48 Y71.865 E1.94575
G1 X125.673 Y72.094 E2.00635
G1 X125.852 Y72.132 E2.01548
G1 X127.033 Y72.404 E2.07595
G1 X127.197 Y72.444 E2.08437
G1 X128.369 Y72.756 E2.14488
G1 X128.533 Y72.803 E2.15339
G1 X129.695 Y73.155 E2.21396
G1 X129.866 Y73.21 E2.22292
G1 X131.013 Y73.603 E2.28341
G1 X131.171 Y73.66 E2.29179
G1 X132.306 Y74.092 E2.35238
G1 X132.469 Y74.157 E2.36114
G1 X133.589 Y74.629 E2.42177
G1 X133.747 Y74.699 E2.43039
G1 X134.847 Y75.208 E2.49086
G1 X135.003 Y75.284 E2.49952
G1 X136.085 Y75.831 E2.56001
G1 X136.238 Y75.912 E2.56864
G1 X137.302 Y76.497 E2.62922
G1 X137.454 Y76.584 E2.63796
G1 X138.497 Y77.206 E2.69855
G1 X138.641 Y77.295 E2.70699
G1 X139.661 Y77.951 E2.7675
G1 X139.809 Y78.05 E2.77638
G1 X140.805 Y78.742 E2.83689
G1 X140.942 Y78.841 E2.84532
G1 X141.915 Y79.567 E2.90588
G1 X142.051 Y79.672 E2.91446
G1 X142.997 Y80.43 E2.97493
G1 X143.135 Y80.545 E2.9839
G1 X144.055 Y81.338 E3.04449
G1 X144.179 Y81.448 E3.05276
G1 X145.071 Y82.27 E3.11328
G1 X145.202 Y82.395 E3.12231
G1 X146.064 Y83.249 E3.18285
G1 X146.18 Y83.368 E3.19114
G1 X147.013 Y84.25 E3.25167
G1 X147.135 Y84.383 E3.26067
G1 X147.936 Y85.295 E3.32123
G1 X148.048 Y85.427 E3.32987
G1 X148.816 Y86.365 E3.39035
G1 X148.919 Y86.496 E3.39866
G1 X149.657 Y87.461 E3.45927
G1 X149.764 Y87.607 E3.4683
G1 X150.465 Y88.596 E3.52878
G1 X150.56 Y88.733 E3.5371
G1 X151.229 Y89.747 E3.5977
G1 X151.325 Y89.899 E3.60667
G1 X151.957 Y90.936 E3.66726
G1 X152.041 Y91.08 E3.67558
G1 X152.637 Y92.136 E3.73607
G1 X152.721 Y92.291 E3.74487
G1 X153.28 Y93.368 E3.80541
G1 X153.358 Y93.524 E3.81411
G1 X153.879 Y94.62 E3.87465
G1 X153.951 Y94.778 E3.88331
G1 X154.433 Y95.89 E3.94378
G1 X154.497 Y96.047 E3.95224
G1 X154.942 Y97.177 E4.01283
G1 X155.004 Y97.343 E4.02167
G1 X155.408 Y98.486 E4.08215
G1 X155.463 Y98.65 E4.09078
G1 X155.828 Y99.809 E4.1514
G1 X155.877 Y99.976 E4.16009
G1 X156.201 Y101.145 E4.22061
G1 X156.244 Y101.31 E4.22911
G1 X156.528 Y102.49 E4.28966
G1 X156.566 Y102.658 E4.29826
G1 X156.809 Y103.846 E4.35875
G1 X156.841 Y104.02 E4.36758
G1 X157.042 Y105.217 E4.42814
G1 X157.068 Y105.389 E4.43681
G1 X157.227 Y106.591 E4.4973
G1 X157.246 Y106.761 E4.50584
G1 X157.364 Y107.97 E4.56644
G1 X157.378 Y108.143 E4.5751
G1 X157.454 Y109.354 E4.63564
G1 X157.462 Y109.527 E4.64428
G1 X157.496 Y110.74 E4.70482
G1 X157.498 Y110.913 E4.71345
G1 X157.49 Y112.126 E4.77397
G1 X157.486 Y112.299 E4.7826
G1 X157.436 Y113.512 E4.84317
G1 X157.425 Y113.689 E4.85202
G1 X157.332 Y114.899 E4.91256
G1 X157.316 Y115.068 E4.92103
G1 X157.182 Y116.274 E4.98157
G1 X157.16 Y116.448 E4.99032
G1 X156.984 Y117.648 E5.05083
G1 X156.956 Y117.816 E5.05933
G1 X156.739 Y119.01 E5.11987
G1 X156.706 Y119.179 E5.12846
G1 X156.448 Y120.365 E5.18901
G1 X156.407 Y120.538 E5.19788
G1 X156.107 Y121.714 E5.25843
G1 X156.061 Y121.883 E5.26717
G1 X155.72 Y123.048 E5.32773
G1 X155.669 Y123.209 E5.33616
G1 X155.289 Y124.361 E5.39668
G1 X155.231 Y124.528 E5.4055
G1 X154.811 Y125.665 E5.46597
G1 X154.751 Y125.821 E5.47431
G1 X154.292 Y126.946 E5.53493
G1 X154.22 Y127.113 E5.544
G1 X153.721 Y128.219 E5.60453
G1 X153.651 Y128.368 E5.61275
G1 X153.116 Y129.457 E5.67328
G1 X153.034 Y129.616 E5.68221
G1 X152.461 Y130.684 E5.74267
G1 X152.377 Y130.835 E5.75129
G1 X151.766 Y131.885 E5.8119
G1 X151.676 Y132.032 E5.8205
G1 X151.03 Y133.059 E5.88103
G1 X150.936 Y133.204 E5.88965
G1 X150.255 Y134.208 E5.95018
G1 X150.154 Y134.351 E5.95891
G1 X149.438 Y135.331 E6.01946
G1 X149.335 Y135.467 E6.02798
G1 X148.586 Y136.422 E6.08853
G1 X148.475 Y136.558 E6.09728
G1 X147.693 Y137.486 E6.15783
G1 X147.578 Y137.618 E6.16656
G1 X146.764 Y138.518 E6.22711
G1 X146.647 Y138.643 E6.23565
G1 X145.803 Y139.514 E6.29616
G1 X145.681 Y139.636 E6.30476
G1 X144.807 Y140.478 E6.36531
G1 X144.679 Y140.597 E6.37403
G1 X143.776 Y141.408 E6.43458
G1 X143.646 Y141.521 E6.44318
G1 X142.716 Y142.3 E6.5037
G1 X142.582 Y142.408 E6.51229
G1 X141.625 Y143.155 E6.57286
G1 X141.486 Y143.26 E6.58155
G1 X140.504 Y143.973 E6.64209
G1 X140.36 Y144.073 E6.65084
G1 X139.354 Y144.751 E6.71136
G1 X139.21 Y144.845 E6.71994
G1 X138.181 Y145.488 E6.78048
G1 X138.03 Y145.579 E6.78927
G1 X136.98 Y146.185 E6.84976
G1 X136.832 Y146.267 E6.8582
G1 X135.76 Y146.838 E6.91879
G1 X135.605 Y146.917 E6.92747
G1 X134.515 Y147.45 E6.98801
G1 X134.358 Y147.523 E6.99664
G1 X133.25 Y148.018 E7.05719
G1 X133.091 Y148.086 E7.06582
G1 X131.967 Y148.542 E7.12633
G1 X131.801 Y148.606 E7.13521
G1 X130.661 Y149.022 E7.19575
G1 X130.498 Y149.078 E7.20435
G1 X129.343 Y149.455 E7.26496
G1 X129.182 Y149.505 E7.27337
G1 X128.018 Y149.842 E7.33383
G1 X127.845 Y149.889 E7.34278
G1 X126.987 Y150.104 E7.3869
G1 X126.989 Y150.7 E7.41664
G1 X126.957 Y151.032 E7.43328
G1 X126.846 Y151.892 E7.47654
G1 X126.725 Y152.513 E7.50811
G1 X126.631 Y152.831 E7.52465
G1 X126.358 Y153.651 E7.56777
G1 X126.121 Y154.237 E7.5993
G1 X125.972 Y154.524 E7.61544
G1 X125.55 Y155.274 E7.65837
G1 X125.205 Y155.804 E7.68992
G1 X125.005 Y156.056 E7.70597
G1 X124.446 Y156.715 E7.74908
G1 X124.007 Y157.171 E7.78066
G1 X123.75 Y157.39 E7.79751
G1 X123.074 Y157.929 E7.84064
G1 X122.556 Y158.291 E7.87217
G1 X122.273 Y158.451 E7.88839
G1 X121.504 Y158.853 E7.93168
G1 X120.927 Y159.11 E7.9632
G1 X120.608 Y159.216 E7.97997
G1 X119.781 Y159.461 E8.023
G1 X119.165 Y159.602 E8.05452
G1 X118.841 Y159.644 E8.07082
G1 X117.98 Y159.727 E8.11398
G1 X117.348 Y159.748 E8.14553
G1 X117.02 Y159.727 E8.16192
G1 X116.159 Y159.644 E8.20508
G1 X115.535 Y159.544 E8.23661
G1 X115.219 Y159.461 E8.25291
G1 X114.392 Y159.216 E8.29594
G1 X113.798 Y158.999 E8.32749
G1 X113.496 Y158.853 E8.34423
G1 X112.727 Y158.451 E8.38752
G1 X112.186 Y158.123 E8.41908
G1 X111.926 Y157.929 E8.43526
G1 X111.25 Y157.39 E8.4784
G1 X110.782 Y156.966 E8.5099
G1 X110.554 Y156.715 E8.52682
G1 X109.995 Y156.056 E8.56994
G1 X109.617 Y155.549 E8.60149
G1 X109.45 Y155.274 E8.61754
G1 X109.028 Y154.524 E8.66047
G1 X108.754 Y153.954 E8.69202
G1 X108.642 Y153.651 E8.70814
G1 X108.369 Y152.831 E8.75126
G1 X108.208 Y152.22 E8.78278
G1 X108.154 Y151.892 E8.79937
G1 X108.043 Y151.032 E8.84263
G1 X108.002 Y150.401 E8.87417
G1 X108.012 Y150.104 E8.889
G1 X107.149 Y149.886 E8.93341
G1 X106.984 Y149.842 E8.94193
G1 X105.82 Y149.506 E9.00237
G1 X105.653 Y149.454 E9.0111
G1 X104.5 Y149.077 E9.07162
G1 X104.34 Y149.022 E9.08006
G1 X103.2 Y148.606 E9.1406
G1 X103.037 Y148.543 E9.14932
G1 X101.911 Y148.087 E9.20993
G1 X101.747 Y148.017 E9.21882
G1 X100.64 Y147.522 E9.27932
G1 X100.485 Y147.45 E9.28785
G1 X99.395 Y146.917 E9.34838
G1 X99.242 Y146.839 E9.35695
G1 X98.171 Y146.269 E9.41748
G1 X98.018 Y146.184 E9.42621
G1 X96.966 Y145.576 E9.48683
G1 X96.819 Y145.488 E9.49538
G1 X95.791 Y144.846 E9.55584
G1 X95.646 Y144.751 E9.56449
G1 X94.64 Y144.073 E9.62502
G1 X94.496 Y143.973 E9.63376
G1 X93.514 Y143.26 E9.69431
G1 X93.375 Y143.155 E9.703
G1 X92.418 Y142.408 E9.76357
G1 X92.284 Y142.3 E9.77215
G1 X91.354 Y141.521 E9.83268
G1 X91.224 Y141.408 E9.84127
G1 X90.321 Y140.597 E9.90182
G1 X90.193 Y140.478 E9.91054
G1 X89.319 Y139.636 E9.97109
G1 X89.197 Y139.514 E9.9797
G1 X88.353 Y138.643 E10.04021
G1 X88.236 Y138.518 E10.04875
G1 X87.422 Y137.618 E10.10929
G1 X87.307 Y137.486 E10.11803
G1 X86.525 Y136.558 E10.17857
G1 X86.414 Y136.422 E10.18733
G1 X85.665 Y135.467 E10.24788
G1 X85.562 Y135.331 E10.25639
G1 X84.846 Y134.351 E10.31694
G1 X84.745 Y134.208 E10.32568
G1 X84.064 Y133.204 E10.3862
G1 X83.97 Y133.059 E10.39482
G1 X83.324 Y132.032 E10.45535
G1 X83.234 Y131.883 E10.46404
G1 X82.624 Y130.834 E10.52458
G1 X82.541 Y130.686 E10.53304
G1 X81.967 Y129.617 E10.59358
G1 X81.886 Y129.46 E10.60239
G1 X81.35 Y128.371 E10.66295
G1 X81.275 Y128.212 E10.67172
G1 X80.778 Y127.106 E10.73221
G1 X80.712 Y126.951 E10.74062
G1 X80.252 Y125.827 E10.80121
G1 X80.189 Y125.666 E10.80983
G1 X79.768 Y124.527 E10.87041
G1 X79.709 Y124.358 E10.87934
G1 X79.33 Y123.207 E10.9398
G1 X79.28 Y123.048 E10.94812
G1 X78.939 Y121.883 E11.00868
G1 X78.892 Y121.71 E11.01762
G1 X78.593 Y120.534 E11.07816
G1 X78.554 Y120.369 E11.08662
G1 X78.295 Y119.183 E11.14718
G1 X78.261 Y119.011 E11.15593
G1 X78.044 Y117.818 E11.21642
G1 X78.016 Y117.647 E11.22507
G1 X77.84 Y116.445 E11.28568
G1 X77.818 Y116.274 E11.29428
G1 X77.684 Y115.069 E11.35477
G1 X77.668 Y114.899 E11.36329
G1 X77.575 Y113.689 E11.42383
G1 X77.564 Y113.512 E11.43268
G1 X77.514 Y112.3 E11.4932
G1 X77.51 Y112.127 E11.50183
G1 X77.502 Y110.914 E11.56235
G1 X77.504 Y110.741 E11.57098
G1 X77.538 Y109.527 E11.63157
G1 X77.546 Y109.354 E11.64021
G1 X77.622 Y108.144 E11.7007
G1 X77.636 Y107.971 E11.70936
G1 X77.754 Y106.762 E11.76996
G1 X77.773 Y106.593 E11.77844
G1 X77.932 Y105.39 E11.83898
G1 X77.958 Y105.216 E11.84776
G1 X78.159 Y104.02 E11.90827
G1 X78.191 Y103.849 E11.91695
G1 X78.434 Y102.659 E11.97754
G1 X78.472 Y102.488 E11.98628
G1 X78.756 Y101.309 E12.04678
G1 X78.799 Y101.143 E12.05534
G1 X79.123 Y99.975 E12.11581
G1 X79.172 Y99.81 E12.1244
G1 X79.537 Y98.651 E12.18502
G1 X79.591 Y98.488 E12.19359
G1 X79.995 Y97.344 E12.25412
G1 X80.057 Y97.179 E12.26291
G1 X80.501 Y96.05 E12.32343
G1 X80.568 Y95.888 E12.33218
G1 X81.052 Y94.774 E12.39278
G1 X81.121 Y94.621 E12.40115
G1 X81.641 Y93.526 E12.46163
G1 X81.719 Y93.369 E12.47037
G1 X82.277 Y92.293 E12.53084
G1 X82.361 Y92.138 E12.53964
G1 X82.958 Y91.08 E12.60025
G1 X83.046 Y90.931 E12.60888
G1 X83.678 Y89.896 E12.66938
G1 X83.77 Y89.751 E12.67795
G1 X84.438 Y88.737 E12.73853
G1 X84.534 Y88.596 E12.74704
G1 X85.236 Y87.606 E12.80759
G1 X85.343 Y87.461 E12.81658
G1 X86.08 Y86.497 E12.87712
G1 X86.184 Y86.366 E12.88546
G1 X86.953 Y85.427 E12.94602
G1 X87.066 Y85.293 E12.95476
G1 X87.867 Y84.382 E13.01528
G1 X87.983 Y84.255 E13.02386
G1 X88.815 Y83.372 E13.08439
G0 F1800 X89.106 Y83.646
G1 F1500 X89.22 Y83.529 E13.09254
G1 X90.083 Y82.676 E13.15308
G1 X90.196 Y82.569 E13.16084
G1 X91.087 Y81.746 E13.22135
G1 X91.209 Y81.637 E13.22952
G1 X92.13 Y80.845 E13.29012
G1 X92.248 Y80.747 E13.29777
G1 X93.193 Y79.988 E13.35824
G1 X93.323 Y79.887 E13.36645
G1 X94.296 Y79.161 E13.42702
G1 X94.427 Y79.067 E13.43507
G1 X95.424 Y78.376 E13.49558
G1 X95.55 Y78.292 E13.50314
G1 X96.57 Y77.634 E13.5637
G1 X96.714 Y77.545 E13.57214
G1 X97.757 Y76.925 E13.63268
G1 X97.886 Y76.851 E13.6401
G1 X98.949 Y76.265 E13.70066
G1 X99.095 Y76.188 E13.70889
G1 X100.179 Y75.64 E13.76949
G1 X100.322 Y75.57 E13.77743
G1 X101.422 Y75.061 E13.8379
G1 X101.571 Y74.995 E13.84603
G1 X102.689 Y74.525 E13.90654
G1 X102.832 Y74.468 E13.91422
G1 X103.967 Y74.035 E13.97482
G1 X104.118 Y73.981 E13.98282
G1 X105.267 Y73.588 E14.04341
G1 X105.42 Y73.538 E14.05144
G1 X106.58 Y73.186 E14.11192
G1 X106.735 Y73.142 E14.11996
G1 X107.909 Y72.83 E14.18056
G1 X108.061 Y72.793 E14.18837
G1 X109.242 Y72.522 E14.24882
G1 X109.399 Y72.488 E14.25683
G1 X110.59 Y72.258 E14.31735
G1 X110.746 Y72.231 E14.32525
G1 X111.945 Y72.042 E14.3858
G1 X112.104 Y72.02 E14.39381
G1 X113.31 Y71.873 E14.45442
G1 X113.469 Y71.856 E14.4624
G1 X114.677 Y71.751 E14.5229
G1 X114.836 Y71.74 E14.53085
G1 X116.049 Y71.677 E14.59145
G1 X116.208 Y71.672 E14.59938
G1 X117.42 Y71.651 E14.65986
G1 X117.58 Y71.651 E14.66784
G1 X118.793 Y71.672 E14.72837
G1 X118.952 Y71.677 E14.7363
G1 X120.163 Y71.74 E14.7968
G1 X120.322 Y71.751 E14.80475
G1 X121.532 Y71.856 E14.86535
G1 X121.691 Y71.873 E14.87333
G1 X122.895 Y72.02 E14.93384
G1 X123.054 Y72.042 E14.94185
G1 X124.253 Y72.231 E15.00241
G1 X124.404 Y72.257 E15.01005
G1 X125.597 Y72.486 E15.07066
G1 X125.762 Y72.521 E15.07907
G1 X126.943 Y72.793 E15.13953
G1 X127.094 Y72.831 E15.1473
G1 X128.266 Y73.143 E15.20781
G1 X128.417 Y73.186 E15.21564
G1 X129.579 Y73.538 E15.27622
G1 X129.736 Y73.588 E15.28444
G1 X130.883 Y73.981 E15.34493
G1 X131.028 Y74.034 E15.35263
G1 X132.163 Y74.466 E15.41322
G1 X132.313 Y74.526 E15.42128
G1 X133.433 Y74.998 E15.48191
G1 X133.579 Y75.062 E15.48987
G1 X134.679 Y75.571 E15.55034
G1 X134.822 Y75.641 E15.55828
G1 X135.904 Y76.188 E15.61877
G1 X136.045 Y76.262 E15.62671
G1 X137.109 Y76.847 E15.68729
G1 X137.249 Y76.927 E15.69533
G1 X138.292 Y77.549 E15.75592
G1 X138.424 Y77.631 E15.76367
G1 X139.444 Y78.287 E15.82418
G1 X139.581 Y78.378 E15.83238
G1 X140.577 Y79.07 E15.89289
G1 X140.703 Y79.161 E15.90064
G1 X141.676 Y79.887 E15.96121
G1 X141.801 Y79.984 E15.9691
G1 X142.747 Y80.742 E16.02958
G1 X142.874 Y80.848 E16.03783
G1 X143.794 Y81.641 E16.09843
G1 X143.908 Y81.742 E16.10603
G1 X144.8 Y82.564 E16.16654
G1 X144.92 Y82.679 E16.17484
G1 X145.782 Y83.533 E16.23537
G1 X145.889 Y83.643 E16.24303
G1 X146.722 Y84.525 E16.30356
G1 X146.834 Y84.647 E16.31182
G1 X147.635 Y85.559 E16.37238
G1 X147.738 Y85.681 E16.38034
G1 X148.506 Y86.619 E16.44082
G1 X148.601 Y86.739 E16.44846
G1 X149.339 Y87.704 E16.50907
G1 X149.438 Y87.838 E16.51738
G1 X150.139 Y88.827 E16.57786
G1 X150.226 Y88.954 E16.58554
G1 X150.895 Y89.968 E16.64615
G1 X150.983 Y90.107 E16.65435
G1 X151.615 Y91.144 E16.71494
G1 X151.693 Y91.277 E16.72263
G1 X152.289 Y92.333 E16.78313
G1 X152.366 Y92.475 E16.79119
G1 X152.925 Y93.552 E16.85173
G1 X152.996 Y93.696 E16.85974
G1 X153.517 Y94.792 E16.92028
G1 X153.584 Y94.938 E16.92829
G1 X154.066 Y96.05 E16.98876
G1 X154.125 Y96.193 E16.99648
