;FLAVOR:Marlin
;TIME:3359
;Filament used: 2.83795m, 0m
;Layer height: 0.2
;MINX:78.91
;MINY:72.526
;MINZ:0.3
;MAXX:156.09
;MAXY:158.192
;MAXZ:3.9
;POSTPROCESSED
;Generated with Cura_SteamEngine 4.7.1
T0
M140 S60
M105
M190 S60
M104 S200
M105
M109 S200
M82 ;absolute extrusion mode
M201 X500.00 Y500.00 Z100.00 E5000.00 	;Setup machine max acceleration
M203 X500.00 Y500.00 Z10.00 E50.00 	;Setup machine max feedrate
M204 P500.00 R1000.00 T500.00 		;Setup Print/Retract/Travel acceleration
M205 X8.00 Y8.00 Z0.40 E5.00 		;Setup Jerk
M220 S100 				;Reset Feedrate
M221 S100 				;Reset Flowrate
G28				;Home the Machine
G29 				;Bed Level
G92 E0
;M300 S440 P200
;G91 		; relative positioning		
;G1 E183 F5000 	;
;G1 E7 F500 		;

;Purge
;G1 E8 F300 		;
;M300 S880  P200
G92 E0
G1 F1500 E-6.5
;LAYER_COUNT:19
;LAYER:0
M107
G0 F2400 X89.408 Y84.654 Z0.3
;TYPE:SKIRT
G1 F1500 E0
G1 X89.496 Y84.561 E0.00639
G1 X90.291 Y83.747 E0.06315
G1 X90.379 Y83.66 E0.06933
G1 X91.285 Y82.794 E0.13186
G1 X91.377 Y82.708 E0.13814
G1 X92.296 Y81.889 E0.19955
G1 X92.392 Y81.807 E0.20585
G1 X93.304 Y81.05 E0.26498
G1 X93.396 Y80.976 E0.27087
G1 X94.351 Y80.235 E0.33118
G1 X94.456 Y80.156 E0.33773
G1 X95.464 Y79.431 E0.39968
G1 X95.564 Y79.362 E0.40574
G1 X96.543 Y78.707 E0.46451
G1 X96.649 Y78.639 E0.47079
G1 X97.701 Y77.987 E0.53254
G1 X97.809 Y77.922 E0.53883
G1 X98.828 Y77.339 E0.5974
G1 X98.935 Y77.281 E0.60347
G1 X100.056 Y76.689 E0.66672
G1 X100.171 Y76.631 E0.67314
G1 X101.218 Y76.125 E0.73116
G1 X101.329 Y76.073 E0.73727
G1 X102.467 Y75.57 E0.79935
G1 X102.584 Y75.521 E0.80567
G1 X103.703 Y75.073 E0.86581
G1 X103.817 Y75.029 E0.87191
G1 X104.968 Y74.613 E0.93297
G1 X105.088 Y74.572 E0.93929
G1 X106.227 Y74.205 E0.99899
G1 X106.343 Y74.17 E1.00504
G1 X107.513 Y73.836 E1.06574
G1 X107.636 Y73.803 E1.0721
G1 X108.828 Y73.508 E1.13336
G1 X108.949 Y73.481 E1.13954
G1 X110.113 Y73.235 E1.1989
G1 X110.236 Y73.211 E1.20515
G1 X111.423 Y73.003 E1.26527
G1 X111.546 Y72.984 E1.27148
G1 X112.793 Y72.81 E1.3343
G1 X112.92 Y72.794 E1.34068
G1 X114.106 Y72.671 E1.40017
G1 X114.226 Y72.661 E1.40618
G1 X115.399 Y72.579 E1.46484
G1 X115.525 Y72.572 E1.47114
G1 X116.787 Y72.528 E1.53414
G1 X116.912 Y72.526 E1.54038
G1 X118.087 Y72.526 E1.599
G1 X118.212 Y72.528 E1.60523
G1 X119.476 Y72.572 E1.66833
G1 X119.602 Y72.579 E1.67463
G1 X120.776 Y72.661 E1.73334
G1 X120.897 Y72.671 E1.7394
G1 X122.091 Y72.795 E1.79929
G1 X122.217 Y72.811 E1.80563
G1 X123.448 Y72.983 E1.86764
G1 X123.57 Y73.002 E1.8738
G1 X124.754 Y73.209 E1.93376
G1 X124.878 Y73.233 E1.94006
G1 X126.052 Y73.481 E1.99993
G1 X126.173 Y73.508 E2.00611
G1 X127.365 Y73.803 E2.06738
G1 X127.49 Y73.837 E2.07384
G1 X128.658 Y74.171 E2.13445
G1 X128.771 Y74.205 E2.14033
G1 X129.911 Y74.572 E2.20008
G1 X130.032 Y74.613 E2.20646
G1 X131.183 Y75.029 E2.26752
G1 X131.295 Y75.072 E2.2735
G1 X132.413 Y75.519 E2.33357
G1 X132.535 Y75.57 E2.34017
G1 X133.673 Y76.074 E2.40226
G1 X133.78 Y76.124 E2.40816
G1 X134.828 Y76.63 E2.46622
G1 X134.944 Y76.689 E2.47271
G1 X136.065 Y77.281 E2.53596
G1 X136.172 Y77.339 E2.54203
G1 X137.191 Y77.922 E2.6006
G1 X137.299 Y77.987 E2.60689
G1 X138.351 Y78.639 E2.66863
G1 X138.456 Y78.706 E2.67485
G1 X139.434 Y79.36 E2.73354
G1 X139.536 Y79.431 E2.73975
G1 X140.545 Y80.157 E2.80176
G1 X140.648 Y80.234 E2.80818
G1 X141.602 Y80.974 E2.86841
G1 X141.696 Y81.049 E2.87441
G1 X142.609 Y81.807 E2.93361
G1 X142.704 Y81.889 E2.93987
G1 X143.622 Y82.707 E3.00122
G1 X143.715 Y82.793 E3.00754
G1 X144.622 Y83.66 E3.07014
G1 X144.71 Y83.747 E3.07631
G1 X145.504 Y84.56 E3.13301
G1 X145.591 Y84.653 E3.13936
G1 X146.446 Y85.593 E3.20275
G1 X146.527 Y85.684 E3.20883
G1 X147.312 Y86.608 E3.26932
G1 X147.39 Y86.704 E3.27549
G1 X148.132 Y87.641 E3.33512
G1 X148.209 Y87.741 E3.34142
G1 X148.933 Y88.724 E3.40233
G1 X149.005 Y88.826 E3.40855
G1 X149.7 Y89.842 E3.46997
G1 X149.77 Y89.948 E3.4763
G1 X150.4 Y90.942 E3.53502
G1 X150.464 Y91.048 E3.54119
G1 X151.088 Y92.112 E3.60273
G1 X151.148 Y92.218 E3.60881
G1 X151.719 Y93.272 E3.66862
G1 X151.776 Y93.382 E3.6748
G1 X152.319 Y94.472 E3.73555
G1 X152.376 Y94.592 E3.74218
G1 X152.882 Y95.709 E3.80336
G1 X152.93 Y95.818 E3.8093
G1 X153.384 Y96.916 E3.86858
G1 X153.43 Y97.033 E3.87485
G1 X153.869 Y98.209 E3.93747
G1 X153.91 Y98.326 E3.94366
G1 X154.285 Y99.447 E4.00263
G1 X154.323 Y99.567 E4.00891
G1 X154.67 Y100.739 E4.06989
G1 X154.704 Y100.861 E4.07621
G1 X155.008 Y102.038 E4.13686
G1 X155.036 Y102.154 E4.14281
G1 X155.296 Y103.319 E4.20236
G1 X155.321 Y103.445 E4.20877
G1 X155.542 Y104.634 E4.26911
G1 X155.563 Y104.758 E4.27538
G1 X155.749 Y105.998 E4.33794
G1 X155.766 Y106.123 E4.34423
G1 X155.899 Y107.286 E4.40263
G1 X155.91 Y107.406 E4.40865
G1 X156.011 Y108.66 E4.47141
G1 X156.019 Y108.785 E4.47766
G1 X156.073 Y109.971 E4.53689
G1 X156.077 Y110.096 E4.54313
G1 X156.09 Y111.306 E4.6035
G1 X156.089 Y111.432 E4.60979
G1 X156.06 Y112.632 E4.66967
G1 X156.055 Y112.755 E4.67581
G1 X155.982 Y114.004 E4.73823
G1 X155.972 Y114.133 E4.74469
G1 X155.864 Y115.276 E4.80197
G1 X155.851 Y115.396 E4.80799
G1 X155.687 Y116.672 E4.87217
G1 X155.668 Y116.796 E4.87843
G1 X155.48 Y117.941 E4.93632
G1 X155.458 Y118.063 E4.9425
G1 X155.211 Y119.3 E5.00544
G1 X155.185 Y119.422 E5.01166
G1 X154.919 Y120.549 E5.06943
G1 X154.887 Y120.673 E5.07582
G1 X154.555 Y121.885 E5.13852
G1 X154.52 Y122.004 E5.1447
G1 X154.162 Y123.154 E5.20479
G1 X154.124 Y123.271 E5.21093
G1 X153.73 Y124.399 E5.27054
G1 X153.687 Y124.516 E5.27676
G1 X153.248 Y125.646 E5.33724
G1 X153.2 Y125.762 E5.3435
G1 X152.715 Y126.892 E5.40485
G1 X152.664 Y127.005 E5.41104
G1 X152.151 Y128.095 E5.47114
G1 X152.094 Y128.21 E5.47754
G1 X151.528 Y129.309 E5.53922
G1 X151.471 Y129.416 E5.54527
G1 X150.881 Y130.473 E5.60566
G1 X150.818 Y130.582 E5.61194
G1 X150.197 Y131.608 E5.67177
G1 X150.131 Y131.712 E5.67792
G1 X149.482 Y132.706 E5.73714
G1 X149.411 Y132.811 E5.74347
G1 X148.697 Y133.825 E5.80534
G1 X148.623 Y133.926 E5.81159
G1 X147.885 Y134.9 E5.87255
G1 X147.809 Y134.997 E5.8787
G1 X147.065 Y135.912 E5.93754
G1 X146.981 Y136.012 E5.94405
G1 X146.162 Y136.948 E6.0061
G1 X146.085 Y137.034 E6.01186
G1 X145.256 Y137.922 E6.07247
G1 X145.165 Y138.015 E6.07896
G1 X144.309 Y138.868 E6.13925
G1 X144.221 Y138.953 E6.14535
G1 X143.35 Y139.764 E6.20473
G1 X143.255 Y139.85 E6.21112
G1 X142.318 Y140.662 E6.27298
G1 X142.224 Y140.74 E6.27907
G1 X141.282 Y141.502 E6.33952
G1 X141.181 Y141.581 E6.34592
G1 X140.235 Y142.292 E6.40496
G1 X140.134 Y142.366 E6.4112
G1 X139.116 Y143.077 E6.47315
G1 X138.706 Y143.347 E6.49765
G1 X136.436 Y144.866 E6.63391
G1 X134.216 Y146.445 E6.76983
G1 X132.042 Y148.085 E6.90569
G1 X129.907 Y149.792 E7.04206
G1 X127.836 Y151.547 E7.1775
G1 X125.801 Y153.372 E7.31387
G1 X123.81 Y155.261 E7.45079
G1 X123.647 Y155.424 E7.46229
G1 X123.118 Y155.933 E7.49892
G1 X122.681 Y156.31 E7.52771
G1 X122.576 Y156.394 E7.53442
G1 X122.152 Y156.722 E7.56117
G1 X121.688 Y157.027 E7.58887
G1 X121.257 Y157.262 E7.61336
G1 X120.804 Y157.49 E7.63866
G1 X120.308 Y157.695 E7.66544
G1 X119.802 Y157.853 E7.69188
G1 X119.307 Y157.99 E7.71751
G1 X118.766 Y158.096 E7.74501
G1 X118.32 Y158.145 E7.7674
G1 X117.787 Y158.188 E7.79407
G1 X117.255 Y158.192 E7.82062
G1 X116.791 Y158.157 E7.84383
G1 X116.25 Y158.097 E7.87099
G1 X115.721 Y157.998 E7.89784
G1 X115.292 Y157.881 E7.92002
G1 X114.761 Y157.717 E7.94775
G1 X114.265 Y157.522 E7.97434
G1 X113.803 Y157.292 E8.00009
G1 X113.333 Y157.038 E8.02674
G1 X112.89 Y156.754 E8.05299
G1 X112.486 Y156.442 E8.07846
G1 X112.095 Y156.121 E8.1037
G1 X111.842 Y155.895 E8.12062
G1 X111.12 Y155.192 E8.1709
G1 X109.122 Y153.3 E8.30818
G1 X107.052 Y151.449 E8.44672
G1 X104.988 Y149.705 E8.58153
G1 X102.862 Y148.009 E8.71721
G1 X100.688 Y146.374 E8.85292
G1 X98.451 Y144.789 E8.9897
G1 X96.267 Y143.329 E9.12077
G1 X95.879 Y143.074 E9.14393
G1 X94.864 Y142.364 E9.20573
G1 X94.761 Y142.29 E9.21206
G1 X93.817 Y141.579 E9.27102
G1 X93.722 Y141.505 E9.27702
G1 X92.779 Y140.744 E9.33748
G1 X92.679 Y140.66 E9.34399
G1 X91.742 Y139.846 E9.40592
G1 X91.653 Y139.766 E9.41189
G1 X90.782 Y138.957 E9.4712
G1 X90.688 Y138.866 E9.47772
G1 X89.832 Y138.011 E9.53808
G1 X89.747 Y137.924 E9.54415
G1 X88.918 Y137.038 E9.60469
G1 X88.835 Y136.946 E9.61087
G1 X88.016 Y136.008 E9.67299
G1 X87.937 Y135.914 E9.67912
G1 X87.193 Y135.001 E9.73788
G1 X87.112 Y134.898 E9.74441
G1 X86.374 Y133.922 E9.80546
G1 X86.303 Y133.824 E9.8115
G1 X85.59 Y132.812 E9.87326
G1 X85.52 Y132.709 E9.87947
G1 X84.869 Y131.713 E9.93884
G1 X84.802 Y131.606 E9.94513
G1 X84.182 Y130.581 E10.0049
G1 X84.119 Y130.473 E10.01114
G1 X83.529 Y129.416 E10.07153
G1 X83.472 Y129.309 E10.07758
G1 X82.906 Y128.21 E10.13925
G1 X82.849 Y128.095 E10.14565
G1 X82.336 Y127.005 E10.20576
G1 X82.285 Y126.892 E10.21194
G1 X81.8 Y125.762 E10.27329
G1 X81.752 Y125.646 E10.27955
G1 X81.313 Y124.516 E10.34004
G1 X81.271 Y124.4 E10.34619
G1 X80.877 Y123.273 E10.40575
G1 X80.837 Y123.153 E10.41206
G1 X80.479 Y122.001 E10.47225
G1 X80.445 Y121.884 E10.47833
G1 X80.113 Y120.672 E10.54102
G1 X80.081 Y120.546 E10.54751
G1 X79.816 Y119.421 E10.60517
G1 X79.79 Y119.304 E10.61115
G1 X79.542 Y118.067 E10.67409
G1 X79.519 Y117.941 E10.68048
G1 X79.331 Y116.794 E10.73847
G1 X79.313 Y116.672 E10.74462
G1 X79.149 Y115.398 E10.80871
G1 X79.136 Y115.276 E10.81483
G1 X79.028 Y114.131 E10.87221
G1 X79.018 Y114.003 E10.87861
G1 X78.945 Y112.756 E10.94093
G1 X78.94 Y112.633 E10.94707
G1 X78.911 Y111.432 E11.00701
G1 X78.91 Y111.306 E11.01329
G1 X78.923 Y110.097 E11.07361
G1 X78.927 Y109.972 E11.07985
G1 X78.981 Y108.786 E11.13909
G1 X78.989 Y108.661 E11.14533
G1 X79.09 Y107.406 E11.20815
G1 X79.101 Y107.286 E11.21416
G1 X79.234 Y106.124 E11.27251
G1 X79.251 Y105.999 E11.27881
G1 X79.437 Y104.759 E11.34136
G1 X79.458 Y104.636 E11.34759
G1 X79.679 Y103.446 E11.40797
G1 X79.704 Y103.321 E11.41433
G1 X79.963 Y102.157 E11.47382
G1 X79.992 Y102.035 E11.48008
G1 X80.298 Y100.856 E11.54085
G1 X80.331 Y100.74 E11.54687
G1 X80.677 Y99.569 E11.60778
G1 X80.715 Y99.446 E11.61421
G1 X81.09 Y98.326 E11.67313
G1 X81.13 Y98.213 E11.67911
G1 X81.568 Y97.037 E11.74172
G1 X81.616 Y96.914 E11.74831
G1 X82.072 Y95.814 E11.80772
G1 X82.625 Y94.591 E11.87468
G1 X82.682 Y94.471 E11.88131
G1 X83.224 Y93.383 E11.94195
G1 X83.279 Y93.277 E11.94791
G1 X83.849 Y92.222 E12.00773
G1 X83.913 Y92.108 E12.01426
G1 X84.538 Y91.045 E12.07578
G1 X84.599 Y90.944 E12.08166
G1 X85.229 Y89.949 E12.14042
G1 X85.299 Y89.843 E12.14676
G1 X85.993 Y88.828 E12.2081
G1 X86.067 Y88.725 E12.21443
G1 X86.867 Y87.641 E12.28164
G1 X87.608 Y86.705 E12.3412
G1 X87.688 Y86.609 E12.34743
G1 X88.474 Y85.684 E12.40799
G1 X88.554 Y85.593 E12.41404
G1 X89.408 Y84.654 E12.47736
G0 F2400 X89.704 Y84.923
G1 F1500 X89.782 Y84.84 E12.48304
G1 X90.577 Y84.026 E12.53981
G1 X90.655 Y83.949 E12.54528
G1 X91.561 Y83.083 E12.60781
G1 X91.643 Y83.007 E12.61338
G1 X92.562 Y82.188 E12.6748
G1 X92.647 Y82.115 E12.68039
G1 X93.559 Y81.358 E12.73952
G1 X93.641 Y81.292 E12.74477
G1 X94.596 Y80.551 E12.80508
G1 X94.69 Y80.481 E12.81092
G1 X95.698 Y79.756 E12.87287
G1 X95.787 Y79.694 E12.87828
G1 X96.766 Y79.039 E12.93705
G1 X96.859 Y78.979 E12.94257
G1 X97.911 Y78.327 E13.00432
G1 X98.008 Y78.269 E13.00996
G1 X99.027 Y77.686 E13.06853
G1 X99.122 Y77.634 E13.07393
G1 X100.243 Y77.042 E13.13718
G1 X100.345 Y76.991 E13.14287
G1 X101.392 Y76.485 E13.20088
G1 X101.49 Y76.439 E13.20628
G1 X102.628 Y75.936 E13.26836
G1 X102.733 Y75.892 E13.27404
G1 X103.852 Y75.444 E13.33417
G1 X103.953 Y75.406 E13.33955
G1 X105.104 Y74.99 E13.40061
G1 X105.211 Y74.953 E13.40626
G1 X106.35 Y74.586 E13.46596
G1 X106.453 Y74.555 E13.47133
G1 X107.623 Y74.221 E13.53203
G1 X107.732 Y74.192 E13.53766
G1 X108.924 Y73.897 E13.59892
G1 X109.031 Y73.872 E13.60441
G1 X110.195 Y73.626 E13.66376
G1 X110.305 Y73.605 E13.66935
G1 X111.492 Y73.397 E13.72947
G1 X111.602 Y73.38 E13.73502
G1 X112.849 Y73.206 E13.79784
G1 X112.961 Y73.192 E13.80347
G1 X114.147 Y73.069 E13.86296
G1 X114.254 Y73.06 E13.86831
G1 X115.427 Y72.978 E13.92698
G1 X115.538 Y72.972 E13.93252
G1 X116.8 Y72.928 E13.99552
G1 X116.912 Y72.926 E14.00111
G1 X118.087 Y72.926 E14.05973
G1 X118.198 Y72.928 E14.06527
G1 X119.462 Y72.972 E14.12837
G1 X119.574 Y72.978 E14.13397
G1 X120.748 Y73.06 E14.19268
G1 X120.856 Y73.069 E14.19809
G1 X122.05 Y73.193 E14.25798
G1 X122.162 Y73.207 E14.26361
G1 X123.393 Y73.379 E14.32562
G1 X123.501 Y73.396 E14.33107
G1 X124.685 Y73.603 E14.39104
G1 X124.795 Y73.624 E14.39663
G1 X125.969 Y73.872 E14.45649
G1 X126.077 Y73.897 E14.46202
G1 X127.269 Y74.192 E14.52328
G1 X127.38 Y74.221 E14.52901
G1 X128.548 Y74.555 E14.58962
G1 X128.649 Y74.586 E14.59489
G1 X129.789 Y74.953 E14.65464
G1 X129.896 Y74.99 E14.66028
G1 X131.047 Y75.406 E14.72134
G1 X131.147 Y75.444 E14.72668
G1 X132.265 Y75.891 E14.78675
G1 X132.373 Y75.936 E14.79259
G1 X133.511 Y76.44 E14.85468
G1 X133.606 Y76.484 E14.85991
G1 X134.654 Y76.99 E14.91797
G1 X134.757 Y77.042 E14.92372
G1 X135.878 Y77.634 E14.98697
G1 X135.973 Y77.686 E14.99237
G1 X136.992 Y78.269 E15.05094
G1 X137.089 Y78.327 E15.05658
G1 X138.141 Y78.979 E15.11833
G1 X138.234 Y79.039 E15.12385
G1 X139.212 Y79.693 E15.18255
G1 X139.302 Y79.756 E15.18803
G1 X140.311 Y80.482 E15.25004
G1 X140.403 Y80.551 E15.25578
G1 X141.357 Y81.291 E15.31602
G1 X141.44 Y81.357 E15.32131
G1 X142.353 Y82.115 E15.38051
G1 X142.438 Y82.188 E15.3861
G1 X143.356 Y83.006 E15.44744
G1 X143.438 Y83.082 E15.45302
G1 X144.345 Y83.949 E15.51562
G1 X144.423 Y84.026 E15.52109
G1 X145.217 Y84.839 E15.57778
G1 X145.295 Y84.922 E15.58346
G1 X146.15 Y85.862 E15.64686
G1 X146.222 Y85.943 E15.65227
G1 X147.007 Y86.867 E15.71275
G1 X147.077 Y86.952 E15.71825
G1 X147.819 Y87.889 E15.77788
G1 X147.887 Y87.978 E15.78346
G1 X148.611 Y88.961 E15.84437
G1 X148.675 Y89.052 E15.84992
G1 X149.37 Y90.068 E15.91134
G1 X149.432 Y90.162 E15.91695
G1 X150.062 Y91.156 E15.97567
G1 X150.119 Y91.25 E15.98115
G1 X150.743 Y92.314 E16.04269
G1 X150.797 Y92.409 E16.04814
G1 X151.368 Y93.463 E16.10795
G1 X151.418 Y93.56 E16.11339
G1 X151.961 Y94.65 E16.17415
G1 X152.012 Y94.757 E16.18006
G1 X152.518 Y95.874 E16.24124
G1 X152.56 Y95.971 E16.24651
G1 X153.014 Y97.069 E16.30579
G1 X153.055 Y97.173 E16.31137
G1 X153.494 Y98.349 E16.37399
G1 X153.531 Y98.453 E16.3795
G1 X153.906 Y99.574 E16.43847
G1 X153.939 Y99.681 E16.44406
G1 X154.286 Y100.853 E16.50504
G1 X154.316 Y100.961 E16.51063
G1 X154.62 Y102.138 E16.57128
G1 X154.645 Y102.241 E16.57657
G1 X154.905 Y103.406 E16.63612
G1 X154.928 Y103.518 E16.64182
G1 X155.149 Y104.707 E16.70216
G1 X155.168 Y104.817 E16.70773
G1 X155.354 Y106.057 E16.77028
G1 X155.368 Y106.168 E16.77587
G1 X155.501 Y107.331 E16.83427
G1 X155.512 Y107.438 E16.83963
G1 X155.613 Y108.692 E16.9024
G1 X155.62 Y108.803 E16.90795
G1 X155.674 Y109.989 E16.96718
G1 X155.677 Y110.101 E16.97277
G1 X155.69 Y111.311 E17.03314
G1 X155.689 Y111.422 E17.03868
G1 X155.66 Y112.622 E17.09856
G1 X155.656 Y112.732 E17.10405
G1 X155.583 Y113.981 E17.16647
G1 X155.574 Y114.095 E17.17218
G1 X155.466 Y115.238 E17.22946
G1 X155.454 Y115.345 E17.23483
G1 X155.29 Y116.621 E17.29901
G1 X155.274 Y116.731 E17.30456
G1 X155.086 Y117.876 E17.36245
G1 X155.066 Y117.985 E17.36797
G1 X154.819 Y119.222 E17.43091
G1 X154.795 Y119.33 E17.43643
G1 X154.529 Y120.457 E17.4942
G1 X154.501 Y120.567 E17.49986
G1 X154.169 Y121.779 E17.56255
G1 X154.138 Y121.885 E17.56806
G1 X153.78 Y123.035 E17.62815
G1 X153.746 Y123.139 E17.63361
G1 X153.352 Y124.267 E17.69322
G1 X153.314 Y124.371 E17.69875
G1 X152.875 Y125.501 E17.75923
