;FLAVOR:Marlin
;TIME:4885
;Filament used: 2.96658m, 0m
;Layer height: 0.2
;MINX:79.06
;MINY:74.815
;MINZ:0.3
;MAXX:155.94
;MAXY:160.181
;MAXZ:3.9
;POSTPROCESSED
;Generated with Cura_SteamEngine 4.7.1
T0
M140 S60
M105
M190 S60
M104 S200
M105
M109 S200
M82 ;absolute extrusion mode
M201 X500.00 Y500.00 Z100.00 E5000.00 	;Setup machine max acceleration
M203 X500.00 Y500.00 Z10.00 E50.00 	;Setup machine max feedrate
M204 P500.00 R1000.00 T500.00 		;Setup Print/Retract/Travel acceleration
M205 X8.00 Y8.00 Z0.40 E5.00 		;Setup Jerk
M220 S100 				;Reset Feedrate
M221 S100 				;Reset Flowrate
G28				;Home the Machine
G29 				;Bed Level
G92 E0
M300 P150 S587
G92 E0
G1 F1500 E-6.5
;LAYER_COUNT:19
;LAYER:0
M107
G0 F2400 X89.591 Y86.818 Z0.3
;TYPE:SKIRT
G1 F1500 E0
G1 X90.423 Y85.966 E0.03431
G1 X90.507 Y85.883 E0.03771
G1 X91.377 Y85.051 E0.0724
G1 X91.466 Y84.968 E0.0759
G1 X92.382 Y84.152 E0.11125
G1 X92.473 Y84.074 E0.1147
G1 X93.394 Y83.309 E0.1492
G1 X93.484 Y83.236 E0.15253
G1 X94.454 Y82.484 E0.1879
G1 X94.552 Y82.411 E0.19142
G1 X95.541 Y81.699 E0.22653
G1 X95.639 Y81.632 E0.22995
G1 X96.627 Y80.971 E0.2642
G1 X96.728 Y80.906 E0.26766
G1 X97.78 Y80.254 E0.30332
G1 X97.885 Y80.191 E0.30684
G1 X98.903 Y79.609 E0.34063
G1 X99.003 Y79.554 E0.34392
G1 X100.125 Y78.961 E0.38048
G1 X100.236 Y78.905 E0.38406
G1 X101.283 Y78.399 E0.41757
G1 X101.388 Y78.35 E0.42091
G1 X102.527 Y77.846 E0.45679
G1 X102.642 Y77.798 E0.46038
G1 X103.777 Y77.344 E0.4956
G1 X103.884 Y77.303 E0.4989
G1 X104.984 Y76.905 E0.53261
G1 X105.098 Y76.866 E0.53608
G1 X106.281 Y76.484 E0.5719
G1 X106.397 Y76.449 E0.57539
G1 X107.564 Y76.117 E0.61034
G1 X107.682 Y76.085 E0.61387
G1 X108.866 Y75.793 E0.649
G1 X108.977 Y75.768 E0.65228
G1 X110.143 Y75.521 E0.68662
G1 X110.262 Y75.498 E0.69011
G1 X111.46 Y75.288 E0.72515
G1 X111.579 Y75.269 E0.72863
G1 X112.797 Y75.099 E0.76406
G1 X112.915 Y75.085 E0.76748
G1 X114.12 Y74.959 E0.80239
G1 X114.242 Y74.948 E0.80592
G1 X115.431 Y74.866 E0.84026
G1 X115.547 Y74.86 E0.8436
G1 X116.777 Y74.817 E0.87906
G1 X116.898 Y74.815 E0.88255
G1 X118.102 Y74.815 E0.91724
G1 X118.223 Y74.817 E0.92073
G1 X119.453 Y74.86 E0.95619
G1 X119.569 Y74.866 E0.95953
G1 X120.758 Y74.948 E0.99387
G1 X120.88 Y74.959 E0.9974
G1 X122.085 Y75.085 E1.03231
G1 X122.203 Y75.099 E1.03573
G1 X123.422 Y75.269 E1.07119
G1 X123.541 Y75.288 E1.07466
G1 X124.738 Y75.498 E1.10968
G1 X124.854 Y75.52 E1.11308
G1 X126.02 Y75.766 E1.14741
G1 X126.137 Y75.793 E1.15087
G1 X127.321 Y76.086 E1.18602
G1 X127.439 Y76.117 E1.18953
G1 X128.606 Y76.45 E1.2245
G1 X128.717 Y76.484 E1.22784
G1 X129.9 Y76.865 E1.26365
G1 X130.016 Y76.905 E1.26718
G1 X131.116 Y77.303 E1.30089
G1 X131.223 Y77.344 E1.30419
G1 X132.358 Y77.798 E1.33941
G1 X132.474 Y77.847 E1.34304
G1 X133.612 Y78.351 E1.3789
G1 X133.715 Y78.398 E1.38216
G1 X134.763 Y78.904 E1.41569
G1 X134.874 Y78.96 E1.41927
G1 X135.995 Y79.552 E1.4558
G1 X136.097 Y79.608 E1.45915
G1 X137.116 Y80.191 E1.49297
G1 X137.22 Y80.254 E1.49648
G1 X138.272 Y80.906 E1.53213
G1 X138.373 Y80.971 E1.5356
G1 X139.361 Y81.632 E1.56984
G1 X139.459 Y81.699 E1.57326
G1 X140.448 Y82.411 E1.60838
G1 X140.546 Y82.484 E1.6119
G1 X141.516 Y83.236 E1.64726
G1 X141.606 Y83.309 E1.6506
G1 X142.527 Y84.074 E1.68509
G1 X142.618 Y84.152 E1.68855
G1 X143.534 Y84.968 E1.72389
G1 X143.623 Y85.051 E1.7274
G1 X144.493 Y85.883 E1.76208
G1 X144.577 Y85.966 E1.76548
G1 X145.409 Y86.818 E1.79979
G1 X145.492 Y86.905 E1.80326
G1 X146.338 Y87.834 E1.83946
G1 X146.418 Y87.925 E1.84295
G1 X147.213 Y88.862 E1.87835
G1 X147.287 Y88.952 E1.88171
G1 X147.98 Y89.827 E1.91387
G1 X148.053 Y89.923 E1.91734
G1 X148.836 Y90.986 E1.95538
G1 X148.905 Y91.084 E1.95884
G1 X149.553 Y92.031 E1.9919
G1 X149.62 Y92.133 E1.99541
G1 X150.282 Y93.178 E2.03105
G1 X150.344 Y93.279 E2.03447
G1 X150.963 Y94.335 E2.06974
G1 X151.02 Y94.436 E2.07308
G1 X151.587 Y95.482 E2.10736
G1 X151.643 Y95.589 E2.11084
G1 X152.19 Y96.688 E2.14621
G1 X152.242 Y96.799 E2.14974
G1 X152.736 Y97.887 E2.18416
G1 X152.784 Y97.997 E2.18762
G1 X153.249 Y99.124 E2.22275
G1 X153.291 Y99.232 E2.22609
G1 X153.721 Y100.382 E2.26146
G1 X153.763 Y100.498 E2.26501
G1 X154.14 Y101.628 E2.29934
G1 X154.175 Y101.74 E2.30272
G1 X154.532 Y102.945 E2.33893
G1 X154.564 Y103.061 E2.34239
G1 X154.862 Y104.213 E2.37668
G1 X154.889 Y104.326 E2.38002
G1 X155.149 Y105.492 E2.41444
G1 X155.174 Y105.613 E2.418
G1 X155.397 Y106.813 E2.45317
G1 X155.417 Y106.931 E2.45662
G1 X155.599 Y108.144 E2.49196
G1 X155.615 Y108.263 E2.49542
G1 X155.75 Y109.44 E2.52955
G1 X155.761 Y109.556 E2.53291
G1 X155.862 Y110.81 E2.56915
G1 X155.869 Y110.93 E2.57262
G1 X155.923 Y112.116 E2.60682
G1 X155.927 Y112.236 E2.61028
G1 X155.94 Y113.447 E2.64518
G1 X155.939 Y113.567 E2.64863
G1 X155.91 Y114.766 E2.68319
G1 X155.905 Y114.884 E2.68659
G1 X155.832 Y116.134 E2.72267
G1 X155.823 Y116.258 E2.72625
G1 X155.715 Y117.401 E2.75933
G1 X155.702 Y117.515 E2.76263
G1 X155.537 Y118.8 E2.79996
G1 X155.519 Y118.921 E2.80348
G1 X155.332 Y120.057 E2.83665
G1 X155.312 Y120.171 E2.83999
G1 X155.066 Y121.406 E2.87627
G1 X155.039 Y121.526 E2.87981
G1 X154.772 Y122.655 E2.91324
G1 X154.742 Y122.772 E2.91672
G1 X154.41 Y123.984 E2.95293
G1 X154.377 Y124.099 E2.95637
G1 X154.019 Y125.248 E2.99105
G1 X153.983 Y125.357 E2.99435
G1 X153.587 Y126.494 E3.02904
G1 X153.544 Y126.609 E3.03258
G1 X153.112 Y127.72 E3.06693
G1 X153.067 Y127.831 E3.07038
G1 X152.571 Y128.986 E3.10659
G1 X152.523 Y129.094 E3.11
G1 X152.026 Y130.15 E3.14362
G1 X151.972 Y130.259 E3.14713
G1 X151.391 Y131.389 E3.18374
G1 X151.334 Y131.494 E3.18718
G1 X150.756 Y132.528 E3.22131
G1 X150.696 Y132.632 E3.22477
G1 X150.068 Y133.669 E3.2597
G1 X150.006 Y133.768 E3.26306
G1 X149.357 Y134.762 E3.29727
G1 X149.288 Y134.863 E3.30079
G1 X148.573 Y135.878 E3.33656
G1 X148.503 Y135.974 E3.33998
G1 X147.785 Y136.922 E3.37425
G1 X147.713 Y137.014 E3.37761
G1 X146.931 Y137.977 E3.41335
G1 X146.85 Y138.073 E3.41697
G1 X146.049 Y138.989 E3.45203
G1 X145.971 Y139.075 E3.45538
G1 X145.14 Y139.963 E3.49042
G1 X145.058 Y140.048 E3.49382
G1 X144.21 Y140.894 E3.52833
G1 X144.123 Y140.978 E3.53182
G1 X143.247 Y141.793 E3.56629
G1 X143.157 Y141.874 E3.56978
G1 X142.212 Y142.693 E3.60581
G1 X142.123 Y142.767 E3.60914
G1 X141.198 Y143.516 E3.64343
G1 X141.099 Y143.593 E3.64705
G1 X140.142 Y144.312 E3.68153
G1 X140.049 Y144.381 E3.68487
G1 X139.036 Y145.09 E3.7205
G1 X138.696 Y145.313 E3.73221
G1 X136.389 Y146.856 E3.81218
G1 X134.137 Y148.455 E3.89175
G1 X131.989 Y150.073 E3.96923
G1 X129.838 Y151.793 E4.04858
G1 X127.769 Y153.545 E4.12669
G1 X125.717 Y155.383 E4.20607
G1 X123.751 Y157.247 E4.28412
G1 X123.603 Y157.395 E4.29015
G1 X123.026 Y157.953 E4.31328
G1 X122.527 Y158.379 E4.33218
G1 X122.464 Y158.43 E4.33452
G1 X122.068 Y158.737 E4.34895
G1 X121.521 Y159.088 E4.36768
G1 X120.738 Y159.493 E4.39308
G1 X120.146 Y159.728 E4.41143
G1 X119.789 Y159.838 E4.42219
G1 X119.306 Y159.975 E4.43666
G1 X118.78 Y160.081 E4.45212
G1 X118.31 Y160.135 E4.46575
G1 X117.772 Y160.178 E4.4813
G1 X117.263 Y160.181 E4.49596
G1 X116.805 Y160.147 E4.50919
G1 X116.268 Y160.087 E4.52476
G1 X115.721 Y159.982 E4.54081
G1 X115.304 Y159.866 E4.55328
G1 X114.781 Y159.703 E4.56906
G1 X114.279 Y159.502 E4.58464
G1 X113.891 Y159.307 E4.59715
G1 X113.402 Y159.042 E4.61318
G1 X112.966 Y158.761 E4.62812
G1 X112.605 Y158.485 E4.64122
G1 X112.189 Y158.144 E4.65671
G1 X111.972 Y157.95 E4.6651
G1 X111.159 Y157.16 E4.69776
G1 X109.137 Y155.249 E4.77792
G1 X107.117 Y153.446 E4.85593
G1 X105.005 Y151.665 E4.93553
G1 X102.871 Y149.965 E5.01414
G1 X100.705 Y148.34 E5.09215
G1 X98.466 Y146.757 E5.17116
G1 X96.359 Y145.35 E5.24415
G1 X95.981 Y145.103 E5.25716
G1 X94.947 Y144.378 E5.29355
G1 X94.855 Y144.311 E5.29683
G1 X93.9 Y143.593 E5.33125
G1 X93.805 Y143.519 E5.33472
G1 X92.879 Y142.771 E5.36902
G1 X92.785 Y142.692 E5.37255
G1 X91.841 Y141.872 E5.40858
G1 X91.756 Y141.796 E5.41187
G1 X90.879 Y140.982 E5.44634
G1 X90.786 Y140.893 E5.45005
G1 X89.939 Y140.046 E5.48456
G1 X89.031 Y139.079 E5.52278
G1 X88.947 Y138.987 E5.52637
G1 X88.147 Y138.07 E5.56143
G1 X88.071 Y137.98 E5.56482
G1 X87.288 Y137.018 E5.60056
G1 X87.211 Y136.92 E5.60415
G1 X86.494 Y135.971 E5.63842
G1 X86.426 Y135.877 E5.64176
G1 X85.712 Y134.863 E5.67749
G1 X85.645 Y134.764 E5.68094
G1 X84.995 Y133.769 E5.71518
G1 X84.931 Y133.668 E5.71863
G1 X84.303 Y132.63 E5.75358
G1 X84.244 Y132.529 E5.75695
G1 X83.666 Y131.496 E5.79105
G1 X83.609 Y131.389 E5.79455
G1 X83.028 Y130.259 E5.83116
G1 X82.974 Y130.15 E5.83466
G1 X82.477 Y129.094 E5.86829
G1 X82.428 Y128.985 E5.87173
G1 X81.933 Y127.831 E5.90791
G1 X81.889 Y127.723 E5.91127
G1 X81.456 Y126.611 E5.94565
G1 X81.413 Y126.495 E5.94921
G1 X81.017 Y125.359 E5.98388
G1 X80.981 Y125.248 E5.98724
G1 X80.623 Y124.098 E6.02194
G1 X80.589 Y123.983 E6.02539
G1 X80.257 Y122.769 E6.06166
G1 X80.228 Y122.654 E6.06507
G1 X79.961 Y121.527 E6.09844
G1 X79.935 Y121.407 E6.10198
G1 X79.689 Y120.174 E6.13821
G1 X79.668 Y120.058 E6.1416
G1 X79.481 Y118.92 E6.17483
G1 X79.463 Y118.801 E6.1783
G1 X79.298 Y117.517 E6.2156
G1 X79.285 Y117.401 E6.21896
G1 X79.177 Y116.257 E6.25207
G1 X79.168 Y116.134 E6.25562
G1 X79.095 Y114.886 E6.29164
G1 X79.09 Y114.768 E6.29504
G1 X79.061 Y113.567 E6.32965
G1 X79.06 Y113.447 E6.33311
G1 X79.073 Y112.238 E6.36795
G1 X79.077 Y112.118 E6.3714
G1 X79.131 Y110.93 E6.40567
G1 X79.138 Y110.81 E6.40913
G1 X79.239 Y109.556 E6.44538
G1 X79.25 Y109.44 E6.44874
G1 X79.385 Y108.263 E6.48287
G1 X79.401 Y108.143 E6.48636
G1 X79.583 Y106.932 E6.52164
G1 X79.603 Y106.816 E6.52503
G1 X79.826 Y105.614 E6.56025
G1 X79.85 Y105.497 E6.56369
G1 X80.108 Y104.332 E6.59807
G1 X80.137 Y104.209 E6.60171
G1 X80.437 Y103.056 E6.63604
G1 X80.468 Y102.945 E6.63936
G1 X80.825 Y101.74 E6.67557
G1 X80.86 Y101.628 E6.67895
G1 X81.237 Y100.498 E6.71327
G1 X81.278 Y100.384 E6.71676
G1 X81.707 Y99.234 E6.75213
G1 X81.751 Y99.122 E6.75559
G1 X82.217 Y97.995 E6.79073
G1 X82.265 Y97.884 E6.79421
G1 X82.76 Y96.796 E6.82865
G1 X82.81 Y96.69 E6.83203
G1 X83.356 Y95.591 E6.86739
G1 X83.411 Y95.486 E6.8708
G1 X83.976 Y94.44 E6.90505
G1 X84.037 Y94.331 E6.90865
G1 X84.658 Y93.275 E6.94395
G1 X84.718 Y93.178 E6.94724
G1 X85.38 Y92.133 E6.98288
G1 X85.447 Y92.031 E6.98639
G1 X86.095 Y91.084 E7.01945
G1 X86.164 Y90.986 E7.02291
G1 X86.947 Y89.923 E7.06094
G1 X87.02 Y89.827 E7.06442
G1 X87.713 Y88.952 E7.09658
G1 X87.787 Y88.862 E7.09994
G1 X88.582 Y87.925 E7.13534
G1 X88.662 Y87.834 E7.13883
G1 X89.508 Y86.905 E7.17503
G1 X89.591 Y86.818 E7.1785
G0 F2400 X89.805 Y87.027
G1 F1500 X90.637 Y86.175 E7.21281
G1 X90.714 Y86.099 E7.21592
G1 X91.584 Y85.267 E7.25061
G1 X91.666 Y85.192 E7.25381
G1 X92.582 Y84.376 E7.28915
G1 X92.664 Y84.305 E7.29228
G1 X93.585 Y83.54 E7.32677
G1 X93.668 Y83.474 E7.32983
G1 X94.638 Y82.722 E7.36519
G1 X94.728 Y82.655 E7.36842
G1 X95.717 Y81.943 E7.40353
G1 X95.805 Y81.881 E7.40664
G1 X96.793 Y81.22 E7.44089
G1 X96.886 Y81.161 E7.44406
G1 X97.938 Y80.509 E7.47972
G1 X98.034 Y80.451 E7.48295
G1 X99.052 Y79.869 E7.51673
G1 X99.143 Y79.819 E7.51973
G1 X100.265 Y79.226 E7.55629
G1 X100.366 Y79.175 E7.55955
G1 X101.413 Y78.669 E7.59305
G1 X101.509 Y78.624 E7.59611
G1 X102.648 Y78.12 E7.63199
G1 X102.753 Y78.076 E7.63527
G1 X103.888 Y77.622 E7.67049
G1 X103.986 Y77.585 E7.67351
G1 X105.086 Y77.187 E7.70722
G1 X105.19 Y77.151 E7.71039
G1 X106.373 Y76.769 E7.7462
G1 X106.479 Y76.737 E7.74939
G1 X107.646 Y76.405 E7.78435
G1 X107.754 Y76.377 E7.78757
G1 X109.039 Y76.061 E7.82569
G1 X110.205 Y75.814 E7.86003
G1 X110.314 Y75.793 E7.86323
G1 X111.512 Y75.583 E7.89827
G1 X111.621 Y75.566 E7.90145
G1 X112.839 Y75.396 E7.93688
G1 X112.946 Y75.383 E7.93999
G1 X114.151 Y75.257 E7.9749
G1 X114.262 Y75.247 E7.97811
G1 X115.451 Y75.165 E8.01245
G1 X115.558 Y75.16 E8.01553
G1 X116.788 Y75.117 E8.05099
G1 X116.898 Y75.115 E8.05416
G1 X118.102 Y75.115 E8.08885
G1 X118.212 Y75.117 E8.09202
G1 X119.442 Y75.16 E8.12748
G1 X119.549 Y75.165 E8.13057
G1 X120.738 Y75.247 E8.1649
G1 X120.849 Y75.257 E8.16812
G1 X122.054 Y75.383 E8.20302
G1 X122.161 Y75.396 E8.20613
G1 X123.38 Y75.566 E8.24159
G1 X123.489 Y75.583 E8.24477
G1 X124.686 Y75.793 E8.27978
G1 X124.792 Y75.814 E8.2829
G1 X125.958 Y76.06 E8.31723
G1 X126.065 Y76.084 E8.32039
G1 X127.249 Y76.377 E8.35553
G1 X127.356 Y76.406 E8.35872
G1 X128.523 Y76.739 E8.39369
G1 X128.625 Y76.77 E8.39676
G1 X129.808 Y77.151 E8.43257
G1 X129.914 Y77.187 E8.4358
G1 X131.014 Y77.585 E8.4695
G1 X131.112 Y77.622 E8.47252
G1 X132.247 Y78.076 E8.50774
G1 X132.353 Y78.121 E8.51105
G1 X133.491 Y78.625 E8.54691
G1 X133.585 Y78.668 E8.54989
G1 X134.633 Y79.174 E8.58342
G1 X134.734 Y79.226 E8.58669
G1 X135.855 Y79.818 E8.62322
G1 X135.948 Y79.869 E8.62628
G1 X136.967 Y80.452 E8.6601
G1 X137.062 Y80.509 E8.66329
G1 X138.114 Y81.161 E8.69895
G1 X138.207 Y81.22 E8.70212
G1 X139.195 Y81.881 E8.73637
G1 X139.283 Y81.943 E8.73947
G1 X140.272 Y82.655 E8.77459
G1 X140.362 Y82.722 E8.77782
G1 X141.332 Y83.474 E8.81318
G1 X141.415 Y83.54 E8.81624
G1 X142.336 Y84.305 E8.85073
G1 X142.418 Y84.376 E8.85386
G1 X143.334 Y85.192 E8.8892
G1 X143.416 Y85.267 E8.8924
G1 X144.286 Y86.099 E8.92709
G1 X144.363 Y86.175 E8.9302
G1 X145.195 Y87.027 E8.96451
G1 X145.27 Y87.107 E8.96767
G1 X146.116 Y88.036 E9.00387
G1 X146.189 Y88.119 E9.00706
G1 X146.984 Y89.056 E9.04246
G1 X147.051 Y89.138 E9.04551
G1 X147.744 Y90.013 E9.07767
G1 X147.811 Y90.101 E9.08086
G1 X148.594 Y91.164 E9.1189
G1 X148.658 Y91.253 E9.12206
G1 X149.306 Y92.2 E9.15512
G1 X149.367 Y92.293 E9.15832
G1 X150.029 Y93.338 E9.19396
G1 X150.086 Y93.431 E9.19711
G1 X150.705 Y94.487 E9.23237
G1 X151.323 Y95.625 E9.26968
G1 X151.374 Y95.722 E9.27284
G1 X151.921 Y96.821 E9.30821
G1 X151.969 Y96.923 E9.31146
G1 X152.463 Y98.011 E9.34588
G1 X152.507 Y98.112 E9.34906
G1 X152.972 Y99.239 E9.38418
G1 X153.01 Y99.337 E9.38721
G1 X153.44 Y100.487 E9.42259
G1 X153.478 Y100.593 E9.42583
G1 X153.855 Y101.723 E9.46015
G1 X153.887 Y101.825 E9.46323
G1 X154.244 Y103.03 E9.49944
G1 X154.274 Y103.136 E9.50262
G1 X154.572 Y104.288 E9.5369
G1 X154.856 Y105.557 E9.57437
G1 X154.879 Y105.667 E9.5776
G1 X155.102 Y106.867 E9.61277
G1 X155.12 Y106.976 E9.61595
G1 X155.302 Y108.189 E9.65129
G1 X155.316 Y108.297 E9.65443
G1 X155.451 Y109.474 E9.68856
G1 X155.462 Y109.58 E9.69163
G1 X155.563 Y110.834 E9.72788
G1 X155.57 Y110.944 E9.73106
G1 X155.624 Y112.13 E9.76526
G1 X155.627 Y112.239 E9.7684
G1 X155.64 Y113.45 E9.8033
G1 X155.639 Y113.56 E9.80647
G1 X155.61 Y114.759 E9.84102
G1 X155.606 Y114.867 E9.84413
G1 X155.533 Y116.117 E9.88021
G1 X155.524 Y116.229 E9.88345
G1 X155.416 Y117.372 E9.91653
G1 X155.404 Y117.477 E9.91957
G1 X155.239 Y118.762 E9.9569
G1 X155.223 Y118.873 E9.96013
G1 X155.036 Y120.009 E9.9933
G1 X155.017 Y120.112 E9.99632
G1 X154.771 Y121.347 E10.0326
G1 X154.747 Y121.457 E10.03584
G1 X154.48 Y122.586 E10.06927
G1 X154.453 Y122.693 E10.07245
G1 X154.121 Y123.905 E10.10865
G1 X154.09 Y124.01 E10.11181
G1 X153.732 Y125.159 E10.14648
G1 X153.7 Y125.258 E10.14948
G1 X153.304 Y126.395 E10.18417
G1 X153.265 Y126.501 E10.18742
G1 X152.833 Y127.612 E10.22177
G1 X152.791 Y127.713 E10.22492
G1 X152.295 Y128.868 E10.26113
G1 X152.251 Y128.966 E10.26423
G1 X151.754 Y130.022 E10.29786
G1 X151.705 Y130.121 E10.30104
G1 X151.073 Y131.348 E10.3408
G1 X150.495 Y132.382 E10.37493
G1 X150.439 Y132.477 E10.37811
G1 X149.811 Y133.514 E10.41304
G1 X149.755 Y133.604 E10.41609
G1 X149.106 Y134.598 E10.4503
G1 X149.043 Y134.69 E10.45351
G1 X148.328 Y135.705 E10.48928
G1 X148.264 Y135.793 E10.49242
