;FLAVOR:Marlin
;TIME:4655
;Filament used: 3.22329m, 0m
;Layer height: 0.15
;MINX:74.602
;MINY:68.351
;MINZ:0.3
;MAXX:160.398
;MAXY:162.65
;MAXZ:3.9
;POSTPROCESSED
;Generated with Cura_SteamEngine 4.7.1
T0
M140 S60
M105
M190 S60
M104 S190
M105
M109 S190
M82 ;absolute extrusion mode
M201 X500.00 Y500.00 Z100.00 E5000.00 	;Setup machine max acceleration
M203 X500.00 Y500.00 Z10.00 E50.00 	;Setup machine max feedrate
M204 P500.00 R1000.00 T500.00 		;Setup Print/Retract/Travel acceleration
M205 X8.00 Y8.00 Z0.40 E5.00 		;Setup Jerk
M220 S100 				;Reset Feedrate
M221 S100 				;Reset Flowrate
G28				;Home the Machine
G29 				;Bed Level
G92 E0
M300 P150 S587
G92 E0
G1 F1500 E-6.5
;LAYER_COUNT:25
;LAYER:0
M107
G0 F1800 X86.702 Y81.385 Z0.3
;TYPE:SKIRT
G1 F1500 E0
G1 X86.902 Y81.18 E0.01429
G1 X87.768 Y80.325 E0.075
G1 X87.952 Y80.15 E0.08767
G1 X88.845 Y79.324 E0.14836
G1 X89.057 Y79.134 E0.16256
G1 X89.981 Y78.34 E0.22334
G1 X90.182 Y78.173 E0.23638
G1 X91.13 Y77.412 E0.29703
G1 X91.349 Y77.243 E0.31083
G1 X92.325 Y76.515 E0.37158
G1 X92.543 Y76.358 E0.38498
G1 X93.542 Y75.665 E0.44564
G1 X93.759 Y75.52 E0.45866
G1 X94.782 Y74.86 E0.5194
G1 X95.024 Y74.71 E0.5336
G1 X96.07 Y74.088 E0.59432
G1 X96.295 Y73.959 E0.60726
G1 X97.361 Y73.372 E0.66797
G1 X97.601 Y73.245 E0.68152
G1 X98.688 Y72.695 E0.74229
G1 X98.939 Y72.574 E0.75619
G1 X100.043 Y72.064 E0.81687
G1 X100.287 Y71.956 E0.83018
G1 X101.408 Y71.484 E0.89086
G1 X101.656 Y71.385 E0.90418
G1 X102.794 Y70.951 E0.96495
G1 X103.049 Y70.859 E0.97847
G1 X104.201 Y70.465 E1.03921
G1 X104.461 Y70.381 E1.05284
G1 X105.625 Y70.028 E1.11353
G1 X105.884 Y69.954 E1.12697
G1 X107.061 Y69.641 E1.18773
G1 X107.32 Y69.577 E1.20104
G1 X108.504 Y69.305 E1.26165
G1 X108.77 Y69.249 E1.27521
G1 X109.965 Y69.018 E1.33593
G1 X110.233 Y68.971 E1.34951
G1 X111.435 Y68.782 E1.41021
G1 X111.706 Y68.744 E1.42386
G1 X112.916 Y68.597 E1.48468
G1 X113.177 Y68.57 E1.49777
G1 X114.388 Y68.464 E1.55841
G1 X114.665 Y68.444 E1.57227
G1 X115.882 Y68.381 E1.63307
G1 X116.15 Y68.372 E1.64645
G1 X117.365 Y68.351 E1.70707
G1 X117.635 Y68.351 E1.72054
G1 X118.851 Y68.372 E1.78122
G1 X119.12 Y68.381 E1.79464
G1 X120.335 Y68.444 E1.85534
G1 X120.61 Y68.464 E1.8691
G1 X121.823 Y68.57 E1.92985
G1 X122.086 Y68.597 E1.94304
G1 X123.294 Y68.744 E2.00375
G1 X123.564 Y68.782 E2.01735
G1 X124.766 Y68.971 E2.07806
G1 X125.026 Y69.016 E2.09122
G1 X126.223 Y69.246 E2.15203
G1 X126.503 Y69.305 E2.16631
G1 X127.687 Y69.578 E2.22693
G1 X127.943 Y69.642 E2.24009
G1 X129.118 Y69.955 E2.30076
G1 X129.37 Y70.027 E2.31383
G1 X130.536 Y70.38 E2.37461
G1 X130.804 Y70.466 E2.38865
G1 X131.954 Y70.86 E2.4493
G1 X132.2 Y70.949 E2.46235
G1 X133.338 Y71.382 E2.5231
G1 X133.597 Y71.486 E2.53702
G1 X134.72 Y71.96 E2.59784
G1 X134.958 Y72.065 E2.61082
G1 X136.062 Y72.575 E2.67149
G1 X136.313 Y72.696 E2.68539
G1 X137.398 Y73.245 E2.74605
G1 X137.631 Y73.368 E2.7592
G1 X138.698 Y73.954 E2.81993
G1 X138.939 Y74.092 E2.83379
G1 X139.985 Y74.716 E2.89455
G1 X140.209 Y74.855 E2.9077
G1 X141.232 Y75.513 E2.96839
G1 X141.465 Y75.669 E2.98238
G1 X142.463 Y76.363 E3.04302
G1 X142.674 Y76.515 E3.056
G1 X143.65 Y77.243 E3.11674
G1 X143.862 Y77.407 E3.13012
G1 X144.811 Y78.167 E3.19077
G1 X145.025 Y78.345 E3.20466
G1 X145.948 Y79.14 E3.26544
G1 X146.148 Y79.318 E3.27879
G1 X147.042 Y80.143 E3.33948
G1 X147.239 Y80.331 E3.35307
G1 X148.104 Y81.187 E3.41378
G1 X148.29 Y81.378 E3.42708
G1 X149.125 Y82.263 E3.48779
G1 X149.312 Y82.468 E3.50163
G1 X150.115 Y83.382 E3.56233
G1 X150.292 Y83.59 E3.57595
G1 X151.062 Y84.531 E3.63662
G1 X151.219 Y84.73 E3.64926
G1 X151.96 Y85.698 E3.71008
G1 X152.13 Y85.929 E3.72439
G1 X152.833 Y86.921 E3.78505
G1 X152.981 Y87.137 E3.79811
G1 X153.651 Y88.153 E3.85883
G1 X153.799 Y88.387 E3.87264
G1 X154.433 Y89.427 E3.93341
G1 X154.565 Y89.652 E3.94642
G1 X155.163 Y90.711 E4.0071
G1 X155.293 Y90.95 E4.02067
G1 X155.854 Y92.03 E4.08139
G1 X155.979 Y92.282 E4.09542
G1 X156.501 Y93.382 E4.15617
G1 X156.611 Y93.626 E4.16952
G1 X157.094 Y94.741 E4.23014
G1 X157.193 Y94.978 E4.24296
G1 X157.64 Y96.111 E4.30372
G1 X157.738 Y96.375 E4.31777
G1 X158.143 Y97.521 E4.37841
G1 X158.229 Y97.779 E4.39198
G1 X158.595 Y98.942 E4.45281
G1 X158.671 Y99.199 E4.46618
G1 X158.996 Y100.371 E4.52686
G1 X159.063 Y100.628 E4.54011
G1 X159.348 Y101.811 E4.60082
G1 X159.408 Y102.08 E4.61457
G1 X159.651 Y103.272 E4.67526
G1 X159.7 Y103.535 E4.68861
G1 X159.902 Y104.735 E4.74932
G1 X159.943 Y105.01 E4.76319
G1 X160.102 Y106.216 E4.82388
G1 X160.132 Y106.474 E4.83683
G1 X160.251 Y107.686 E4.89759
G1 X160.273 Y107.961 E4.91136
G1 X160.349 Y109.175 E4.97204
G1 X160.361 Y109.444 E4.98547
G1 X160.395 Y110.661 E5.04621
G1 X160.398 Y110.93 E5.05964
G1 X160.39 Y112.146 E5.1203
G1 X160.383 Y112.415 E5.13373
G1 X160.333 Y113.632 E5.1945
G1 X160.317 Y113.908 E5.20829
G1 X160.224 Y115.121 E5.26898
G1 X160.199 Y115.39 E5.28246
G1 X160.064 Y116.6 E5.3432
G1 X160.03 Y116.864 E5.35648
G1 X159.854 Y118.067 E5.41714
G1 X159.81 Y118.334 E5.43064
G1 X159.592 Y119.532 E5.49139
G1 X159.539 Y119.796 E5.50482
G1 X159.28 Y120.985 E5.56554
G1 X159.217 Y121.254 E5.57932
G1 X158.916 Y122.433 E5.64003
G1 X158.844 Y122.694 E5.65353
G1 X158.502 Y123.863 E5.7143
G1 X158.423 Y124.116 E5.72752
G1 X158.042 Y125.271 E5.7882
G1 X157.952 Y125.53 E5.80188
G1 X157.531 Y126.67 E5.86251
G1 X157.437 Y126.913 E5.87551
G1 X156.977 Y128.041 E5.93628
G1 X156.863 Y128.305 E5.95063
G1 X156.362 Y129.415 E6.01139
G1 X156.255 Y129.643 E6.02395
G1 X155.719 Y130.735 E6.08464
G1 X155.589 Y130.988 E6.09883
G1 X155.014 Y132.059 E6.15948
G1 X154.886 Y132.288 E6.17257
G1 X154.274 Y133.341 E6.23333
G1 X154.132 Y133.576 E6.24703
G1 X153.484 Y134.606 E6.30774
G1 X153.337 Y134.83 E6.32111
G1 X152.654 Y135.837 E6.38181
G1 X152.495 Y136.063 E6.3956
G1 X151.777 Y137.045 E6.45629
G1 X151.62 Y137.253 E6.46929
G1 X150.869 Y138.211 E6.53002
G1 X150.693 Y138.427 E6.54392
G1 X149.908 Y139.358 E6.60468
G1 X149.729 Y139.563 E6.61825
G1 X148.913 Y140.465 E6.67894
G1 X148.733 Y140.657 E6.69207
G1 X147.887 Y141.531 E6.75275
G1 X147.692 Y141.726 E6.76651
G1 X146.815 Y142.57 E6.82724
G1 X146.622 Y142.749 E6.84037
G1 X145.717 Y143.563 E6.90109
G1 X145.508 Y143.745 E6.91492
G1 X144.575 Y144.526 E6.97562
G1 X144.366 Y144.695 E6.98903
G1 X143.406 Y145.444 E7.04978
G1 X143.19 Y145.606 E7.06325
G1 X142.205 Y146.321 E7.12398
G1 X141.982 Y146.477 E7.13755
G1 X140.973 Y147.157 E7.19826
G1 X140.751 Y147.302 E7.21149
G1 X139.72 Y147.947 E7.27216
G1 X139.478 Y148.092 E7.28623
G1 X138.425 Y148.699 E7.34687
G1 X138.196 Y148.826 E7.35994
G1 X137.12 Y149.399 E7.42075
G1 X136.883 Y149.52 E7.43403
G1 X135.79 Y150.055 E7.49474
G1 X135.541 Y150.171 E7.50845
G1 X134.43 Y150.667 E7.56915
G1 X134.181 Y150.773 E7.58265
G1 X133.054 Y151.23 E7.64332
G1 X132.802 Y151.328 E7.65681
G1 X131.659 Y151.746 E7.71753
G1 X131.399 Y151.836 E7.73126
G1 X130.24 Y152.214 E7.79208
G1 X129.702 Y152.374 E7.82008
G1 X129.581 Y153.046 E7.85415
G1 X129.386 Y153.735 E7.88987
G1 X129.107 Y154.574 E7.93398
G1 X128.821 Y155.31 E7.97338
G1 X128.5 Y155.945 E8.00887
G1 X128.068 Y156.711 E8.05275
G1 X127.646 Y157.378 E8.09213
G1 X127.225 Y157.921 E8.1264
G1 X126.654 Y158.595 E8.17048
G1 X126.114 Y159.171 E8.20987
G1 X125.566 Y159.652 E8.24624
G1 X124.875 Y160.203 E8.29034
G1 X124.233 Y160.663 E8.32974
G1 X123.626 Y161.016 E8.36477
G1 X122.84 Y161.427 E8.40902
G1 X122.123 Y161.757 E8.4484
G1 X121.445 Y161.993 E8.48422
G1 X120.599 Y162.244 E8.52824
G1 X119.831 Y162.43 E8.56767
G1 X119.121 Y162.531 E8.60344
G1 X118.241 Y162.615 E8.64755
G1 X117.452 Y162.65 E8.68695
G1 X116.759 Y162.615 E8.72157
G1 X115.879 Y162.531 E8.76567
G1 X115.098 Y162.416 E8.80505
G1 X114.401 Y162.244 E8.84087
G1 X113.555 Y161.993 E8.8849
G1 X112.811 Y161.73 E8.92427
G1 X112.16 Y161.427 E8.96009
G1 X111.374 Y161.016 E9.00434
G1 X110.693 Y160.615 E9.04377
G1 X110.125 Y160.203 E9.07878
G1 X109.434 Y159.652 E9.12287
G1 X108.842 Y159.129 E9.16228
G1 X108.346 Y158.595 E9.19864
G1 X107.775 Y157.921 E9.24271
G1 X107.295 Y157.293 E9.28214
G1 X106.932 Y156.711 E9.31637
G1 X106.5 Y155.945 E9.36024
G1 X106.147 Y155.238 E9.39966
G1 X105.893 Y154.574 E9.43513
G1 X105.614 Y153.735 E9.47924
G1 X105.403 Y152.974 E9.51864
G1 X105.297 Y152.374 E9.54904
G1 X104.756 Y152.212 E9.57722
G1 X103.599 Y151.834 E9.63794
G1 X103.342 Y151.746 E9.65149
G1 X102.199 Y151.328 E9.71221
G1 X101.951 Y151.232 E9.72548
G1 X100.822 Y150.775 E9.78624
G1 X100.567 Y150.666 E9.80008
G1 X99.457 Y150.17 E9.86074
G1 X99.21 Y150.055 E9.87433
G1 X98.117 Y149.52 E9.93504
G1 X97.882 Y149.4 E9.9482
G1 X96.807 Y148.828 E10.00896
G1 X96.572 Y148.697 E10.02238
G1 X95.517 Y148.088 E10.08315
G1 X95.281 Y147.947 E10.09687
G1 X94.251 Y147.303 E10.15747
G1 X94.027 Y147.157 E10.17081
G1 X93.018 Y146.477 E10.23152
G1 X92.795 Y146.321 E10.24509
G1 X91.81 Y145.606 E10.30582
G1 X91.594 Y145.444 E10.31929
G1 X90.634 Y144.695 E10.38004
G1 X90.425 Y144.526 E10.39345
G1 X89.492 Y143.745 E10.45415
G1 X89.283 Y143.563 E10.46798
G1 X88.378 Y142.749 E10.5287
G1 X88.185 Y142.57 E10.54183
G1 X87.308 Y141.726 E10.60256
G1 X87.113 Y141.531 E10.61632
G1 X86.267 Y140.657 E10.677
G1 X86.087 Y140.465 E10.69013
G1 X85.271 Y139.563 E10.75082
G1 X85.092 Y139.358 E10.76439
G1 X84.307 Y138.427 E10.82515
G1 X84.131 Y138.211 E10.83905
G1 X83.38 Y137.253 E10.89978
G1 X83.223 Y137.045 E10.91278
G1 X82.505 Y136.063 E10.97347
G1 X82.346 Y135.837 E10.98726
G1 X81.663 Y134.83 E11.04796
G1 X81.516 Y134.606 E11.06133
G1 X80.868 Y133.576 E11.12204
G1 X80.725 Y133.339 E11.13585
G1 X80.114 Y132.287 E11.19655
G1 X79.988 Y132.062 E11.20941
G1 X79.412 Y130.99 E11.27012
G1 X79.284 Y130.74 E11.28414
G1 X78.747 Y129.648 E11.34485
G1 X78.632 Y129.404 E11.35831
G1 X78.133 Y128.294 E11.41902
G1 X78.028 Y128.049 E11.43232
G1 X77.567 Y126.922 E11.49307
G1 X77.47 Y126.673 E11.5064
G1 X77.048 Y125.531 E11.56714
G1 X76.955 Y125.267 E11.58111
G1 X76.575 Y124.113 E11.64172
G1 X76.498 Y123.863 E11.65477
G1 X76.156 Y122.694 E11.71554
G1 X76.083 Y122.427 E11.72935
G1 X75.783 Y121.248 E11.79004
G1 X75.722 Y120.991 E11.80322
G1 X75.462 Y119.802 E11.86394
G1 X75.408 Y119.534 E11.87758
G1 X75.19 Y118.337 E11.93828
G1 X75.146 Y118.066 E11.95198
G1 X74.97 Y116.861 E12.01273
G1 X74.936 Y116.6 E12.02586
G1 X74.801 Y115.391 E12.08656
G1 X74.776 Y115.121 E12.10008
G1 X74.683 Y113.908 E12.16078
G1 X74.667 Y113.632 E12.17457
G1 X74.617 Y112.416 E12.23529
G1 X74.61 Y112.147 E12.24871
G1 X74.602 Y110.931 E12.30938
G1 X74.605 Y110.662 E12.3228
G1 X74.639 Y109.444 E12.38359
G1 X74.651 Y109.174 E12.39708
G1 X74.727 Y107.961 E12.45771
G1 X74.749 Y107.687 E12.47143
G1 X74.868 Y106.475 E12.53218
G1 X74.898 Y106.218 E12.54509
G1 X75.057 Y105.011 E12.60583
G1 X75.098 Y104.734 E12.6198
G1 X75.3 Y103.535 E12.68046
G1 X75.349 Y103.275 E12.69366
G1 X75.592 Y102.081 E12.75445
G1 X75.652 Y101.809 E12.76835
G1 X75.937 Y100.627 E12.82901
G1 X76.004 Y100.369 E12.84231
G1 X76.329 Y99.198 E12.90294
G1 X76.405 Y98.943 E12.91621
G1 X76.771 Y97.78 E12.97704
G1 X76.856 Y97.524 E12.9905
G1 X77.261 Y96.377 E13.05118
G1 X77.359 Y96.115 E13.06514
G1 X77.805 Y94.983 E13.12584
G1 X77.907 Y94.735 E13.13922
G1 X78.392 Y93.618 E13.19997
G1 X78.499 Y93.384 E13.21281
G1 X79.02 Y92.285 E13.27349
G1 X79.145 Y92.033 E13.28752
G1 X79.705 Y90.954 E13.34817
G1 X79.836 Y90.712 E13.3619
G1 X80.435 Y89.651 E13.42269
G1 X80.57 Y89.42 E13.43604
G1 X81.204 Y88.382 E13.49672
G1 X81.346 Y88.158 E13.50995
G1 X82.015 Y87.142 E13.57064
G1 X82.167 Y86.921 E13.58402
G1 X82.871 Y85.928 E13.64475
G1 X83.04 Y85.699 E13.65895
G1 X83.78 Y84.732 E13.7197
G1 X83.938 Y84.532 E13.73241
G1 X84.709 Y83.59 E13.79315
G1 X84.888 Y83.379 E13.80695
G1 X85.691 Y82.466 E13.86761
G1 X85.868 Y82.271 E13.88075
G1 X86.702 Y81.385 E13.94145
G0 F1800 X86.994 Y81.659
G1 F1500 X87.183 Y81.465 E13.95497
G1 X88.049 Y80.61 E14.01568
G1 X88.223 Y80.444 E14.02768
G1 X89.116 Y79.618 E14.08837
G1 X89.318 Y79.438 E14.10187
G1 X90.242 Y78.644 E14.16265
G1 X90.433 Y78.485 E14.17504
G1 X91.381 Y77.724 E14.23569
G1 X91.589 Y77.563 E14.24882
G1 X92.565 Y76.835 E14.30956
G1 X92.771 Y76.687 E14.32222
G1 X93.77 Y75.994 E14.38288
G1 X93.976 Y75.856 E14.39525
G1 X94.999 Y75.196 E14.45598
G1 X95.229 Y75.054 E14.46947
G1 X96.275 Y74.432 E14.53018
G1 X96.488 Y74.31 E14.54243
G1 X97.554 Y73.723 E14.60314
G1 X97.782 Y73.602 E14.61602
G1 X98.869 Y73.052 E14.6768
G1 X99.107 Y72.937 E14.68999
G1 X100.211 Y72.427 E14.75066
G1 X100.442 Y72.325 E14.76326
G1 X101.563 Y71.853 E14.82394
G1 X101.798 Y71.759 E14.83657
G1 X102.936 Y71.325 E14.89733
G1 X103.178 Y71.237 E14.91018
G1 X104.33 Y70.843 E14.97092
G1 X104.577 Y70.763 E14.98387
G1 X105.741 Y70.41 E15.04456
G1 X105.987 Y70.341 E15.0573
G1 X107.164 Y70.028 E15.11806
G1 X107.409 Y69.967 E15.13066
G1 X108.593 Y69.695 E15.19127
G1 X108.846 Y69.642 E15.20416
G1 X110.041 Y69.411 E15.26489
G1 X110.296 Y69.366 E15.27781
G1 X111.498 Y69.177 E15.33851
G1 X111.755 Y69.141 E15.35146
G1 X112.965 Y68.994 E15.41227
G1 X113.212 Y68.968 E15.42466
G1 X114.423 Y68.862 E15.48531
G1 X114.685 Y68.844 E15.49841
G1 X115.902 Y68.781 E15.55921
G1 X116.157 Y68.772 E15.57194
G1 X117.372 Y68.751 E15.63256
G1 X117.628 Y68.751 E15.64533
G1 X118.844 Y68.772 E15.70601
G1 X119.099 Y68.781 E15.71874
G1 X120.314 Y68.844 E15.77944
G1 X120.575 Y68.862 E15.79249
G1 X121.788 Y68.968 E15.85324
G1 X122.038 Y68.994 E15.86578
G1 X123.246 Y69.141 E15.92649
G1 X123.501 Y69.177 E15.93934
G1 X124.703 Y69.366 E16.00004
G1 X124.95 Y69.409 E16.01255
G1 X126.147 Y69.639 E16.07336
G1 X126.414 Y69.695 E16.08697
G1 X127.598 Y69.968 E16.14759
G1 X127.84 Y70.028 E16.16003
G1 X129.015 Y70.341 E16.2207
G1 X129.254 Y70.409 E16.23309
G1 X130.42 Y70.762 E16.29387
G1 X130.674 Y70.844 E16.30719
G1 X131.824 Y71.238 E16.36784
G1 X132.058 Y71.323 E16.38026
G1 X133.196 Y71.756 E16.441
G1 X133.442 Y71.854 E16.45421
G1 X134.565 Y72.328 E16.51503
G1 X134.79 Y72.428 E16.52731
G1 X135.894 Y72.938 E16.58798
G1 X136.132 Y73.053 E16.60117
G1 X137.217 Y73.602 E16.66184
G1 X137.438 Y73.719 E16.67431
G1 X138.505 Y74.305 E16.73504
G1 X138.734 Y74.436 E16.74821
G1 X139.78 Y75.06 E16.80897
G1 X139.992 Y75.191 E16.82141
G1 X141.015 Y75.849 E16.88209
G1 X141.237 Y75.998 E16.89543
G1 X142.235 Y76.692 E16.95607
G1 X142.434 Y76.835 E16.9683
G1 X143.41 Y77.563 E17.02905
G1 X143.612 Y77.719 E17.04178
G1 X144.561 Y78.479 E17.10244
G1 X144.764 Y78.648 E17.11561
G1 X145.687 Y79.443 E17.17639
G1 X145.877 Y79.612 E17.18908
G1 X146.771 Y80.437 E17.24977
G1 X146.957 Y80.615 E17.26261
G1 X147.822 Y81.471 E17.32332
G1 X147.999 Y81.653 E17.33599
G1 X148.834 Y82.538 E17.39669
G1 X149.011 Y82.732 E17.4098
G1 X149.814 Y83.646 E17.47049
G1 X149.982 Y83.844 E17.48345
G1 X150.752 Y84.785 E17.54411
G1 X150.901 Y84.973 E17.55608
G1 X151.642 Y85.941 E17.6169
G1 X151.804 Y86.16 E17.63049
G1 X152.507 Y87.152 E17.69115
G1 X152.647 Y87.357 E17.70353
G1 X153.317 Y88.373 E17.76425
G1 X153.457 Y88.595 E17.77734
G1 X154.091 Y89.635 E17.83811
G1 X154.217 Y89.848 E17.85046
G1 X154.815 Y90.907 E17.91113
G1 X154.938 Y91.135 E17.92406
G1 X155.499 Y92.215 E17.98477
G1 X155.617 Y92.453 E17.99803
G1 X156.139 Y93.553 E18.05877
G1 X156.244 Y93.785 E18.07148
G1 X156.727 Y94.9 E18.1321
G1 X156.821 Y95.125 E18.14426
G1 X157.268 Y96.258 E18.20503
G1 X157.361 Y96.508 E18.21834
G1 X157.766 Y97.654 E18.27898
G1 X157.848 Y97.899 E18.29187
G1 X158.214 Y99.062 E18.35269
G1 X158.286 Y99.306 E18.36539
G1 X158.611 Y100.478 E18.42606
G1 X158.674 Y100.722 E18.43864
G1 X158.959 Y101.905 E18.49935
G1 X159.016 Y102.16 E18.51238
G1 X159.259 Y103.352 E18.57307
G1 X159.305 Y103.602 E18.58576
