;FLAVOR:Marlin
;TIME:7507
;Filament used: 3.23521m, 0m
;Layer height: 0.2
;MINX:78.91
;MINY:74.665
;MINZ:0.3
;MAXX:156.09
;MAXY:160.331
;MAXZ:3.9
;POSTPROCESSED
;Generated with Cura_SteamEngine 4.7.1
T0
M140 S60
M105
M190 S60
M104 S200
M105
M109 S200
M82 ;absolute extrusion mode
M201 X500.00 Y500.00 Z100.00 E5000.00 	;Setup machine max acceleration
M203 X500.00 Y500.00 Z10.00 E50.00 	;Setup machine max feedrate
M204 P500.00 R1000.00 T500.00 		;Setup Print/Retract/Travel acceleration
M205 X8.00 Y8.00 Z0.40 E5.00 		;Setup Jerk
M220 S100 				;Reset Feedrate
M221 S100 				;Reset Flowrate
G28				;Home the Machine
G29 				;Bed Level
G92 E0
M300 P150 S587
G92 E0
;LAYER_COUNT:19
;LAYER:0
M107
G0 F2400 X89.483 Y86.713 Z0.3
;TYPE:SKIRT
G1 F1050 X90.315 Y85.861 E0.05941
G1 X90.403 Y85.774 E0.06559
G1 X91.273 Y84.942 E0.12564
G1 X91.366 Y84.856 E0.13196
G1 X92.282 Y84.04 E0.19317
G1 X92.377 Y83.959 E0.19939
G1 X93.298 Y83.194 E0.25913
G1 X93.392 Y83.118 E0.26516
G1 X94.362 Y82.366 E0.32639
G1 X94.465 Y82.289 E0.33281
G1 X95.454 Y81.577 E0.3936
G1 X95.555 Y81.507 E0.39973
G1 X96.543 Y80.846 E0.45904
G1 X96.649 Y80.778 E0.46532
G1 X97.701 Y80.126 E0.52707
G1 X97.81 Y80.061 E0.5334
G1 X98.828 Y79.479 E0.5919
G1 X98.933 Y79.421 E0.59789
G1 X100.055 Y78.828 E0.6612
G1 X100.171 Y78.77 E0.66767
G1 X101.218 Y78.264 E0.72569
G1 X101.327 Y78.213 E0.73169
G1 X102.466 Y77.709 E0.79383
G1 X102.586 Y77.658 E0.80034
G1 X103.721 Y77.204 E0.86132
G1 X103.833 Y77.162 E0.86729
G1 X104.933 Y76.764 E0.92565
G1 X105.052 Y76.723 E0.93193
G1 X106.235 Y76.341 E0.99395
G1 X106.356 Y76.304 E1.00027
G1 X107.523 Y75.972 E1.0608
G1 X107.646 Y75.94 E1.06714
G1 X108.83 Y75.648 E1.12798
G1 X108.946 Y75.621 E1.13392
G1 X110.112 Y75.374 E1.19338
G1 X110.236 Y75.35 E1.19968
G1 X111.434 Y75.14 E1.26036
G1 X111.558 Y75.121 E1.26662
G1 X112.776 Y74.951 E1.32798
G1 X112.9 Y74.936 E1.33421
G1 X114.105 Y74.81 E1.39466
G1 X114.231 Y74.799 E1.40097
G1 X115.42 Y74.717 E1.46043
G1 X115.542 Y74.71 E1.46652
G1 X116.772 Y74.667 E1.52792
G1 X116.898 Y74.665 E1.53421
G1 X118.102 Y74.665 E1.59428
G1 X118.228 Y74.667 E1.60057
G1 X119.458 Y74.71 E1.66197
G1 X119.58 Y74.717 E1.66807
G1 X120.769 Y74.799 E1.72753
G1 X120.895 Y74.81 E1.73384
G1 X122.1 Y74.936 E1.79428
G1 X122.223 Y74.951 E1.80046
G1 X123.442 Y75.121 E1.86187
G1 X123.567 Y75.14 E1.86818
G1 X124.764 Y75.35 E1.92881
G1 X124.885 Y75.374 E1.93496
G1 X126.051 Y75.62 E1.99441
G1 X126.173 Y75.647 E2.00065
G1 X127.357 Y75.94 E2.0615
G1 X127.48 Y75.973 E2.06785
G1 X128.647 Y76.306 E2.1284
G1 X128.763 Y76.341 E2.13444
G1 X129.946 Y76.722 E2.19645
G1 X130.067 Y76.764 E2.20284
G1 X131.167 Y77.162 E2.2612
G1 X131.279 Y77.204 E2.26717
G1 X132.414 Y77.658 E2.32816
G1 X132.535 Y77.709 E2.33471
G1 X133.673 Y78.213 E2.3968
G1 X133.78 Y78.263 E2.40269
G1 X134.828 Y78.769 E2.46075
G1 X134.944 Y78.828 E2.46725
G1 X136.065 Y79.42 E2.53049
G1 X136.172 Y79.478 E2.53656
G1 X137.191 Y80.061 E2.59513
G1 X137.299 Y80.126 E2.60142
G1 X138.351 Y80.778 E2.66317
G1 X138.457 Y80.846 E2.66945
G1 X139.445 Y81.507 E2.72876
G1 X139.546 Y81.577 E2.73489
G1 X140.535 Y82.289 E2.79569
G1 X140.638 Y82.366 E2.8021
G1 X141.608 Y83.118 E2.86334
G1 X141.702 Y83.194 E2.86937
G1 X142.623 Y83.959 E2.9291
G1 X142.718 Y84.04 E2.93533
G1 X143.634 Y84.856 E2.99653
G1 X143.727 Y84.942 E3.00285
G1 X144.597 Y85.774 E3.06291
G1 X144.685 Y85.861 E3.06908
G1 X145.517 Y86.713 E3.12849
G1 X145.603 Y86.804 E3.13474
G1 X146.449 Y87.733 E3.19743
G1 X146.532 Y87.828 E3.20372
G1 X147.327 Y88.765 E3.26503
G1 X147.404 Y88.859 E3.27109
G1 X148.097 Y89.734 E3.32678
G1 X148.174 Y89.834 E3.33307
G1 X148.957 Y90.897 E3.39894
G1 X149.029 Y90.999 E3.40517
G1 X149.677 Y91.946 E3.46242
G1 X149.747 Y92.052 E3.46875
G1 X150.409 Y93.097 E3.53047
G1 X150.474 Y93.203 E3.53667
G1 X151.093 Y94.259 E3.59774
G1 X151.152 Y94.364 E3.60375
G1 X151.719 Y95.41 E3.66311
G1 X151.777 Y95.522 E3.6694
G1 X152.324 Y96.621 E3.73065
G1 X152.379 Y96.737 E3.73705
G1 X152.873 Y97.825 E3.79667
G1 X152.923 Y97.94 E3.80292
G1 X153.388 Y99.067 E3.86375
G1 X153.432 Y99.179 E3.86975
G1 X153.862 Y100.329 E3.931
G1 X153.905 Y100.451 E3.93746
G1 X154.282 Y101.581 E3.99689
G1 X154.319 Y101.697 E4.00296
G1 X154.676 Y102.902 E4.06566
G1 X154.709 Y103.023 E4.07192
G1 X155.007 Y104.175 E4.13129
G1 X155.036 Y104.293 E4.13735
G1 X155.296 Y105.459 E4.19695
G1 X155.321 Y105.585 E4.20336
G1 X155.544 Y106.785 E4.26425
G1 X155.565 Y106.909 E4.27052
G1 X155.747 Y108.122 E4.33172
G1 X155.764 Y108.246 E4.33796
G1 X155.899 Y109.423 E4.39707
G1 X155.91 Y109.544 E4.40313
G1 X156.011 Y110.798 E4.4659
G1 X156.019 Y110.923 E4.47214
G1 X156.073 Y112.109 E4.53138
G1 X156.077 Y112.234 E4.53761
G1 X156.09 Y113.445 E4.59804
G1 X156.089 Y113.571 E4.60432
G1 X156.06 Y114.77 E4.66416
G1 X156.055 Y114.893 E4.6703
G1 X155.982 Y116.143 E4.73277
G1 X155.972 Y116.272 E4.73922
G1 X155.864 Y117.415 E4.7965
G1 X155.851 Y117.534 E4.80247
G1 X155.686 Y118.819 E4.86711
G1 X155.667 Y118.946 E4.87352
G1 X155.48 Y120.082 E4.93095
G1 X155.459 Y120.2 E4.93693
G1 X155.213 Y121.435 E4.99976
G1 X155.185 Y121.561 E5.0062
G1 X154.918 Y122.69 E5.06408
G1 X154.887 Y122.812 E5.07036
G1 X154.555 Y124.024 E5.13305
G1 X154.52 Y124.144 E5.13929
G1 X154.162 Y125.293 E5.19933
G1 X154.125 Y125.406 E5.20526
G1 X153.729 Y126.543 E5.26533
G1 X153.684 Y126.664 E5.27177
G1 X153.252 Y127.775 E5.33124
G1 X153.205 Y127.891 E5.33749
G1 X152.709 Y129.046 E5.4002
G1 X152.658 Y129.158 E5.40634
G1 X152.161 Y130.214 E5.46456
G1 X152.106 Y130.327 E5.47083
G1 X151.525 Y131.457 E5.53423
G1 X151.465 Y131.568 E5.54052
G1 X150.887 Y132.602 E5.59962
G1 X150.824 Y132.71 E5.60586
G1 X150.196 Y133.747 E5.66634
G1 X150.131 Y133.85 E5.67242
G1 X149.482 Y134.844 E5.73164
G1 X149.411 Y134.949 E5.73797
G1 X148.696 Y135.964 E5.79991
G1 X148.623 Y136.065 E5.80612
G1 X147.905 Y137.013 E5.86545
G1 X147.83 Y137.108 E5.87149
G1 X147.048 Y138.071 E5.93338
G1 X146.963 Y138.172 E5.93997
G1 X146.162 Y139.088 E6.00068
G1 X146.081 Y139.178 E6.00672
G1 X145.25 Y140.066 E6.06739
G1 X145.164 Y140.155 E6.07357
G1 X144.316 Y141.001 E6.13333
G1 X144.225 Y141.088 E6.13961
G1 X143.349 Y141.903 E6.1993
G1 X143.255 Y141.987 E6.20559
G1 X142.31 Y142.806 E6.26798
G1 X142.217 Y142.884 E6.27404
G1 X141.292 Y143.633 E6.33342
G1 X141.189 Y143.713 E6.33992
G1 X140.232 Y144.432 E6.39964
G1 X140.135 Y144.504 E6.40567
G1 X139.122 Y145.213 E6.46736
G1 X138.779 Y145.438 E6.48782
G1 X136.468 Y146.983 E6.62651
G1 X134.23 Y148.573 E6.76347
G1 X132.084 Y150.19 E6.89753
G1 X129.944 Y151.901 E7.03422
G1 X127.859 Y153.665 E7.17048
G1 X125.833 Y155.482 E7.30625
G1 X123.839 Y157.372 E7.44332
G1 X123.708 Y157.503 E7.45256
G1 X123.131 Y158.061 E7.49261
G1 X122.622 Y158.496 E7.52601
G1 X122.16 Y158.855 E7.5552
G1 X121.738 Y159.137 E7.58052
G1 X121.249 Y159.404 E7.60832
G1 X120.806 Y159.627 E7.63306
G1 X120.325 Y159.826 E7.65903
G1 X119.83 Y159.982 E7.68493
G1 X119.347 Y160.119 E7.70998
G1 X118.798 Y160.23 E7.73792
G1 X118.322 Y160.285 E7.76182
G1 X117.784 Y160.328 E7.78875
G1 X117.253 Y160.331 E7.81524
G1 X116.788 Y160.296 E7.83851
G1 X116.251 Y160.236 E7.86547
G1 X115.685 Y160.128 E7.89421
G1 X115.26 Y160.009 E7.91623
G1 X114.737 Y159.846 E7.94356
G1 X114.212 Y159.636 E7.97177
G1 X113.82 Y159.439 E7.99366
G1 X113.331 Y159.174 E8.02141
G1 X112.875 Y158.881 E8.04845
G1 X112.51 Y158.601 E8.0714
G1 X112.094 Y158.26 E8.09824
G1 X111.867 Y158.058 E8.1134
G1 X111.056 Y157.27 E8.16981
G1 X109.021 Y155.347 E8.3095
G1 X107.007 Y153.548 E8.44422
G1 X104.921 Y151.79 E8.58032
G1 X102.777 Y150.082 E8.71708
G1 X100.612 Y148.458 E8.8521
G1 X98.379 Y146.879 E8.98855
G1 X96.317 Y145.502 E9.11225
G1 X95.895 Y145.226 E9.13741
G1 X94.861 Y144.501 E9.20041
G1 X93.81 Y143.712 E9.26598
G1 X93.711 Y143.635 E9.27223
G1 X92.785 Y142.887 E9.33162
G1 X92.686 Y142.805 E9.33804
G1 X91.742 Y141.985 E9.40042
G1 X91.654 Y141.906 E9.40632
G1 X90.777 Y141.092 E9.46601
G1 X90.68 Y140.999 E9.47272
G1 X89.833 Y140.152 E9.53248
G1 X89.753 Y140.069 E9.53823
G1 X88.921 Y139.182 E9.5989
G1 X88.834 Y139.086 E9.60537
G1 X88.034 Y138.169 E9.66608
G1 X87.955 Y138.075 E9.67221
G1 X87.172 Y137.113 E9.73409
G1 X87.092 Y137.01 E9.7406
G1 X86.375 Y136.061 E9.79994
G1 X86.304 Y135.964 E9.80593
G1 X85.59 Y134.95 E9.8678
G1 X85.519 Y134.846 E9.87409
G1 X84.869 Y133.851 E9.93338
G1 X84.803 Y133.746 E9.93957
G1 X84.175 Y132.708 E10.00009
G1 X84.113 Y132.602 E10.00622
G1 X83.535 Y131.569 E10.06528
G1 X83.475 Y131.457 E10.07162
G1 X82.894 Y130.327 E10.13501
G1 X82.839 Y130.214 E10.14128
G1 X82.342 Y129.158 E10.1995
G1 X82.291 Y129.044 E10.20573
G1 X81.796 Y127.89 E10.26838
G1 X81.749 Y127.777 E10.27449
G1 X81.316 Y126.665 E10.33402
G1 X81.272 Y126.544 E10.34045
G1 X80.876 Y125.408 E10.40047
G1 X80.838 Y125.293 E10.40651
G1 X80.48 Y124.143 E10.4666
G1 X80.445 Y124.023 E10.47283
G1 X80.113 Y122.809 E10.53562
G1 X80.082 Y122.689 E10.54181
G1 X79.815 Y121.562 E10.59959
G1 X79.788 Y121.436 E10.60602
G1 X79.542 Y120.203 E10.66875
G1 X79.52 Y120.083 E10.67483
G1 X79.333 Y118.945 E10.73237
G1 X79.314 Y118.82 E10.73868
G1 X79.149 Y117.536 E10.80326
G1 X79.136 Y117.415 E10.80933
G1 X79.028 Y116.271 E10.86666
G1 X79.018 Y116.143 E10.87307
G1 X78.945 Y114.895 E10.93544
G1 X78.94 Y114.772 E10.94158
G1 X78.911 Y113.571 E11.00151
G1 X78.91 Y113.445 E11.0078
G1 X78.923 Y112.236 E11.06812
G1 X78.927 Y112.112 E11.07431
G1 X78.981 Y110.924 E11.13364
G1 X78.989 Y110.798 E11.13994
G1 X79.09 Y109.544 E11.20271
G1 X79.101 Y109.423 E11.20877
G1 X79.236 Y108.246 E11.26787
G1 X79.253 Y108.121 E11.27417
G1 X79.435 Y106.91 E11.33526
G1 X79.455 Y106.788 E11.34143
G1 X79.678 Y105.586 E11.40242
G1 X79.703 Y105.465 E11.40859
G1 X79.961 Y104.3 E11.46812
G1 X79.992 Y104.171 E11.47474
G1 X80.292 Y103.018 E11.53417
G1 X80.324 Y102.902 E11.54018
G1 X80.681 Y101.697 E11.60288
G1 X80.718 Y101.581 E11.60895
G1 X81.095 Y100.451 E11.66838
G1 X81.137 Y100.332 E11.67468
G1 X81.566 Y99.182 E11.73592
G1 X81.612 Y99.064 E11.74223
G1 X82.078 Y97.937 E11.80308
G1 X82.128 Y97.822 E11.80933
G1 X82.623 Y96.734 E11.86897
G1 X82.676 Y96.623 E11.8751
G1 X83.222 Y95.524 E11.93633
G1 X83.279 Y95.415 E11.94246
G1 X83.844 Y94.369 E12.00178
G1 X83.908 Y94.255 E12.0083
G1 X84.529 Y93.199 E12.06942
G1 X84.591 Y93.097 E12.07537
G1 X85.253 Y92.052 E12.13709
G1 X85.323 Y91.946 E12.14343
G1 X85.971 Y90.999 E12.20067
G1 X86.043 Y90.897 E12.2069
G1 X86.826 Y89.834 E12.27277
G1 X86.903 Y89.734 E12.27907
G1 X87.596 Y88.859 E12.33475
G1 X87.673 Y88.765 E12.34082
G1 X88.468 Y87.828 E12.40212
G1 X88.551 Y87.733 E12.40842
G1 X89.397 Y86.804 E12.4711
G1 X89.483 Y86.713 E12.47735
G0 F2400 X89.77 Y86.992
G1 F1050 X90.602 Y86.14 E12.53676
G1 X90.679 Y86.063 E12.54219
G1 X91.549 Y85.231 E12.60225
G1 X91.632 Y85.155 E12.60786
G1 X92.548 Y84.339 E12.66907
G1 X92.632 Y84.266 E12.67462
G1 X93.553 Y83.501 E12.73435
G1 X93.637 Y83.434 E12.73971
G1 X94.607 Y82.682 E12.80095
G1 X94.698 Y82.614 E12.80661
G1 X95.687 Y81.902 E12.86741
G1 X95.778 Y81.839 E12.87293
G1 X96.766 Y81.178 E12.93224
G1 X96.859 Y81.118 E12.93776
G1 X97.911 Y80.466 E12.99951
G1 X98.009 Y80.408 E13.00519
G1 X99.027 Y79.826 E13.06369
G1 X99.12 Y79.775 E13.06898
G1 X100.242 Y79.182 E13.1323
G1 X100.345 Y79.13 E13.13805
G1 X101.392 Y78.624 E13.19607
G1 X101.489 Y78.579 E13.2014
G1 X102.628 Y78.075 E13.26354
G1 X102.735 Y78.03 E13.26933
G1 X103.87 Y77.576 E13.33032
G1 X103.969 Y77.538 E13.33561
G1 X105.069 Y77.14 E13.39397
G1 X105.175 Y77.104 E13.39956
G1 X106.358 Y76.722 E13.46158
G1 X106.465 Y76.689 E13.46717
G1 X107.632 Y76.357 E13.5277
G1 X107.742 Y76.328 E13.53337
G1 X108.926 Y76.036 E13.59421
G1 X109.029 Y76.012 E13.59949
G1 X110.195 Y75.765 E13.65895
G1 X110.305 Y75.744 E13.66454
G1 X111.503 Y75.534 E13.72522
G1 X111.614 Y75.517 E13.73082
G1 X112.832 Y75.347 E13.79218
G1 X112.941 Y75.333 E13.79766
G1 X114.146 Y75.207 E13.8581
G1 X114.259 Y75.198 E13.86376
G1 X115.448 Y75.116 E13.92322
G1 X115.556 Y75.11 E13.92862
G1 X116.786 Y75.067 E13.99002
G1 X116.898 Y75.065 E13.99561
G1 X118.102 Y75.065 E14.05568
G1 X118.214 Y75.067 E14.06126
G1 X119.444 Y75.11 E14.12267
G1 X119.552 Y75.116 E14.12806
G1 X120.741 Y75.198 E14.18752
G1 X120.854 Y75.207 E14.19318
G1 X122.059 Y75.333 E14.25362
G1 X122.168 Y75.347 E14.25911
G1 X123.387 Y75.517 E14.32051
G1 X123.498 Y75.534 E14.32611
G1 X124.695 Y75.744 E14.38674
G1 X124.803 Y75.765 E14.39223
G1 X125.969 Y76.011 E14.45169
G1 X126.077 Y76.036 E14.45722
G1 X127.261 Y76.329 E14.51807
G1 X127.37 Y76.358 E14.5237
G1 X128.537 Y76.691 E14.58424
G1 X128.64 Y76.722 E14.58961
G1 X129.823 Y77.103 E14.65161
G1 X129.931 Y77.14 E14.65731
G1 X131.031 Y77.538 E14.71567
G1 X131.13 Y77.576 E14.72096
G1 X132.265 Y78.03 E14.78195
G1 X132.373 Y78.075 E14.78779
G1 X133.511 Y78.579 E14.84988
G1 X133.606 Y78.623 E14.8551
G1 X134.654 Y79.129 E14.91316
G1 X134.757 Y79.181 E14.91892
G1 X135.878 Y79.773 E14.98217
G1 X135.973 Y79.825 E14.98757
G1 X136.992 Y80.408 E15.04614
G1 X137.089 Y80.466 E15.05178
G1 X138.141 Y81.118 E15.11353
G1 X138.234 Y81.178 E15.11905
G1 X139.222 Y81.839 E15.17835
G1 X139.313 Y81.902 E15.18387
G1 X140.302 Y82.614 E15.24467
G1 X140.393 Y82.682 E15.25034
G1 X141.363 Y83.434 E15.31157
G1 X141.447 Y83.501 E15.31693
G1 X142.368 Y84.266 E15.37667
G1 X142.452 Y84.339 E15.38222
G1 X143.368 Y85.155 E15.44342
G1 X143.451 Y85.231 E15.44904
G1 X144.321 Y86.063 E15.50909
G1 X144.398 Y86.14 E15.51453
G1 X145.23 Y86.992 E15.57394
G1 X145.307 Y87.073 E15.57951
G1 X146.153 Y88.002 E15.6422
G1 X146.227 Y88.087 E15.64782
G1 X147.091 Y89.107 E15.71451
G1 X147.784 Y89.982 E15.7702
G1 X147.851 Y90.071 E15.77576
G1 X148.634 Y91.134 E15.84162
G1 X148.699 Y91.225 E15.8472
G1 X149.347 Y92.172 E15.90445
G1 X149.409 Y92.267 E15.91011
G1 X150.071 Y93.312 E15.97183
G1 X150.129 Y93.406 E15.97734
G1 X150.748 Y94.462 E16.03841
G1 X150.8 Y94.555 E16.04372
G1 X151.367 Y95.601 E16.10308
G1 X151.419 Y95.7 E16.10866
G1 X151.966 Y96.799 E16.16991
G1 X152.015 Y96.902 E16.1756
G1 X152.509 Y97.99 E16.23521
G1 X152.553 Y98.092 E16.24075
G1 X153.018 Y99.219 E16.30158
G1 X153.057 Y99.319 E16.30693
G1 X153.487 Y100.469 E16.36818
G1 X153.526 Y100.577 E16.37391
G1 X153.903 Y101.707 E16.43334
G1 X153.935 Y101.811 E16.43877
G1 X154.292 Y103.016 E16.50147
G1 X154.322 Y103.124 E16.50707
G1 X154.62 Y104.276 E16.56643
G1 X154.645 Y104.381 E16.57182
G1 X154.905 Y105.547 E16.63142
G1 X154.928 Y105.658 E16.63707
G1 X155.151 Y106.858 E16.69796
G1 X155.17 Y106.968 E16.70353
G1 X155.352 Y108.181 E16.76473
G1 X155.366 Y108.291 E16.77026
G1 X155.501 Y109.468 E16.82937
G1 X155.512 Y109.576 E16.83478
G1 X155.613 Y110.83 E16.89755
G1 X155.62 Y110.941 E16.9031
G1 X155.674 Y112.127 E16.96233
G1 X155.677 Y112.239 E16.96792
G1 X155.69 Y113.45 E17.02834
G1 X155.689 Y113.561 E17.03388
G1 X155.66 Y114.76 E17.09371
G1 X155.656 Y114.87 E17.0992
G1 X155.583 Y116.12 E17.16167
G1 X155.574 Y116.234 E17.16738
G1 X155.466 Y117.377 E17.22466
G1 X155.454 Y117.484 E17.23003
G1 X155.289 Y118.769 E17.29466
G1 X155.273 Y118.881 E17.30031
G1 X155.086 Y120.017 E17.35774
G1 X154.82 Y121.357 E17.4259
G1 X154.796 Y121.468 E17.43157
G1 X154.529 Y122.597 E17.48945
G1 X154.501 Y122.706 E17.49506
G1 X154.169 Y123.918 E17.55776
G1 X154.138 Y124.025 E17.56331
G1 X153.78 Y125.174 E17.62336
G1 X153.747 Y125.275 E17.62866
G1 X153.351 Y126.412 E17.68872
G1 X153.311 Y126.519 E17.69442
G1 X152.879 Y127.63 E17.75389
G1 X152.837 Y127.733 E17.75944
G1 X152.341 Y128.888 E17.82216
G1 X152.296 Y128.988 E17.82763
G1 X151.799 Y130.044 E17.88585
G1 X151.75 Y130.144 E17.89141
G1 X151.169 Y131.274 E17.9548
G1 X151.116 Y131.372 E17.96036
