;FLAVOR:Marlin
;TIME:1271
;Filament used: 1.26485m, 0m
;Layer height: 0.2
;MINX:103.5
;MINY:103.5
;MINZ:0.3
;MAXX:131.5
;MAXY:131.5
;MAXZ:19.9
;Generated with Cura_SteamEngine 4.7.1
T0
M140 S60
M105
M190 S60
M104 S200
M105
M109 S200
M82 ;absolute extrusion mode
M201 X500.00 Y500.00 Z100.00 E5000.00 	;Setup machine max acceleration
M203 X500.00 Y500.00 Z10.00 E50.00 	;Setup machine max feedrate
M204 P500.00 R1000.00 T500.00 		;Setup Print/Retract/Travel acceleration
M205 X8.00 Y8.00 Z0.40 E5.00 		;Setup Jerk
M220 S100 				;Reset Feedrate
M221 S100 				;Reset Flowrate
G28				;Home the Machine
G29 				;Bed Level
G92 E0
M300 P150 S587
G92 E0
;LAYER_COUNT:99
;LAYER:0
M107
G0 F3600 X104.504 Y104.869 Z0.3
;TYPE:SKIRT
G1 F1500 X104.906 Y104.472 E0.02819
G1 X105.36 Y104.135 E0.0564
G1 X105.857 Y103.866 E0.08459
G1 X106.387 Y103.669 E0.1128
G1 X106.94 Y103.55 E0.14102
G1 X107.718 Y103.502 E0.17991
G1 X107.83 Y103.5 E0.1855
G1 X126.85 Y103.5 E1.13441
G1 X127.548 Y103.51 E1.16924
G1 X128.112 Y103.558 E1.19748
G1 X128.662 Y103.685 E1.22564
G1 X129.19 Y103.889 E1.25388
G1 X129.684 Y104.164 E1.28208
G1 X130.133 Y104.507 E1.31027
G1 X130.53 Y104.909 E1.33846
G1 X130.867 Y105.364 E1.36671
G1 X131.135 Y105.861 E1.39488
G1 X131.331 Y106.391 E1.42307
G1 X131.451 Y106.944 E1.4513
G1 X131.498 Y107.718 E1.48999
G1 X131.5 Y107.83 E1.49558
G1 X131.5 Y126.814 E2.44269
G1 X131.491 Y127.541 E2.47897
G1 X131.444 Y128.104 E2.50715
G1 X131.318 Y128.655 E2.53535
G1 X131.116 Y129.183 E2.56356
G1 X130.841 Y129.677 E2.59176
G1 X130.499 Y130.127 E2.61996
G1 X130.097 Y130.525 E2.64818
G1 X129.644 Y130.862 E2.67635
G1 X129.147 Y131.132 E2.70457
G1 X128.617 Y131.329 E2.73278
G1 X128.065 Y131.45 E2.76097
G1 X127.282 Y131.498 E2.80011
G1 X127.17 Y131.5 E2.8057
G1 X108.155 Y131.5 E3.75436
G1 X107.457 Y131.491 E3.78919
G1 X106.894 Y131.443 E3.81738
G1 X106.343 Y131.317 E3.84558
G1 X105.815 Y131.115 E3.87378
G1 X105.321 Y130.84 E3.90199
G1 X104.871 Y130.498 E3.93019
G1 X104.473 Y130.096 E3.95841
G1 X104.137 Y129.642 E3.98659
G1 X103.867 Y129.145 E4.01481
G1 X103.67 Y128.615 E4.04301
G1 X103.55 Y128.063 E4.0712
G1 X103.501 Y127.266 E4.11103
G1 X103.5 Y108.12 E5.06623
G1 X103.509 Y107.455 E5.09941
G1 X103.557 Y106.892 E5.1276
G1 X103.683 Y106.341 E5.1558
G1 X103.886 Y105.813 E5.18402
G1 X104.162 Y105.319 E5.21225
G1 X104.504 Y104.869 E5.24045
G0 F3600 X104.897 Y105.031
G1 F1500 X105.294 Y104.671 E5.26719
G1 X105.741 Y104.373 E5.29399
G1 X106.226 Y104.145 E5.32073
G1 X106.74 Y103.992 E5.34749
G1 X107.408 Y103.91 E5.38106
G1 X107.83 Y103.9 E5.40212
G1 X126.845 Y103.9 E6.35078
G1 X127.543 Y103.91 E6.38561
G1 X128.077 Y103.958 E6.41236
G1 X128.598 Y104.084 E6.4391
G1 X129.095 Y104.287 E6.46589
G1 X129.556 Y104.561 E6.49264
G1 X129.971 Y104.9 E6.51938
G1 X130.331 Y105.298 E6.54615
G1 X130.628 Y105.744 E6.57288
G1 X130.856 Y106.23 E6.59966
G1 X131.008 Y106.744 E6.62641
G1 X131.09 Y107.409 E6.65983
G1 X131.1 Y107.83 E6.68084
G1 X131.1 Y126.809 E7.62771
G1 X131.091 Y127.536 E7.66398
G1 X131.044 Y128.07 E7.69073
G1 X130.919 Y128.591 E7.71746
G1 X130.717 Y129.088 E7.74422
G1 X130.444 Y129.55 E7.771
G1 X130.106 Y129.966 E7.79774
G1 X129.709 Y130.327 E7.82451
G1 X129.263 Y130.625 E7.85127
G1 X128.778 Y130.853 E7.87801
G1 X128.264 Y131.007 E7.90478
G1 X127.592 Y131.09 E7.93856
G1 X127.17 Y131.1 E7.95962
G1 X108.161 Y131.1 E8.90798
G1 X107.463 Y131.091 E8.94281
G1 X106.928 Y131.044 E8.9696
G1 X106.407 Y130.918 E8.99634
G1 X105.91 Y130.716 E9.02311
G1 X105.449 Y130.443 E9.04984
G1 X105.033 Y130.104 E9.07661
G1 X104.672 Y129.708 E9.10334
G1 X104.374 Y129.262 E9.1301
G1 X104.146 Y128.776 E9.15689
G1 X103.993 Y128.262 E9.18364
G1 X103.91 Y127.588 E9.21752
G1 X103.9 Y127.158 E9.23898
G1 X103.9 Y108.125 E10.18854
G1 X103.909 Y107.46 E10.22172
G1 X103.957 Y106.926 E10.24847
G1 X104.083 Y106.405 E10.27521
G1 X104.285 Y105.908 E10.30198
G1 X104.558 Y105.447 E10.32871
G1 X104.897 Y105.031 E10.35548
G0 F3600 X104.954 Y105.582
G1 F1500 X105.289 Y105.204 E10.38068
G1 X105.68 Y104.883 E10.40592
G1 X106.117 Y104.628 E10.43116
G1 X106.588 Y104.444 E10.45639
G1 X107.082 Y104.338 E10.48159
G1 X107.74 Y104.301 E10.51447
G1 X126.839 Y104.3 E11.46733
G1 X127.537 Y104.31 E11.50215
G1 X128.04 Y104.357 E11.52736
G1 X128.53 Y104.483 E11.5526
G1 X128.994 Y104.685 E11.57785
G1 X129.42 Y104.957 E11.60306
G1 X129.798 Y105.292 E11.62826
G1 X130.118 Y105.683 E11.65347
G1 X130.373 Y106.12 E11.67871
G1 X130.556 Y106.591 E11.70392
G1 X130.663 Y107.085 E11.72914
G1 X130.699 Y107.74 E11.76186
G1 X130.7 Y126.804 E12.71297
G1 X130.691 Y127.531 E12.74924
G1 X130.645 Y128.034 E12.77444
G1 X130.52 Y128.524 E12.79967
G1 X130.319 Y128.988 E12.8249
G1 X130.048 Y129.415 E12.85013
G1 X129.713 Y129.794 E12.87537
G1 X129.323 Y130.115 E12.90057
G1 X128.887 Y130.371 E12.92579
G1 X128.416 Y130.554 E12.951
G1 X127.922 Y130.662 E12.97623
G1 X127.26 Y130.699 E13.00931
G1 X108.166 Y130.7 E13.96191
G1 X107.468 Y130.691 E13.99674
G1 X106.964 Y130.644 E14.02199
G1 X106.474 Y130.519 E14.04722
G1 X106.01 Y130.318 E14.07245
G1 X105.584 Y130.047 E14.09764
G1 X105.205 Y129.712 E14.12287
G1 X104.884 Y129.321 E14.14811
G1 X104.629 Y128.885 E14.17331
G1 X104.445 Y128.414 E14.19854
G1 X104.338 Y127.92 E14.22376
G1 X104.301 Y127.244 E14.25753
G1 X104.3 Y108.131 E15.21109
G1 X104.309 Y107.466 E15.24427
G1 X104.356 Y106.962 E15.26952
G1 X104.482 Y106.473 E15.29471
G1 X104.683 Y106.009 E15.31994
G1 X104.954 Y105.582 E15.34517
;MESH:xyzCalibration_cube.stl
G0 F3600 X106.835 Y108.114
G0 X108.114 Y108.114
G0 X126.83 Y126.83
G0 X126.9 Y126.9
;TYPE:WALL-INNER
G1 F900 X108.1 Y126.9 E16.28311
G1 X108.1 Y108.1 E17.22104
G1 X126.9 Y108.1 E18.15898
G1 X126.9 Y126.9 E19.09692
G0 F3600 X127.3 Y127.3
;TYPE:WALL-OUTER
G1 F900 X107.7 Y127.3 E20.07476
G1 X107.7 Y107.7 E21.05261
G1 X127.3 Y107.7 E22.03046
G1 X127.3 Y127.3 E23.00831
G0 F3600 X127.1 Y127.3
G0 X126.51 Y126.51
;TYPE:SKIN
G1 F900 X108.49 Y126.51 E23.99723
G1 X108.49 Y108.49 E24.98615
G1 X126.51 Y108.49 E25.97508
G1 X126.51 Y126.51 E26.964
G0 F3600 X126.329 Y108.793
G1 F900 X126.206 Y108.67 E26.97355
G0 F3600 X125.64 Y108.67
G1 F900 X126.329 Y109.359 E27.02702
G0 F3600 X126.329 Y109.924
G1 F900 X125.075 Y108.67 E27.12435
G0 F3600 X124.509 Y108.67
G1 F900 X126.329 Y110.49 E27.2656
G0 F3600 X126.329 Y111.056
G1 F900 X123.943 Y108.67 E27.45078
G0 F3600 X123.378 Y108.67
G1 F900 X126.329 Y111.621 E27.67981
G0 F3600 X126.329 Y112.187
G1 F900 X122.812 Y108.67 E27.95276
G0 F3600 X122.246 Y108.67
G1 F900 X126.329 Y112.753 E28.26965
G0 F3600 X126.329 Y113.318
G1 F900 X121.681 Y108.67 E28.63039
G0 F3600 X121.115 Y108.67
G1 F900 X126.329 Y113.884 E29.03505
G0 F3600 X126.329 Y114.45
G1 F900 X120.549 Y108.67 E29.48364
G0 F3600 X119.983 Y108.67
G1 F900 X126.329 Y115.015 E29.97612
G0 F3600 X126.329 Y115.581
G1 F900 X119.418 Y108.67 E30.51249
G0 F3600 X118.852 Y108.67
G1 F900 X126.329 Y116.147 E31.09279
G0 F3600 X126.329 Y116.712
G1 F900 X118.286 Y108.67 E31.71697
G0 F3600 X117.721 Y108.67
G1 F900 X126.329 Y117.278 E32.38505
G0 F3600 X126.329 Y117.844
G1 F900 X117.155 Y108.67 E33.09705
G0 F3600 X116.589 Y108.67
G1 F900 X126.329 Y118.409 E33.85294
G0 F3600 X126.329 Y118.975
G1 F900 X116.024 Y108.67 E34.65272
G0 F3600 X115.458 Y108.67
G1 F900 X126.329 Y119.541 E35.49643
G0 F3600 X126.329 Y120.107
G1 F900 X114.892 Y108.67 E36.38407
G0 F3600 X114.327 Y108.67
G1 F900 X126.329 Y120.672 E37.31555
G0 F3600 X126.329 Y121.238
G1 F900 X113.761 Y108.67 E38.29097
G0 F3600 X113.195 Y108.67
G1 F900 X126.329 Y121.804 E39.31031
G0 F3600 X126.329 Y122.369
G1 F900 X112.63 Y108.67 E40.3735
G0 F3600 X112.064 Y108.67
G1 F900 X126.329 Y122.935 E41.48062
G0 F3600 X126.329 Y123.501
G1 F900 X111.498 Y108.67 E42.63167
G0 F3600 X110.933 Y108.67
G1 F900 X126.329 Y124.066 E43.82657
G0 F3600 X126.329 Y124.632
G1 F900 X110.367 Y108.67 E45.0654
G0 F3600 X109.801 Y108.67
G1 F900 X126.329 Y125.198 E46.34815
G0 F3600 X126.329 Y125.763
G1 F900 X109.235 Y108.67 E47.67479
G0 F3600 X108.669 Y108.669
G1 F900 X126.329 Y126.329 E49.0454
G0 F3600 X125.763 Y126.329
G1 F900 X108.669 Y109.235 E50.37208
G0 F3600 X108.669 Y109.8
G1 F900 X125.198 Y126.329 E51.65491
G0 F3600 X124.632 Y126.329
G1 F900 X108.669 Y110.366 E52.89382
G0 F3600 X108.669 Y110.932
G1 F900 X124.066 Y126.329 E54.08879
G0 F3600 X123.501 Y126.329
G1 F900 X108.669 Y111.498 E55.23988
G0 F3600 X108.669 Y112.063
G1 F900 X122.935 Y126.329 E56.34708
G0 F3600 X122.369 Y126.329
G1 F900 X108.669 Y112.629 E57.41035
G0 F3600 X108.669 Y113.195
G1 F900 X121.804 Y126.329 E58.42973
G0 F3600 X121.238 Y126.329
G1 F900 X108.669 Y113.76 E59.40522
G0 F3600 X108.669 Y114.326
G1 F900 X120.672 Y126.329 E60.33678
G0 F3600 X120.107 Y126.329
G1 F900 X108.669 Y114.892 E61.22446
G0 F3600 X108.669 Y115.457
G1 F900 X119.541 Y126.329 E62.06824
G0 F3600 X118.975 Y126.329
G1 F900 X108.669 Y116.023 E62.8681
G0 F3600 X108.669 Y116.589
G1 F900 X118.409 Y126.329 E63.62403
G0 F3600 X117.844 Y126.329
G1 F900 X108.669 Y117.154 E64.33611
G0 F3600 X108.669 Y117.72
G1 F900 X117.278 Y126.329 E65.00427
G0 F3600 X116.712 Y126.329
G1 F900 X108.669 Y118.286 E65.62849
G0 F3600 X108.669 Y118.851
G1 F900 X116.147 Y126.329 E66.20887
G0 F3600 X115.581 Y126.329
G1 F900 X108.669 Y119.417 E66.74531
G0 F3600 X108.669 Y119.983
G1 F900 X115.015 Y126.329 E67.23783
G0 F3600 X114.45 Y126.329
G1 F900 X108.669 Y120.548 E67.6865
G0 F3600 X108.669 Y121.114
G1 F900 X113.884 Y126.329 E68.09124
G0 F3600 X113.318 Y126.329
G1 F900 X108.669 Y121.68 E68.45206
G0 F3600 X108.669 Y122.246
G1 F900 X112.753 Y126.329 E68.76898
G0 F3600 X112.187 Y126.329
G1 F900 X108.669 Y122.811 E69.04201
G0 F3600 X108.669 Y123.377
G1 F900 X111.621 Y126.329 E69.27112
G0 F3600 X111.056 Y126.329
G1 F900 X108.669 Y123.943 E69.45634
G0 F3600 X108.669 Y124.508
G1 F900 X110.49 Y126.329 E69.59767
G0 F3600 X109.924 Y126.329
G1 F900 X108.669 Y125.074 E69.69507
G0 F3600 X108.669 Y125.64
G1 F900 X109.359 Y126.329 E69.74858
G0 F3600 X108.793 Y126.329
G1 F900 X108.669 Y126.205 E69.75821
;MESH:NONMESH
G0 F600 X108.669 Y126.205 Z0.5
G0 F3600 X126.83 Y126.83
G0 X126.9 Y126.9
;TIME_ELAPSED:84.395488
;LAYER:1
M106 S255
;TYPE:WALL-INNER
;MESH:xyzCalibration_cube.stl
G1 F1600 X108.1 Y126.9 E70.3835
G1 X108.1 Y108.1 E71.00879
G1 X126.9 Y108.1 E71.63408
G1 X126.9 Y126.9 E72.25937
G0 F4800 X127.3 Y127.3
;TYPE:WALL-OUTER
G1 F1100 X107.7 Y127.3 E72.91127
G1 X107.7 Y107.7 E73.56317
G1 X127.3 Y107.7 E74.21507
G1 X127.3 Y127.3 E74.86697
G0 F4800 X127.1 Y127.3
G0 X126.51 Y126.51
;TYPE:SKIN
G1 F1100 X108.49 Y126.51 E75.52625
G1 X108.49 Y108.49 E76.18553
G1 X126.51 Y108.49 E76.84481
G1 X126.51 Y126.51 E77.50409
G0 F4800 X125.966 Y126.329
G1 F1100 X126.329 Y125.966 E77.52288
G0 F4800 X126.329 Y125.4
G1 F1100 X125.4 Y126.329 E77.57094
G0 F4800 X124.834 Y126.329
G1 F1100 X126.329 Y124.834 E77.6483
G0 F4800 X126.329 Y124.269
G1 F1100 X124.269 Y126.329 E77.75488
G0 F4800 X123.703 Y126.329
G1 F1100 X126.329 Y123.703 E77.89075
G0 F4800 X126.329 Y123.137
G1 F1100 X123.137 Y126.329 E78.05591
G0 F4800 X122.572 Y126.329
G1 F1100 X126.329 Y122.572 E78.2503
G0 F4800 X126.329 Y122.006
G1 F1100 X122.006 Y126.329 E78.47397
G0 F4800 X121.44 Y126.329
G1 F1100 X126.329 Y121.44 E78.72693
G0 F4800 X126.329 Y120.874
G1 F1100 X120.874 Y126.329 E79.00918
G0 F4800 X120.309 Y126.329
G1 F1100 X126.329 Y120.309 E79.32066
G0 F4800 X126.329 Y119.743
G1 F1100 X119.743 Y126.329 E79.66142
G0 F4800 X119.177 Y126.329
G1 F1100 X126.329 Y119.177 E80.03147
G0 F4800 X126.329 Y118.612
G1 F1100 X118.612 Y126.329 E80.43075
G0 F4800 X118.046 Y126.329
G1 F1100 X126.329 Y118.046 E80.85932
G0 F4800 X126.329 Y117.48
G1 F1100 X117.48 Y126.329 E81.31717
G0 F4800 X116.915 Y126.329
G1 F1100 X126.329 Y116.915 E81.80426
G0 F4800 X126.329 Y116.349
G1 F1100 X116.349 Y126.329 E82.32063
G0 F4800 X115.783 Y126.329
G1 F1100 X126.329 Y115.783 E82.86629
G0 F4800 X126.329 Y115.218
G1 F1100 X115.218 Y126.329 E83.44118
G0 F4800 X114.652 Y126.329
G1 F1100 X126.329 Y114.652 E84.04535
G0 F4800 X126.329 Y114.086
G1 F1100 X114.086 Y126.329 E84.67881
G0 F4800 X113.521 Y126.329
G1 F1100 X126.329 Y113.521 E85.34151
G0 F4800 X126.329 Y112.955
G1 F1100 X112.955 Y126.329 E86.03349
G0 F4800 X112.389 Y126.329
G1 F1100 X126.329 Y112.389 E86.75475
G0 F4800 X126.329 Y111.823
G1 F1100 X111.823 Y126.329 E87.5053
G0 F4800 X111.258 Y126.329
G1 F1100 X126.329 Y111.258 E88.28508
G0 F4800 X126.329 Y110.692
G1 F1100 X110.692 Y126.329 E89.09415
G0 F4800 X110.126 Y126.329
G1 F1100 X126.329 Y110.126 E89.9325
G0 F4800 X126.329 Y109.561
G1 F1100 X109.561 Y126.329 E90.80009
G0 F4800 X108.995 Y126.329
G1 F1100 X126.329 Y108.995 E91.69696
G0 F4800 X126.089 Y108.669
G1 F1100 X108.67 Y126.089 E92.59826
G0 F4800 X108.67 Y125.523
G1 F1100 X125.524 Y108.669 E93.4703
G0 F4800 X124.958 Y108.669
G1 F1100 X108.67 Y124.957 E94.31305
G0 F4800 X108.67 Y124.392
G1 F1100 X124.392 Y108.669 E95.12654
G0 F4800 X123.827 Y108.669
G1 F1100 X108.67 Y123.826 E95.91077
G0 F4800 X108.67 Y123.26
G1 F1100 X123.261 Y108.669 E96.66572
G0 F4800 X122.695 Y108.669
G1 F1100 X108.67 Y122.695 E97.39141
G0 F4800 X108.67 Y122.129
G1 F1100 X122.13 Y108.669 E98.08784
G0 F4800 X121.564 Y108.669
G1 F1100 X108.67 Y121.563 E98.75498
G0 F4800 X108.67 Y120.997
G1 F1100 X120.998 Y108.669 E99.39284
G0 F4800 X120.433 Y108.669
G1 F1100 X108.67 Y120.432 E100.00146
G0 F4800 X108.67 Y119.866
G1 F1100 X119.867 Y108.669 E100.5808
G0 F4800 X119.301 Y108.669
G1 F1100 X108.67 Y119.3 E101.13086
G0 F4800 X108.67 Y118.735
G1 F1100 X118.735 Y108.669 E101.65165
G0 F4800 X118.17 Y108.669
G1 F1100 X108.67 Y118.169 E102.14319
G0 F4800 X108.67 Y117.603
G1 F1100 X117.604 Y108.669 E102.60544
G0 F4800 X117.038 Y108.669
G1 F1100 X108.67 Y117.038 E103.03843
G0 F4800 X108.67 Y116.472
G1 F1100 X116.473 Y108.669 E103.44216
G0 F4800 X115.907 Y108.669
G1 F1100 X108.67 Y115.906 E103.81661
G0 F4800 X108.67 Y115.341
G1 F1100 X115.341 Y108.669 E104.1618
G0 F4800 X114.776 Y108.669
G1 F1100 X108.67 Y114.775 E104.47773
G0 F4800 X108.67 Y114.209
G1 F1100 X114.21 Y108.669 E104.76437
G0 F4800 X113.644 Y108.669
G1 F1100 X108.67 Y113.644 E105.02175
G0 F4800 X108.67 Y113.078
G1 F1100 X113.079 Y108.669 E105.24988
G0 F4800 X112.513 Y108.669
G1 F1100 X108.67 Y112.512 E105.44872
G0 F4800 X108.67 Y111.947
G1 F1100 X111.947 Y108.669 E105.6183
G0 F4800 X111.382 Y108.669
G1 F1100 X108.67 Y111.381 E105.75862
G0 F4800 X108.67 Y110.815
G1 F1100 X110.816 Y108.669 E105.86965
G0 F4800 X110.25 Y108.669
G1 F1100 X108.67 Y110.249 E105.9514
G0 F4800 X108.67 Y109.684
G1 F1100 X109.684 Y108.669 E106.00389
G0 F4800 X109.119 Y108.669
G1 F1100 X108.67 Y109.118 E106.02712
;MESH:NONMESH
G0 F600 X108.67 Y109.118 Z0.7
G0 F4800 X126.83 Y126.83
G0 X126.9 Y126.9
;TIME_ELAPSED:139.671546
;LAYER:2
;TYPE:WALL-INNER
;MESH:xyzCalibration_cube.stl
G1 F2300 X108.1 Y126.9 E106.65242
G1 X108.1 Y108.1 E107.27771
G1 X126.9 Y108.1 E107.903
G1 X126.9 Y126.9 E108.52829
G0 F6000 X127.3 Y127.3
;TYPE:WALL-OUTER
G1 F1300 X107.7 Y127.3 E109.18019
G1 X107.7 Y107.7 E109.83208
G1 X127.3 Y107.7 E110.48398
G1 X127.3 Y127.3 E111.13588
G0 F6000 X127.1 Y127.3
G0 X126.51 Y126.51
;TYPE:SKIN
G1 F1300 X108.49 Y126.51 E111.79516
G1 X108.49 Y108.49 E112.45445
G1 X126.51 Y108.49 E113.11373
G1 X126.51 Y126.51 E113.77301
G0 F6000 X126.329 Y108.793
G1 F1300 X126.206 Y108.67 E113.77938
G0 F6000 X125.64 Y108.67
G1 F1300 X126.329 Y109.359 E113.81502
G0 F6000 X126.329 Y109.924
G1 F1300 X125.075 Y108.67 E113.87991
G0 F6000 X124.509 Y108.67
G1 F1300 X126.329 Y110.49 E113.97408
G0 F6000 X126.329 Y111.056
G1 F1300 X123.943 Y108.67 E114.09753
G0 F6000 X123.378 Y108.67
G1 F1300 X126.329 Y111.621 E114.25021
G0 F6000 X126.329 Y112.187
