;FLAVOR:Marlin
;TIME:2681
;Filament used: 3.84544m, 0m
;Layer height: 0.3
;MINX:57.2
;MINY:57.2
;MINZ:0.3
;MAXX:177.8
;MAXY:177.8
;MAXZ:49.8
;Generated with Cura_SteamEngine 4.7.1
T0
M140 S60
M105
M190 S60
M104 S200
M105
M109 S200
M82 ;absolute extrusion mode
M201 X500.00 Y500.00 Z100.00 E5000.00 	;Setup machine max acceleration
M203 X500.00 Y500.00 Z10.00 E50.00 	;Setup machine max feedrate
M204 P500.00 R1000.00 T500.00 		;Setup Print/Retract/Travel acceleration
M205 X8.00 Y8.00 Z0.40 E5.00 		;Setup Jerk
M220 S100 				;Reset Feedrate
M221 S100 				;Reset Flowrate
G28				;Home the Machine
G29 				;Bed Level
G92 E0
M300 P150 S587
G92 E0
G1 F1500 E-6.5
;LAYER_COUNT:166
;LAYER:0
M107
G0 F3600 X64.623 Y64.349 Z0.3
;TYPE:SKIRT
G1 F1500 E0
G1 F1800 X65.222 Y63.834 E0.03941
G1 X65.87 Y63.383 E0.0788
G1 X66.561 Y62.999 E0.11824
G1 X67.286 Y62.687 E0.15762
G1 X68.039 Y62.45 E0.197
G1 X68.813 Y62.291 E0.23642
G1 X69.598 Y62.21 E0.27579
G1 X70 Y62.2 E0.29586
G1 X152.73 Y62.2 E4.42327
G1 X152.831 Y61.926 E4.43784
G1 X153.179 Y61.217 E4.47724
G1 X153.597 Y60.546 E4.51668
G1 X154.08 Y59.922 E4.55605
G1 X154.623 Y59.349 E4.59544
G1 X155.222 Y58.834 E4.63485
G1 X155.87 Y58.383 E4.67424
G1 X156.561 Y57.999 E4.71368
G1 X157.286 Y57.687 E4.75305
G1 X158.039 Y57.45 E4.79244
G1 X158.813 Y57.291 E4.83186
G1 X159.598 Y57.21 E4.87123
G1 X160 Y57.2 E4.89129
G1 X170 Y57.2 E5.39019
G1 X170.789 Y57.24 E5.42961
G1 X171.569 Y57.359 E5.46897
G1 X172.334 Y57.557 E5.5084
G1 X173.074 Y57.831 E5.54777
G1 X173.783 Y58.179 E5.58717
G1 X174.454 Y58.597 E5.62661
G1 X175.078 Y59.08 E5.66598
G1 X175.651 Y59.623 E5.70536
G1 X176.166 Y60.222 E5.74477
G1 X176.617 Y60.87 E5.78416
G1 X177.001 Y61.561 E5.8236
G1 X177.313 Y62.286 E5.86298
G1 X177.55 Y63.039 E5.90236
G1 X177.709 Y63.813 E5.94178
G1 X177.79 Y64.598 E5.98115
G1 X177.8 Y65 E6.00122
G1 X177.8 Y85 E6.99902
G1 X177.76 Y85.789 E7.03843
G1 X177.641 Y86.569 E7.0778
G1 X177.443 Y87.334 E7.11722
G1 X177.169 Y88.074 E7.15659
G1 X176.821 Y88.783 E7.19599
G1 X176.403 Y89.454 E7.23544
G1 X175.92 Y90.078 E7.2748
G1 X175.377 Y90.651 E7.31419
G1 X174.778 Y91.166 E7.3536
G1 X174.13 Y91.617 E7.39299
G1 X173.439 Y92.001 E7.43243
G1 X172.714 Y92.313 E7.4718
G1 X171.961 Y92.55 E7.51119
G1 X171.187 Y92.709 E7.55061
G1 X170.402 Y92.79 E7.58998
G1 X170 Y92.8 E7.61004
G1 X160 Y92.8 E8.10894
G1 X159.211 Y92.76 E8.14836
G1 X158.431 Y92.641 E8.18772
G1 X157.666 Y92.443 E8.22715
G1 X156.926 Y92.169 E8.26652
G1 X156.217 Y91.821 E8.30592
G1 X155.546 Y91.403 E8.34536
G1 X154.922 Y90.92 E8.38473
G1 X154.349 Y90.377 E8.42411
G1 X153.834 Y89.778 E8.46352
G1 X153.383 Y89.13 E8.50291
G1 X152.999 Y88.439 E8.54235
G1 X152.724 Y87.8 E8.57706
G1 X87.8 Y87.8 E11.81613
G1 X87.8 Y152.73 E15.0555
G1 X88.074 Y152.831 E15.07007
G1 X88.783 Y153.179 E15.10947
G1 X89.454 Y153.597 E15.14891
G1 X90.078 Y154.08 E15.18828
G1 X90.651 Y154.623 E15.22766
G1 X91.166 Y155.222 E15.26707
G1 X91.617 Y155.87 E15.30646
G1 X92.001 Y156.561 E15.3459
G1 X92.313 Y157.286 E15.38528
G1 X92.55 Y158.039 E15.42466
G1 X92.709 Y158.813 E15.46409
G1 X92.79 Y159.598 E15.50346
G1 X92.8 Y160 E15.52352
G1 X92.8 Y170 E16.02242
G1 X92.76 Y170.789 E16.06184
G1 X92.641 Y171.569 E16.1012
G1 X92.443 Y172.334 E16.14062
G1 X92.169 Y173.074 E16.17999
G1 X91.821 Y173.783 E16.2194
G1 X91.403 Y174.454 E16.25884
G1 X90.92 Y175.078 E16.2982
G1 X90.377 Y175.651 E16.33759
G1 X89.778 Y176.166 E16.377
G1 X89.13 Y176.617 E16.41639
G1 X88.439 Y177.001 E16.45583
G1 X87.714 Y177.313 E16.4952
G1 X86.961 Y177.55 E16.53459
G1 X86.187 Y177.709 E16.57401
G1 X85.402 Y177.79 E16.61338
G1 X85 Y177.8 E16.63344
G1 X65 Y177.8 E17.63125
G1 X64.211 Y177.76 E17.67066
G1 X63.431 Y177.641 E17.71003
G1 X62.666 Y177.443 E17.74945
G1 X61.926 Y177.169 E17.78882
G1 X61.217 Y176.821 E17.82822
G1 X60.546 Y176.403 E17.86766
G1 X59.922 Y175.92 E17.90703
G1 X59.349 Y175.377 E17.94641
G1 X58.834 Y174.778 E17.98583
G1 X58.383 Y174.13 E18.02521
G1 X57.999 Y173.439 E18.06465
G1 X57.687 Y172.714 E18.10403
G1 X57.45 Y171.961 E18.14341
G1 X57.291 Y171.187 E18.18284
G1 X57.21 Y170.402 E18.22221
G1 X57.2 Y170 E18.24227
G1 X57.2 Y160 E18.74117
G1 X57.24 Y159.211 E18.78059
G1 X57.359 Y158.431 E18.81995
G1 X57.557 Y157.666 E18.85937
G1 X57.831 Y156.926 E18.89874
G1 X58.179 Y156.217 E18.93815
G1 X58.597 Y155.546 E18.97759
G1 X59.08 Y154.922 E19.01695
G1 X59.623 Y154.349 E19.05634
G1 X60.222 Y153.834 E19.09575
G1 X60.87 Y153.383 E19.13514
G1 X61.561 Y152.999 E19.17458
G1 X62.2 Y152.724 E19.20928
G1 X62.2 Y70 E23.3364
G1 X62.24 Y69.211 E23.37581
G1 X62.359 Y68.431 E23.41518
G1 X62.557 Y67.666 E23.4546
G1 X62.831 Y66.926 E23.49397
G1 X63.179 Y66.217 E23.53337
G1 X63.597 Y65.546 E23.57282
G1 X64.08 Y64.922 E23.61218
G1 X64.623 Y64.349 E23.65157
G0 F3600 X65.016 Y64.53
G1 F1800 X65.611 Y64.042 E23.68996
G1 X66.253 Y63.619 E23.72832
G1 X66.936 Y63.264 E23.76672
G1 X67.651 Y62.983 E23.80505
G1 X68.393 Y62.777 E23.84346
G1 X69.151 Y62.649 E23.88182
G1 X70 Y62.6 E23.92424
G1 X153.006 Y62.6 E28.06543
G1 X153.231 Y62.01 E28.09693
G1 X153.578 Y61.324 E28.13529
G1 X153.994 Y60.677 E28.17366
G1 X154.475 Y60.077 E28.21203
G1 X155.016 Y59.53 E28.25041
G1 X155.611 Y59.042 E28.2888
G1 X156.253 Y58.619 E28.32716
G1 X156.936 Y58.264 E28.36556
G1 X157.651 Y57.983 E28.40389
G1 X158.393 Y57.777 E28.44231
G1 X159.151 Y57.649 E28.48066
G1 X160 Y57.6 E28.52309
G1 X170 Y57.6 E29.02199
G1 X170.768 Y57.64 E29.06036
G1 X171.528 Y57.759 E29.09874
G1 X172.271 Y57.957 E29.1371
G1 X172.99 Y58.231 E29.17549
G1 X173.676 Y58.578 E29.21384
G1 X174.323 Y58.994 E29.25222
G1 X174.923 Y59.475 E29.29058
G1 X175.47 Y60.016 E29.32896
G1 X175.958 Y60.611 E29.36736
G1 X176.381 Y61.253 E29.40571
G1 X176.736 Y61.936 E29.44412
G1 X177.017 Y62.651 E29.48244
G1 X177.223 Y63.393 E29.52086
G1 X177.351 Y64.151 E29.55921
G1 X177.4 Y65 E29.60164
G1 X177.4 Y85 E30.59945
G1 X177.36 Y85.768 E30.63781
G1 X177.241 Y86.528 E30.67619
G1 X177.043 Y87.271 E30.71455
G1 X176.769 Y87.99 E30.75294
G1 X176.422 Y88.676 E30.79129
G1 X176.006 Y89.323 E30.82967
G1 X175.525 Y89.923 E30.86804
G1 X174.984 Y90.47 E30.90642
G1 X174.389 Y90.958 E30.94481
G1 X173.747 Y91.381 E30.98317
G1 X173.064 Y91.736 E31.02157
G1 X172.349 Y92.017 E31.0599
G1 X171.607 Y92.223 E31.09832
G1 X170.849 Y92.351 E31.13667
G1 X170 Y92.4 E31.1791
G1 X160 Y92.4 E31.678
G1 X159.232 Y92.36 E31.71637
G1 X158.472 Y92.241 E31.75474
G1 X157.729 Y92.043 E31.79311
G1 X157.01 Y91.769 E31.83149
G1 X156.324 Y91.422 E31.86985
G1 X155.677 Y91.006 E31.90822
G1 X155.077 Y90.525 E31.94659
G1 X154.53 Y89.984 E31.98497
G1 X154.042 Y89.389 E32.02336
G1 X153.619 Y88.747 E32.06172
G1 X153.264 Y88.064 E32.10012
G1 X153.003 Y87.4 E32.13572
G1 X87.4 Y87.4 E35.40866
G1 X87.4 Y153.006 E38.68176
G1 X87.99 Y153.231 E38.71326
G1 X88.676 Y153.578 E38.75162
G1 X89.323 Y153.994 E38.78999
G1 X89.923 Y154.475 E38.82836
G1 X90.47 Y155.016 E38.86674
G1 X90.958 Y155.611 E38.90513
G1 X91.381 Y156.253 E38.94349
G1 X91.736 Y156.936 E38.98189
G1 X92.017 Y157.651 E39.02022
G1 X92.223 Y158.393 E39.05864
G1 X92.351 Y159.151 E39.09699
G1 X92.4 Y160 E39.13942
G1 X92.4 Y170 E39.63832
G1 X92.36 Y170.768 E39.67669
G1 X92.241 Y171.528 E39.71507
G1 X92.043 Y172.271 E39.75343
G1 X91.769 Y172.99 E39.79182
G1 X91.422 Y173.676 E39.83017
G1 X91.006 Y174.323 E39.86855
G1 X90.525 Y174.923 E39.90691
G1 X89.984 Y175.47 E39.94529
G1 X89.389 Y175.958 E39.98369
G1 X88.747 Y176.381 E40.02204
G1 X88.064 Y176.736 E40.06045
G1 X87.349 Y177.017 E40.09877
G1 X86.607 Y177.223 E40.13719
G1 X85.849 Y177.351 E40.17554
G1 X85 Y177.4 E40.21797
G1 X65 Y177.4 E41.21578
G1 X64.232 Y177.36 E41.25414
G1 X63.472 Y177.241 E41.29252
G1 X62.729 Y177.043 E41.33088
G1 X62.01 Y176.769 E41.36927
G1 X61.324 Y176.422 E41.40762
G1 X60.677 Y176.006 E41.446
G1 X60.077 Y175.525 E41.48437
G1 X59.53 Y174.984 E41.52275
G1 X59.042 Y174.389 E41.56114
G1 X58.619 Y173.747 E41.5995
G1 X58.264 Y173.064 E41.6379
G1 X57.983 Y172.349 E41.67623
G1 X57.777 Y171.607 E41.71465
G1 X57.649 Y170.849 E41.753
G1 X57.6 Y170 E41.79543
G1 X57.6 Y160 E42.29433
G1 X57.64 Y159.232 E42.3327
G1 X57.759 Y158.472 E42.37107
G1 X57.957 Y157.729 E42.40944
G1 X58.231 Y157.01 E42.44782
G1 X58.578 Y156.324 E42.48618
G1 X58.994 Y155.677 E42.52455
G1 X59.475 Y155.077 E42.56292
G1 X60.016 Y154.53 E42.6013
G1 X60.611 Y154.042 E42.63969
G1 X61.253 Y153.619 E42.67805
G1 X61.936 Y153.264 E42.71645
G1 X62.6 Y153.003 E42.75205
G1 X62.6 Y70 E46.89308
G1 X62.64 Y69.232 E46.93145
G1 X62.759 Y68.472 E46.96983
G1 X62.957 Y67.729 E47.00819
G1 X63.231 Y67.01 E47.04658
G1 X63.578 Y66.324 E47.08493
G1 X63.994 Y65.677 E47.12331
G1 X64.475 Y65.077 E47.16167
G1 X65.016 Y64.53 E47.20006
G0 F3600 X65.408 Y64.716
G1 F1800 X65.998 Y64.257 E47.23735
G1 X66.634 Y63.862 E47.2747
G1 X67.308 Y63.538 E47.31201
G1 X68.013 Y63.288 E47.34933
G1 X68.741 Y63.114 E47.38667
G1 X69.483 Y63.019 E47.42399
G1 X70 Y63 E47.44981
G1 X153.3 Y63 E51.60566
G1 X153.357 Y62.793 E51.61637
G1 X153.63 Y62.097 E51.65367
G1 X153.977 Y61.434 E51.691
G1 X154.392 Y60.811 E51.72835
G1 X154.871 Y60.237 E51.76565
G1 X155.408 Y59.716 E51.80298
G1 X155.998 Y59.257 E51.84027
G1 X156.634 Y58.862 E51.87762
G1 X157.308 Y58.538 E51.91493
G1 X158.013 Y58.288 E51.95225
G1 X158.741 Y58.114 E51.98959
G1 X159.483 Y58.019 E52.02691
G1 X160 Y58 E52.05272
G1 X170 Y58 E52.55163
G1 X170.747 Y58.04 E52.58895
G1 X171.485 Y58.159 E52.62624
G1 X172.207 Y58.357 E52.66359
G1 X172.903 Y58.63 E52.70089
G1 X173.566 Y58.977 E52.73823
G1 X174.189 Y59.392 E52.77557
G1 X174.763 Y59.871 E52.81287
G1 X175.284 Y60.408 E52.8502
G1 X175.743 Y60.998 E52.88749
G1 X176.138 Y61.634 E52.92484
G1 X176.462 Y62.308 E52.96215
G1 X176.712 Y63.013 E52.99947
G1 X176.886 Y63.741 E53.03681
G1 X176.981 Y64.483 E53.07414
G1 X177 Y65 E53.09995
G1 X177 Y85 E54.09775
G1 X176.96 Y85.747 E54.13507
G1 X176.841 Y86.485 E54.17237
G1 X176.643 Y87.207 E54.20972
G1 X176.37 Y87.903 E54.24702
G1 X176.023 Y88.566 E54.28435
G1 X175.608 Y89.189 E54.3217
G1 X175.129 Y89.763 E54.35899
G1 X174.592 Y90.284 E54.39632
G1 X174.002 Y90.743 E54.43362
G1 X173.366 Y91.138 E54.47097
G1 X172.692 Y91.462 E54.50828
G1 X171.987 Y91.712 E54.5456
G1 X171.259 Y91.886 E54.58294
G1 X170.517 Y91.981 E54.62026
G1 X170 Y92 E54.64607
G1 X160 Y92 E55.14497
G1 X159.253 Y91.96 E55.18229
G1 X158.515 Y91.841 E55.21959
G1 X157.793 Y91.643 E55.25694
G1 X157.097 Y91.37 E55.29424
G1 X156.434 Y91.023 E55.33157
G1 X155.811 Y90.608 E55.36892
G1 X155.237 Y90.129 E55.40622
G1 X154.716 Y89.592 E55.44354
G1 X154.257 Y89.002 E55.48084
G1 X153.862 Y88.366 E55.51819
G1 X153.538 Y87.692 E55.5555
G1 X153.293 Y87 E55.59212
G1 X87 Y87 E58.89949
G1 X87 Y153.3 E62.20721
G1 X87.207 Y153.357 E62.21793
G1 X87.903 Y153.63 E62.25523
G1 X88.566 Y153.977 E62.29256
G1 X89.189 Y154.392 E62.32991
G1 X89.763 Y154.871 E62.3672
G1 X90.284 Y155.408 E62.40453
G1 X90.743 Y155.998 E62.44183
G1 X91.138 Y156.634 E62.47918
G1 X91.462 Y157.308 E62.51649
G1 X91.712 Y158.013 E62.55381
G1 X91.886 Y158.741 E62.59115
G1 X91.981 Y159.483 E62.62847
G1 X92 Y160 E62.65428
G1 X92 Y170 E63.15318
G1 X91.96 Y170.747 E63.1905
G1 X91.841 Y171.485 E63.2278
G1 X91.643 Y172.207 E63.26515
G1 X91.37 Y172.903 E63.30245
G1 X91.023 Y173.566 E63.33978
G1 X90.608 Y174.189 E63.37713
G1 X90.129 Y174.763 E63.41443
G1 X89.592 Y175.284 E63.45175
G1 X89.002 Y175.743 E63.48905
G1 X88.366 Y176.138 E63.5264
G1 X87.692 Y176.462 E63.56371
G1 X86.987 Y176.712 E63.60103
G1 X86.259 Y176.886 E63.63837
G1 X85.517 Y176.981 E63.67569
G1 X85 Y177 E63.7015
G1 X65 Y177 E64.69931
G1 X64.253 Y176.96 E64.73663
G1 X63.515 Y176.841 E64.77392
G1 X62.793 Y176.643 E64.81127
G1 X62.097 Y176.37 E64.84857
G1 X61.434 Y176.023 E64.88591
G1 X60.811 Y175.608 E64.92325
G1 X60.237 Y175.129 E64.96055
G1 X59.716 Y174.592 E64.99788
G1 X59.257 Y174.002 E65.03517
G1 X58.862 Y173.366 E65.07252
G1 X58.538 Y172.692 E65.10983
G1 X58.288 Y171.987 E65.14715
G1 X58.114 Y171.259 E65.18449
G1 X58.019 Y170.517 E65.22182
G1 X58 Y170 E65.24763
G1 X58 Y160 E65.74653
G1 X58.04 Y159.253 E65.78385
G1 X58.159 Y158.515 E65.82114
G1 X58.357 Y157.793 E65.85849
G1 X58.63 Y157.097 E65.89579
G1 X58.977 Y156.434 E65.93313
G1 X59.392 Y155.811 E65.97047
G1 X59.871 Y155.237 E66.00777
G1 X60.408 Y154.716 E66.0451
G1 X60.998 Y154.257 E66.08239
G1 X61.634 Y153.862 E66.11975
G1 X62.308 Y153.538 E66.15706
G1 X63 Y153.293 E66.19368
G1 X63 Y70 E70.34918
G1 X63.04 Y69.253 E70.38651
G1 X63.159 Y68.515 E70.4238
G1 X63.357 Y67.793 E70.46115
G1 X63.63 Y67.097 E70.49845
G1 X63.977 Y66.434 E70.53578
G1 X64.392 Y65.811 E70.57313
G1 X64.871 Y65.237 E70.61043
G1 X65.408 Y64.716 E70.64776
G0 F3600 X65.265 Y65.402
G1 F1800 X65.799 Y64.909 E70.68402
G1 X66.384 Y64.479 E70.72024
G1 X67.013 Y64.115 E70.75649
G1 X67.678 Y63.822 E70.79275
G1 X68.371 Y63.604 E70.82899
G1 X69.083 Y63.464 E70.86519
G1 X70 Y63.4 E70.91106
G1 X153.604 Y63.4 E75.08208
G1 X153.757 Y62.859 E75.11012
G1 X154.03 Y62.186 E75.14636
G1 X154.375 Y61.547 E75.18259
G1 X154.789 Y60.95 E75.21883
G1 X155.265 Y60.402 E75.25505
G1 X155.799 Y59.909 E75.29131
G1 X156.384 Y59.479 E75.32753
G1 X157.013 Y59.115 E75.36378
G1 X157.678 Y58.822 E75.40004
G1 X158.371 Y58.604 E75.43628
G1 X159.083 Y58.464 E75.47249
G1 X160 Y58.4 E75.51835
G1 X170 Y58.4 E76.01725
G1 X170.725 Y58.44 E76.05347
G1 X171.442 Y58.559 E76.08973
G1 X172.141 Y58.757 E76.12598
G1 X172.814 Y59.03 E76.16221
G1 X173.453 Y59.375 E76.19844
G1 X174.05 Y59.789 E76.23469
G1 X174.598 Y60.265 E76.2709
G1 X175.091 Y60.799 E76.30716
G1 X175.521 Y61.384 E76.34338
G1 X175.885 Y62.013 E76.37964
G1 X176.178 Y62.678 E76.41589
G1 X176.396 Y63.371 E76.45214
G1 X176.536 Y64.083 E76.48834
G1 X176.6 Y65 E76.5342
G1 X176.6 Y85 E77.532
G1 X176.56 Y85.725 E77.56823
G1 X176.441 Y86.442 E77.60449
G1 X176.243 Y87.141 E77.64074
G1 X175.97 Y87.814 E77.67697
G1 X175.625 Y88.453 E77.7132
G1 X175.211 Y89.05 E77.74944
G1 X174.735 Y89.598 E77.78566
G1 X174.201 Y90.091 E77.82192
G1 X173.616 Y90.521 E77.85814
G1 X172.987 Y90.885 E77.8944
G1 X172.322 Y91.178 E77.93065
G1 X171.629 Y91.396 E77.96689
G1 X170.917 Y91.536 E78.0031
G1 X170 Y91.6 E78.04896
G1 X160 Y91.6 E78.54786
G1 X159.275 Y91.56 E78.58408
G1 X158.558 Y91.441 E78.62034
G1 X157.859 Y91.243 E78.65659
G1 X157.186 Y90.97 E78.69282
G1 X156.547 Y90.625 E78.72905
G1 X155.95 Y90.211 E78.7653
G1 X155.402 Y89.735 E78.80151
G1 X154.909 Y89.201 E78.83777
G1 X154.479 Y88.616 E78.87399
G1 X154.115 Y87.987 E78.91025
G1 X153.822 Y87.322 E78.9465
G1 X153.604 Y86.629 E78.98275
G1 X153.598 Y86.6 E78.98423
G1 X86.6 Y86.6 E82.32677
G1 X86.6 Y153.604 E85.66961
G1 X87.141 Y153.757 E85.69766
G1 X87.814 Y154.03 E85.7339
G1 X88.453 Y154.375 E85.77012
G1 X89.05 Y154.789 E85.80637
G1 X89.598 Y155.265 E85.84258
G1 X90.091 Y155.799 E85.87884
G1 X90.521 Y156.384 E85.91506
G1 X90.885 Y157.013 E85.95132
G1 X91.178 Y157.678 E85.98758
G1 X91.396 Y158.371 E86.02382
G1 X91.536 Y159.083 E86.06002
G1 X91.6 Y160 E86.10588
G1 X91.6 Y170 E86.60478
G1 X91.56 Y170.725 E86.64101
G1 X91.441 Y171.442 E86.67727
G1 X91.243 Y172.141 E86.71352
G1 X90.97 Y172.814 E86.74975
G1 X90.625 Y173.453 E86.78598
G1 X90.211 Y174.05 E86.82222
G1 X89.735 Y174.598 E86.85844
G1 X89.201 Y175.091 E86.8947
G1 X88.616 Y175.521 E86.93092
G1 X87.987 Y175.885 E86.96718
G1 X87.322 Y176.178 E87.00343
G1 X86.629 Y176.396 E87.03967
G1 X85.917 Y176.536 E87.07588
G1 X85 Y176.6 E87.12174
G1 X65 Y176.6 E88.11954
G1 X64.275 Y176.56 E88.15577
G1 X63.558 Y176.441 E88.19203
G1 X62.859 Y176.243 E88.22827
G1 X62.186 Y175.97 E88.26451
G1 X61.547 Y175.625 E88.30074
G1 X60.95 Y175.211 E88.33698
G1 X60.402 Y174.735 E88.37319
G1 X59.909 Y174.201 E88.40945
