;FLAVOR:Marlin
;TIME:10416
;Filament used: 11.2572m, 0m
;Layer height: 0.2
;MINX:83.9
;MINY:88.919
;MINZ:0.3
;MAXX:151.1
;MAXY:146.081
;MAXZ:49.9
;Generated with Cura_SteamEngine 4.7.1
T0
M140 S60
M105
M190 S60
M104 S200
M105
M109 S200
M82 ;absolute extrusion mode
M201 X500.00 Y500.00 Z100.00 E5000.00 	;Setup machine max acceleration
M203 X500.00 Y500.00 Z10.00 E50.00 	;Setup machine max feedrate
M204 P500.00 R1000.00 T500.00 		;Setup Print/Retract/Travel acceleration
M205 X8.00 Y8.00 Z0.40 E5.00 		;Setup Jerk
M220 S100 				;Reset Feedrate
M221 S100 				;Reset Flowrate
G28				;Home the Machine
G29 				;Bed Level
G92 E0
M300 P150 S587
G92 E0
;LAYER_COUNT:249
;LAYER:0
M107
G0 F3600 X84.897 Y90.05 Z0.3
;TYPE:SKIRT
G1 F1500 X85.294 Y89.69 E0.02674
G1 X85.741 Y89.392 E0.05354
G1 X86.226 Y89.164 E0.08028
G1 X86.74 Y89.011 E0.10703
G1 X87.408 Y88.929 E0.14061
G1 X87.83 Y88.919 E0.16167
G1 X146.845 Y88.919 E3.10594
G1 X147.543 Y88.929 E3.14077
G1 X148.077 Y88.977 E3.16751
G1 X148.598 Y89.103 E3.19426
G1 X149.095 Y89.306 E3.22104
G1 X149.556 Y89.58 E3.2478
G1 X149.971 Y89.919 E3.27453
G1 X150.331 Y90.317 E3.3013
G1 X150.628 Y90.763 E3.32804
G1 X150.856 Y91.249 E3.35482
G1 X151.008 Y91.763 E3.38156
G1 X151.09 Y92.428 E3.41499
G1 X151.1 Y92.849 E3.436
G1 X151.1 Y141.79 E5.87768
G1 X151.091 Y142.517 E5.91395
G1 X151.044 Y143.051 E5.94069
G1 X150.919 Y143.572 E5.96742
G1 X150.717 Y144.069 E5.99419
G1 X150.444 Y144.531 E6.02096
G1 X150.106 Y144.947 E6.0477
G1 X149.709 Y145.308 E6.07447
G1 X149.263 Y145.606 E6.10123
G1 X148.778 Y145.834 E6.12797
G1 X148.264 Y145.988 E6.15474
G1 X147.592 Y146.071 E6.18852
G1 X147.17 Y146.081 E6.20958
G1 X88.161 Y146.081 E9.15355
G1 X87.463 Y146.072 E9.18838
G1 X86.928 Y146.025 E9.21517
G1 X86.407 Y145.899 E9.24191
G1 X85.91 Y145.697 E9.26868
G1 X85.449 Y145.424 E9.29541
G1 X85.033 Y145.085 E9.32218
G1 X84.672 Y144.689 E9.34892
G1 X84.374 Y144.243 E9.37568
G1 X84.146 Y143.757 E9.40246
G1 X83.993 Y143.243 E9.42921
G1 X83.91 Y142.569 E9.46309
G1 X83.9 Y142.139 E9.48455
G1 X83.9 Y93.144 E11.92892
G1 X83.909 Y92.479 E11.9621
G1 X83.957 Y91.945 E11.98885
G1 X84.083 Y91.424 E12.01559
G1 X84.285 Y90.927 E12.04236
G1 X84.558 Y90.466 E12.06909
G1 X84.897 Y90.05 E12.09586
G0 F3600 X85.289 Y90.223
G1 F1500 X85.68 Y89.902 E12.1211
G1 X86.117 Y89.647 E12.14634
G1 X86.588 Y89.463 E12.17157
G1 X87.082 Y89.357 E12.19678
G1 X87.74 Y89.32 E12.22966
G1 X146.839 Y89.319 E15.17812
G1 X147.537 Y89.329 E15.21295
G1 X148.04 Y89.376 E15.23815
G1 X148.53 Y89.502 E15.26339
G1 X148.994 Y89.704 E15.28864
G1 X149.42 Y89.976 E15.31385
G1 X149.798 Y90.311 E15.33905
G1 X150.118 Y90.702 E15.36426
G1 X150.373 Y91.139 E15.3895
G1 X150.556 Y91.61 E15.41471
G1 X150.663 Y92.104 E15.43993
G1 X150.699 Y92.759 E15.47266
G1 X150.7 Y141.785 E17.91857
G1 X150.691 Y142.512 E17.95485
G1 X150.645 Y143.015 E17.98005
G1 X150.52 Y143.505 E18.00528
G1 X150.319 Y143.969 E18.0305
G1 X150.048 Y144.396 E18.05574
G1 X149.713 Y144.775 E18.08097
G1 X149.323 Y145.096 E18.10617
G1 X148.887 Y145.352 E18.1314
G1 X148.416 Y145.535 E18.15661
G1 X147.922 Y145.643 E18.18183
G1 X147.26 Y145.68 E18.21491
G1 X88.166 Y145.681 E21.16312
G1 X87.468 Y145.672 E21.19795
G1 X86.964 Y145.625 E21.2232
G1 X86.474 Y145.5 E21.24843
G1 X86.01 Y145.299 E21.27366
G1 X85.584 Y145.028 E21.29885
G1 X85.205 Y144.693 E21.32409
G1 X84.884 Y144.302 E21.34932
G1 X84.629 Y143.866 E21.37452
G1 X84.445 Y143.395 E21.39975
G1 X84.338 Y142.901 E21.42497
G1 X84.301 Y142.225 E21.45875
G1 X84.3 Y93.15 E23.90711
G1 X84.309 Y92.485 E23.94029
G1 X84.356 Y91.981 E23.96554
G1 X84.482 Y91.492 E23.99073
G1 X84.683 Y91.028 E24.01596
G1 X84.954 Y90.601 E24.04119
G1 X85.289 Y90.223 E24.06639
;MESH:Solder_cablestation.stl
G0 F3600 X88.114 Y91.854
G0 X88.114 Y93.133
G0 X146.83 Y141.811
G0 X146.9 Y141.881
;TYPE:WALL-INNER
G1 F900 X88.1 Y141.881 E26.99994
G1 X88.1 Y93.119 E29.43268
G1 X146.9 Y93.119 E32.36623
G1 X146.9 Y141.881 E34.79897
G0 F3600 X147.3 Y142.281
;TYPE:WALL-OUTER
G1 F900 X87.7 Y142.281 E37.77243
G1 X87.7 Y92.719 E40.24509
G1 X147.3 Y92.719 E43.21854
G1 X147.3 Y142.281 E45.6912
G0 F3600 X147.1 Y142.281
G0 X146.51 Y141.491
;TYPE:SKIN
G1 F900 X88.49 Y141.491 E48.87529
G1 X88.49 Y93.509 E51.50851
G1 X146.51 Y93.509 E54.6926
G1 X146.51 Y141.491 E57.32582
G0 F3600 X146.329 Y94.286
G1 F900 X145.732 Y93.689 E57.37215
G0 F3600 X145.166 Y93.689
G1 F900 X146.329 Y94.852 E57.46241
G0 F3600 X146.329 Y95.417
G1 F900 X144.601 Y93.689 E57.59652
G0 F3600 X144.035 Y93.689
G1 F900 X146.329 Y95.983 E57.77456
G0 F3600 X146.329 Y96.549
G1 F900 X143.469 Y93.689 E57.99653
G0 F3600 X142.904 Y93.689
G1 F900 X146.329 Y97.114 E58.26235
G0 F3600 X146.329 Y97.68
G1 F900 X142.338 Y93.689 E58.57209
G0 F3600 X141.772 Y93.689
G1 F900 X146.329 Y98.246 E58.92576
G0 F3600 X146.329 Y98.811
G1 F900 X141.207 Y93.689 E59.32329
G0 F3600 X140.641 Y93.689
G1 F900 X146.329 Y99.377 E59.76474
G0 F3600 X146.329 Y99.943
G1 F900 X140.075 Y93.689 E60.25012
G0 F3600 X139.51 Y93.689
G1 F900 X146.329 Y100.508 E60.77935
G0 F3600 X146.329 Y101.074
G1 F900 X138.944 Y93.689 E61.3525
G0 F3600 X138.378 Y93.689
G1 F900 X146.329 Y101.64 E61.96959
G0 F3600 X146.329 Y102.205
G1 F900 X137.812 Y93.689 E62.63056
G0 F3600 X137.247 Y93.689
G1 F900 X146.329 Y102.771 E63.33542
G0 F3600 X146.329 Y103.337
G1 F900 X136.681 Y93.689 E64.08421
G0 F3600 X136.115 Y93.689
G1 F900 X146.329 Y103.902 E64.87689
G0 F3600 X146.329 Y104.468
G1 F900 X135.55 Y93.689 E65.71346
G0 F3600 X134.984 Y93.689
G1 F900 X146.329 Y105.034 E66.59396
G0 F3600 X146.329 Y105.6
G1 F900 X134.418 Y93.689 E67.51838
G0 F3600 X133.853 Y93.689
G1 F900 X146.329 Y106.165 E68.48666
G0 F3600 X146.329 Y106.731
G1 F900 X133.287 Y93.689 E69.49886
G0 F3600 X132.721 Y93.689
G1 F900 X146.329 Y107.297 E70.55499
G0 F3600 X146.329 Y107.862
G1 F900 X132.156 Y93.689 E71.65497
G0 F3600 X131.59 Y93.689
G1 F900 X146.329 Y108.428 E72.79888
G0 F3600 X146.329 Y108.994
G1 F900 X131.024 Y93.689 E73.98671
G0 F3600 X130.459 Y93.689
G1 F900 X146.329 Y109.559 E75.2184
G0 F3600 X146.329 Y110.125
G1 F900 X129.893 Y93.689 E76.49401
G0 F3600 X129.327 Y93.689
G1 F900 X146.329 Y110.691 E77.81355
G0 F3600 X146.329 Y111.256
G1 F900 X128.762 Y93.689 E79.17694
G0 F3600 X128.196 Y93.689
G1 F900 X146.329 Y111.822 E80.58426
G0 F3600 X146.329 Y112.388
G1 F900 X127.63 Y93.689 E82.03551
G0 F3600 X127.064 Y93.689
G1 F900 X146.329 Y112.953 E83.53064
G0 F3600 X146.329 Y113.519
G1 F900 X126.499 Y93.689 E85.06967
G0 F3600 X125.933 Y93.689
G1 F900 X146.329 Y114.085 E86.65262
G0 F3600 X146.329 Y114.651
G1 F900 X125.367 Y93.689 E88.2795
G0 F3600 X124.802 Y93.689
G1 F900 X146.329 Y115.216 E89.95023
G0 F3600 X146.329 Y115.782
G1 F900 X124.236 Y93.689 E91.66489
G0 F3600 X123.67 Y93.689
G1 F900 X146.329 Y116.348 E93.42348
G0 F3600 X146.329 Y116.913
G1 F900 X123.105 Y93.689 E95.22592
G0 F3600 X122.539 Y93.689
G1 F900 X146.329 Y117.479 E97.07228
G0 F3600 X146.329 Y118.045
G1 F900 X121.973 Y93.689 E98.96257
G0 F3600 X121.408 Y93.689
G1 F900 X146.329 Y118.61 E100.89671
G0 F3600 X146.329 Y119.176
G1 F900 X120.842 Y93.689 E102.87478
G0 F3600 X120.276 Y93.689
G1 F900 X146.329 Y119.742 E104.89678
G0 F3600 X146.329 Y120.307
G1 F900 X119.711 Y93.689 E106.96263
G0 F3600 X119.145 Y93.689
G1 F900 X146.329 Y120.873 E109.07241
G0 F3600 X146.329 Y121.439
G1 F900 X118.579 Y93.689 E111.22611
G0 F3600 X118.014 Y93.689
G1 F900 X146.329 Y122.004 E113.42366
G0 F3600 X146.329 Y122.57
G1 F900 X117.447 Y93.688 E115.66522
G0 F3600 X116.881 Y93.688
G1 F900 X146.329 Y123.136 E117.95071
G0 F3600 X146.329 Y123.701
G1 F900 X116.316 Y93.688 E120.28005
G0 F3600 X115.75 Y93.688
G1 F900 X146.329 Y124.267 E122.65331
G0 F3600 X146.329 Y124.833
G1 F900 X115.184 Y93.688 E125.0705
G0 F3600 X114.619 Y93.688
G1 F900 X146.329 Y125.399 E127.53159
G0 F3600 X146.329 Y125.964
G1 F900 X114.053 Y93.688 E130.03656
G0 F3600 X113.487 Y93.688
G1 F900 X146.329 Y126.53 E132.58546
G0 F3600 X146.329 Y127.096
G1 F900 X112.922 Y93.688 E135.17824
G0 F3600 X112.356 Y93.688
G1 F900 X146.329 Y127.661 E137.81492
G0 F3600 X146.329 Y128.227
G1 F900 X111.79 Y93.688 E140.49552
G0 F3600 X111.225 Y93.688
G1 F900 X146.329 Y128.793 E143.22002
G0 F3600 X146.329 Y129.358
G1 F900 X110.659 Y93.688 E145.9884
G0 F3600 X110.093 Y93.688
G1 F900 X146.329 Y129.924 E148.80071
G0 F3600 X146.329 Y130.49
G1 F900 X109.528 Y93.688 E151.65691
G0 F3600 X108.962 Y93.688
G1 F900 X146.329 Y131.055 E154.557
G0 F3600 X146.329 Y131.621
G1 F900 X108.396 Y93.688 E157.50101
G0 F3600 X107.83 Y93.688
G1 F900 X146.329 Y132.187 E160.48896
G0 F3600 X146.329 Y132.752
G1 F900 X107.265 Y93.688 E163.52075
G0 F3600 X106.699 Y93.688
G1 F900 X146.329 Y133.318 E166.59647
G0 F3600 X146.329 Y133.884
G1 F900 X106.133 Y93.688 E169.71612
G0 F3600 X105.568 Y93.688
G1 F900 X146.329 Y134.449 E172.87962
G0 F3600 X146.329 Y135.015
G1 F900 X105.002 Y93.688 E176.08705
G0 F3600 X104.436 Y93.688
G1 F900 X146.329 Y135.581 E179.3384
G0 F3600 X146.329 Y136.147
G1 F900 X103.871 Y93.688 E182.63365
G0 F3600 X103.305 Y93.688
G1 F900 X146.329 Y136.712 E185.97278
G0 F3600 X146.329 Y137.278
G1 F900 X102.739 Y93.688 E189.35584
G0 F3600 X102.174 Y93.688
G1 F900 X146.329 Y137.844 E192.78279
G0 F3600 X146.329 Y138.409
G1 F900 X101.608 Y93.688 E196.25363
G0 F3600 X101.042 Y93.688
G1 F900 X146.329 Y138.975 E199.7684
G0 F3600 X146.329 Y139.541
G1 F900 X100.477 Y93.688 E203.32705
G0 F3600 X99.911 Y93.688
G1 F900 X146.329 Y140.106 E206.9296
G0 F3600 X146.329 Y140.672
G1 F900 X99.345 Y93.688 E210.57607
G0 F3600 X98.779 Y93.688
G1 F900 X146.329 Y141.238 E214.26647
G0 F3600 X145.835 Y141.31
G1 F900 X98.214 Y93.688 E217.96242
G0 F3600 X97.648 Y93.688
G1 F900 X145.27 Y141.31 E221.65841
G0 F3600 X144.704 Y141.31
G1 F900 X97.082 Y93.688 E225.3544
G0 F3600 X96.517 Y93.688
G1 F900 X144.138 Y141.31 E229.05034
G0 F3600 X143.573 Y141.31
G1 F900 X95.951 Y93.688 E232.74633
G0 F3600 X95.385 Y93.688
G1 F900 X143.007 Y141.31 E236.44232
G0 F3600 X142.441 Y141.31
G1 F900 X94.82 Y93.688 E240.13827
G0 F3600 X94.254 Y93.688
G1 F900 X141.876 Y141.31 E243.83426
G0 F3600 X141.31 Y141.31
G1 F900 X93.688 Y93.688 E247.53025
G0 F3600 X93.123 Y93.688
G1 F900 X140.744 Y141.31 E251.2262
G0 F3600 X140.178 Y141.31
G1 F900 X92.557 Y93.688 E254.92215
G0 F3600 X91.991 Y93.688
G1 F900 X139.613 Y141.31 E258.61813
G0 F3600 X139.047 Y141.31
G1 F900 X91.426 Y93.688 E262.31408
G0 F3600 X90.86 Y93.688
G1 F900 X138.481 Y141.31 E266.01003
G0 F3600 X137.916 Y141.31
G1 F900 X90.294 Y93.688 E269.70602
G0 F3600 X89.729 Y93.688
G1 F900 X137.35 Y141.31 E273.40197
G0 F3600 X136.784 Y141.31
G1 F900 X89.163 Y93.688 E277.09792
G0 F3600 X88.67 Y93.761
G1 F900 X136.219 Y141.31 E280.78824
G0 F3600 X135.653 Y141.31
G1 F900 X88.67 Y94.327 E284.43464
G0 F3600 X88.67 Y94.893
G1 F900 X135.087 Y141.31 E288.0371
G0 F3600 X134.522 Y141.31
G1 F900 X88.67 Y95.458 E291.59572
G0 F3600 X88.67 Y96.024
G1 F900 X133.956 Y141.31 E295.11041
G0 F3600 X133.39 Y141.31
G1 F900 X88.67 Y96.59 E298.58117
G0 F3600 X88.67 Y97.155
G1 F900 X132.825 Y141.31 E302.00808
G0 F3600 X132.259 Y141.31
G1 F900 X88.67 Y97.721 E305.39107
G0 F3600 X88.67 Y98.287
G1 F900 X131.693 Y141.31 E308.73012
G0 F3600 X131.128 Y141.31
G1 F900 X88.67 Y98.852 E312.02533
G0 F3600 X88.67 Y99.418
G1 F900 X130.562 Y141.31 E315.2766
G0 F3600 X129.996 Y141.31
G1 F900 X88.67 Y99.984 E318.48395
G0 F3600 X88.67 Y100.549
G1 F900 X129.43 Y141.31 E321.64742
G0 F3600 X128.865 Y141.31
G1 F900 X88.67 Y101.115 E324.76699
G0 F3600 X88.67 Y101.681
G1 F900 X128.299 Y141.31 E327.84263
G0 F3600 X127.733 Y141.31
G1 F900 X88.67 Y102.246 E330.87439
G0 F3600 X88.67 Y102.812
G1 F900 X127.168 Y141.31 E333.86225
G0 F3600 X126.602 Y141.31
G1 F900 X88.67 Y103.378 E336.80619
G0 F3600 X88.67 Y103.943
G1 F900 X126.036 Y141.31 E339.70624
G0 F3600 X125.471 Y141.31
G1 F900 X88.67 Y104.509 E342.5624
G0 F3600 X88.67 Y105.075
G1 F900 X124.905 Y141.31 E345.37463
G0 F3600 X124.339 Y141.31
G1 F900 X88.67 Y105.641 E348.14294
G0 F3600 X88.67 Y106.206
G1 F900 X123.774 Y141.31 E350.86739
G0 F3600 X123.208 Y141.31
G1 F900 X88.67 Y106.772 E353.54792
G0 F3600 X88.67 Y107.338
G1 F900 X122.642 Y141.31 E356.18452
G0 F3600 X122.077 Y141.31
G1 F900 X88.67 Y107.903 E358.77727
G0 F3600 X88.67 Y108.469
G1 F900 X121.511 Y141.31 E361.32609
G0 F3600 X120.945 Y141.31
G1 F900 X88.67 Y109.035 E363.83098
G0 F3600 X88.67 Y109.6
G1 F900 X120.379 Y141.31 E366.29198
G0 F3600 X119.814 Y141.31
G1 F900 X88.67 Y110.166 E368.7091
G0 F3600 X88.67 Y110.732
G1 F900 X119.248 Y141.31 E371.08229
G0 F3600 X118.682 Y141.31
G1 F900 X88.67 Y111.297 E373.41158
G0 F3600 X88.67 Y111.863
G1 F900 X118.117 Y141.31 E375.69699
G0 F3600 X117.551 Y141.31
G1 F900 X88.67 Y112.429 E377.93848
G0 F3600 X88.67 Y112.994
G1 F900 X116.985 Y141.31 E380.13607
G0 F3600 X116.42 Y141.31
G1 F900 X88.67 Y113.56 E382.28977
G0 F3600 X88.67 Y114.126
G1 F900 X115.854 Y141.31 E384.39955
G0 F3600 X115.288 Y141.31
G1 F900 X88.67 Y114.692 E386.4654
G0 F3600 X88.67 Y115.257
G1 F900 X114.723 Y141.31 E388.48739
G0 F3600 X114.157 Y141.31
G1 F900 X88.67 Y115.823 E390.46546
G0 F3600 X88.67 Y116.389
G1 F900 X113.591 Y141.31 E392.39961
G0 F3600 X113.026 Y141.31
G1 F900 X88.67 Y116.954 E394.2899
G0 F3600 X88.67 Y117.52
G1 F900 X112.46 Y141.31 E396.13626
G0 F3600 X111.894 Y141.31
G1 F900 X88.67 Y118.086 E397.9387
G0 F3600 X88.67 Y118.651
G1 F900 X111.329 Y141.31 E399.69729
G0 F3600 X110.763 Y141.31
G1 F900 X88.67 Y119.217 E401.41194
G0 F3600 X88.67 Y119.783
G1 F900 X110.197 Y141.31 E403.08267
G0 F3600 X109.631 Y141.31
G1 F900 X88.67 Y120.348 E404.70952
G0 F3600 X88.67 Y120.914
G1 F900 X109.066 Y141.31 E406.29247
G0 F3600 X108.5 Y141.31
G1 F900 X88.67 Y121.48 E407.83149
G0 F3600 X88.67 Y122.045
G1 F900 X107.934 Y141.31 E409.32663
G0 F3600 X107.369 Y141.31
G1 F900 X88.67 Y122.611 E410.77788
G0 F3600 X88.67 Y123.177
G1 F900 X106.803 Y141.31 E412.1852
G0 F3600 X106.237 Y141.31
G1 F900 X88.67 Y123.742 E413.54863
G0 F3600 X88.67 Y124.308
G1 F900 X105.672 Y141.31 E414.86817
G0 F3600 X105.106 Y141.31
G1 F900 X88.67 Y124.874 E416.14378
G0 F3600 X88.67 Y125.44
G1 F900 X104.54 Y141.31 E417.37547
G0 F3600 X103.975 Y141.31
G1 F900 X88.67 Y126.005 E418.5633
G0 F3600 X88.67 Y126.571
G1 F900 X103.409 Y141.31 E419.70721
G0 F3600 X102.843 Y141.31
G1 F900 X88.67 Y127.137 E420.80719
G0 F3600 X88.67 Y127.702
G1 F900 X102.278 Y141.31 E421.86332
G0 F3600 X101.712 Y141.31
G1 F900 X88.67 Y128.268 E422.87552
G0 F3600 X88.67 Y128.834
G1 F900 X101.146 Y141.31 E423.8438
G0 F3600 X100.58 Y141.31
G1 F900 X88.67 Y129.399 E424.76818
G0 F3600 X88.67 Y129.965
G1 F900 X100.015 Y141.31 E425.64868
G0 F3600 X99.449 Y141.31
G1 F900 X88.67 Y130.531 E426.48524
G0 F3600 X88.67 Y131.096
G1 F900 X98.883 Y141.31 E427.27792
G0 F3600 X98.318 Y141.31
G1 F900 X88.67 Y131.662 E428.02671
G0 F3600 X88.67 Y132.228
G1 F900 X97.752 Y141.31 E428.73158
G0 F3600 X97.186 Y141.31
G1 F900 X88.67 Y132.793 E429.39255
G0 F3600 X88.67 Y133.359
G1 F900 X96.621 Y141.31 E430.00964
G0 F3600 X96.055 Y141.31
G1 F900 X88.67 Y133.925 E430.58279
G0 F3600 X88.67 Y134.491
G1 F900 X95.489 Y141.31 E431.11202
G0 F3600 X94.924 Y141.31
G1 F900 X88.67 Y135.056 E431.5974
G0 F3600 X88.67 Y135.622
G1 F900 X94.358 Y141.31 E432.03885
G0 F3600 X93.792 Y141.31
G1 F900 X88.67 Y136.188 E432.43637
G0 F3600 X88.67 Y136.753
G1 F900 X93.227 Y141.31 E432.79005
G0 F3600 X92.661 Y141.31
G1 F900 X88.67 Y137.319 E433.09979
G0 F3600 X88.67 Y137.885
G1 F900 X92.095 Y141.31 E433.36561
G0 F3600 X91.53 Y141.31
G1 F900 X88.67 Y138.45 E433.58758
G0 F3600 X88.67 Y139.016
G1 F900 X90.964 Y141.31 E433.76562
G0 F3600 X90.398 Y141.31
G1 F900 X88.67 Y139.582 E433.89973
G0 F3600 X88.67 Y140.147
