;FLAVOR:Marlin
;TIME:4317
;Filament used: 3.49491m, 0m
;Layer height: 0.2
;MINX:21.27
;MINY:83.979
;MINZ:0.3
;MAXX:133.595
;MAXY:219.581
;MAXZ:1.7
;POSTPROCESSED
;Generated with Cura_SteamEngine 4.7.1
T0
M140 S60
M105
M190 S60
M104 S200
M105
M109 S200
M82 ;absolute extrusion mode
M201 X500.00 Y500.00 Z100.00 E5000.00 	;Setup machine max acceleration
M203 X500.00 Y500.00 Z10.00 E50.00 	;Setup machine max feedrate
M204 P500.00 R1000.00 T500.00 		;Setup Print/Retract/Travel acceleration
M205 X8.00 Y8.00 Z0.40 E5.00 		;Setup Jerk
M220 S100 				;Reset Feedrate
M221 S100 				;Reset Flowrate
G28				;Home the Machine
#G29 				;Bed Level
G92 E0
M300 P150 S587
G92 E0
G1 F1500 E-6.5
;LAYER_COUNT:8
;LAYER:0
M107
G0 F2160 X75.528 Y84.776 Z0.3
;TYPE:SKIRT
G1 F1500 E0
G1 F900 X75.968 Y84.47 E0.02674
G1 X76.449 Y84.233 E0.05349
G1 X76.96 Y84.07 E0.08025
G1 X77.49 Y83.985 E0.10703
G1 X78.026 Y83.979 E0.13377
G1 X78.557 Y84.054 E0.16053
G1 X79.071 Y84.206 E0.18727
G1 X79.557 Y84.433 E0.21403
G1 X80.004 Y84.729 E0.24078
G1 X80.402 Y85.089 E0.26755
G1 X80.742 Y85.504 E0.29432
G1 X81.016 Y85.965 E0.32107
G1 X81.219 Y86.461 E0.34781
G1 X81.358 Y87.059 E0.37844
G1 X81.488 Y87.963 E0.424
G1 X81.92 Y90.707 E0.56259
G1 X82.416 Y93.37 E0.69773
G1 X83.001 Y96.074 E0.83576
G1 X83.637 Y98.665 E0.96886
G1 X84.373 Y101.329 E1.10674
G1 X85.176 Y103.948 E1.24341
G1 X86.045 Y106.519 E1.37881
G1 X86.987 Y109.066 E1.51429
G1 X88.005 Y111.597 E1.65039
G1 X89.102 Y114.113 E1.78733
G1 X90.253 Y116.566 E1.92251
G1 X91.489 Y119.016 E2.05942
G1 X92.784 Y121.412 E2.1953
G1 X94.131 Y123.742 E2.32957
G1 X95.585 Y126.103 E2.4679
G1 X97.067 Y128.364 E2.60278
G1 X98.618 Y130.588 E2.73805
G1 X100.269 Y132.819 E2.87652
G1 X101.924 Y134.927 E3.01023
G1 X103.679 Y137.038 E3.14719
G1 X105.481 Y139.085 E3.28325
G1 X107.338 Y141.079 E3.41919
G1 X109.247 Y143.013 E3.55476
G1 X111.444 Y145.112 E3.70635
G1 X111.641 Y145.296 E3.7198
G1 X112.099 Y145.749 E3.75194
G1 X112.489 Y146.173 E3.78068
G1 X112.936 Y146.713 E3.81566
G1 X113.265 Y147.148 E3.84287
G1 X113.601 Y147.635 E3.87238
G1 X113.854 Y148.032 E3.89587
G1 X115.38 Y150.358 E4.03466
G1 X116.926 Y152.575 E4.1695
G1 X118.577 Y154.806 E4.30797
G1 X120.234 Y156.917 E4.44186
G1 X121.979 Y159.014 E4.57797
G1 X124.141 Y161.457 E4.74072
G1 X124.934 Y162.322 E4.79927
G1 X125.351 Y162.849 E4.83279
G1 X125.793 Y163.539 E4.87368
G1 X126.067 Y164.012 E4.90095
G1 X127.02 Y165.726 E4.99879
G1 X128.406 Y168.061 E5.13426
G1 X129.872 Y170.38 E5.27113
G1 X130.753 Y171.706 E5.35056
G1 X131.4 Y172.663 E5.40819
G1 X131.715 Y173.163 E5.43767
G1 X132.111 Y173.876 E5.47836
G1 X132.365 Y174.405 E5.50764
G1 X132.615 Y174.996 E5.53965
G1 X132.89 Y175.778 E5.58101
G1 X133.134 Y176.621 E5.62479
G1 X133.176 Y176.786 E5.63329
G1 X133.297 Y177.32 E5.66061
G1 X133.331 Y177.489 E5.66921
G1 X133.421 Y177.998 E5.69499
G1 X133.446 Y178.158 E5.70307
G1 X133.511 Y178.655 E5.72808
G1 X133.53 Y178.847 E5.73771
G1 X133.571 Y179.382 E5.76447
G1 X133.58 Y179.549 E5.77282
G1 X133.595 Y180.051 E5.79787
G1 X133.588 Y180.59 E5.82477
G1 X133.559 Y181.126 E5.85155
G1 X133.493 Y181.793 E5.88499
G1 X133.434 Y182.231 E5.90704
G1 X133.121 Y183.962 E5.9948
G1 X133.069 Y184.229 E6.00837
G1 X132.626 Y186.915 E6.14418
G1 X132.259 Y189.617 E6.28022
G1 X131.971 Y192.291 E6.4144
G1 X131.68 Y196.299 E6.61489
G1 X131.591 Y198.013 E6.70052
G1 X131.533 Y198.538 E6.72687
G1 X131.388 Y199.349 E6.76797
G1 X131.27 Y199.831 E6.79273
G1 X131.029 Y200.601 E6.83298
G1 X130.816 Y201.17 E6.86329
G1 X130.642 Y201.548 E6.88405
G1 X130.372 Y202.085 E6.91404
G1 X130.082 Y202.581 E6.9427
G1 X129.998 Y202.71 E6.95038
G1 X129.687 Y203.168 E6.978
G1 X129.356 Y203.597 E7.00504
G1 X129.251 Y203.722 E7.01318
G1 X128.9 Y204.118 E7.03958
G1 X128.519 Y204.498 E7.06643
G1 X128.381 Y204.624 E7.07575
G1 X127.997 Y204.956 E7.10108
G1 X127.566 Y205.285 E7.12813
G1 X127.179 Y205.554 E7.15164
G1 X124.928 Y207.154 E7.28942
G1 X122.754 Y208.795 E7.42531
G1 X120.85 Y210.315 E7.54686
G1 X120.396 Y210.687 E7.57615
G1 X119.974 Y211.012 E7.60272
G1 X119.421 Y211.383 E7.63594
G1 X118.934 Y211.662 E7.66394
G1 X118.42 Y211.919 E7.69261
G1 X118.002 Y212.094 E7.71522
G1 X117.304 Y212.348 E7.75228
G1 X117.189 Y212.388 E7.75835
G1 X115.795 Y212.843 E7.83151
G1 X115.347 Y212.988 E7.855
G1 X112.774 Y213.88 E7.99087
G1 X110.196 Y214.857 E8.12841
G1 X107.682 Y215.892 E8.26405
G1 X106.166 Y216.559 E8.34668
G1 X105.624 Y216.778 E8.37584
G1 X105.086 Y216.969 E8.40432
G1 X104.699 Y217.087 E8.42451
G1 X103.811 Y217.326 E8.47039
G1 X103.056 Y217.473 E8.50876
G1 X102.686 Y217.526 E8.52741
G1 X101.883 Y217.615 E8.56772
G1 X101.221 Y217.652 E8.6008
G1 X100.664 Y217.652 E8.62858
G1 X100.114 Y217.629 E8.65605
G1 X99.72 Y217.596 E8.67577
G1 X99.102 Y217.527 E8.7068
G1 X98.531 Y217.446 E8.73557
G1 X98.095 Y217.371 E8.75764
G1 X95.751 Y216.938 E8.87656
G1 X93.08 Y216.522 E9.01143
G1 X90.343 Y216.176 E9.14906
G1 X87.626 Y215.91 E9.28526
G1 X84.929 Y215.721 E9.42015
G1 X82.205 Y215.609 E9.55616
G1 X79.473 Y215.574 E9.69247
G1 X76.745 Y215.615 E9.82859
G1 X74.013 Y215.735 E9.96502
G1 X71.292 Y215.931 E10.10112
G1 X68.573 Y216.204 E10.23746
G1 X65.905 Y216.549 E10.37167
G1 X63.195 Y216.978 E10.50856
G1 X60.483 Y217.485 E10.6462
G1 X57.839 Y218.058 E10.78118
G1 X53.877 Y219.065 E10.98513
G1 X53.369 Y219.205 E11.01142
G1 X52.45 Y219.42 E11.0585
G1 X52.03 Y219.487 E11.07972
G1 X51.43 Y219.546 E11.1098
G1 X50.751 Y219.581 E11.14372
G1 X50.152 Y219.563 E11.17362
G1 X49.544 Y219.498 E11.20412
G1 X49.394 Y219.475 E11.21169
G1 X48.85 Y219.381 E11.23924
G1 X48.357 Y219.266 E11.26449
G1 X47.695 Y219.062 E11.29905
G1 X47.188 Y218.866 E11.32617
G1 X46.567 Y218.599 E11.3599
G1 X45.974 Y218.289 E11.39328
G1 X45.621 Y218.077 E11.41382
G1 X44.576 Y217.385 E11.47635
G1 X42.813 Y216.221 E11.58175
G1 X41.261 Y215.248 E11.67314
G1 X40.741 Y214.928 E11.7036
G1 X38.111 Y213.156 E11.86182
G1 X35.808 Y211.696 E11.99786
G1 X33.494 Y210.322 E12.13212
G1 X31.082 Y208.977 E12.2699
G1 X29.834 Y208.334 E12.33994
G1 X28.466 Y207.613 E12.41709
G1 X28.011 Y207.35 E12.44331
G1 X27.498 Y206.995 E12.47443
G1 X27.367 Y206.892 E12.48275
G1 X26.907 Y206.514 E12.51245
G1 X26.52 Y206.16 E12.53862
G1 X26.046 Y205.657 E12.5731
G1 X25.703 Y205.24 E12.60004
G1 X25.372 Y204.816 E12.62687
G1 X24.897 Y204.099 E12.66978
G1 X24.516 Y203.405 E12.70928
G1 X24.291 Y202.911 E12.73636
G1 X24.084 Y202.396 E12.76405
G1 X23.907 Y201.862 E12.79212
G1 X23.755 Y201.292 E12.82155
G1 X23.656 Y200.822 E12.84551
G1 X23.554 Y200.186 E12.87765
G1 X23.082 Y197.494 E13.014
G1 X22.549 Y194.881 E13.14705
G1 X21.713 Y191.38 E13.32663
G1 X21.501 Y190.559 E13.36893
G1 X21.419 Y190.142 E13.39013
G1 X21.348 Y189.617 E13.41656
G1 X21.306 Y188.984 E13.44821
G1 X21.317 Y187.92 E13.5013
G1 X21.307 Y185.179 E13.63805
G1 X21.283 Y184.407 E13.67658
G1 X21.27 Y183.579 E13.7179
G1 X21.291 Y182.934 E13.75009
G1 X21.372 Y182.086 E13.79259
G1 X21.671 Y180.486 E13.8738
G1 X21.68 Y180.422 E13.87702
G1 X21.93 Y179.104 E13.94395
G1 X22.363 Y176.42 E14.07959
G1 X22.723 Y173.713 E14.21583
G1 X22.849 Y172.473 E14.27801
G1 X23.045 Y170.865 E14.35883
G1 X23.066 Y170.721 E14.36609
G1 X23.173 Y170.066 E14.3992
G1 X23.291 Y169.5 E14.42805
G1 X23.508 Y168.714 E14.46873
G1 X23.669 Y168.222 E14.49455
G1 X23.877 Y167.669 E14.52403
G1 X24.087 Y167.178 E14.55067
G1 X24.309 Y166.705 E14.57674
G1 X24.588 Y166.176 E14.60658
G1 X24.916 Y165.623 E14.63865
G1 X25.404 Y164.899 E14.68221
G1 X25.778 Y164.412 E14.71285
G1 X25.845 Y164.329 E14.71817
G1 X26.548 Y163.485 E14.77297
G1 X27.332 Y162.57 E14.83309
G1 X29.043 Y160.456 E14.96877
G1 X30.697 Y158.291 E15.1047
G1 X32.286 Y156.082 E15.24045
G1 X33.055 Y154.93 E15.30956
G1 X33.174 Y154.778 E15.31919
G1 X33.882 Y153.738 E15.38196
G1 X34.28 Y153.242 E15.41368
G1 X34.648 Y152.847 E15.44062
G1 X34.957 Y152.556 E15.46179
G1 X35.368 Y152.213 E15.4885
G1 X35.462 Y152.137 E15.49453
G1 X36.563 Y151.279 E15.56417
G1 X38.684 Y149.577 E15.69984
G1 X40.777 Y147.798 E15.83689
G1 X42.784 Y145.991 E15.97162
G1 X44.769 Y144.1 E16.1084
G1 X47.096 Y141.741 E16.27371
G1 X48.51 Y140.258 E16.37594
G1 X50.403 Y138.213 E16.51497
G1 X52.201 Y136.159 E16.65116
G1 X53.93 Y134.068 E16.78652
G1 X55.599 Y131.927 E16.92196
G1 X57.22 Y129.724 E17.05841
G1 X58.768 Y127.486 E17.19417
G1 X60.26 Y125.197 E17.33049
G1 X61.694 Y122.854 E17.46754
G1 X63.048 Y120.494 E17.60328
G1 X64.321 Y118.124 E17.7375
G1 X65.558 Y115.653 E17.87536
G1 X66.694 Y113.215 E18.00955
G1 X67.794 Y110.67 E18.14787
G1 X68.788 Y108.18 E18.28163
G1 X69.733 Y105.6 E18.41871
G1 X70.598 Y103.012 E18.55485
G1 X71.389 Y100.41 E18.69053
G1 X72.11 Y97.765 E18.8273
G1 X72.746 Y95.146 E18.96176
G1 X73.313 Y92.482 E19.09765
G1 X73.811 Y89.771 E19.23516
G1 X74.178 Y87.429 E19.35343
G1 X74.232 Y87.056 E19.37223
G1 X74.348 Y86.532 E19.39901
G1 X74.541 Y86.032 E19.42575
G1 X74.806 Y85.565 E19.45254
G1 X75.137 Y85.144 E19.47926
G1 X75.528 Y84.776 E19.50604
G0 F2160 X75.894 Y84.998
G1 F900 X76.323 Y84.731 E19.53125
G1 X76.789 Y84.534 E19.55649
G1 X77.28 Y84.414 E19.58171
G1 X77.784 Y84.372 E19.60694
G1 X78.288 Y84.41 E19.63216
G1 X78.78 Y84.527 E19.65739
G1 X79.247 Y84.72 E19.6826
G1 X79.678 Y84.985 E19.70784
G1 X80.062 Y85.314 E19.73307
G1 X80.389 Y85.699 E19.75827
G1 X80.652 Y86.131 E19.7835
G1 X80.843 Y86.599 E19.80872
G1 X80.962 Y87.116 E19.83519
G1 X81.093 Y88.025 E19.88101
G1 X81.525 Y90.771 E20.01969
G1 X82.026 Y93.456 E20.15596
G1 X82.61 Y96.156 E20.29378
G1 X83.257 Y98.795 E20.42934
G1 X83.988 Y101.438 E20.56615
G1 X84.79 Y104.056 E20.70275
G1 X85.667 Y106.649 E20.83931
G1 X86.613 Y109.206 E20.97533
G1 X87.643 Y111.77 E21.11319
G1 X88.731 Y114.264 E21.24894
G1 X89.898 Y116.751 E21.386
G1 X91.13 Y119.193 E21.52246
G1 X92.429 Y121.596 E21.65874
G1 X93.802 Y123.972 E21.79564
G1 X95.243 Y126.311 E21.93271
G1 X96.721 Y128.566 E22.06722
G1 X98.313 Y130.849 E22.20608
G1 X99.948 Y133.058 E22.34319
G1 X101.617 Y135.184 E22.47803
G1 X103.37 Y137.293 E22.61485
G1 X105.172 Y139.339 E22.75088
G1 X107.061 Y141.368 E22.88918
G1 X108.968 Y143.301 E23.02465
G1 X111.181 Y145.415 E23.17734
G1 X111.359 Y145.581 E23.18948
G1 X111.817 Y146.034 E23.22162
G1 X112.191 Y146.44 E23.24916
G1 X112.624 Y146.963 E23.28303
G1 X112.94 Y147.382 E23.30922
G1 X113.269 Y147.859 E23.33813
G1 X113.539 Y148.281 E23.36312
G1 X115.039 Y150.568 E23.49957
G1 X116.621 Y152.836 E23.63753
G1 X118.256 Y155.045 E23.77464
G1 X119.911 Y157.154 E23.90839
G1 X121.687 Y159.289 E24.04694
G1 X123.867 Y161.75 E24.21096
G1 X124.639 Y162.593 E24.26799
G1 X125.031 Y163.089 E24.29953
G1 X125.452 Y163.748 E24.33855
G1 X125.717 Y164.206 E24.36494
G1 X126.669 Y165.919 E24.46272
G1 X128.065 Y168.271 E24.59917
G1 X129.527 Y170.582 E24.7356
G1 X130.422 Y171.93 E24.81633
G1 X131.017 Y172.809 E24.86928
G1 X131.299 Y173.248 E24.89532
G1 X131.569 Y173.711 E24.92205
G1 X131.821 Y174.189 E24.94901
G1 X132.175 Y174.973 E24.99193
G1 X132.383 Y175.528 E25.0215
G1 X132.603 Y176.204 E25.05697
G1 X132.749 Y176.728 E25.0841
G1 X132.786 Y176.875 E25.09167
G1 X132.907 Y177.409 E25.11898
G1 X132.937 Y177.559 E25.12662
G1 X133.027 Y178.068 E25.1524
G1 X133.049 Y178.21 E25.15957
G1 X133.114 Y178.707 E25.18458
G1 X133.132 Y178.877 E25.19311
G1 X133.173 Y179.412 E25.21988
G1 X133.181 Y179.561 E25.22732
G1 X133.196 Y180.063 E25.25238
G1 X133.188 Y180.581 E25.27822
G1 X133.16 Y181.096 E25.30396
G1 X133.095 Y181.753 E25.33689
G1 X133.04 Y182.16 E25.35738
G1 X132.728 Y183.885 E25.44484
G1 X132.676 Y184.153 E25.45846
G1 X132.234 Y186.833 E25.59397
G1 X131.863 Y189.562 E25.73138
G1 X131.571 Y192.279 E25.86771
G1 X131.283 Y196.243 E26.06599
G1 X131.192 Y197.992 E26.15337
G1 X131.139 Y198.467 E26.17721
G1 X130.994 Y199.278 E26.21832
G1 X130.888 Y199.712 E26.24061
G1 X130.647 Y200.482 E26.28086
G1 X130.451 Y201.006 E26.30877
G1 X130.285 Y201.368 E26.32864
G1 X130.015 Y201.905 E26.35863
G1 X129.742 Y202.371 E26.38557
G1 X129.667 Y202.486 E26.39242
G1 X129.356 Y202.944 E26.42004
G1 X129.045 Y203.346 E26.4454
G1 X128.952 Y203.457 E26.45262
G1 X128.601 Y203.853 E26.47902
G1 X128.242 Y204.209 E26.50425
G1 X128.119 Y204.322 E26.51258
G1 X127.735 Y204.654 E26.5379
G1 X127.331 Y204.962 E26.56325
G1 X126.925 Y205.243 E26.58788
G1 X124.701 Y206.825 E26.72405
G1 X122.504 Y208.483 E26.86136
G1 X120.564 Y210.031 E26.98519
G1 X120.083 Y210.424 E27.01618
G1 X119.531 Y210.835 E27.05051
G1 X119.072 Y211.126 E27.07762
G1 X118.599 Y211.387 E27.10458
G1 X118.056 Y211.642 E27.13451
G1 X117.865 Y211.718 E27.14476
G1 X117.167 Y211.972 E27.18182
G1 X117.065 Y212.007 E27.1872
G1 X115.762 Y212.432 E27.25558
G1 X115.194 Y212.618 E27.28539
G1 X112.619 Y213.511 E27.42137
G1 X110.069 Y214.477 E27.55741
G1 X107.532 Y215.521 E27.69428
G1 X106.005 Y216.193 E27.77751
G1 X105.476 Y216.406 E27.80596
G1 X104.959 Y216.589 E27.83333
G1 X104.595 Y216.701 E27.85233
G1 X103.707 Y216.94 E27.8982
G1 X102.987 Y217.079 E27.93479
G1 X102.642 Y217.129 E27.95218
G1 X101.839 Y217.218 E27.99249
G1 X101.221 Y217.252 E28.02337
G1 X100.664 Y217.252 E28.05116
G1 X100.147 Y217.231 E28.07697
G1 X99.764 Y217.198 E28.09615
G1 X99.146 Y217.129 E28.12717
G1 X98.598 Y217.051 E28.15479
G1 X98.168 Y216.978 E28.17655
G1 X95.814 Y216.543 E28.29598
G1 X93.125 Y216.125 E28.43174
G1 X90.395 Y215.779 E28.56903
G1 X87.657 Y215.511 E28.70629
G1 X84.938 Y215.321 E28.84227
G1 X82.228 Y215.21 E28.97758
G1 X79.472 Y215.174 E29.11509
G1 X76.721 Y215.215 E29.25236
G1 X74.005 Y215.335 E29.38799
G1 X71.257 Y215.532 E29.52544
G1 X68.549 Y215.805 E29.66123
G1 X65.828 Y216.156 E29.7981
G1 X63.095 Y216.588 E29.93615
G1 X60.437 Y217.086 E30.07106
G1 X57.734 Y217.671 E30.20904
G1 X53.78 Y218.676 E30.41258
G1 X53.173 Y218.843 E30.44398
G1 X52.363 Y219.029 E30.48545
G1 X51.99 Y219.089 E30.5043
G1 X51.401 Y219.147 E30.53382
G1 X50.757 Y219.181 E30.566
G1 X50.169 Y219.163 E30.59535
G1 X49.595 Y219.101 E30.62415
G1 X49.462 Y219.081 E30.63086
G1 X48.918 Y218.987 E30.6584
G1 X48.365 Y218.854 E30.68678
G1 X47.839 Y218.689 E30.71428
G1 X47.332 Y218.493 E30.7414
G1 X46.742 Y218.239 E30.77345
G1 X46.165 Y217.938 E30.80591
G1 X45.842 Y217.743 E30.82474
G1 X44.797 Y217.051 E30.88727
G1 X43.034 Y215.888 E30.99264
G1 X41.474 Y214.909 E31.08452
G1 X40.951 Y214.587 E31.11517
G1 X38.344 Y212.83 E31.27201
G1 X36.02 Y211.357 E31.40928
G1 X33.699 Y209.979 E31.54395
G1 X31.282 Y208.631 E31.68202
G1 X30.021 Y207.98 E31.75282
G1 X28.653 Y207.259 E31.82997
G1 X28.213 Y207.005 E31.85532
G1 X27.738 Y206.674 E31.8842
G1 X27.621 Y206.583 E31.89159
G1 X27.161 Y206.205 E31.9213
G1 X26.542 Y205.611 E31.9641
G1 X26.355 Y205.403 E31.97805
G1 X26.012 Y204.986 E32.00499
G1 X25.688 Y204.571 E32.03126
G1 X25.237 Y203.888 E32.07209
G1 X24.872 Y203.223 E32.10994
G1 X24.656 Y202.749 E32.13593
G1 X24.462 Y202.265 E32.16194
G1 X24.288 Y201.741 E32.18949
G1 X24.143 Y201.193 E32.21777
G1 X24.051 Y200.759 E32.2399
G1 X23.949 Y200.123 E32.27204
G1 X23.475 Y197.416 E32.40914
G1 X22.94 Y194.798 E32.54246
G1 X22.102 Y191.287 E32.72254
G1 X21.888 Y190.459 E32.76521
G1 X21.816 Y190.089 E32.78401
G1 X21.745 Y189.564 E32.81044
G1 X21.706 Y188.988 E32.83925
G1 X21.717 Y187.924 E32.89233
G1 X21.707 Y185.166 E33.02993
G1 X21.683 Y184.4 E33.06816
G1 X21.67 Y183.572 E33.10948
G1 X21.691 Y182.95 E33.14053
G1 X21.765 Y182.159 E33.18016
G1 X22.07 Y180.529 E33.2629
G1 X22.073 Y180.497 E33.2645
G1 X22.324 Y179.171 E33.33183
G1 X22.761 Y176.465 E33.46858
G1 X23.118 Y173.776 E33.60391
G1 X23.239 Y172.586 E33.66359
G1 X23.443 Y170.914 E33.74762
G1 X23.461 Y170.785 E33.75412
G1 X23.568 Y170.13 E33.78723
G1 X23.679 Y169.6 E33.81425
G1 X23.893 Y168.823 E33.85446
