;FLAVOR:Marlin
;TIME:5859
;Filament used: 3.33571m
;Layer height: 0.2
;MINX:30.377
;MINY:69.564
;MINZ:0.2
;MAXX:171.09
;MAXY:165.437
;MAXZ:15
;Generated with Cura_SteamEngine 4.12.1
M140 S50
M105
M190 S50
M104 S200
M105
M109 S200
M82 ;absolute extrusion mode
M201 X500.00 Y500.00 Z100.00 E5000.00 ;Setup machine max acceleration
M203 X500.00 Y500.00 Z10.00 E50.00 ;Setup machine max feedrate
M204 P500.00 R1000.00 T500.00 ;Setup Print/Retract/Travel acceleration
M205 X8.00 Y8.00 Z0.40 E5.00 ;Setup Jerk
M220 S100 ;Reset Feedrate
M221 S100 ;Reset Flowrate

G28 ;Home
G90
G92 E0 ;Reset Extruder
G1 Z2.0 F3000 ;Move Z Axis up

G92 E0 ;Reset Extruder
G1 Z2.0 F3000 ;Move Z Axis up
G92 E0
G92 E0
;LAYER_COUNT:75
;LAYER:0
M107
G0 F6000 X56.693 Y82.176 Z0.2
;TYPE:SKIRT
G1 F900 X57.463 Y81.641 E0.03119
G1 X58.276 Y81.172 E0.0624
G1 X59.125 Y80.775 E0.09358
G1 X60.007 Y80.451 E0.12483
G1 X60.129 Y80.412 E0.12909
G1 X61.033 Y80.165 E0.16026
G1 X62.16 Y79.969 E0.1983
G1 X62.649 Y79.91 E0.21469
G1 X65.177 Y79.565 E0.29955
G1 X67.692 Y79.15 E0.38433
G1 X70.123 Y78.678 E0.46669
G1 X72.58 Y78.128 E0.55043
G1 X75.038 Y77.504 E0.63478
G1 X77.467 Y76.815 E0.71876
G1 X79.869 Y76.058 E0.80252
G1 X82.235 Y75.24 E0.88579
G1 X84.588 Y74.349 E0.96947
G1 X86.918 Y73.392 E1.05325
G1 X89.223 Y72.368 E1.13714
G1 X91.539 Y71.259 E1.22254
G1 X92.18 Y70.933 E1.24646
G1 X92.678 Y70.69 E1.26489
G1 X93.538 Y70.315 E1.2961
G1 X94.426 Y70.015 E1.32727
G1 X95.337 Y69.791 E1.35847
G1 X96.264 Y69.646 E1.38968
G1 X97.167 Y69.581 E1.41979
G1 X97.495 Y69.571 E1.43071
G1 X97.817 Y69.566 E1.44142
G1 X98.698 Y69.565 E1.47072
G1 X101.556 Y69.569 E1.56578
G1 X134.708 Y69.569 E2.66842
G1 X136.523 Y69.564 E2.72879
G1 X137.03 Y69.567 E2.74565
G1 X137.694 Y69.579 E2.76774
G1 X138.63 Y69.636 E2.79893
G1 X139.558 Y69.772 E2.83012
G1 X140.471 Y69.987 E2.86132
G1 X141.362 Y70.279 E2.8925
G1 X142.225 Y70.646 E2.9237
G1 X143.054 Y71.085 E2.9549
G1 X143.842 Y71.593 E2.98608
G1 X144.584 Y72.166 E3.01726
G1 X145.275 Y72.801 E3.04847
G1 X145.658 Y73.203 E3.06694
G1 X146.621 Y74.269 E3.11472
G1 X147.972 Y75.74 E3.18115
G1 X149.715 Y77.54 E3.26449
G1 X151.518 Y79.298 E3.34824
G1 X153.385 Y81.019 E3.4327
G1 X155.294 Y82.679 E3.51684
G1 X157.213 Y84.257 E3.59947
G1 X159.21 Y85.806 E3.68353
G1 X161.234 Y87.285 E3.76691
G1 X164.236 Y89.328 E3.88768
G1 X164.562 Y89.544 E3.90069
G1 X164.907 Y89.78 E3.91459
G1 X165.504 Y90.219 E3.93924
G1 X165.721 Y90.39 E3.94843
G1 X166.205 Y90.794 E3.9694
G1 X166.397 Y90.964 E3.97793
G1 X167.169 Y91.719 E4.01384
G1 X167.4 Y91.968 E4.02514
G1 X167.999 Y92.67 E4.05583
G1 X168.143 Y92.854 E4.0636
G1 X168.557 Y93.419 E4.0869
G1 X168.659 Y93.568 E4.09291
G1 X169.043 Y94.17 E4.11666
G1 X169.148 Y94.347 E4.1235
G1 X169.516 Y95.021 E4.14904
G1 X169.621 Y95.23 E4.15682
G1 X169.919 Y95.873 E4.18039
G1 X170 Y96.064 E4.18729
G1 X170.273 Y96.776 E4.21266
G1 X170.355 Y97.014 E4.22103
G1 X170.717 Y98.321 E4.26614
G1 X170.82 Y98.808 E4.28269
G1 X170.951 Y99.552 E4.30782
G1 X170.96 Y99.616 E4.30997
G1 X171.029 Y100.23 E4.33052
G1 X171.046 Y100.433 E4.33729
G1 X171.082 Y101.117 E4.36007
G1 X171.089 Y101.446 E4.37102
G1 X171.078 Y102.217 E4.39667
G1 X171.065 Y102.483 E4.40552
G1 X171.012 Y103.148 E4.42771
G1 X170.991 Y103.339 E4.4341
G1 X170.94 Y103.735 E4.44738
G1 X170.631 Y105.84 E4.51814
G1 X170.338 Y108.328 E4.60147
G1 X170.115 Y110.821 E4.68472
G1 X169.959 Y113.374 E4.76979
G1 X169.878 Y115.861 E4.85255
G1 X169.868 Y118.385 E4.9365
G1 X169.928 Y120.909 E5.02047
G1 X170.059 Y123.403 E5.10354
G1 X170.263 Y125.93 E5.18786
G1 X170.535 Y128.417 E5.27107
G1 X170.967 Y131.488 E5.37422
G1 X171.046 Y132.233 E5.39913
G1 X171.06 Y132.428 E5.40564
G1 X171.085 Y132.96 E5.42335
G1 X171.09 Y133.175 E5.4305
G1 X171.087 Y133.781 E5.45066
G1 X171.08 Y134.001 E5.45798
G1 X171.058 Y134.443 E5.4727
G1 X171.013 Y134.933 E5.48907
G1 X170.984 Y135.189 E5.49764
G1 X170.897 Y135.802 E5.51823
G1 X170.869 Y135.966 E5.52376
G1 X170.712 Y136.726 E5.54957
G1 X170.637 Y137.033 E5.56008
G1 X170.222 Y138.359 E5.6063
G1 X170.061 Y138.779 E5.62126
G1 X169.688 Y139.64 E5.65247
G1 X169.461 Y140.084 E5.66905
G1 X169.287 Y140.405 E5.6812
G1 X168.984 Y140.928 E5.7013
G1 X168.952 Y140.98 E5.70333
G1 X168.469 Y141.701 E5.73219
G1 X168.25 Y142.001 E5.74455
G1 X167.807 Y142.567 E5.76845
G1 X167.736 Y142.652 E5.77214
G1 X167.3 Y143.144 E5.794
G1 X167.153 Y143.3 E5.80113
G1 X166.766 Y143.69 E5.81941
G1 X166.665 Y143.787 E5.82406
G1 X166.125 Y144.272 E5.8482
G1 X165.836 Y144.515 E5.86076
G1 X165.032 Y145.131 E5.89445
G1 X164.793 Y145.297 E5.90413
G1 X164.613 Y145.419 E5.91136
G1 X162.374 Y146.909 E6.00081
G1 X160.354 Y148.338 E6.08311
G1 X158.301 Y149.879 E6.16849
G1 X156.357 Y151.426 E6.25112
G1 X154.425 Y153.055 E6.33517
G1 X152.559 Y154.721 E6.41837
G1 X150.713 Y156.464 E6.50282
G1 X148.944 Y158.234 E6.58605
G1 X147.208 Y160.071 E6.67011
G1 X145.71 Y161.738 E6.74465
G1 X145.057 Y162.411 E6.77584
G1 X144.35 Y163.027 E6.80703
G1 X143.592 Y163.579 E6.83822
G1 X142.79 Y164.066 E6.86943
G1 X141.949 Y164.482 E6.90063
G1 X141.077 Y164.825 E6.9318
G1 X140.178 Y165.092 E6.96299
G1 X139.259 Y165.282 E6.9942
G1 X138.328 Y165.393 E7.02539
G1 X137.79 Y165.421 E7.04331
G1 X137.457 Y165.43 E7.05439
G1 X137.173 Y165.434 E7.06383
G1 X136.302 Y165.435 E7.0928
G1 X133.447 Y165.431 E7.18776
G1 X100.623 Y165.43 E8.27949
G1 X98.793 Y165.437 E8.34036
G1 X97.971 Y165.433 E8.3677
G1 X97.305 Y165.421 E8.38985
G1 X96.369 Y165.364 E8.42104
G1 X95.441 Y165.228 E8.45224
G1 X94.528 Y165.013 E8.48343
G1 X93.637 Y164.721 E8.51462
G1 X92.532 Y164.236 E8.55476
G1 X92.279 Y164.108 E8.56419
G1 X89.96 Y162.972 E8.65007
G1 X87.679 Y161.935 E8.73341
G1 X85.345 Y160.951 E8.81766
G1 X82.991 Y160.035 E8.90167
G1 X80.619 Y159.193 E8.98539
G1 X78.237 Y158.419 E9.06869
G1 X75.827 Y157.712 E9.15223
G1 X73.391 Y157.071 E9.23601
G1 X70.93 Y156.498 E9.32005
G1 X68.459 Y155.993 E9.40393
G1 X65.998 Y155.566 E9.48701
G1 X63.104 Y155.151 E9.58425
G1 X62.146 Y155.029 E9.61637
G1 X61.222 Y154.871 E9.64755
G1 X60.691 Y154.742 E9.66572
G1 X60.527 Y154.698 E9.67137
G1 X59.632 Y154.417 E9.70257
G1 X58.765 Y154.06 E9.73376
G1 X57.931 Y153.631 E9.76495
G1 X57.136 Y153.132 E9.79617
G1 X56.335 Y152.524 E9.82962
G1 X56.149 Y152.369 E9.83767
G1 X55.455 Y151.739 E9.86884
G1 X54.817 Y151.051 E9.90005
G1 X54.356 Y150.473 E9.92464
G1 X53.974 Y149.958 E9.94597
G1 X52.42 Y147.927 E10.03103
G1 X50.837 Y145.975 E10.11461
G1 X49.203 Y144.073 E10.19801
G1 X47.505 Y142.204 E10.282
G1 X45.755 Y140.387 E10.36591
G1 X43.956 Y138.62 E10.44978
G1 X42.1 Y136.898 E10.53398
G1 X40.241 Y135.27 E10.61617
G1 X38.301 Y133.662 E10.69998
G1 X35.632 Y131.594 E10.81228
G1 X34.991 Y131.116 E10.83888
G1 X34.264 Y130.524 E10.87006
G1 X33.409 Y129.676 E10.91011
G1 X33.268 Y129.52 E10.91711
G1 X32.67 Y128.798 E10.94829
G1 X32.135 Y128.028 E10.97947
G1 X31.667 Y127.215 E11.01067
G1 X31.271 Y126.365 E11.04186
G1 X30.948 Y125.484 E11.07307
G1 X30.702 Y124.579 E11.10426
G1 X30.574 Y123.922 E11.12653
G1 X30.527 Y123.635 E11.1362
G1 X30.415 Y122.704 E11.16739
G1 X30.383 Y121.97 E11.19182
G1 X30.377 Y121.366 E11.21191
G1 X30.38 Y113.547 E11.47197
G1 X30.389 Y112.85 E11.49516
G1 X30.441 Y111.914 E11.52634
G1 X30.573 Y110.985 E11.55755
G1 X30.783 Y110.071 E11.58874
G1 X31.205 Y108.831 E11.6323
G1 X31.281 Y108.645 E11.63899
G1 X31.673 Y107.793 E11.67018
G1 X32.135 Y106.977 E11.70137
G1 X32.666 Y106.204 E11.73256
G1 X33.26 Y105.478 E11.76376
G1 X33.914 Y104.806 E11.79495
G1 X34.347 Y104.418 E11.81429
G1 X34.611 Y104.194 E11.8258
G1 X35.089 Y103.811 E11.84617
G1 X37.221 Y102.197 E11.93511
G1 X39.192 Y100.616 E12.01915
G1 X41.091 Y98.999 E12.10211
G1 X42.987 Y97.293 E12.18694
G1 X44.784 Y95.582 E12.26947
G1 X46.572 Y93.779 E12.35392
G1 X48.295 Y91.94 E12.43774
G1 X49.944 Y90.077 E12.52049
G1 X51.54 Y88.168 E12.60325
G1 X53.919 Y85.114 E12.73201
G1 X54.383 Y84.492 E12.75782
G1 X54.975 Y83.765 E12.789
G1 X55.813 Y82.92 E12.82858
G1 X55.972 Y82.776 E12.83572
G1 X56.693 Y82.176 E12.86692
G0 F6000 X56.949 Y82.484
G1 F900 X57.706 Y81.96 E12.89754
G1 X58.505 Y81.504 E12.92814
G1 X59.342 Y81.119 E12.95878
G1 X60.128 Y80.832 E12.98661
G1 X60.25 Y80.793 E12.99087
G1 X61.139 Y80.551 E13.02151
G1 X62.208 Y80.366 E13.0576
G1 X62.686 Y80.308 E13.07361
G1 X65.26 Y79.957 E13.16002
G1 X67.727 Y79.55 E13.24318
G1 X70.222 Y79.065 E13.32771
G1 X72.686 Y78.513 E13.4117
G1 X75.14 Y77.891 E13.4959
G1 X77.59 Y77.196 E13.5806
G1 X79.983 Y76.442 E13.66405
G1 X82.359 Y75.62 E13.74767
G1 X84.745 Y74.717 E13.83253
G1 X87.083 Y73.757 E13.91659
G1 X89.393 Y72.73 E14.00067
G1 X91.698 Y71.626 E14.08567
G1 X92.356 Y71.293 E14.1102
G1 X92.854 Y71.05 E14.12863
G1 X93.698 Y70.682 E14.15926
G1 X94.571 Y70.389 E14.18988
G1 X95.466 Y70.173 E14.22051
G1 X96.376 Y70.036 E14.25111
G1 X97.179 Y69.981 E14.27788
G1 X97.507 Y69.971 E14.2888
G1 X97.818 Y69.966 E14.29914
G1 X98.698 Y69.965 E14.32841
G1 X101.556 Y69.969 E14.42347
G1 X134.709 Y69.969 E15.52614
G1 X136.522 Y69.964 E15.58645
G1 X137.023 Y69.967 E15.60311
G1 X137.687 Y69.979 E15.6252
G1 X138.605 Y70.035 E15.65579
G1 X139.516 Y70.171 E15.68642
G1 X140.411 Y70.386 E15.71704
G1 X141.285 Y70.678 E15.74769
G1 X142.129 Y71.044 E15.77828
G1 X142.939 Y71.482 E15.80891
G1 X143.708 Y71.988 E15.83953
G1 X144.429 Y72.56 E15.87014
G1 X145.361 Y73.471 E15.91349
G1 X146.265 Y74.472 E15.95835
G1 X147.692 Y76.025 E16.02849
G1 X149.431 Y77.822 E16.11167
G1 X151.251 Y79.596 E16.1962
G1 X153.118 Y81.316 E16.28063
G1 X155.04 Y82.989 E16.36538
G1 X156.96 Y84.566 E16.44802
G1 X158.974 Y86.129 E16.53281
G1 X161.008 Y87.616 E16.61661
G1 X164.014 Y89.661 E16.73754
G1 X164.336 Y89.874 E16.75038
G1 X164.681 Y90.11 E16.76428
G1 X165.257 Y90.533 E16.78805
G1 X165.474 Y90.704 E16.79724
G1 X165.94 Y91.094 E16.81745
G1 X166.132 Y91.264 E16.82598
G1 X166.876 Y91.991 E16.86058
G1 X167.107 Y92.24 E16.87187
G1 X167.684 Y92.916 E16.90143
G1 X167.828 Y93.1 E16.90921
G1 X168.227 Y93.645 E16.93167
G1 X168.329 Y93.794 E16.93768
G1 X168.699 Y94.374 E16.96056
G1 X168.804 Y94.551 E16.9674
G1 X169.159 Y95.2 E16.99201
G1 X169.264 Y95.409 E16.99979
G1 X169.551 Y96.029 E17.02251
G1 X169.632 Y96.22 E17.02941
G1 X169.895 Y96.906 E17.05385
G1 X169.977 Y97.144 E17.06222
G1 X170.326 Y98.404 E17.1057
G1 X170.429 Y98.891 E17.12226
G1 X170.555 Y99.608 E17.14647
G1 X170.564 Y99.672 E17.14862
G1 X170.63 Y100.263 E17.1684
G1 X170.647 Y100.466 E17.17518
G1 X170.682 Y101.126 E17.19716
G1 X170.689 Y101.455 E17.2081
G1 X170.678 Y102.197 E17.23279
G1 X170.665 Y102.463 E17.24164
G1 X170.615 Y103.104 E17.26303
G1 X170.594 Y103.295 E17.26942
G1 X170.545 Y103.676 E17.2822
G1 X170.233 Y105.801 E17.35363
G1 X169.941 Y108.282 E17.43672
G1 X169.713 Y110.831 E17.52184
G1 X169.56 Y113.336 E17.60531
G1 X169.478 Y115.846 E17.68884
G1 X169.468 Y118.393 E17.77355
G1 X169.529 Y120.938 E17.85822
G1 X169.659 Y123.422 E17.94095
G1 X169.864 Y125.973 E18.02607
G1 X170.136 Y128.451 E18.10899
G1 X170.571 Y131.544 E18.21287
G1 X170.647 Y132.262 E18.23689
G1 X170.661 Y132.457 E18.24339
G1 X170.685 Y132.97 E18.26047
G1 X170.69 Y133.185 E18.26762
G1 X170.688 Y133.768 E18.28702
G1 X170.681 Y133.988 E18.29434
G1 X170.658 Y134.416 E18.30859
G1 X170.616 Y134.888 E18.32435
G1 X170.587 Y135.144 E18.33292
G1 X170.503 Y135.735 E18.35278
G1 X170.475 Y135.899 E18.35831
G1 X170.323 Y136.631 E18.38318
G1 X170.248 Y136.938 E18.39369
G1 X169.849 Y138.216 E18.43822
G1 X169.688 Y138.636 E18.45318
G1 X169.321 Y139.481 E18.48382
G1 X169.109 Y139.893 E18.49923
G1 X168.935 Y140.214 E18.51137
G1 X168.644 Y140.718 E18.53073
G1 X168.612 Y140.77 E18.53276
G1 X168.145 Y141.465 E18.56061
G1 X167.926 Y141.765 E18.57296
G1 X167.5 Y142.31 E18.59597
G1 X167.429 Y142.395 E18.59966
G1 X167.009 Y142.869 E18.62072
G1 X166.862 Y143.025 E18.62785
G1 X166.489 Y143.401 E18.64546
G1 X166.388 Y143.498 E18.65012
G1 X165.868 Y143.966 E18.67339
G1 X165.579 Y144.209 E18.68595
G1 X164.804 Y144.802 E18.71841
G1 X164.392 Y145.086 E18.73505
G1 X162.151 Y146.578 E18.82459
G1 X160.105 Y148.025 E18.90794
G1 X158.058 Y149.562 E18.99308
G1 X156.095 Y151.123 E19.0765
G1 X154.185 Y152.734 E19.1596
G1 X152.284 Y154.431 E19.24436
G1 X150.419 Y156.192 E19.32967
G1 X148.67 Y157.942 E19.41196
G1 X146.884 Y159.832 E19.49845
G1 X145.411 Y161.472 E19.57177
G1 X144.77 Y162.132 E19.60237
G1 X144.074 Y162.735 E19.633
G1 X143.328 Y163.275 E19.66363
G1 X142.538 Y163.747 E19.69424
G1 X141.71 Y164.15 E19.72487
G1 X140.85 Y164.479 E19.75549
G1 X139.965 Y164.733 E19.78612
G1 X139.061 Y164.908 E19.81674
G1 X137.779 Y165.021 E19.85955
G1 X137.446 Y165.03 E19.87063
G1 X137.173 Y165.034 E19.87971
G1 X136.302 Y165.035 E19.90868
G1 X133.447 Y165.031 E20.00363
G1 X100.621 Y165.03 E21.09543
G1 X98.794 Y165.037 E21.1562
G1 X97.978 Y165.033 E21.18334
G1 X97.312 Y165.021 E21.20549
G1 X96.393 Y164.965 E21.23612
G1 X95.483 Y164.829 E21.26672
G1 X94.587 Y164.614 E21.29737
G1 X93.714 Y164.323 E21.32797
G1 X92.713 Y163.879 E21.36439
G1 X92.487 Y163.764 E21.37283
G1 X90.123 Y162.607 E21.46037
G1 X87.834 Y161.566 E21.544
G1 X85.497 Y160.58 E21.62837
G1 X83.133 Y159.661 E21.71273
G1 X80.761 Y158.819 E21.79644
G1 X78.337 Y158.031 E21.88122
G1 X75.946 Y157.33 E21.96409
G1 X73.478 Y156.68 E22.04898
G1 X71.022 Y156.108 E22.13285
G1 X68.536 Y155.601 E22.21724
G1 X66.058 Y155.17 E22.30089
G1 X63.146 Y154.753 E22.39873
G1 X62.197 Y154.632 E22.43055
G1 X61.29 Y154.476 E22.46116
G1 X60.794 Y154.356 E22.47813
G1 X60.63 Y154.312 E22.48378
G1 X59.752 Y154.035 E22.5144
G1 X58.902 Y153.683 E22.545
G1 X58.085 Y153.258 E22.57563
G1 X57.308 Y152.764 E22.60626
G1 X56.591 Y152.217 E22.63625
G1 X56.405 Y152.062 E22.64431
G1 X55.724 Y151.443 E22.67491
G1 X55.099 Y150.766 E22.70556
G1 X54.678 Y150.234 E22.72812
G1 X54.339 Y149.777 E22.74705
G1 X52.728 Y147.673 E22.83519
G1 X51.152 Y145.729 E22.91842
G1 X49.501 Y143.807 E23.0027
G1 X47.789 Y141.922 E23.08739
G1 X46.041 Y140.107 E23.1712
G1 X44.227 Y138.325 E23.25578
G1 X42.39 Y136.621 E23.33911
G1 X40.476 Y134.944 E23.42375
G1 X38.566 Y133.362 E23.50624
G1 X35.832 Y131.244 E23.62127
G1 X35.231 Y130.795 E23.64622
G1 X34.517 Y130.213 E23.67686
G1 X33.706 Y129.408 E23.71486
G1 X33.565 Y129.252 E23.72186
G1 X32.978 Y128.543 E23.75247
G1 X32.455 Y127.785 E23.7831
G1 X31.999 Y126.985 E23.81373
G1 X31.615 Y126.149 E23.84433
G1 X31.304 Y125.282 E23.87496
G1 X31.07 Y124.391 E23.9056
G1 X30.968 Y123.857 E23.92368
G1 X30.921 Y123.57 E23.93336
G1 X30.812 Y122.656 E23.96397
G1 X30.783 Y121.966 E23.98694
G1 X30.777 Y121.366 E24.0069
G1 X30.78 Y113.552 E24.26679
G1 X30.789 Y112.855 E24.28998
G1 X30.841 Y111.936 E24.32059
G1 X30.972 Y111.025 E24.35121
G1 X31.182 Y110.128 E24.38185
G1 X31.576 Y108.983 E24.42212
G1 X31.652 Y108.797 E24.4288
G1 X32.036 Y107.96 E24.45943
G1 X32.492 Y107.161 E24.49003
G1 X33.016 Y106.403 E24.52068
G1 X33.604 Y105.694 E24.55132
G1 X34.25 Y105.039 E24.58191
G1 X34.606 Y104.723 E24.59775
G1 X34.87 Y104.499 E24.60926
G1 X35.33 Y104.13 E24.62888
G1 X37.467 Y102.512 E24.71803
G1 X39.435 Y100.933 E24.80195
G1 X41.373 Y99.284 E24.88658
G1 X43.248 Y97.597 E24.97047
G1 X45.079 Y95.852 E25.0546
G1 X46.848 Y94.069 E25.13813
G1 X48.585 Y92.214 E25.22266
G1 X50.267 Y90.315 E25.30703
G1 X51.854 Y88.418 E25.38929
G1 X54.223 Y85.374 E25.51759
G1 X54.703 Y84.732 E25.54425
G1 X55.285 Y84.018 E25.57489
G1 X56.081 Y83.216 E25.61247
G1 X56.24 Y83.072 E25.6196
G1 X56.949 Y82.484 E25.65024
G0 F6000 X57.205 Y82.793
G1 F900 X57.948 Y82.28 E25.68027
G1 X58.734 Y81.836 E25.71029
G1 X59.557 Y81.463 E25.74035
G1 X60.25 Y81.213 E25.76485
G1 X60.372 Y81.174 E25.76911
G1 X61.244 Y80.938 E25.79916
G1 X62.256 Y80.763 E25.83332
