;FLAVOR:Marlin
;TIME:14135
;Filament used: 12.7573m
;Layer height: 0.28
;MINX:60.673
;MINY:80.5
;MINZ:0.28
;MAXX:186.922
;MAXY:154.5
;MAXZ:40.04
;Generated with Cura_SteamEngine 4.12.1
M140 S50
M105
M190 S50
M104 S200
M105
M109 S200
M82 ;absolute extrusion mode
M201 X500.00 Y500.00 Z100.00 E5000.00 ;Setup machine max acceleration
M203 X500.00 Y500.00 Z10.00 E50.00 ;Setup machine max feedrate
M204 P500.00 R1000.00 T500.00 ;Setup Print/Retract/Travel acceleration
M205 X8.00 Y8.00 Z0.40 E5.00 ;Setup Jerk
M220 S100 ;Reset Feedrate
M221 S100 ;Reset Flowrate

G28 ;Home
G90
G92 E0 ;Reset Extruder
G1 Z2.0 F3000 ;Move Z Axis up

G92 E0 ;Reset Extruder
G1 Z2.0 F3000 ;Move Z Axis up
G92 E0
G92 E0
;LAYER_COUNT:143
;LAYER:0
M107
G0 F6000 X65.456 Y84.06 Z0.28
;TYPE:SKIRT
G1 F900 X66.233 Y83.534 E0.04369
G1 X67.052 Y83.076 E0.08739
G1 X68.075 Y82.624 E0.13946
G1 X68.365 Y82.513 E0.15392
G1 X69.254 Y82.215 E0.19758
G1 X70.166 Y81.994 E0.24128
G1 X71.082 Y81.853 E0.28443
G1 X71.145 Y81.846 E0.28738
G1 X72.1 Y81.782 E0.33195
G1 X72.354 Y81.776 E0.34378
G1 X72.614 Y81.773 E0.35589
G1 X109.789 Y81.773 E2.08691
G1 X112.397 Y81.736 E2.20837
G1 X114.919 Y81.629 E2.32591
G1 X117.414 Y81.452 E2.44238
G1 X119.913 Y81.204 E2.55931
G1 X122.496 Y80.874 E2.68056
G1 X124.124 Y80.637 E2.75717
G1 X124.712 Y80.567 E2.78474
G1 X124.778 Y80.561 E2.78783
G1 X125.348 Y80.524 E2.81443
G1 X125.606 Y80.514 E2.82645
G1 X125.893 Y80.507 E2.83982
G1 X126.508 Y80.5 E2.86846
G1 X173.221 Y80.5 E5.04361
G1 X174.153 Y80.512 E5.08701
G1 X175.124 Y80.569 E5.1323
G1 X175.357 Y80.593 E5.14321
G1 X176.266 Y80.725 E5.18598
G1 X176.42 Y80.754 E5.19328
G1 X177.333 Y80.967 E5.23693
G1 X178.108 Y81.214 E5.27481
G1 X178.511 Y81.359 E5.29475
G1 X179.379 Y81.713 E5.3384
G1 X180.116 Y82.086 E5.37686
G1 X180.311 Y82.194 E5.38724
G1 X181.29 Y82.805 E5.44098
G1 X181.46 Y82.924 E5.45064
G1 X182.205 Y83.495 E5.49435
G1 X182.759 Y83.99 E5.52894
G1 X183.04 Y84.259 E5.54706
G1 X183.689 Y84.936 E5.59072
G1 X184.184 Y85.54 E5.62709
G1 X184.315 Y85.712 E5.63716
G1 X184.962 Y86.661 E5.69064
G1 X185.08 Y86.855 E5.70121
G1 X185.533 Y87.676 E5.74487
G1 X185.785 Y88.221 E5.77283
G1 X185.906 Y88.502 E5.78708
G1 X186.374 Y89.81 E5.85177
G1 X186.435 Y90.022 E5.86204
G1 X186.721 Y91.294 E5.92275
G1 X186.758 Y91.521 E5.93346
G1 X186.867 Y92.421 E5.97567
G1 X186.898 Y92.923 E5.99909
G1 X186.908 Y93.178 E6.01097
G1 X186.915 Y93.463 E6.02425
G1 X186.922 Y94.061 E6.05209
G1 X186.921 Y140.921 E8.23409
G1 X186.91 Y141.72 E8.2713
G1 X186.867 Y142.546 E8.30981
G1 X186.848 Y142.759 E8.31977
G1 X186.676 Y143.949 E8.37576
G1 X186.635 Y144.153 E8.38545
G1 X186.412 Y145.064 E8.42912
G1 X186.205 Y145.701 E8.46031
G1 X186.069 Y146.08 E8.47906
G1 X185.714 Y146.949 E8.52277
G1 X185.349 Y147.675 E8.56061
G1 X185.252 Y147.851 E8.56996
G1 X184.681 Y148.775 E8.62054
G1 X184.562 Y148.948 E8.63032
G1 X183.827 Y149.901 E8.68636
G1 X183.701 Y150.047 E8.69534
G1 X183.058 Y150.73 E8.73902
G1 X182.504 Y151.236 E8.77396
G1 X182.161 Y151.528 E8.79493
G1 X181.421 Y152.105 E8.83863
G1 X180.337 Y152.787 E8.89826
G1 X180.032 Y152.955 E8.91447
G1 X179.192 Y153.372 E8.95814
G1 X178.465 Y153.665 E8.99464
G1 X178.205 Y153.759 E9.00751
G1 X176.95 Y154.13 E9.06845
G1 X176.743 Y154.178 E9.07835
G1 X175.537 Y154.387 E9.13534
G1 X175.349 Y154.409 E9.14415
G1 X174.494 Y154.476 E9.18409
G1 X174.235 Y154.486 E9.19616
G1 X173.95 Y154.493 E9.20943
G1 X173.337 Y154.5 E9.23798
G1 X126.467 Y154.499 E11.42044
G1 X125.692 Y154.488 E11.45653
G1 X124.89 Y154.447 E11.49393
G1 X124.707 Y154.431 E11.50248
G1 X124.046 Y154.353 E11.53347
G1 X123.117 Y154.215 E11.57721
G1 X120.525 Y153.866 E11.69899
G1 X118 Y153.599 E11.81722
G1 X115.527 Y153.407 E11.93272
G1 X112.99 Y153.283 E12.05099
G1 X109.829 Y153.228 E12.1982
G1 X76.775 Y153.227 E13.73734
G1 X75.009 Y153.229 E13.81957
G1 X72.883 Y153.227 E13.91857
G1 X72.346 Y153.22 E13.94357
G1 X71.41 Y153.176 E13.9872
G1 X70.48 Y153.052 E14.03089
G1 X69.891 Y152.931 E14.05889
G1 X69.596 Y152.862 E14.073
G1 X68.692 Y152.61 E14.1167
G1 X67.814 Y152.281 E14.16036
G1 X66.967 Y151.879 E14.20401
G1 X66.157 Y151.406 E14.24769
G1 X65.518 Y150.964 E14.28387
G1 X65.273 Y150.781 E14.29811
G1 X64.546 Y150.188 E14.34179
G1 X63.873 Y149.536 E14.38543
G1 X63.257 Y148.828 E14.42913
G1 X62.466 Y147.697 E14.49339
G1 X62.333 Y147.479 E14.50528
G1 X61.879 Y146.658 E14.54897
G1 X61.496 Y145.802 E14.59263
G1 X61.188 Y144.916 E14.63631
G1 X60.974 Y144.084 E14.67631
G1 X60.931 Y143.886 E14.68575
G1 X60.771 Y142.962 E14.72941
G1 X60.682 Y141.78 E14.78461
G1 X60.675 Y141.352 E14.80454
G1 X60.673 Y140.77 E14.83164
G1 X60.673 Y93.9 E17.01411
G1 X60.682 Y93.286 E17.0427
G1 X60.736 Y92.349 E17.0864
G1 X60.965 Y90.962 E17.15186
G1 X61.013 Y90.755 E17.16176
G1 X61.264 Y89.851 E17.20544
G1 X61.591 Y88.972 E17.24911
G1 X62.214 Y87.721 E17.31419
G1 X62.33 Y87.521 E17.32495
G1 X62.834 Y86.731 E17.36859
G1 X63.405 Y85.986 E17.4123
G1 X64.036 Y85.293 E17.45594
G1 X64.565 Y84.793 E17.48983
G1 X64.727 Y84.65 E17.49989
G1 X65.456 Y84.06 E17.54356
G0 F6000 X65.708 Y84.371
G1 F900 X66.472 Y83.857 E17.58644
G1 X67.277 Y83.411 E17.62929
G1 X68.218 Y82.997 E17.67716
G1 X68.508 Y82.886 E17.69162
G1 X69.381 Y82.595 E17.73447
G1 X70.276 Y82.38 E17.77733
G1 X71.126 Y82.251 E17.81736
G1 X71.189 Y82.244 E17.82032
G1 X72.11 Y82.182 E17.8633
G1 X72.364 Y82.176 E17.87513
G1 X72.614 Y82.173 E17.88677
G1 X109.795 Y82.173 E19.61807
G1 X112.42 Y82.136 E19.74032
G1 X114.928 Y82.029 E19.85721
G1 X117.449 Y81.851 E19.97489
G1 X119.962 Y81.602 E20.09248
G1 X122.498 Y81.277 E20.21153
G1 X124.182 Y81.032 E20.29077
G1 X124.748 Y80.966 E20.3173
G1 X124.814 Y80.96 E20.32039
G1 X125.363 Y80.924 E20.34601
G1 X125.621 Y80.914 E20.35803
G1 X125.898 Y80.907 E20.37093
G1 X126.508 Y80.9 E20.39934
G1 X173.221 Y80.9 E22.57449
G1 X174.147 Y80.912 E22.61761
G1 X175.083 Y80.967 E22.66127
G1 X175.316 Y80.991 E22.67218
G1 X176.192 Y81.118 E22.7134
G1 X176.346 Y81.147 E22.72069
G1 X177.242 Y81.357 E22.76354
G1 X177.973 Y81.59 E22.79927
G1 X178.376 Y81.735 E22.81921
G1 X179.228 Y82.084 E22.86208
G1 X179.923 Y82.436 E22.89836
G1 X180.118 Y82.544 E22.90874
G1 X181.061 Y83.133 E22.96051
G1 X181.231 Y83.252 E22.97017
G1 X181.961 Y83.812 E23.01302
G1 X182.482 Y84.279 E23.0456
G1 X182.763 Y84.548 E23.06371
G1 X183.4 Y85.213 E23.10659
G1 X183.866 Y85.782 E23.14084
G1 X183.997 Y85.954 E23.1509
G1 X184.62 Y86.869 E23.20245
G1 X184.738 Y87.063 E23.21302
G1 X185.182 Y87.869 E23.25587
G1 X185.418 Y88.379 E23.28204
G1 X185.539 Y88.66 E23.29628
G1 X185.99 Y89.921 E23.35864
G1 X186.051 Y90.133 E23.36891
G1 X186.326 Y91.359 E23.42742
G1 X186.363 Y91.586 E23.43813
G1 X186.468 Y92.452 E23.47875
G1 X186.498 Y92.939 E23.50147
G1 X186.508 Y93.194 E23.51335
G1 X186.515 Y93.468 E23.52612
G1 X186.522 Y94.061 E23.55373
G1 X186.521 Y140.916 E25.73549
G1 X186.51 Y141.715 E25.7727
G1 X186.469 Y142.511 E25.80982
G1 X186.45 Y142.724 E25.81977
G1 X186.284 Y143.871 E25.87374
G1 X186.243 Y144.075 E25.88343
G1 X186.023 Y144.969 E25.9263
G1 X185.828 Y145.566 E25.95554
G1 X185.692 Y145.945 E25.97429
G1 X185.344 Y146.797 E26.01715
G1 X184.998 Y147.481 E26.05284
G1 X184.901 Y147.657 E26.0622
G1 X184.351 Y148.548 E26.11096
G1 X184.232 Y148.721 E26.12073
G1 X183.524 Y149.64 E26.17475
G1 X183.398 Y149.786 E26.18373
G1 X182.767 Y150.456 E26.22659
G1 X182.244 Y150.931 E26.25949
G1 X181.901 Y151.223 E26.28046
G1 X181.175 Y151.789 E26.32333
G1 X180.144 Y152.437 E26.38003
G1 X179.839 Y152.605 E26.39624
G1 X179.014 Y153.013 E26.4391
G1 X178.329 Y153.289 E26.47349
G1 X178.069 Y153.383 E26.48636
G1 X176.859 Y153.74 E26.5451
G1 X176.652 Y153.788 E26.555
G1 X175.49 Y153.99 E26.60992
G1 X175.302 Y154.012 E26.61873
G1 X174.479 Y154.076 E26.65717
G1 X174.22 Y154.086 E26.66924
G1 X173.945 Y154.093 E26.68205
G1 X173.337 Y154.1 E26.71036
G1 X126.473 Y154.099 E28.89255
G1 X125.698 Y154.088 E28.92864
G1 X124.925 Y154.049 E28.96468
G1 X124.742 Y154.033 E28.97323
G1 X124.105 Y153.958 E29.0031
G1 X123.093 Y153.807 E29.05074
G1 X120.584 Y153.47 E29.16862
G1 X118.037 Y153.2 E29.28788
G1 X115.542 Y153.007 E29.40441
G1 X113.017 Y152.883 E29.52212
G1 X109.836 Y152.828 E29.67027
G1 X76.774 Y152.827 E31.20977
G1 X75.009 Y152.829 E31.29196
G1 X72.883 Y152.827 E31.39095
G1 X72.348 Y152.82 E31.41587
G1 X71.429 Y152.776 E31.45871
G1 X70.516 Y152.652 E31.50161
G1 X69.982 Y152.541 E31.52701
G1 X69.687 Y152.472 E31.54112
G1 X68.8 Y152.224 E31.584
G1 X67.939 Y151.9 E31.62684
G1 X67.109 Y151.502 E31.6697
G1 X66.316 Y151.033 E31.7126
G1 X65.758 Y150.643 E31.7443
G1 X65.513 Y150.46 E31.75854
G1 X64.8 Y149.878 E31.8014
G1 X64.14 Y149.236 E31.84427
G1 X63.538 Y148.539 E31.88716
G1 X62.807 Y147.489 E31.94673
G1 X62.674 Y147.271 E31.95862
G1 X62.229 Y146.465 E32.00149
G1 X61.856 Y145.623 E32.04437
G1 X61.557 Y144.752 E32.08725
G1 X61.364 Y144 E32.12341
G1 X61.321 Y143.802 E32.13284
G1 X61.165 Y142.894 E32.17574
G1 X61.082 Y141.772 E32.22813
G1 X61.075 Y141.35 E32.24778
G1 X61.073 Y140.77 E32.27479
G1 X61.073 Y93.906 E34.45697
G1 X61.082 Y93.292 E34.48557
G1 X61.136 Y92.373 E34.52843
G1 X61.355 Y91.053 E34.59074
G1 X61.403 Y90.846 E34.60063
G1 X61.65 Y89.959 E34.6435
G1 X61.972 Y89.096 E34.6864
G1 X62.56 Y87.922 E34.74754
G1 X62.676 Y87.722 E34.7583
G1 X63.172 Y86.946 E34.80119
G1 X63.733 Y86.217 E34.84402
G1 X64.356 Y85.538 E34.88693
G1 X64.83 Y85.093 E34.9172
G1 X64.992 Y84.95 E34.92726
G1 X65.708 Y84.371 E34.97014
G0 F6000 X65.96 Y84.683
G1 F900 X66.71 Y84.18 E35.01219
G1 X67.502 Y83.746 E35.05424
G1 X68.361 Y83.371 E35.09789
G1 X68.651 Y83.26 E35.11235
G1 X69.508 Y82.975 E35.1544
G1 X70.386 Y82.767 E35.19642
G1 X71.171 Y82.648 E35.23339
G1 X71.234 Y82.641 E35.23634
G1 X72.119 Y82.582 E35.27764
G1 X72.614 Y82.573 E35.30069
G1 X109.801 Y82.573 E37.03227
G1 X112.407 Y82.536 E37.15363
G1 X114.975 Y82.427 E37.27332
G1 X117.477 Y82.25 E37.39011
G1 X120.02 Y81.998 E37.5091
G1 X122.55 Y81.674 E37.62787
G1 X124.24 Y81.428 E37.7074
G1 X124.785 Y81.364 E37.73295
G1 X124.851 Y81.358 E37.73603
G1 X125.379 Y81.324 E37.76067
G1 X125.637 Y81.314 E37.77269
G1 X125.903 Y81.307 E37.78508
G1 X126.508 Y81.3 E37.81326
G1 X173.221 Y81.3 E39.98841
G1 X174.142 Y81.312 E40.0313
G1 X175.042 Y81.365 E40.07328
G1 X175.275 Y81.389 E40.08419
G1 X176.118 Y81.511 E40.12385
G1 X176.272 Y81.54 E40.13115
G1 X177.151 Y81.746 E40.17319
G1 X177.837 Y81.966 E40.20673
G1 X178.24 Y82.111 E40.22667
G1 X179.076 Y82.454 E40.26875
G1 X179.729 Y82.786 E40.30286
G1 X179.924 Y82.894 E40.31324
G1 X180.831 Y83.461 E40.36305
G1 X181.001 Y83.58 E40.37271
G1 X181.718 Y84.13 E40.41479
G1 X182.205 Y84.568 E40.44529
G1 X182.486 Y84.837 E40.4634
G1 X183.111 Y85.49 E40.50549
G1 X183.547 Y86.025 E40.53763
G1 X183.678 Y86.197 E40.5477
G1 X184.279 Y87.076 E40.59728
G1 X184.397 Y87.27 E40.60785
G1 X184.831 Y88.062 E40.6499
G1 X185.05 Y88.537 E40.67426
G1 X185.171 Y88.818 E40.68851
G1 X185.605 Y90.032 E40.74854
G1 X185.666 Y90.244 E40.75881
G1 X185.931 Y91.423 E40.81508
G1 X185.968 Y91.65 E40.82579
G1 X186.069 Y92.484 E40.86491
G1 X186.098 Y92.954 E40.88683
G1 X186.108 Y93.209 E40.89872
G1 X186.115 Y93.474 E40.91106
G1 X186.122 Y94.061 E40.9384
G1 X186.121 Y140.91 E43.11988
G1 X186.11 Y141.709 E43.15709
G1 X186.071 Y142.475 E43.1928
G1 X186.052 Y142.688 E43.20276
G1 X185.892 Y143.792 E43.25471
G1 X185.851 Y143.996 E43.26439
G1 X185.634 Y144.872 E43.30642
G1 X185.452 Y145.431 E43.33379
G1 X185.316 Y145.81 E43.35254
G1 X184.973 Y146.646 E43.39462
G1 X184.648 Y147.288 E43.42812
G1 X184.551 Y147.464 E43.43748
G1 X184.022 Y148.322 E43.48442
G1 X183.903 Y148.495 E43.49419
G1 X183.221 Y149.378 E43.54615
G1 X183.095 Y149.524 E43.55513
G1 X182.475 Y150.181 E43.59719
G1 X181.985 Y150.627 E43.62804
G1 X181.642 Y150.919 E43.64902
G1 X180.929 Y151.473 E43.69106
G1 X179.951 Y152.086 E43.74481
G1 X179.646 Y152.254 E43.76102
G1 X178.837 Y152.655 E43.80307
G1 X178.193 Y152.912 E43.83535
G1 X177.933 Y153.006 E43.84823
G1 X176.769 Y153.35 E43.90475
G1 X176.562 Y153.398 E43.91464
G1 X175.444 Y153.593 E43.96749
G1 X175.256 Y153.615 E43.9763
G1 X174.464 Y153.676 E44.01329
G1 X174.205 Y153.686 E44.02536
G1 X173.94 Y153.693 E44.0377
G1 X173.337 Y153.7 E44.06578
G1 X126.478 Y153.699 E46.24773
G1 X125.703 Y153.688 E46.28382
G1 X124.96 Y153.65 E46.31846
G1 X124.777 Y153.634 E46.32702
G1 X124.163 Y153.562 E46.3558
G1 X123.198 Y153.418 E46.40124
G1 X120.607 Y153.07 E46.52297
G1 X118.109 Y152.805 E46.63994
G1 X115.557 Y152.608 E46.75912
G1 X113.012 Y152.483 E46.87777
G1 X109.843 Y152.428 E47.02536
G1 X76.774 Y152.427 E48.56519
G1 X75.009 Y152.429 E48.64737
G1 X72.883 Y152.427 E48.74637
G1 X72.35 Y152.42 E48.77119
G1 X71.448 Y152.376 E48.81324
G1 X70.553 Y152.252 E48.85531
G1 X70.073 Y152.152 E48.87814
G1 X69.778 Y152.083 E48.89225
G1 X68.909 Y151.839 E48.93428
G1 X68.064 Y151.518 E48.97637
G1 X67.251 Y151.124 E49.01844
G1 X66.477 Y150.66 E49.06046
G1 X65.997 Y150.323 E49.08777
G1 X65.752 Y150.14 E49.10201
G1 X65.053 Y149.568 E49.14407
G1 X64.408 Y148.937 E49.18608
G1 X63.82 Y148.25 E49.22819
G1 X63.149 Y147.28 E49.28311
G1 X63.016 Y147.062 E49.295
G1 X62.58 Y146.271 E49.33706
G1 X62.216 Y145.445 E49.37909
G1 X61.926 Y144.589 E49.42117
G1 X61.755 Y143.915 E49.45355
G1 X61.712 Y143.717 E49.46299
G1 X61.56 Y142.827 E49.50503
G1 X61.482 Y141.764 E49.55466
G1 X61.475 Y141.349 E49.57399
G1 X61.473 Y140.77 E49.60095
G1 X61.473 Y93.912 E51.78285
G1 X61.482 Y93.298 E51.81144
G1 X61.535 Y92.396 E51.85352
G1 X61.745 Y91.143 E51.91268
G1 X61.793 Y90.936 E51.92257
G1 X62.035 Y90.066 E51.96462
G1 X62.354 Y89.221 E52.00668
G1 X62.906 Y88.122 E52.06394
G1 X63.022 Y87.922 E52.07471
G1 X63.509 Y87.162 E52.11674
G1 X64.062 Y86.448 E52.15879
G1 X64.675 Y85.785 E52.20084
G1 X65.095 Y85.393 E52.22759
G1 X65.257 Y85.25 E52.23765
G1 X65.96 Y84.683 E52.27971
;MESH:Top.stl
G0 F6000 X85.14 Y116.141
G0 X76.453 Y116.203
G0 X76.453 Y118.797
G0 X86.797 Y118.858
G0 X95.115 Y132.499
G0 X93.68 Y132.499
G0 X94.022 Y138.528
G0 X98.95 Y138.7
;TYPE:WALL-INNER
G1 F900 X98.95 Y120.05 E53.14813
G1 X117.6 Y120.05 E54.01655
G1 X117.6 Y114.95 E54.25403
G1 X98.95 Y114.95 E55.12245
G1 X98.95 Y96.3 E55.99087
G1 X93.85 Y96.3 E56.22835
G1 X93.85 Y114.95 E57.09677
G1 X75.2 Y114.95 E57.96519
G1 X75.2 Y120.05 E58.20267
G1 X93.85 Y120.05 E59.07109
G1 X93.85 Y138.7 E59.93952
G1 X98.95 Y138.7 E60.17699
G0 F6000 X98.55 Y138.3
;TYPE:WALL-OUTER
G1 F900 X98.55 Y119.65 E61.04542
G1 X117.2 Y119.65 E61.91384
G1 X117.2 Y115.35 E62.11406
G1 X98.55 Y115.35 E62.98249
G1 X98.55 Y96.7 E63.85091
G1 X94.25 Y96.7 E64.05113
G1 X94.25 Y115.35 E64.91956
G1 X75.6 Y115.35 E65.78798
G1 X75.6 Y119.65 E65.9882
G1 X94.25 Y119.65 E66.85663
G1 X94.25 Y138.3 E67.72505
G1 X98.55 Y138.3 E67.92527
G0 F6000 X98.85 Y138.3
G0 X99.146 Y138.896
G0 X99.144 Y141.437
G0 X120.46 Y141.603
;TYPE:WALL-INNER
G1 F900 X120.355 Y141.628 E67.9303
G1 X76.764 Y141.627 E69.96008
G1 X75.019 Y141.629 E70.04133
G1 X72.447 Y141.627 E70.1611
G1 X72.348 Y141.6 E70.16588
G1 X72.273 Y141.463 E70.17315
G1 X72.272 Y93.528 E72.4052
G1 X72.34 Y93.397 E72.41208
G1 X72.445 Y93.372 E72.4171
G1 X116.036 Y93.373 E74.44688
G1 X117.781 Y93.371 E74.52814
G1 X120.353 Y93.373 E74.6479
G1 X120.452 Y93.4 E74.65268
G1 X120.527 Y93.537 E74.65995
G1 X120.528 Y141.476 E76.89219
G1 X120.46 Y141.603 E76.8989
G0 F6000 X120.64 Y141.971
;TYPE:WALL-OUTER
G1 F900 X120.403 Y142.028 E76.91025
G1 X76.764 Y142.027 E78.94226
G1 X75.019 Y142.029 E79.02352
G1 X72.393 Y142.027 E79.1458
G1 X72.128 Y141.955 E79.15858
G1 X71.914 Y141.714 E79.17359
G1 X71.873 Y141.503 E79.1836
G1 X71.872 Y93.453 E81.42101
G1 X71.985 Y93.17 E81.4352
G1 X72.16 Y93.029 E81.44566
