;FLAVOR:Marlin
;TIME:3063
;Filament used: 3.42129m
;Layer height: 0.25
;MINX:93.699
;MINY:76.673
;MINZ:0.36
;MAXX:141.3
;MAXY:158.326
;MAXZ:5.435
;Generated with Cura_SteamEngine 4.12.1
M140 S60
M105
M190 S60
M104 S200
M105
M109 S200
M82 ;absolute extrusion mode
M201 X500.00 Y500.00 Z100.00 E5000.00 	;Setup machine max acceleration
M203 X500.00 Y500.00 Z10.00 E50.00 	;Setup machine max feedrate
M204 P500.00 R1000.00 T500.00 		;Setup Print/Retract/Travel acceleration
M205 X8.00 Y8.00 Z0.40 E5.00 		;Setup Jerk
M220 S100 				;Reset Feedrate
M221 S100 				;Reset Flowrate
G28					;Home the Machine
G92 E0
M300 P150 S587
G92 E0
G1 F1500 E-6.5
;LAYER_COUNT:16
;LAYER:-6
M107
G0 F6600 X94.668 Y78.266 Z0.36
;TYPE:SUPPORT-INTERFACE
G1 F1500 E0
G1 F1125 X95 Y77.897 E0.05943
G1 X95.413 Y77.552 E0.12387
G1 X95.819 Y77.303 E0.1809
G1 X96.286 Y77.096 E0.24206
G1 X96.785 Y76.956 E0.30412
G1 X97.404 Y76.884 E0.37873
G1 X97.616 Y76.875 E0.40414
G1 X98.15 Y76.874 E0.46808
G1 X100.584 Y76.879 E0.75952
G1 X134.418 Y76.879 E4.81068
G1 X137.396 Y76.875 E5.16726
G1 X138.173 Y76.948 E5.2607
G1 X138.662 Y77.077 E5.32126
G1 X139.131 Y77.277 E5.38231
G1 X139.562 Y77.535 E5.44245
G1 X139.952 Y77.851 E5.50255
G1 X140.408 Y78.368 E5.5851
G1 X140.666 Y78.78 E5.6433
G1 X140.878 Y79.258 E5.70591
G1 X141.015 Y79.739 E5.7658
G1 X141.092 Y80.387 E5.84393
G1 X141.1 Y80.593 E5.86862
G1 X141.1 Y90.409 E7.04395
G1 X141.03 Y91.184 E7.13712
G1 X140.899 Y91.685 E7.19913
G1 X140.615 Y92.312 E7.28154
G1 X140.423 Y92.613 E7.32429
G1 X140.099 Y93.2 E7.40457
G1 X139.849 Y93.835 E7.48629
G1 X139.679 Y94.496 E7.56801
G1 X139.595 Y95.174 E7.64981
G1 X139.597 Y95.857 E7.73159
G1 X139.685 Y96.534 E7.81333
G1 X139.857 Y97.195 E7.89512
G1 X140.113 Y97.83 E7.97709
G1 X140.466 Y98.456 E8.06315
G1 X140.817 Y99.1 E8.15097
G1 X140.979 Y99.588 E8.21253
G1 X141.092 Y100.387 E8.30915
G1 X141.1 Y100.593 E8.33384
G1 X141.1 Y110.409 E9.50917
G1 X141.03 Y111.184 E9.60235
G1 X140.899 Y111.685 E9.66435
G1 X140.612 Y112.316 E9.74735
G1 X140.332 Y112.734 E9.80759
G1 X140.002 Y113.1 E9.8666
G1 X139.601 Y113.453 E9.93057
G1 X139.128 Y113.927 E10.01075
G1 X138.709 Y114.465 E10.0924
G1 X138.361 Y115.053 E10.17421
G1 X138.09 Y115.68 E10.25599
G1 X137.901 Y116.337 E10.33785
G1 X137.796 Y117.01 E10.41941
G1 X137.776 Y117.693 E10.50122
G1 X137.843 Y118.373 E10.58304
G1 X137.996 Y119.038 E10.66474
G1 X138.231 Y119.68 E10.7466
G1 X138.546 Y120.286 E10.82838
G1 X138.933 Y120.847 E10.90999
G1 X139.386 Y121.352 E10.99122
G1 X139.952 Y121.851 E11.08156
G1 X140.408 Y122.368 E11.16411
G1 X140.666 Y122.78 E11.22231
G1 X140.878 Y123.258 E11.28492
G1 X141.015 Y123.739 E11.34481
G1 X141.092 Y124.387 E11.42294
G1 X141.1 Y124.593 E11.44763
G1 X141.1 Y134.409 E12.62296
G1 X141.03 Y135.184 E12.71613
G1 X140.899 Y135.685 E12.77814
G1 X140.615 Y136.312 E12.86055
G1 X140.423 Y136.613 E12.9033
G1 X140.099 Y137.2 E12.98358
G1 X139.849 Y137.835 E13.0653
G1 X139.679 Y138.496 E13.14702
G1 X139.595 Y139.174 E13.22882
G1 X139.597 Y139.857 E13.3106
G1 X139.685 Y140.534 E13.39234
G1 X139.857 Y141.195 E13.47413
G1 X140.113 Y141.83 E13.5561
G1 X140.466 Y142.456 E13.64216
G1 X140.817 Y143.1 E13.72998
G1 X140.979 Y143.588 E13.79154
G1 X141.092 Y144.387 E13.88816
G1 X141.1 Y144.593 E13.91285
G1 X141.1 Y154.409 E15.08818
G1 X141.03 Y155.184 E15.18135
G1 X140.899 Y155.685 E15.24336
G1 X140.612 Y156.316 E15.32636
G1 X140.332 Y156.734 E15.3866
G1 X140 Y157.103 E15.44604
G1 X139.594 Y157.443 E15.50944
G1 X139.181 Y157.697 E15.5675
G1 X138.714 Y157.904 E15.62866
G1 X138.215 Y158.044 E15.69072
G1 X137.596 Y158.116 E15.76534
G1 X137.384 Y158.125 E15.79074
G1 X136.85 Y158.126 E15.85468
G1 X134.416 Y158.121 E16.14612
G1 X100.582 Y158.121 E20.19728
G1 X97.604 Y158.125 E20.55386
G1 X96.827 Y158.052 E20.64731
G1 X96.338 Y157.923 E20.70786
G1 X95.869 Y157.723 E20.76891
G1 X95.438 Y157.465 E20.82905
G1 X95.048 Y157.149 E20.88916
G1 X94.592 Y156.632 E20.9717
G1 X94.332 Y156.215 E21.03054
G1 X94.122 Y155.742 E21.09251
G1 X93.985 Y155.257 E21.15285
G1 X93.907 Y154.597 E21.23243
G1 X93.9 Y154.407 E21.25519
G1 X93.9 Y144.591 E22.43053
G1 X93.97 Y143.816 E22.5237
G1 X94.101 Y143.315 E22.5857
G1 X94.387 Y142.685 E22.66855
G1 X94.577 Y142.387 E22.71086
G1 X94.901 Y141.8 E22.79114
G1 X95.151 Y141.165 E22.87286
G1 X95.321 Y140.504 E22.95458
G1 X95.405 Y139.826 E23.03638
G1 X95.403 Y139.143 E23.11816
G1 X95.315 Y138.466 E23.19991
G1 X95.143 Y137.805 E23.28169
G1 X94.887 Y137.17 E23.36367
G1 X94.534 Y136.544 E23.44972
G1 X94.183 Y135.9 E23.53754
G1 X94.021 Y135.412 E23.5991
G1 X93.932 Y134.915 E23.65956
G1 X93.9 Y134.407 E23.72051
G1 X93.9 Y124.591 E24.89584
G1 X93.97 Y123.816 E24.98901
G1 X94.101 Y123.315 E25.05102
G1 X94.388 Y122.684 E25.13402
G1 X94.668 Y122.266 E25.19426
G1 X94.998 Y121.9 E25.25327
G1 X95.399 Y121.547 E25.31723
G1 X95.872 Y121.073 E25.39741
G1 X96.291 Y120.535 E25.47906
G1 X96.639 Y119.947 E25.56087
G1 X96.91 Y119.32 E25.64266
G1 X97.099 Y118.663 E25.72452
G1 X97.204 Y117.99 E25.80608
G1 X97.224 Y117.307 E25.88789
G1 X97.157 Y116.627 E25.96971
G1 X97.004 Y115.962 E26.05141
G1 X96.769 Y115.32 E26.13327
G1 X96.454 Y114.714 E26.21505
G1 X96.067 Y114.153 E26.29665
G1 X95.614 Y113.648 E26.37788
G1 X95.048 Y113.149 E26.46823
G1 X94.592 Y112.632 E26.55077
G1 X94.332 Y112.215 E26.60961
G1 X94.122 Y111.742 E26.67158
G1 X93.985 Y111.257 E26.73192
G1 X93.907 Y110.597 E26.8115
G1 X93.9 Y110.407 E26.83427
G1 X93.9 Y100.591 E28.0096
G1 X93.97 Y99.816 E28.10277
G1 X94.101 Y99.315 E28.16478
G1 X94.387 Y98.685 E28.24762
G1 X94.577 Y98.387 E28.28994
G1 X94.901 Y97.8 E28.37022
G1 X95.151 Y97.165 E28.45193
G1 X95.321 Y96.504 E28.53365
G1 X95.405 Y95.826 E28.61545
G1 X95.403 Y95.143 E28.69724
G1 X95.315 Y94.466 E28.77898
G1 X95.143 Y93.805 E28.86076
G1 X94.887 Y93.17 E28.94274
G1 X94.534 Y92.544 E29.02879
G1 X94.183 Y91.9 E29.11661
G1 X94.021 Y91.412 E29.17818
G1 X93.932 Y90.915 E29.23863
G1 X93.9 Y90.407 E29.29958
G1 X93.9 Y80.591 E30.47491
G1 X93.97 Y79.816 E30.56809
G1 X94.101 Y79.315 E30.63009
G1 X94.388 Y78.684 E30.71309
G1 X94.668 Y78.266 E30.77333
G0 F6600 X94.4 Y78.666
G1 F1125 X94.4 Y92.298 E32.40558
G0 F6600 X94.942 Y95.172
G0 X94.923 Y95.975
G0 X94.4 Y98.664
G1 F1125 X94.4 Y112.324 E34.04118
G0 F6600 X96 Y114.078
G1 F1125 X96 Y77.222 E38.45419
G0 F6600 X97.6 Y76.875
G1 F1125 X97.6 Y158.124 E48.18266
G0 F6600 X99.2 Y158.123
G1 F1125 X99.2 Y76.877 E57.91077
G0 F6600 X100.8 Y76.879
G1 F1125 X100.8 Y158.121 E67.6384
G0 F6600 X102.4 Y158.121
G1 F1125 X102.4 Y76.879 E77.36603
G0 F6600 X104 Y76.879
G1 F1125 X104 Y158.121 E87.09366
G0 F6600 X105.6 Y158.121
G1 F1125 X105.6 Y76.879 E96.8213
G0 F6600 X107.2 Y76.879
G1 F1125 X107.2 Y158.121 E106.54893
G0 F6600 X108.8 Y158.121
G1 F1125 X108.8 Y76.879 E116.27656
G0 F6600 X110.4 Y76.879
G1 F1125 X110.4 Y158.121 E126.00419
G0 F6600 X112 Y158.121
G1 F1125 X112 Y76.879 E135.73182
G0 F6600 X113.6 Y76.879
G1 F1125 X113.6 Y158.121 E145.45945
G0 F6600 X115.2 Y158.121
G1 F1125 X115.2 Y76.879 E155.18709
G0 F6600 X116.8 Y76.879
G1 F1125 X116.8 Y158.121 E164.91472
G0 F6600 X118.4 Y158.121
G1 F1125 X118.4 Y76.879 E174.64235
G0 F6600 X120 Y76.879
G1 F1125 X120 Y158.121 E184.36998
G0 F6600 X121.6 Y158.121
G1 F1125 X121.6 Y76.879 E194.09761
G0 F6600 X123.2 Y76.879
G1 F1125 X123.2 Y158.121 E203.82524
G0 F6600 X124.8 Y158.121
G1 F1125 X124.8 Y76.879 E213.55288
G0 F6600 X126.4 Y76.879
G1 F1125 X126.4 Y158.121 E223.28051
G0 F6600 X128 Y158.121
G1 F1125 X128 Y76.879 E233.00814
G0 F6600 X129.6 Y76.879
G1 F1125 X129.6 Y158.121 E242.73577
G0 F6600 X131.2 Y158.121
G1 F1125 X131.2 Y76.879 E252.4634
G0 F6600 X132.8 Y76.879
G1 F1125 X132.8 Y158.121 E262.19103
G0 F6600 X134.4 Y158.121
G1 F1125 X134.4 Y76.879 E271.91867
G0 F6600 X136 Y76.876
G1 F1125 X136 Y158.124 E281.64702
G0 F6600 X137.6 Y158.116
G1 F1125 X137.6 Y76.895 E291.37213
G0 F6600 X139.2 Y77.319
G1 F1125 X139.2 Y113.855 E295.74682
G0 F6600 X140.8 Y111.903
G1 F1125 X140.8 Y99.069 E297.28352
G0 F6600 X140.136 Y96.439
G0 X140.056 Y95.196
G0 X140.8 Y91.904
G1 F1125 X140.8 Y79.083 E298.81866
G0 F6600 X138.238 Y117.67
G0 X138.338 Y118.473
G0 X139.2 Y121.145
G1 F1125 X139.2 Y157.686 E303.19396
G0 F6600 X140.8 Y155.903
G1 F1125 X140.8 Y143.069 E304.73065
G0 F6600 X140.136 Y140.439
G0 X140.056 Y139.196
G0 X140.8 Y135.904
G1 F1125 X140.8 Y123.083 E306.26579
G0 F6600 X96 Y120.908
G1 F1125 X96 Y157.778 E310.68048
G0 F6600 X94.4 Y156.324
G1 F1125 X94.4 Y142.664 E312.31608
G0 F6600 X94.869 Y140.411
G0 X94.942 Y139.172
G0 X94.4 Y136.298
G1 F1125 X94.4 Y122.666 E313.94833
G0 F600 X94.4 Y122.666 Z0.735
G0 F6600 X94.944 Y139.804
G0 X93.916 Y154.727
;TIME_ELAPSED:146.153574
;LAYER:-5
;TYPE:SUPPORT
G1 F1125 X97.297 Y158.109 E314.54478
G1 X97.167 Y158.1 E314.56104
G1 X96.826 Y158.051 E314.60401
G1 X96.66 Y158.016 E314.62517
G1 X96.337 Y157.922 E314.66712
G1 X96.196 Y157.87 E314.68587
G1 X95.868 Y157.722 E314.73075
G1 X95.718 Y157.641 E314.75201
G1 X95.438 Y157.464 E314.79333
G1 X95.301 Y157.364 E314.81448
G1 X95.047 Y157.148 E314.85607
G1 X94.912 Y157.013 E314.87988
G1 X94.707 Y156.783 E314.91831
G1 X94.592 Y156.631 E314.94208
G1 X94.412 Y156.357 E314.98297
G1 X94.332 Y156.214 E315.00341
G1 X94.183 Y155.899 E315.04687
G1 X94.122 Y155.74 E315.06811
G1 X94.021 Y155.41 E315.11116
G1 X93.985 Y155.255 E315.131
G1 X93.932 Y154.914 E315.17404
G0 F6600 X97.297 Y158.109
G1 F1125 X97.431 Y158.118 E315.1908
G1 X97.604 Y158.123 E315.21238
G1 X98.725 Y158.122 E315.3522
G1 X93.9 Y153.297 E316.20327
G1 X93.9 Y151.883 E316.37964
G1 X100.137 Y158.12 E317.47977
G1 X100.581 Y158.12 E317.53515
G1 X101.551 Y158.119 E317.65613
G1 X93.9 Y150.468 E319.00568
G1 X93.9 Y149.054 E319.18204
G1 X102.965 Y158.119 E320.78101
G1 X104.379 Y158.119 E320.95737
G1 X93.9 Y147.64 E322.80574
G1 X93.9 Y146.226 E322.9821
G1 X105.793 Y158.119 E325.07989
G1 X107.207 Y158.119 E325.25625
G1 X93.9 Y144.811 E327.60354
G1 X93.9 Y144.589 E327.63123
G1 X93.908 Y144.379 E327.65744
G1 X93.926 Y144.125 E327.6892
G1 X93.97 Y143.815 E327.72826
G1 X94.009 Y143.63 E327.75184
G1 X94.036 Y143.534 E327.76428
G1 X108.622 Y158.119 E330.33699
G1 X110.036 Y158.119 E330.51335
G1 X94.47 Y142.553 E333.25902
G1 X94.576 Y142.385 E333.28379
G1 X94.9 Y141.798 E333.36742
G1 X94.965 Y141.634 E333.38942
G1 X111.45 Y158.119 E336.29719
G1 X112.864 Y158.119 E336.47355
G1 X95.305 Y140.56 E339.57075
G1 X95.32 Y140.503 E339.57811
G1 X95.404 Y139.825 E339.66332
G1 X95.403 Y139.244 E339.73578
G1 X114.279 Y158.119 E343.0652
G1 X115.693 Y158.119 E343.24156
G1 X94.984 Y137.41 E346.89439
G1 X94.887 Y137.169 E346.9268
G1 X94.533 Y136.543 E347.01649
G1 X94.41 Y136.355 E347.04451
G1 X94.332 Y136.215 E347.0645
G1 X94.183 Y135.899 E347.10808
G1 X94.122 Y135.741 E347.1292
G1 X94.021 Y135.41 E347.17237
G1 X93.985 Y135.256 E347.19209
G1 X93.937 Y134.949 E347.23085
G1 X117.107 Y158.119 E351.31777
G1 X118.521 Y158.119 E351.49413
G1 X93.9 Y133.498 E355.83699
G1 X93.9 Y132.084 E356.01335
G1 X119.935 Y158.119 E360.60563
G1 X121.35 Y158.119 E360.78212
G1 X93.9 Y130.669 E365.62398
G1 X93.9 Y129.255 E365.80034
G1 X122.764 Y158.119 E370.89162
G1 X124.178 Y158.119 E371.06798
G1 X93.9 Y127.841 E376.40867
G1 X93.9 Y126.427 E376.58503
G1 X125.592 Y158.119 E382.17514
G1 X127.006 Y158.119 E382.3515
G1 X93.9 Y125.012 E388.19111
G1 X93.9 Y124.59 E388.24374
G1 X93.908 Y124.38 E388.26995
G1 X93.926 Y124.125 E388.30184
G1 X93.969 Y123.815 E388.34087
G1 X93.995 Y123.694 E388.35631
G1 X128.421 Y158.119 E394.42857
G1 X129.835 Y158.119 E394.60493
G1 X94.392 Y122.676 E400.85667
G1 X94.562 Y122.407 E400.89636
G1 X94.668 Y122.265 E400.91846
G1 X94.867 Y122.03 E400.95687
G1 X94.998 Y121.899 E400.97998
G1 X95.015 Y121.885 E400.98272
G1 X131.249 Y158.119 E407.37398
G1 X132.663 Y158.119 E407.55034
G1 X95.744 Y121.2 E414.06243
G1 X95.872 Y121.072 E414.08501
G1 X96.29 Y120.534 E414.16999
G1 X96.365 Y120.407 E414.18838
G1 X134.078 Y158.119 E420.84043
G1 X134.416 Y158.119 E420.88259
G1 X135.494 Y158.121 E421.01704
G1 X96.843 Y119.471 E427.83455
G1 X96.909 Y119.319 E427.85522
G1 X97.098 Y118.662 E427.94048
G1 X97.145 Y118.359 E427.97873
G1 X136.911 Y158.124 E434.9929
G1 X137.383 Y158.124 E435.05178
G1 X137.595 Y158.114 E435.07825
G1 X137.897 Y158.092 E435.11601
G1 X138.214 Y158.043 E435.15602
G1 X138.237 Y158.036 E435.15902
G1 X97.193 Y116.992 E442.39871
G1 X97.157 Y116.626 E442.44458
G1 X97.003 Y115.961 E442.52972
G1 X96.768 Y115.319 E442.61499
G1 X96.59 Y114.974 E442.66341
G1 X139.264 Y157.649 E450.1907
G1 X139.346 Y157.604 E450.20236
G1 X139.593 Y157.442 E450.23921
G1 X139.739 Y157.329 E450.26223
G1 X140 Y157.102 E450.30538
G1 X140.065 Y157.036 E450.31693
G1 X93.93 Y110.901 E458.45461
G1 X93.907 Y110.596 E458.49276
G1 X93.899 Y110.406 E458.51648
G1 X93.899 Y109.455 E458.6351
G1 X140.664 Y156.22 E466.8839
G1 X140.705 Y156.144 E466.89467
G1 X140.835 Y155.853 E466.93443
G1 X140.898 Y155.684 E466.95692
G1 X140.99 Y155.368 E466.99797
G1 X141.029 Y155.183 E467.02155
G1 X141.031 Y155.173 E467.02283
G1 X93.899 Y108.041 E475.33637
G1 X93.899 Y106.627 E475.51273
G1 X141.1 Y153.828 E483.83844
G1 X141.1 Y152.414 E484.01481
G1 X93.899 Y105.213 E492.34052
G1 X93.899 Y103.799 E492.51688
G1 X141.1 Y150.999 E500.84251
G1 X141.1 Y149.585 E501.01887
G1 X93.899 Y102.384 E509.34458
G1 X93.899 Y100.97 E509.52094
G1 X141.1 Y148.171 E517.84666
G1 X141.1 Y146.757 E518.02302
G1 X94.002 Y99.659 E526.33057
G1 X94.009 Y99.629 E526.33441
G1 X94.101 Y99.313 E526.37546
G1 X94.163 Y99.144 E526.39791
G1 X94.294 Y98.854 E526.4376
G1 X94.386 Y98.684 E526.46171
G1 X94.407 Y98.65 E526.46669
G1 X141.1 Y145.342 E534.70271
G1 X141.1 Y144.592 E534.79626
G1 X141.092 Y144.386 E534.82197
G1 X141.067 Y144.073 E534.86113
G1 X141.034 Y143.862 E534.88777
G1 X94.92 Y97.749 E543.02166
G1 X95.15 Y97.164 E543.10006
G1 X95.272 Y96.686 E543.16159
G1 X139.908 Y141.322 E551.03487
G1 X139.856 Y141.194 E551.0521
G1 X139.684 Y140.533 E551.13729
G1 X139.597 Y139.855 E551.22255
G1 X139.596 Y139.596 E551.25485
G1 X95.402 Y95.402 E559.05017
G1 X95.402 Y95.143 E559.08247
G1 X95.314 Y94.465 E559.16774
G1 X95.142 Y93.804 E559.25293
G1 X95.091 Y93.676 E559.27012
G1 X139.726 Y138.312 E567.14331
G1 X139.848 Y137.834 E567.20484
G1 X140.079 Y137.25 E567.28317
G1 X93.965 Y91.136 E575.41715
G1 X93.931 Y90.914 E575.44516
G1 X93.906 Y90.597 E575.48482
G1 X93.898 Y90.407 E575.50854
G1 X93.898 Y89.656 E575.60221
G1 X140.591 Y136.348 E583.83823
G1 X140.613 Y136.311 E583.8436
G1 X140.704 Y136.144 E583.86732
G1 X140.835 Y135.854 E583.90701
G1 X140.898 Y135.685 E583.9295
G1 X140.989 Y135.369 E583.97052
G1 X140.996 Y135.339 E583.97436
G1 X93.898 Y88.241 E592.28191
G1 X93.898 Y86.827 E592.45827
G1 X141.099 Y134.028 E600.78398
G1 X141.099 Y132.614 E600.96034
G1 X93.898 Y85.413 E609.28606
G1 X93.898 Y83.999 E609.46242
G1 X141.099 Y131.2 E617.78813
G1 X141.099 Y129.785 E617.96462
G1 X93.898 Y82.585 E626.29024
G1 X93.898 Y81.17 E626.46673
G1 X141.099 Y128.371 E634.79244
G1 X141.099 Y126.957 E634.96881
G1 X93.968 Y79.825 E643.28226
G1 X93.969 Y79.816 E643.28339
G1 X94.009 Y79.63 E643.30712
G1 X94.1 Y79.314 E643.34813
G1 X94.163 Y79.145 E643.37063
G1 X94.294 Y78.855 E643.41032
G1 X94.335 Y78.778 E643.4212
G1 X141.099 Y125.543 E651.66992
G1 X141.099 Y124.592 E651.78853
G1 X141.091 Y124.387 E651.81412
G1 X141.067 Y124.097 E651.85042
G1 X94.933 Y77.962 E659.98801
G1 X94.999 Y77.897 E659.99957
G1 X95.259 Y77.669 E660.0427
G1 X95.412 Y77.551 E660.0668
G1 X95.652 Y77.394 E660.10257
G1 X95.734 Y77.349 E660.11423
G1 X138.409 Y120.024 E667.64161
G1 X138.23 Y119.679 E667.69009
G1 X137.995 Y119.037 E667.77536
G1 X137.842 Y118.373 E667.86035
G1 X137.806 Y118.007 E667.90622
