;FLAVOR:Marlin
;TIME:1775
;Filament used: 1.55263m
;Layer height: 0.25
;MINX:87.146
;MINY:87.145
;MINZ:0.3
;MAXX:147.854
;MAXY:147.854
;MAXZ:15.05
;Generated with Cura_SteamEngine 4.12.1
M140 S60
M105
M190 S60
M104 S200
M105
M109 S200
M82 ;absolute extrusion mode
M201 X500.00 Y500.00 Z100.00 E5000.00 	;Setup machine max acceleration
M203 X500.00 Y500.00 Z10.00 E50.00 	;Setup machine max feedrate
M204 P500.00 R1000.00 T500.00 		;Setup Print/Retract/Travel acceleration
M205 X8.00 Y8.00 Z0.40 E5.00 		;Setup Jerk
M220 S100 				;Reset Feedrate
M221 S100 				;Reset Flowrate
G28					;Home the Machine
G92 E0
M300 P150 S587
G92 E0
G1 F1500 E-6.5
;LAYER_COUNT:60
;LAYER:0
M107
G0 F1980 X109.77 Y88.789 Z0.3
;TYPE:SKIRT
G1 F1500 E0
G1 F900 X110.123 Y88.386 E0.02673
G1 X110.664 Y87.936 E0.06184
G1 X111.112 Y87.642 E0.08857
G1 X111.6 Y87.418 E0.11536
G1 X112.14 Y87.262 E0.1434
G1 X112.877 Y87.17 E0.18045
G1 X114.06 Y87.146 E0.23949
G1 X121.283 Y87.145 E0.59984
G1 X121.999 Y87.157 E0.63557
G1 X122.616 Y87.22 E0.66651
G1 X122.851 Y87.265 E0.67845
G1 X123.369 Y87.405 E0.70522
G1 X123.86 Y87.62 E0.73196
G1 X124.314 Y87.906 E0.75873
G1 X124.869 Y88.397 E0.7957
G1 X125.294 Y88.881 E0.82784
G1 X126.986 Y91.122 E0.96793
G1 X128.67 Y93.224 E1.1023
G1 X130.467 Y95.341 E1.24084
G1 X132.272 Y97.35 E1.37558
G1 X134.167 Y99.344 E1.51282
G1 X136.109 Y101.274 E1.64942
G1 X138.065 Y103.11 E1.78326
G1 X140.129 Y104.94 E1.92088
G1 X142.193 Y106.67 E2.05524
G1 X144.375 Y108.395 E2.19401
G1 X145.545 Y109.279 E2.26717
G1 X146.184 Y109.754 E2.30689
G1 X146.589 Y110.105 E2.33363
G1 X146.96 Y110.527 E2.36166
G1 X147.274 Y110.962 E2.38842
G1 X147.52 Y111.439 E2.4152
G1 X147.743 Y112.177 E2.45366
G1 X147.784 Y112.394 E2.46468
G1 X147.847 Y113.015 E2.49582
G1 X147.854 Y113.599 E2.52496
G1 X147.853 Y121.339 E2.91111
G1 X147.844 Y122.015 E2.94484
G1 X147.797 Y122.549 E2.97158
G1 X147.609 Y123.247 E3.00765
G1 X147.488 Y123.565 E3.02462
G1 X147.26 Y124.051 E3.05141
G1 X146.963 Y124.497 E3.07814
G1 X146.597 Y124.9 E3.1053
G1 X146.054 Y125.341 E3.1402
G1 X143.825 Y127.028 E3.27966
G1 X141.735 Y128.704 E3.41332
G1 X139.625 Y130.497 E3.55146
G1 X137.599 Y132.32 E3.68743
G1 X135.642 Y134.183 E3.82223
G1 X133.714 Y136.125 E3.95876
G1 X131.845 Y138.12 E4.09515
G1 X130.03 Y140.17 E4.23175
G1 X128.307 Y142.229 E4.36569
G1 X126.01 Y145.165 E4.55167
G1 X125.237 Y146.194 E4.61588
G1 X124.792 Y146.684 E4.6489
G1 X124.388 Y147.039 E4.67573
G1 X123.933 Y147.342 E4.70301
G1 X123.447 Y147.57 E4.72979
G1 X122.828 Y147.743 E4.76185
G1 X122.597 Y147.786 E4.77358
G1 X121.985 Y147.847 E4.80426
G1 X121.401 Y147.854 E4.8334
G1 X113.654 Y147.853 E5.2199
G1 X112.985 Y147.844 E5.25328
G1 X112.45 Y147.797 E5.28007
G1 X111.753 Y147.609 E5.31609
G1 X111.435 Y147.488 E5.33306
G1 X110.949 Y147.26 E5.35985
G1 X110.503 Y146.963 E5.38658
G1 X110.1 Y146.597 E5.41374
G1 X109.599 Y145.974 E5.45362
G1 X107.944 Y143.79 E5.59033
G1 X106.249 Y141.677 E5.72548
G1 X104.47 Y139.584 E5.86252
G1 X102.663 Y137.577 E5.99726
G1 X100.767 Y135.586 E6.13442
G1 X98.824 Y133.659 E6.27095
G1 X96.844 Y131.805 E6.40628
G1 X94.819 Y130.012 E6.54121
G1 X92.716 Y128.253 E6.678
G1 X90.583 Y126.569 E6.81358
G1 X88.795 Y125.233 E6.92493
G1 X88.391 Y124.881 E6.95167
G1 X87.941 Y124.343 E6.98666
G1 X87.646 Y123.895 E7.01342
G1 X87.421 Y123.408 E7.04019
G1 X87.264 Y122.869 E7.06819
G1 X87.17 Y122.124 E7.10566
G1 X87.146 Y120.94 E7.16474
G1 X87.146 Y113.6 E7.53093
G1 X87.157 Y112.992 E7.56127
G1 X87.222 Y112.369 E7.59252
G1 X87.267 Y112.138 E7.60426
G1 X87.409 Y111.62 E7.63106
G1 X87.626 Y111.13 E7.6578
G1 X88.051 Y110.502 E7.69563
G1 X88.182 Y110.347 E7.70575
G1 X88.732 Y109.822 E7.74369
G1 X89.066 Y109.564 E7.76474
G1 X90.83 Y108.241 E7.87475
G1 X92.955 Y106.552 E8.01017
G1 X95.055 Y104.784 E8.14713
G1 X97.086 Y102.973 E8.28289
G1 X99.074 Y101.099 E8.41919
G1 X100.982 Y99.193 E8.55374
G1 X102.872 Y97.196 E8.69092
G1 X104.707 Y95.144 E8.82826
G1 X106.433 Y93.101 E8.96169
G1 X108.149 Y90.95 E9.09897
G1 X109.77 Y88.789 E9.23374
G0 F1980 X110.09 Y89.029
G1 F900 X110.425 Y88.65 E9.25897
G1 X110.908 Y88.253 E9.29017
G1 X111.332 Y87.978 E9.31538
G1 X111.794 Y87.773 E9.3406
G1 X112.23 Y87.652 E9.36317
G1 X112.886 Y87.57 E9.39615
G1 X114.06 Y87.546 E9.45474
G1 X121.337 Y87.545 E9.81779
G1 X121.993 Y87.556 E9.85052
G1 X122.541 Y87.613 E9.87801
G1 X122.776 Y87.658 E9.88995
G1 X123.263 Y87.792 E9.91514
G1 X123.724 Y88.001 E9.9404
G1 X124.145 Y88.28 E9.96559
G1 X124.593 Y88.686 E9.99576
G1 X124.971 Y89.117 E10.02436
G1 X126.67 Y91.368 E10.16506
G1 X128.369 Y93.488 E10.3006
G1 X130.164 Y95.602 E10.43896
G1 X131.985 Y97.63 E10.57494
G1 X133.878 Y99.62 E10.71197
G1 X135.801 Y101.531 E10.84722
G1 X137.828 Y103.435 E10.98597
G1 X139.85 Y105.227 E11.12076
G1 X141.955 Y106.992 E11.25781
G1 X144.119 Y108.703 E11.39544
G1 X145.306 Y109.6 E11.46967
G1 X145.945 Y110.075 E11.50939
G1 X146.484 Y110.583 E11.54634
G1 X146.654 Y110.785 E11.55952
G1 X146.948 Y111.196 E11.58473
G1 X147.174 Y111.648 E11.60994
G1 X147.35 Y112.251 E11.64128
G1 X147.391 Y112.468 E11.6523
G1 X147.447 Y113.02 E11.67998
G1 X147.454 Y113.599 E11.70887
G1 X147.453 Y121.334 E12.09477
G1 X147.444 Y122.01 E12.1285
G1 X147.397 Y122.513 E12.1537
G1 X147.235 Y123.105 E12.18432
G1 X147.114 Y123.423 E12.20129
G1 X146.897 Y123.88 E12.22653
G1 X146.611 Y124.297 E12.25176
G1 X146.285 Y124.645 E12.27555
G1 X145.813 Y125.022 E12.30569
G1 X143.579 Y126.712 E12.44544
G1 X141.471 Y128.403 E12.58027
G1 X139.364 Y130.194 E12.71823
G1 X137.337 Y132.017 E12.85424
G1 X135.348 Y133.912 E12.9913
G1 X133.421 Y135.852 E13.12772
G1 X131.552 Y137.847 E13.2641
G1 X129.743 Y139.89 E13.40025
G1 X127.983 Y141.993 E13.53706
G1 X125.678 Y144.94 E13.72372
G1 X124.917 Y145.953 E13.78693
G1 X124.522 Y146.389 E13.81628
G1 X124.143 Y146.723 E13.84148
G1 X123.711 Y147.008 E13.8673
G1 X123.25 Y147.216 E13.89253
G1 X122.755 Y147.35 E13.91812
G1 X122.524 Y147.393 E13.92984
G1 X121.98 Y147.447 E13.95712
G1 X121.401 Y147.454 E13.986
G1 X113.659 Y147.453 E14.37225
G1 X112.99 Y147.444 E14.40563
G1 X112.487 Y147.397 E14.43084
G1 X111.895 Y147.235 E14.46146
G1 X111.577 Y147.114 E14.47843
G1 X111.12 Y146.897 E14.50367
G1 X110.703 Y146.611 E14.5289
G1 X110.355 Y146.285 E14.55269
G1 X109.948 Y145.772 E14.58536
G1 X108.273 Y143.561 E14.72375
G1 X106.55 Y141.414 E14.86109
G1 X104.772 Y139.321 E14.9981
G1 X102.951 Y137.299 E15.13386
G1 X101.055 Y135.309 E15.27099
G1 X99.114 Y133.383 E15.40741
G1 X97.119 Y131.515 E15.54376
G1 X95.057 Y129.689 E15.68117
G1 X92.992 Y127.962 E15.81547
G1 X90.783 Y126.218 E15.95589
G1 X89.035 Y124.912 E16.06475
G1 X88.655 Y124.579 E16.08996
G1 X88.258 Y124.098 E16.12107
G1 X87.981 Y123.675 E16.1463
G1 X87.775 Y123.213 E16.17153
G1 X87.653 Y122.778 E16.19407
G1 X87.57 Y122.115 E16.22741
G1 X87.546 Y120.94 E16.28604
G1 X87.546 Y113.607 E16.65189
G1 X87.557 Y112.999 E16.68222
G1 X87.615 Y112.445 E16.71002
G1 X87.66 Y112.214 E16.72176
G1 X87.796 Y111.727 E16.74698
G1 X88.006 Y111.267 E16.77221
G1 X88.357 Y110.76 E16.80297
G1 X88.488 Y110.605 E16.8131
G1 X88.976 Y110.138 E16.8468
G1 X89.27 Y109.911 E16.86533
G1 X91.056 Y108.572 E16.97669
G1 X93.233 Y106.842 E17.11542
G1 X95.316 Y105.088 E17.25128
G1 X97.363 Y103.262 E17.38813
G1 X99.33 Y101.408 E17.52299
G1 X101.29 Y99.45 E17.66121
G1 X103.178 Y97.455 E17.79824
G1 X104.995 Y95.423 E17.93424
G1 X106.76 Y93.334 E18.07068
G1 X108.453 Y91.211 E18.20615
G1 X110.09 Y89.029 E18.34224
G1 F1500 E11.84224
;MESH:Lid_ribbon.stl
G0 F1980 X111.842 Y91.179
G0 X113.094 Y91.552
G0 X121.856 Y112.73
G1 F1500 E18.34224
G0 F1980 X121.926 Y112.8
;TYPE:WALL-INNER
G1 F900 X113.075 Y112.8 E18.78382
G1 X113.075 Y111.543 E18.84653
G1 X113.079 Y109.929 E18.92705
G1 X113.079 Y94.571 E19.69327
G1 X113.075 Y91.551 E19.84393
G1 X113.114 Y91.346 E19.85435
G1 X121.255 Y91.345 E20.2605
G1 X121.881 Y91.347 E20.29173
G1 X121.925 Y91.529 E20.30107
G1 X121.926 Y92.141 E20.33161
G1 X121.921 Y94.57 E20.45279
G1 X121.921 Y109.929 E21.21905
G1 X121.926 Y112.8 E21.36229
G0 F1980 X121.856 Y112.73
G0 X125.071 Y121.821
G0 X125.071 Y121.921
G1 F900 X122.2 Y121.926 E21.50552
G1 X122.2 Y113.075 E21.9471
G1 X123.457 Y113.075 E22.00981
G1 X125.071 Y113.079 E22.09034
G1 X140.429 Y113.079 E22.85655
G1 X143.464 Y113.075 E23.00797
G1 X143.654 Y113.117 E23.01768
G1 X143.653 Y121.886 E23.45516
G1 X143.449 Y121.925 E23.46553
G1 X142.858 Y121.926 E23.49501
G1 X140.43 Y121.921 E23.61614
G1 X125.071 Y121.921 E24.38241
G0 F1980 X125.071 Y121.821
G0 X122.297 Y122.297
G0 X121.826 Y143.454
G0 X121.925 Y143.464
G1 F900 X121.884 Y143.654 E24.39211
G1 X113.114 Y143.653 E24.82964
G1 X113.075 Y143.449 E24.84
G1 X113.074 Y142.859 E24.86944
G1 X113.079 Y140.43 E24.99062
G1 X113.079 Y125.071 E25.75689
G1 X113.074 Y122.2 E25.90012
G1 X121.925 Y122.2 E26.3417
G1 X121.925 Y123.457 E26.40441
G1 X121.921 Y125.071 E26.48494
G1 X121.921 Y140.429 E27.25115
G1 X121.925 Y143.464 E27.40257
G0 F1980 X121.826 Y143.454
G0 X112.703 Y122.297
G0 X94.571 Y121.821
G0 X94.571 Y121.921
G1 F900 X91.548 Y121.925 E27.55338
G1 X91.346 Y121.887 E27.56364
G1 X91.345 Y113.507 E27.98172
G1 X91.356 Y113.12 E28.00103
G1 X91.517 Y113.075 E28.00937
G1 X92.142 Y113.074 E28.04056
G1 X94.57 Y113.079 E28.16169
G1 X109.929 Y113.079 E28.92795
G1 X112.8 Y113.074 E29.07119
G1 X112.8 Y121.925 E29.51277
G1 X111.543 Y121.925 E29.57548
G1 X109.929 Y121.921 E29.656
G1 X94.571 Y121.921 E30.42221
G0 F1980 X94.571 Y121.821
G0 X113.2 Y112.7
G0 X113.2 Y113.2
;TYPE:WALL-OUTER
G1 F900 X113.2 Y121.8 E30.85127
G1 X121.8 Y121.8 E31.28033
G1 X121.8 Y113.2 E31.70938
G1 X113.2 Y113.2 E32.13844
G0 F1980 X113.2 Y113.4
G0 X112.7 Y113.4
G0 X113.172 Y121.828
G0 X122.325 Y121.825
G0 X122.325 Y122.325
G1 F900 X122.325 Y123.457 E32.19491
G1 X122.321 Y125.071 E32.27544
G1 X122.321 Y140.429 E33.04165
G1 X122.325 Y143.507 E33.19521
G1 X122.253 Y143.839 E33.21216
G1 X122.157 Y143.978 E33.22059
G1 X121.985 Y144.054 E33.22997
G1 X113.022 Y144.053 E33.67714
G1 X112.84 Y143.98 E33.68692
G1 X112.741 Y143.834 E33.69572
G1 X112.675 Y143.488 E33.71329
G1 X112.674 Y142.858 E33.74472
G1 X112.679 Y140.429 E33.86591
G1 X112.679 Y125.071 E34.63212
G1 X112.675 Y122.325 E34.76912
G1 X111.543 Y122.325 E34.8256
G1 X109.929 Y122.321 E34.90612
G1 X94.571 Y122.321 E35.67233
G1 X91.513 Y122.325 E35.8249
G1 X91.17 Y122.261 E35.8423
G1 X91.02 Y122.161 E35.8513
G1 X90.946 Y121.977 E35.86119
G1 X90.945 Y113.496 E36.28431
G1 X90.961 Y112.929 E36.31261
G1 X91.105 Y112.777 E36.32306
G1 X91.434 Y112.68 E36.34017
G1 X91.5 Y112.675 E36.34347
G1 X92.142 Y112.674 E36.3755
G1 X94.571 Y112.679 E36.49668
G1 X109.929 Y112.679 E37.2629
G1 X112.675 Y112.675 E37.3999
G1 X112.675 Y111.543 E37.45637
G1 X112.679 Y109.929 E37.5369
G1 X112.679 Y94.571 E38.30311
G1 X112.675 Y91.513 E38.45567
G1 X112.741 Y91.167 E38.47325
G1 X112.899 Y90.982 E38.48538
G1 X113.023 Y90.946 E38.49183
G1 X121.256 Y90.945 E38.90257
G1 X121.982 Y90.947 E38.93879
G1 X122.157 Y91.021 E38.94827
G1 X122.287 Y91.253 E38.96154
G1 X122.325 Y91.5 E38.97401
G1 X122.326 Y92.142 E39.00604
G1 X122.321 Y94.571 E39.12722
G1 X122.321 Y109.929 E39.89343
G1 X122.325 Y112.675 E40.03043
G1 X123.457 Y112.675 E40.08691
G1 X125.071 Y112.679 E40.16743
G1 X140.429 Y112.679 E40.93365
G1 X143.507 Y112.675 E41.08721
G1 X143.842 Y112.748 E41.10431
G1 X143.977 Y112.842 E41.11252
G1 X144.054 Y113.015 E41.12197
G1 X144.053 Y121.978 E41.56913
G1 X143.98 Y122.16 E41.57892
G1 X143.834 Y122.259 E41.58772
G1 X143.488 Y122.325 E41.60529
G1 X142.858 Y122.326 E41.63672
G1 X140.429 Y122.321 E41.7579
G1 X125.071 Y122.321 E42.52412
G1 X122.325 Y122.325 E42.66112
G0 F1980 X122.325 Y122.525
G0 X121.535 Y122.59
;TYPE:SKIN
G1 F900 X121.531 Y125.071 E42.79727
G1 X121.531 Y140.429 E43.64011
G1 X121.535 Y143.264 E43.79569
G1 X113.465 Y143.263 E44.23857
G1 X113.464 Y142.859 E44.26074
G1 X113.469 Y140.43 E44.39404
G1 X113.469 Y125.071 E45.23693
G1 X113.464 Y122.59 E45.37308
G1 X121.535 Y122.59 E45.81602
G0 F1980 X121.355 Y123.052
G1 F900 X121.072 Y122.769 E45.83798
G0 F1980 X120.506 Y122.769
G1 F900 X121.353 Y123.616 E45.90372
G0 F1980 X121.352 Y124.181
G1 F900 X119.94 Y122.769 E46.0133
G0 F1980 X119.375 Y122.769
G1 F900 X121.351 Y124.745 E46.16666
G0 F1980 X121.35 Y125.31
G1 F900 X118.809 Y122.769 E46.36387
G0 F1980 X118.243 Y122.769
G1 F900 X121.35 Y125.876 E46.60501
G0 F1980 X121.35 Y126.442
G1 F900 X117.678 Y122.769 E46.89003
G0 F1980 X117.112 Y122.769
G1 F900 X121.35 Y127.007 E47.21895
G0 F1980 X121.35 Y127.573
G1 F900 X116.546 Y122.769 E47.59179
G0 F1980 X115.981 Y122.769
G1 F900 X121.35 Y128.139 E48.00852
G0 F1980 X121.35 Y128.704
G1 F900 X115.415 Y122.769 E48.46915
G0 F1980 X114.849 Y122.769
G1 F900 X121.35 Y129.27 E48.97369
G0 F1980 X121.35 Y129.836
G1 F900 X114.284 Y122.769 E49.52213
G0 F1980 X113.718 Y122.769
G1 F900 X121.35 Y130.401 E50.11446
G0 F1980 X121.35 Y130.967
G1 F900 X113.644 Y123.26 E50.71257
G0 F1980 X113.645 Y123.827
G1 F900 X121.35 Y131.533 E51.3106
G0 F1980 X121.35 Y132.098
G1 F900 X113.646 Y124.394 E51.90851
G0 F1980 X113.648 Y124.962
G1 F900 X121.35 Y132.664 E52.50627
G0 F1980 X121.35 Y133.23
G1 F900 X113.648 Y125.527 E53.10407
G0 F1980 X113.648 Y126.093
G1 F900 X121.35 Y133.795 E53.70183
G0 F1980 X121.35 Y134.361
G1 F900 X113.648 Y126.659 E54.29959
G0 F1980 X113.648 Y127.224
G1 F900 X121.35 Y134.927 E54.89739
G0 F1980 X121.35 Y135.492
G1 F900 X113.648 Y127.79 E55.49515
G0 F1980 X113.648 Y128.356
G1 F900 X121.35 Y136.058 E56.09291
G0 F1980 X121.35 Y136.624
G1 F900 X113.648 Y128.921 E56.6907
G0 F1980 X113.648 Y129.487
G1 F900 X121.35 Y137.19 E57.2885
G0 F1980 X121.35 Y137.755
G1 F900 X113.648 Y130.053 E57.88626
G0 F1980 X113.648 Y130.618
G1 F900 X121.35 Y138.321 E58.48406
G0 F1980 X121.35 Y138.887
G1 F900 X113.648 Y131.184 E59.08186
G0 F1980 X113.648 Y131.75
G1 F900 X121.35 Y139.452 E59.67962
G0 F1980 X121.35 Y140.018
G1 F900 X113.648 Y132.315 E60.27742
G0 F1980 X113.648 Y132.881
G1 F900 X121.351 Y140.584 E60.87525
G0 F1980 X121.352 Y141.151
G1 F900 X113.648 Y133.447 E61.47317
G0 F1980 X113.648 Y134.012
G1 F900 X121.352 Y141.717 E62.07112
G0 F1980 X121.354 Y142.284
G1 F900 X113.648 Y134.578 E62.66919
G0 F1980 X113.648 Y135.144
G1 F900 X121.355 Y142.851 E63.26734
G0 F1980 X121.02 Y143.082
G1 F900 X113.648 Y135.71 E63.83949
G0 F1980 X113.648 Y136.275
G1 F900 X120.454 Y143.082 E64.36775
G0 F1980 X119.889 Y143.082
G1 F900 X113.648 Y136.841 E64.85212
G0 F1980 X113.648 Y137.407
G1 F900 X119.323 Y143.082 E65.29256
G0 F1980 X118.757 Y143.082
G1 F900 X113.648 Y137.972 E65.68911
G0 F1980 X113.648 Y138.538
G1 F900 X118.192 Y143.082 E66.04178
G0 F1980 X117.626 Y143.082
G1 F900 X113.648 Y139.104 E66.35051
G0 F1980 X113.648 Y139.669
G1 F900 X117.06 Y143.082 E66.61536
G0 F1980 X116.495 Y143.082
G1 F900 X113.648 Y140.235 E66.83632
G0 F1980 X113.647 Y140.8
G1 F900 X115.929 Y143.082 E67.01343
G0 F1980 X115.363 Y143.082
G1 F900 X113.646 Y141.364 E67.14672
G0 F1980 X113.645 Y141.929
G1 F900 X114.798 Y143.082 E67.23621
G0 F1980 X114.232 Y143.082
G1 F900 X113.644 Y142.494 E67.28184
G1 X113.574 Y142.424
G0 F1980 X122.59 Y121.536
G1 F900 X122.59 Y113.465 E67.72477
G1 X125.071 Y113.469 E67.86093
G1 X140.429 Y113.469 E68.70376
G1 X143.264 Y113.465 E68.85935
G1 X143.263 Y121.535 E69.30222
G1 X142.858 Y121.536 E69.32445
G1 X140.43 Y121.531 E69.4577
G1 X125.071 Y121.531 E70.30059
G1 X122.59 Y121.536 E70.43674
G0 F1980 X123.052 Y121.355
G1 F900 X122.769 Y121.072 E70.4587
G0 F1980 X122.769 Y120.506
G1 F900 X123.617 Y121.354 E70.52452
G0 F1980 X124.181 Y121.352
G1 F900 X122.769 Y119.94 E70.63411
G0 F1980 X122.769 Y119.375
G1 F900 X124.745 Y121.351 E70.78746
