;FLAVOR:Marlin
;TIME:2301
;Filament used: 2.32188m
;Layer height: 0.25
;MINX:86.944
;MINY:86.944
;MINZ:0.36
;MAXX:148.054
;MAXY:148.054
;MAXZ:16.435
;Generated with Cura_SteamEngine 4.12.1
M140 S60
M105
M190 S60
M104 S200
M105
M109 S200
M82 ;absolute extrusion mode
M201 X500.00 Y500.00 Z100.00 E5000.00 	;Setup machine max acceleration
M203 X500.00 Y500.00 Z10.00 E50.00 	;Setup machine max feedrate
M204 P500.00 R1000.00 T500.00 		;Setup Print/Retract/Travel acceleration
M205 X8.00 Y8.00 Z0.40 E5.00 		;Setup Jerk
M220 S100 				;Reset Feedrate
M221 S100 				;Reset Flowrate
G28					;Home the Machine
G92 E0
M300 P150 S587
G92 E0
G1 F1500 E-6.5
;LAYER_COUNT:60
;LAYER:-6
M107
G0 F6600 X109.959 Y88.549 Z0.36
;TYPE:SUPPORT-INTERFACE
G1 F1500 E0
G1 F1125 X110.295 Y88.206 E0.05749
G1 X110.705 Y87.881 E0.12014
G1 X111.311 Y87.535 E0.20369
G1 X112.002 Y87.288 E0.29156
G1 X112.337 Y87.218 E0.33253
G1 X112.907 Y87.158 E0.40116
G1 X113.136 Y87.146 E0.42862
G1 X121.266 Y87.145 E1.40208
G1 X121.905 Y87.147 E1.47859
G1 X122.499 Y87.187 E1.54987
G1 X123.044 Y87.292 E1.61633
G1 X123.579 Y87.474 E1.68399
G1 X124.082 Y87.738 E1.75201
G1 X124.654 Y88.165 E1.83748
G1 X125.058 Y88.573 E1.90623
G1 X125.521 Y89.229 E2.00237
G1 X125.783 Y89.768 E2.07413
G1 X125.994 Y90.453 E2.15995
G1 X126.098 Y91.065 E2.23428
G1 X126.125 Y91.494 E2.28575
G1 X126.126 Y92.15 E2.3643
G1 X126.121 Y94.579 E2.65514
G1 X126.121 Y103.492 E3.72235
G1 X126.163 Y104.16 E3.80249
G1 X126.292 Y104.831 E3.8843
G1 X126.505 Y105.48 E3.96609
G1 X126.797 Y106.097 E4.04782
G1 X127.165 Y106.672 E4.12957
G1 X127.603 Y107.196 E4.21134
G1 X128.103 Y107.66 E4.29302
G1 X128.659 Y108.059 E4.37496
G1 X129.259 Y108.383 E4.4566
G1 X129.895 Y108.629 E4.53826
G1 X130.564 Y108.795 E4.62079
G1 X131.503 Y108.879 E4.73367
G1 X140.424 Y108.879 E5.80184
G1 X143.445 Y108.875 E6.16356
G1 X143.958 Y108.902 E6.22507
G1 X144.508 Y108.998 E6.29192
G1 X145.157 Y109.184 E6.37276
G1 X145.767 Y109.48 E6.45394
G1 X146.187 Y109.758 E6.51425
G1 X146.646 Y110.148 E6.58637
G1 X147.015 Y110.564 E6.65295
G1 X147.327 Y111.037 E6.7208
G1 X147.583 Y111.562 E6.79074
G1 X147.628 Y111.692 E6.80721
G1 X147.762 Y112.199 E6.87
G1 X147.845 Y112.912 E6.95595
G1 X147.854 Y113.125 E6.98148
G1 X147.853 Y121.845 E8.02558
G1 X147.84 Y122.108 E8.05711
G1 X147.785 Y122.643 E8.1215
G1 X147.661 Y123.178 E8.18726
G1 X147.331 Y123.942 E8.28691
G1 X146.988 Y124.471 E8.3624
G1 X146.611 Y124.896 E8.43042
G1 X146.185 Y125.25 E8.49674
G1 X145.458 Y125.685 E8.59818
G1 X144.915 Y125.897 E8.66798
G1 X144.152 Y126.068 E8.76161
G1 X143.584 Y126.12 E8.8299
G1 X143.415 Y126.125 E8.85014
G1 X142.851 Y126.126 E8.91768
G1 X140.422 Y126.121 E9.20852
G1 X131.509 Y126.121 E10.27573
G1 X130.84 Y126.163 E10.35599
G1 X130.169 Y126.292 E10.4378
G1 X129.52 Y126.505 E10.51959
G1 X128.903 Y126.797 E10.60132
G1 X128.328 Y127.165 E10.68307
G1 X127.804 Y127.603 E10.76484
G1 X127.34 Y128.103 E10.84651
G1 X126.941 Y128.659 E10.92846
G1 X126.617 Y129.259 E11.0101
G1 X126.371 Y129.895 E11.09175
G1 X126.205 Y130.564 E11.17429
G1 X126.121 Y131.503 E11.28717
G1 X126.121 Y140.436 E12.35677
G1 X126.125 Y143.445 E12.71706
G1 X126.099 Y143.954 E12.77809
G1 X126.003 Y144.504 E12.84494
G1 X125.821 Y145.14 E12.92415
G1 X125.602 Y145.632 E12.98863
G1 X125.534 Y145.747 E13.00463
G1 X125.237 Y146.197 E13.06919
G1 X124.859 Y146.64 E13.13891
G1 X124.445 Y147.006 E13.20508
G1 X123.963 Y147.327 E13.27442
G1 X123.438 Y147.583 E13.34436
G1 X123.302 Y147.63 E13.36159
G1 X122.8 Y147.762 E13.42374
G1 X122.08 Y147.845 E13.51052
G1 X121.875 Y147.854 E13.53509
G1 X113.155 Y147.853 E14.57919
G1 X112.892 Y147.84 E14.61072
G1 X112.357 Y147.785 E14.67512
G1 X111.822 Y147.661 E14.74087
G1 X111.053 Y147.328 E14.84121
G1 X110.538 Y146.996 E14.91458
G1 X110.094 Y146.601 E14.98574
G1 X109.748 Y146.182 E15.0508
G1 X109.307 Y145.443 E15.15384
G1 X109.103 Y144.915 E15.22162
G1 X108.93 Y144.14 E15.3167
G1 X108.88 Y143.584 E15.38354
G1 X108.875 Y143.415 E15.40378
G1 X108.874 Y142.851 E15.47132
G1 X108.879 Y140.422 E15.76216
G1 X108.879 Y131.509 E16.82937
G1 X108.837 Y130.84 E16.90963
G1 X108.708 Y130.169 E16.99144
G1 X108.495 Y129.52 E17.07323
G1 X108.203 Y128.903 E17.15496
G1 X107.835 Y128.328 E17.23671
G1 X107.397 Y127.804 E17.31848
G1 X106.897 Y127.34 E17.40015
G1 X106.341 Y126.941 E17.4821
G1 X105.741 Y126.617 E17.56374
G1 X105.105 Y126.371 E17.64539
G1 X104.436 Y126.205 E17.72793
G1 X103.497 Y126.121 E17.84081
G1 X94.576 Y126.121 E18.90898
G1 X91.569 Y126.125 E19.26903
G1 X91.026 Y126.095 E19.33414
G1 X90.428 Y125.99 E19.40684
G1 X90.095 Y125.897 E19.44824
G1 X89.613 Y125.719 E19.50976
G1 X89.119 Y125.455 E19.57683
G1 X88.545 Y125.038 E19.66178
G1 X88.206 Y124.705 E19.71868
G1 X87.881 Y124.295 E19.78132
G1 X87.535 Y123.689 E19.86487
G1 X87.287 Y122.993 E19.95334
G1 X87.218 Y122.663 E19.99371
G1 X87.158 Y122.093 E20.06234
G1 X87.146 Y121.866 E20.08956
G1 X87.145 Y113.482 E21.09343
G1 X87.153 Y112.924 E21.16025
G1 X87.2 Y112.384 E21.22515
G1 X87.372 Y111.681 E21.31181
G1 X87.615 Y111.135 E21.38336
G1 X87.885 Y110.697 E21.44497
G1 X88.385 Y110.117 E21.53666
G1 X88.833 Y109.74 E21.60677
G1 X89.32 Y109.423 E21.67635
G1 X89.789 Y109.209 E21.73807
G1 X90.462 Y109.004 E21.82231
G1 X91.075 Y108.901 E21.89674
G1 X91.528 Y108.875 E21.95107
G1 X92.149 Y108.874 E22.02543
G1 X94.578 Y108.879 E22.31627
G1 X103.491 Y108.879 E23.38348
G1 X104.16 Y108.837 E23.46374
G1 X104.831 Y108.708 E23.54555
G1 X105.48 Y108.495 E23.62734
G1 X106.097 Y108.203 E23.70907
G1 X106.672 Y107.835 E23.79082
G1 X107.196 Y107.397 E23.87259
G1 X107.66 Y106.897 E23.95427
G1 X108.059 Y106.341 E24.03621
G1 X108.383 Y105.741 E24.11785
G1 X108.629 Y105.105 E24.1995
G1 X108.795 Y104.436 E24.28204
G1 X108.879 Y103.497 E24.39492
G1 X108.879 Y94.564 E25.46453
G1 X108.875 Y91.57 E25.82302
G1 X108.907 Y91.006 E25.89066
G1 X109.008 Y90.437 E25.95985
G1 X109.101 Y90.1 E26.00171
G1 X109.281 Y89.613 E26.06388
G1 X109.556 Y89.1 E26.13357
G1 X109.959 Y88.549 E26.21531
G0 F6600 X110.4 Y88.122
G1 F1125 X110.4 Y146.873 E33.24995
G0 F6600 X112 Y147.702
G1 F1125 X112 Y87.288 E40.48371
G0 F6600 X113.6 Y87.145
G1 F1125 X113.6 Y147.853 E47.75267
G0 F6600 X115.2 Y147.853
G1 F1125 X115.2 Y87.145 E55.02163
G0 F6600 X116.8 Y87.145
G1 F1125 X116.8 Y147.853 E62.2906
G0 F6600 X118.4 Y147.853
G1 F1125 X118.4 Y87.145 E69.55956
G0 F6600 X120 Y87.145
G1 F1125 X120 Y147.853 E76.82852
G0 F6600 X121.6 Y147.853
G1 F1125 X121.6 Y87.147 E84.09724
G0 F6600 X123.2 Y87.346
G1 F1125 X123.2 Y147.657 E91.31867
G0 F6600 X124.8 Y146.693
G1 F1125 X124.8 Y88.313 E98.30889
G0 F6600 X126.4 Y105.161
G1 F1125 X126.4 Y129.821 E101.26159
G0 F6600 X128 Y127.44
G1 F1125 X128 Y107.565 E103.64135
G0 F6600 X129.6 Y108.515
G1 F1125 X129.6 Y126.479 E105.7923
G0 F6600 X131.2 Y126.141
G1 F1125 X131.2 Y108.852 E107.86242
G0 F6600 X132.8 Y108.879
G1 F1125 X132.8 Y126.121 E109.92692
G0 F6600 X134.4 Y126.121
G1 F1125 X134.4 Y108.879 E111.99142
G0 F6600 X136 Y108.879
G1 F1125 X136 Y126.121 E114.05591
G0 F6600 X137.6 Y126.121
G1 F1125 X137.6 Y108.879 E116.12041
G0 F6600 X139.2 Y108.879
G1 F1125 X139.2 Y126.121 E118.18491
G0 F6600 X140.8 Y126.121
G1 F1125 X140.8 Y108.878 E120.24952
G0 F6600 X142.4 Y108.876
G1 F1125 X142.4 Y126.125 E122.31486
G0 F6600 X144 Y126.082
G1 F1125 X144 Y108.91 E124.37097
G0 F6600 X145.6 Y109.399
G1 F1125 X145.6 Y125.601 E126.31094
G0 F6600 X147.2 Y124.145
G1 F1125 X147.2 Y110.845 E127.90344
G0 F6600 X130.638 Y108.338
G0 X108.8 Y104.38
G1 F1125 X108.8 Y130.647 E131.04856
G0 F6600 X107.2 Y127.621
G1 F1125 X107.2 Y107.392 E133.4707
G0 F6600 X105.6 Y108.438
G1 F1125 X105.6 Y126.562 E135.64081
G0 F6600 X104 Y126.165
G1 F1125 X104 Y108.847 E137.7144
G0 F6600 X102.4 Y108.879
G1 F1125 X102.4 Y126.121 E139.7789
G0 F6600 X100.8 Y126.121
G1 F1125 X100.8 Y108.879 E141.8434
G0 F6600 X99.2 Y108.879
G1 F1125 X99.2 Y126.121 E143.90789
G0 F6600 X97.6 Y126.121
G1 F1125 X97.6 Y108.879 E145.97239
G0 F6600 X96 Y108.879
G1 F1125 X96 Y126.121 E148.03689
G0 F6600 X94.4 Y126.122
G1 F1125 X94.4 Y108.879 E150.1015
G0 F6600 X92.8 Y108.876
G1 F1125 X92.8 Y126.124 E152.16672
G0 F6600 X91.2 Y126.104
G1 F1125 X91.2 Y108.893 E154.2275
G0 F6600 X89.6 Y109.295
G1 F1125 X89.6 Y125.712 E156.19322
G0 F6600 X88 Y124.445
G1 F1125 X88 Y110.563 E157.8554
G0 F600 X88 Y110.563 Z0.735
G0 F6600 X87.207 Y122.562
;TIME_ELAPSED:76.139623
;LAYER:-5
;TYPE:SUPPORT
G1 F1125 X90.681 Y126.036 E158.46817
G1 X90.427 Y125.989 E158.50039
G1 X90.284 Y125.956 E158.5187
G1 X90.095 Y125.896 E158.54343
G1 X89.613 Y125.717 E158.60756
G1 X89.488 Y125.664 E158.62449
G1 X89.118 Y125.454 E158.67755
G1 X88.975 Y125.364 E158.69863
G1 X88.825 Y125.255 E158.72176
G1 X88.544 Y125.036 E158.76619
G1 X88.454 Y124.962 E158.78072
G1 X88.205 Y124.703 E158.82553
G1 X88 Y124.458 E158.86538
G1 X87.881 Y124.294 E158.89065
G1 X87.783 Y124.15 E158.91238
G1 X87.713 Y124.037 E158.92896
G1 X87.631 Y123.884 E158.95061
G1 X87.534 Y123.687 E158.97799
G1 X87.387 Y123.321 E159.02719
G1 X87.287 Y122.992 E159.07008
G1 X87.246 Y122.839 E159.08983
G1 X87.218 Y122.662 E159.11218
G0 F6600 X90.681 Y126.036
G1 F1125 X90.834 Y126.065 E159.13161
G1 X91.004 Y126.091 E159.15306
G1 X91.153 Y126.104 E159.17171
G1 X91.467 Y126.12 E159.21093
G1 X91.568 Y126.123 E159.22353
G1 X92.181 Y126.122 E159.29999
G1 X87.145 Y121.086 E160.18828
G1 X87.145 Y119.672 E160.36464
G1 X93.594 Y126.12 E161.50208
G1 X94.576 Y126.12 E161.62456
G1 X95.007 Y126.12 E161.67832
G1 X87.145 Y118.257 E163.06517
G1 X87.144 Y116.843 E163.24153
G1 X96.421 Y126.12 E164.87789
G1 X97.836 Y126.12 E165.05438
G1 X87.144 Y115.428 E166.94032
G1 X87.144 Y114.014 E167.11668
G1 X99.25 Y126.12 E169.25204
G1 X100.664 Y126.12 E169.42841
G1 X87.175 Y112.631 E171.80771
G1 X87.184 Y112.514 E171.82235
G1 X87.2 Y112.383 E171.83881
G1 X87.223 Y112.256 E171.8549
G1 X87.29 Y111.961 E171.89264
G1 X87.371 Y111.68 E171.92911
G1 X87.435 Y111.504 E171.95247
G1 X87.443 Y111.485 E171.95504
G1 X102.078 Y126.12 E174.53649
G1 X103.492 Y126.12 E174.71285
G1 X87.964 Y110.591 E177.4519
G1 X87.969 Y110.585 E177.45287
G1 X88.157 Y110.356 E177.48982
G1 X88.385 Y110.116 E177.53111
G1 X88.579 Y109.936 E177.56412
G1 X88.657 Y109.87 E177.57687
G1 X105.189 Y126.403 E180.49301
G0 F6600 X105.74 Y126.615
G1 F1125 X106.341 Y126.94 E180.57823
G1 X106.896 Y127.339 E180.66348
G1 X107.397 Y127.803 E180.74865
G1 X107.835 Y128.327 E180.83383
G1 X108.202 Y128.902 E180.91891
G1 X108.495 Y129.519 E181.0041
G1 X108.587 Y129.8 E181.04098
G1 X125.128 Y146.342 E183.95871
G1 X125.14 Y146.327 E183.96111
G1 X125.237 Y146.195 E183.98154
G1 X125.534 Y145.746 E184.04869
G1 X125.601 Y145.631 E184.06529
G1 X125.638 Y145.555 E184.07583
G1 X125.675 Y145.474 E184.08693
G1 X89.527 Y109.326 E190.46303
G1 X89.788 Y109.208 E190.49875
G1 X89.9 Y109.162 E190.51385
G1 X90.048 Y109.116 E190.53318
G1 X90.461 Y109.003 E190.58659
G1 X90.589 Y108.974 E190.60296
G1 X126.024 Y144.408 E196.8532
G1 X126.055 Y144.261 E196.87194
G1 X126.099 Y143.953 E196.91074
G1 X126.111 Y143.808 E196.92889
G1 X126.122 Y143.541 E196.96222
G1 X126.124 Y143.444 E196.97432
G1 X126.124 Y143.095 E197.01785
G1 X91.903 Y108.873 E203.05413
G1 X92.148 Y108.873 E203.08468
G1 X93.319 Y108.876 E203.23074
G1 X126.123 Y141.679 E209.0169
G1 X126.12 Y140.435 E209.17206
G1 X126.12 Y140.263 E209.19351
G1 X94.736 Y108.878 E214.72938
G1 X96.15 Y108.878 E214.90574
G1 X126.12 Y138.848 E220.1921
G1 X126.12 Y137.434 E220.36846
G1 X97.564 Y108.878 E225.40541
G1 X98.978 Y108.878 E225.58177
G1 X126.12 Y136.02 E230.36931
G1 X126.12 Y134.606 E230.54567
G1 X100.392 Y108.878 E235.0838
G1 X101.807 Y108.878 E235.26028
G1 X126.12 Y133.192 E239.54891
G1 X126.12 Y131.777 E239.72539
G1 X103.221 Y108.878 E243.76451
G1 X103.491 Y108.878 E243.79819
G1 X104.159 Y108.836 E243.88167
G1 X104.523 Y108.766 E243.9279
G1 X126.228 Y130.471 E247.75641
G1 X126.371 Y129.894 E247.83056
G1 X126.565 Y129.393 E247.89757
G1 X105.606 Y108.434 E251.59449
G1 X106.096 Y108.202 E251.66211
G1 X106.518 Y107.932 E251.7246
G1 X127.067 Y128.482 E255.34929
G1 X127.34 Y128.102 E255.40765
G1 X127.707 Y127.707 E255.4749
G1 X107.292 Y107.292 E259.07587
G1 X107.659 Y106.896 E259.14321
G1 X107.931 Y106.517 E259.2014
G1 X128.48 Y127.066 E262.82601
G1 X128.902 Y126.796 E262.88849
G1 X129.393 Y126.565 E262.95617
G1 X108.434 Y105.605 E266.65319
G1 X108.627 Y105.105 E266.72003
G1 X108.771 Y104.528 E266.79421
G1 X130.475 Y126.232 E270.62254
G1 X130.839 Y126.162 E270.66877
G1 X131.507 Y126.12 E270.75226
G1 X131.777 Y126.12 E270.78593
G1 X108.878 Y103.221 E274.82505
G1 X108.878 Y101.807 E275.00141
G1 X133.192 Y126.12 E279.29004
G1 X134.606 Y126.12 E279.4664
G1 X108.878 Y100.392 E284.00452
G1 X108.878 Y98.978 E284.18088
G1 X136.02 Y126.12 E288.96842
G1 X137.434 Y126.12 E289.14478
G1 X108.878 Y97.564 E294.18173
G1 X108.878 Y96.15 E294.35809
G1 X138.848 Y126.12 E299.64446
G1 X140.263 Y126.12 E299.82094
G1 X108.878 Y94.736 E305.35681
G1 X108.878 Y94.563 E305.37839
G1 X108.876 Y93.319 E305.53354
G1 X141.679 Y126.123 E311.3197
G1 X142.85 Y126.125 E311.46576
G1 X143.095 Y126.125 E311.49632
G1 X108.874 Y91.904 E317.53251
G1 X108.874 Y91.57 E317.57417
G1 X108.876 Y91.467 E317.58701
G1 X108.894 Y91.15 E317.62662
G1 X108.905 Y91.006 E317.64463
G1 X108.932 Y90.834 E317.66634
G1 X108.977 Y90.592 E317.69705
G1 X144.403 Y126.019 E323.94587
G1 X144.565 Y125.988 E323.96645
G1 X144.772 Y125.942 E323.99289
G1 X144.914 Y125.897 E324.01147
G1 X145.329 Y125.748 E324.06647
G1 X145.457 Y125.685 E324.08426
G1 X145.474 Y125.675 E324.08672
G1 X109.319 Y89.52 E330.46405
G1 X109.332 Y89.492 E330.4679
G1 X109.555 Y89.1 E330.52415
G1 X109.629 Y88.98 E330.54173
G1 X109.742 Y88.825 E330.56566
G1 X109.872 Y88.659 E330.59196
G1 X126.412 Y105.199 E333.50942
G1 X126.504 Y105.48 E333.5463
G1 X126.796 Y106.096 E333.63133
G1 X127.163 Y106.672 E333.71651
G1 X127.601 Y107.195 E333.8016
G1 X128.102 Y107.659 E333.88677
G1 X128.658 Y108.058 E333.97212
G1 X129.258 Y108.383 E334.05723
G0 F6600 X129.809 Y108.596
G1 F1125 X146.339 Y125.126 E336.97293
G1 X146.463 Y125.029 E336.99257
G1 X146.517 Y124.986 E337.00118
G1 X146.61 Y124.896 E337.01732
G1 X146.789 Y124.708 E337.0497
G1 X146.986 Y124.471 E337.08814
G1 X147.034 Y124.406 E337.09821
G1 X131.506 Y108.878 E339.83717
G1 X132.92 Y108.878 E340.01354
G1 X147.539 Y123.498 E342.59225
G1 X147.66 Y123.178 E342.63492
G1 X147.73 Y122.933 E342.6667
G1 X147.753 Y122.835 E342.67925
G1 X147.784 Y122.642 E342.70363
G1 X147.814 Y122.358 E342.73925
G1 X134.334 Y108.878 E345.11697
G1 X135.748 Y108.878 E345.29333
G1 X147.853 Y120.983 E347.42852
G1 X147.853 Y119.568 E347.605
G1 X137.163 Y108.878 E349.4906
G1 X138.577 Y108.878 E349.66696
G1 X147.853 Y118.154 E351.30314
G1 X147.853 Y116.741 E351.47937
G1 X139.991 Y108.878 E352.86623
G1 X140.422 Y108.878 E352.91999
G1 X141.405 Y108.878 E353.04259
G1 X147.853 Y115.326 E354.17994
G1 X147.853 Y113.912 E354.35631
G1 X142.817 Y108.876 E355.2446
G1 X143.444 Y108.875 E355.3228
G1 X143.541 Y108.877 E355.3349
G1 X143.819 Y108.889 E355.36961
G1 X143.957 Y108.902 E355.3869
G1 X144.261 Y108.943 E355.42516
G1 X144.31 Y108.955 E355.43145
G1 X147.805 Y112.45 E356.04793
G0 F6600 X147.791 Y112.338
G1 F1125 X147.761 Y112.199 E356.06566
G1 X147.626 Y111.691 E356.13122
G1 X147.596 Y111.594 E356.14389
G1 X147.475 Y111.319 E356.18136
G1 X147.325 Y111.036 E356.22131
G1 X147.17 Y110.783 E356.25831
G1 X147.087 Y110.66 E356.27682
G1 X147.013 Y110.563 E356.29204
G1 X146.86 Y110.376 E356.32217
G1 X146.644 Y110.148 E356.36135
G1 X146.425 Y109.941 E356.39893
G1 X146.354 Y109.88 E356.41061
G1 X146.186 Y109.757 E356.43658
G1 X145.765 Y109.479 E356.4995
