;FLAVOR:Marlin
;TIME:764
;Filament used: 0.84722m
;Layer height: 0.25
;MINX:107.645
;MINY:93.914
;MINZ:0.36
;MAXX:127.353
;MAXY:141.085
;MAXZ:9.435
;Generated with Cura_SteamEngine 4.12.1
M140 S60
M105
M190 S60
M104 S200
M105
M109 S200
M82 ;absolute extrusion mode
M201 X500.00 Y500.00 Z100.00 E5000.00 	;Setup machine max acceleration
M203 X500.00 Y500.00 Z10.00 E50.00 	;Setup machine max feedrate
M204 P500.00 R1000.00 T500.00 		;Setup Print/Retract/Travel acceleration
M205 X8.00 Y8.00 Z0.40 E5.00 		;Setup Jerk
M220 S100 				;Reset Feedrate
M221 S100 				;Reset Flowrate
G28					;Home the Machine
G92 E0
M300 P150 S587
G92 E0
G1 F1500 E-6.5
;LAYER_COUNT:32
;LAYER:-6
M107
G0 F6600 X111.771 Y96.811 Z0.36
;TYPE:SUPPORT-INTERFACE
G1 F1500 E0
G1 F1125 X112.206 Y96.349 E0.07598
G1 X112.669 Y95.933 E0.15051
G1 X113.071 Y95.624 E0.21122
G1 X113.582 Y95.289 E0.28438
G1 X114.051 Y95.03 E0.34853
G1 X114.523 Y94.81 E0.41088
G1 X115.004 Y94.623 E0.47268
G1 X115.516 Y94.463 E0.53691
G1 X116.014 Y94.339 E0.59835
G1 X116.688 Y94.217 E0.68037
G1 X117.354 Y94.145 E0.76058
G1 X118.036 Y94.115 E0.84232
G1 X118.696 Y94.126 E0.92135
G1 X119.322 Y94.172 E0.99651
G1 X120.032 Y94.264 E1.08223
G1 X120.693 Y94.39 E1.16281
G1 X121.226 Y94.522 E1.22855
G1 X121.711 Y94.666 E1.28913
G1 X122.21 Y94.841 E1.35245
G1 X122.725 Y95.053 E1.41913
G1 X123.206 Y95.285 E1.48307
G1 X123.731 Y95.58 E1.55518
G1 X124.227 Y95.908 E1.62638
G1 X124.699 Y96.275 E1.69797
G1 X125.161 Y96.699 E1.77305
G1 X125.584 Y97.161 E1.84806
G1 X126.007 Y97.726 E1.93257
G1 X126.301 Y98.206 E1.99996
G1 X126.554 Y98.713 E2.06781
G1 X126.768 Y99.245 E2.13647
G1 X126.945 Y99.843 E2.21114
G1 X127.054 Y100.377 E2.2764
G1 X127.12 Y100.875 E2.33655
G1 X127.153 Y101.503 E2.41185
G1 X127.136 Y102.105 E2.48396
G1 X127.065 Y102.766 E2.56356
G1 X126.972 Y103.306 E2.62917
G1 X126.853 Y103.81 E2.69118
G1 X126.712 Y104.297 E2.75188
G1 X126.544 Y104.798 E2.81515
G1 X126.3 Y105.413 E2.89437
G1 X126.045 Y105.975 E2.96827
G1 X125.805 Y106.455 E3.03253
G1 X125.463 Y107.077 E3.11752
G1 X125.195 Y107.525 E3.18003
G1 X124.832 Y108.089 E3.26034
G1 X124.365 Y108.762 E3.35842
G1 X123.895 Y109.388 E3.45215
G1 X123.379 Y110.032 E3.55096
G1 X122.848 Y110.656 E3.64906
G1 X122.507 Y111.035 E3.71011
G1 X122.009 Y111.57 E3.79763
G1 X121.498 Y112.096 E3.88543
G1 X121.057 Y112.601 E3.96571
G1 X120.677 Y113.169 E4.04754
G1 X120.372 Y113.78 E4.12931
G1 X120.146 Y114.425 E4.21114
G1 X120.003 Y115.094 E4.29305
G1 X119.946 Y115.869 E4.3861
G1 X119.946 Y119.129 E4.77644
G1 X119.988 Y119.797 E4.85658
G1 X120.117 Y120.468 E4.9384
G1 X120.33 Y121.117 E5.02018
G1 X120.622 Y121.734 E5.10192
G1 X120.991 Y122.311 E5.18392
G1 X121.496 Y122.903 E5.27709
G1 X121.927 Y123.343 E5.35084
G1 X122.295 Y123.733 E5.41505
G1 X122.789 Y124.279 E5.50321
G1 X123.133 Y124.673 E5.56584
G1 X123.615 Y125.258 E5.6566
G1 X124.071 Y125.841 E5.74522
G1 X124.373 Y126.249 E5.806
G1 X124.787 Y126.844 E5.89279
G1 X125.206 Y127.494 E5.98539
G1 X125.587 Y128.14 E6.07519
G1 X125.949 Y128.827 E6.16817
G1 X126.226 Y129.418 E6.24632
G1 X126.447 Y129.948 E6.31508
G1 X126.669 Y130.566 E6.3937
G1 X126.814 Y131.048 E6.45397
G1 X126.962 Y131.652 E6.52843
G1 X127.054 Y132.148 E6.58883
G1 X127.129 Y132.806 E6.66813
G1 X127.153 Y133.389 E6.738
G1 X127.139 Y133.897 E6.79885
G1 X127.082 Y134.456 E6.86613
G1 X126.964 Y135.08 E6.94217
G1 X126.822 Y135.59 E7.00555
G1 X126.585 Y136.217 E7.08581
G1 X126.342 Y136.719 E7.15259
G1 X126.062 Y137.191 E7.2183
G1 X125.762 Y137.615 E7.2805
G1 X125.305 Y138.153 E7.36502
G1 X124.916 Y138.534 E7.43021
G1 X124.505 Y138.882 E7.4947
G1 X124.044 Y139.218 E7.563
G1 X123.6 Y139.498 E7.62585
G1 X123.109 Y139.764 E7.69272
G1 X122.577 Y140.011 E7.76295
G1 X122.075 Y140.209 E7.82756
G1 X121.537 Y140.389 E7.89549
G1 X121.016 Y140.532 E7.96018
G1 X120.479 Y140.655 E8.02614
G1 X119.766 Y140.775 E8.11271
G1 X119.121 Y140.846 E8.19041
G1 X118.461 Y140.882 E8.26956
G1 X117.82 Y140.88 E8.34631
G1 X117.262 Y140.847 E8.41324
G1 X116.681 Y140.782 E8.48324
G1 X116.124 Y140.685 E8.55093
G1 X115.468 Y140.523 E8.63184
G1 X114.83 Y140.314 E8.71223
G1 X114.34 Y140.109 E8.77583
G1 X113.876 Y139.879 E8.83783
G1 X113.401 Y139.6 E8.90379
G1 X112.9 Y139.249 E8.97704
G1 X112.509 Y138.932 E9.03731
G1 X112.096 Y138.54 E9.10549
G1 X111.756 Y138.171 E9.16557
G1 X111.407 Y137.736 E9.23235
G1 X111.089 Y137.28 E9.29891
G1 X110.805 Y136.808 E9.36487
G1 X110.542 Y136.304 E9.43294
G1 X110.298 Y135.764 E9.50389
G1 X110.101 Y135.255 E9.56924
G1 X109.886 Y134.595 E9.65235
G1 X109.719 Y133.983 E9.72831
G1 X109.567 Y133.313 E9.81057
G1 X109.441 Y132.608 E9.89633
G1 X109.341 Y131.913 E9.9804
G1 X109.261 Y131.182 E10.06845
G1 X109.203 Y130.425 E10.15936
G1 X109.175 Y129.922 E10.21968
G1 X109.154 Y129.258 E10.29922
G1 X109.146 Y128.772 E10.35742
G1 X109.144 Y128.09 E10.43908
G1 X109.145 Y126.134 E10.67329
G1 X109.103 Y125.466 E10.75343
G1 X108.974 Y124.795 E10.83524
G1 X108.762 Y124.146 E10.91699
G1 X108.737 Y124.094 E10.9239
G1 X108.784 Y124.094 E10.92953
G1 X108.487 Y123.562 E11.00248
G1 X108.127 Y122.87 E11.09588
G1 X107.965 Y122.381 E11.15756
G1 X107.878 Y121.898 E11.21633
G1 X107.846 Y121.414 E11.27441
G1 X107.846 Y113.616 E12.20811
G1 X107.917 Y112.836 E12.30189
G1 X108.047 Y112.34 E12.36329
G1 X108.244 Y111.874 E12.42386
G1 X108.74 Y110.956 E12.5488
G1 X108.713 Y110.956 E12.55203
G1 X108.889 Y110.508 E12.60967
G1 X109.056 Y109.841 E12.692
G1 X109.145 Y108.881 E12.80744
G1 X109.147 Y106.1 E13.14042
G1 X109.166 Y105.328 E13.23289
G1 X109.2 Y104.618 E13.318
G1 X109.258 Y103.863 E13.40867
G1 X109.334 Y103.143 E13.49535
G1 X109.43 Y102.451 E13.57901
G1 X109.554 Y101.753 E13.66389
G1 X109.704 Y101.075 E13.74703
G1 X109.892 Y100.381 E13.83313
G1 X110.069 Y99.835 E13.90185
G1 X110.309 Y99.21 E13.98202
G1 X110.545 Y98.689 E14.0505
G1 X110.828 Y98.151 E14.12329
G1 X111.094 Y97.714 E14.18454
G1 X111.387 Y97.29 E14.24625
G1 X111.771 Y96.811 E14.31976
G0 F6600 X112 Y96.567
G1 F1125 X112 Y138.435 E19.33289
G0 F6600 X113.6 Y139.716
G1 F1125 X113.6 Y95.279 E24.65362
G0 F6600 X115.2 Y94.561
G1 F1125 X115.2 Y140.435 E30.14641
G0 F6600 X116.8 Y140.795
G1 F1125 X116.8 Y94.204 E35.72505
G0 F6600 X118.4 Y94.122
G1 F1125 X118.4 Y140.881 E41.32381
G0 F6600 X120 Y140.736
G1 F1125 X120 Y119.86 E43.82343
G0 F6600 X121.6 Y123.01
G1 F1125 X121.6 Y140.368 E45.90182
G0 F6600 X123.2 Y139.715
G1 F1125 X123.2 Y124.755 E47.69307
G0 F6600 X124.8 Y126.865
G1 F1125 X124.8 Y138.633 E49.10213
G0 F6600 X126.4 Y136.6
G1 F1125 X126.4 Y129.836 E49.91203
G0 F6600 X121.026 Y121.51
G0 X120.564 Y120.352
G0 X120 Y115.135
G1 F1125 X120 Y94.26 E52.41153
G0 F6600 X121.6 Y94.634
G1 F1125 X121.6 Y111.992 E54.48992
G0 F6600 X123.2 Y110.243
G1 F1125 X123.2 Y95.283 E56.28117
G0 F6600 X124.8 Y96.368
G1 F1125 X124.8 Y108.136 E57.69023
G0 F6600 X126.4 Y105.161
G1 F1125 X126.4 Y98.405 E58.49917
G0 F6600 X110.4 Y99.009
G1 F1125 X110.4 Y135.989 E62.92703
G0 F6600 X108.8 Y124.262
G1 F1125 X108.8 Y110.734 E64.54682
G0 F600 X108.8 Y110.734 Z0.735
G0 F6600 X125.856 Y97.511
;TIME_ELAPSED:33.859890
;LAYER:-5
;TYPE:SUPPORT
G1 F1125 X125.749 Y97.368 E64.5691
G1 X125.583 Y97.16 E64.60229
G1 X125.447 Y97.005 E64.62801
G1 X125.355 Y96.901 E64.64533
G1 X125.16 Y96.698 E64.68044
G1 X124.906 Y96.455 E64.72428
G1 X124.698 Y96.275 E64.75859
G1 X124.543 Y96.147 E64.78366
G1 X124.414 Y96.047 E64.80402
G1 X124.225 Y95.907 E64.83336
G1 X124.115 Y95.831 E64.85003
G1 X125.997 Y97.712 E65.18191
G1 X126.006 Y97.726 E65.18398
G1 X126.103 Y97.875 E65.20616
G1 X126.221 Y98.067 E65.23427
G1 X126.3 Y98.205 E65.2541
G1 X126.405 Y98.406 E65.28238
G1 X126.494 Y98.587 E65.30754
G1 X126.598 Y98.814 E65.33868
G1 X126.685 Y99.024 E65.36703
G1 X126.767 Y99.245 E65.39643
G1 X126.784 Y99.301 E65.40373
G1 X126.811 Y99.376 E65.41368
G1 X126.859 Y99.535 E65.43439
G1 X126.909 Y99.705 E65.45649
G1 X126.956 Y99.895 E65.4809
G1 X127.008 Y100.131 E65.51105
G1 X127.01 Y100.14 E65.5122
G1 X121.458 Y94.588 E66.4915
G1 X121.406 Y94.571 E66.49833
G1 X121.106 Y94.489 E66.53712
G1 X120.812 Y94.417 E66.57487
G1 X120.5 Y94.349 E66.6147
G1 X120.168 Y94.285 E66.65687
G1 X120.09 Y94.273 E66.66671
G1 X119.773 Y94.226 E66.70668
G1 X119.669 Y94.213 E66.71976
G1 X127.151 Y101.695 E68.03949
G1 X127.15 Y101.759 E68.04748
G1 X127.146 Y101.909 E68.06619
G1 X127.134 Y102.104 E68.09056
G1 X127.111 Y102.403 E68.12796
G1 X127.091 Y102.571 E68.14907
G1 X127.035 Y102.959 E68.19796
G1 X127.03 Y102.988 E68.20163
G1 X118.156 Y94.115 E69.76681
G1 X118.15 Y94.114 E69.76757
G1 X117.847 Y94.119 E69.80537
G1 X117.692 Y94.125 E69.82472
G1 X117.366 Y94.143 E69.86544
G1 X117.161 Y94.161 E69.89111
G1 X116.902 Y94.188 E69.92359
G1 X116.826 Y94.199 E69.93316
G1 X126.761 Y104.134 E71.68558
G1 X126.665 Y104.442 E71.72582
G1 X126.543 Y104.798 E71.77276
G1 X126.406 Y105.155 E71.82045
G1 X126.396 Y105.182 E71.82404
G1 X115.642 Y94.429 E73.72084
G1 X115.436 Y94.485 E73.74746
G1 X115.157 Y94.571 E73.78388
G1 X115.003 Y94.622 E73.80411
G1 X114.885 Y94.666 E73.81982
G1 X114.701 Y94.736 E73.84437
G1 X114.583 Y94.784 E73.86026
G1 X125.956 Y106.157 E75.86633
G1 X125.934 Y106.2 E75.87235
G1 X125.772 Y106.516 E75.91664
G1 X125.632 Y106.778 E75.95369
G1 X125.462 Y107.077 E75.99659
G1 X113.639 Y95.255 E78.08195
G1 X113.484 Y95.348 E78.10449
G1 X113.288 Y95.473 E78.13349
G1 X113.069 Y95.624 E78.16666
G1 X112.806 Y95.822 E78.20772
G1 X112.799 Y95.828 E78.20887
G1 X124.922 Y107.951 E80.34723
G1 X124.771 Y108.176 E80.38103
G1 X124.556 Y108.492 E80.4287
G1 X124.345 Y108.789 E80.47414
G1 X112.055 Y96.498 E82.64204
G1 X112.032 Y96.522 E82.64619
G1 X111.966 Y96.593 E82.65828
G1 X111.838 Y96.732 E82.68185
G1 X111.648 Y96.954 E82.71829
G1 X111.534 Y97.094 E82.74081
G1 X111.405 Y97.263 E82.76733
G1 X123.734 Y109.592 E84.94202
G1 X123.598 Y109.762 E84.96918
G1 X123.346 Y110.07 E85.01881
G1 X123.096 Y110.368 E85.06733
G1 X110.846 Y98.118 E87.22809
G1 X110.766 Y98.256 E87.24798
G1 X110.67 Y98.434 E87.2732
G1 X110.597 Y98.579 E87.29345
G1 X110.462 Y98.859 E87.33222
G1 X110.373 Y99.06 E87.35964
G1 X122.431 Y111.117 E89.48645
G1 X122.244 Y111.319 E89.52078
G1 X121.963 Y111.616 E89.57177
G1 X121.744 Y111.845 E89.61129
G1 X109.984 Y100.084 E91.68571
G1 X109.903 Y100.343 E91.71956
G1 X109.796 Y100.711 E91.76736
G1 X109.717 Y101.02 E91.80714
G1 X109.675 Y101.19 E91.82898
G1 X121.07 Y112.585 E93.83893
G1 X121.056 Y112.601 E93.84158
G1 X120.676 Y113.169 E93.92681
G1 X120.531 Y113.46 E93.96737
G1 X109.441 Y102.37 E95.92351
G1 X109.387 Y102.736 E95.96966
G1 X109.339 Y103.089 E96.01409
G1 X109.299 Y103.434 E96.05741
G1 X109.279 Y103.622 E96.08099
G1 X120.134 Y114.477 E97.99569
G1 X120.002 Y115.093 E98.07426
G1 X119.957 Y115.714 E98.15192
G1 X109.181 Y104.938 E100.05268
G1 X109.165 Y105.328 E100.10137
G1 X109.146 Y106.099 E100.19756
G1 X109.145 Y106.317 E100.22475
G1 X119.945 Y117.116 E102.12966
G1 X119.945 Y118.53 E102.30602
G1 X109.144 Y107.73 E104.2111
G1 X109.144 Y108.881 E104.35466
G1 X109.121 Y109.121 E104.38473
G1 X120.033 Y120.033 E106.30948
G1 X120.116 Y120.467 E106.3646
G1 X120.329 Y121.116 E106.44979
G1 X120.621 Y121.733 E106.53493
G1 X120.99 Y122.31 E106.62035
G1 X121.496 Y122.902 E106.71749
G1 X121.71 Y123.119 E106.7555
G1 X121.859 Y123.273 E106.78223
G1 X108.929 Y110.344 E109.06284
G1 X108.889 Y110.507 E109.08378
G1 X108.712 Y110.955 E109.14386
G1 X108.74 Y110.954 E109.14735
G1 X108.524 Y111.353 E109.20394
G1 X125.897 Y128.725 E112.26825
G1 X125.98 Y128.892 E112.29151
G1 X126.106 Y129.151 E112.32743
G1 X126.225 Y129.417 E112.36378
G1 X126.325 Y129.647 E112.39506
G1 X126.446 Y129.947 E112.43541
G1 X126.555 Y130.235 E112.47381
G1 X126.668 Y130.565 E112.51732
G1 X126.762 Y130.866 E112.55665
G1 X126.817 Y131.06 E112.5818
G1 X108.06 Y112.302 E115.89041
G1 X108.047 Y112.339 E115.8953
G1 X107.956 Y112.655 E115.93631
G1 X107.916 Y112.835 E115.95931
G1 X107.871 Y113.151 E115.99912
G1 X107.854 Y113.405 E116.03087
G1 X107.85 Y113.506 E116.04348
G1 X127.127 Y132.784 E119.44381
G1 X127.132 Y132.856 E119.45281
G1 X127.143 Y133.019 E119.47319
G1 X127.151 Y133.223 E119.49865
G1 X127.154 Y133.45 E119.52697
G1 X127.151 Y133.626 E119.54892
G1 X127.139 Y133.896 E119.58263
G1 X127.129 Y134.043 E119.60101
G1 X127.115 Y134.186 E119.61893
G1 X107.845 Y114.916 E123.01794
G1 X107.845 Y116.331 E123.19442
G1 X126.887 Y135.372 E126.55313
G1 X126.799 Y135.659 E126.59057
G1 X126.697 Y135.947 E126.62867
G1 X126.664 Y136.031 E126.63993
G1 X126.521 Y136.362 E126.6849
G1 X126.502 Y136.401 E126.69031
G1 X107.845 Y117.745 E129.98111
G1 X107.845 Y119.159 E130.15747
G1 X125.986 Y137.3 E133.35733
G1 X125.892 Y137.438 E133.37816
G1 X125.761 Y137.614 E133.40552
G1 X125.628 Y137.784 E133.43244
G1 X125.478 Y137.962 E133.46148
G1 X125.362 Y138.09 E133.48302
G1 X107.845 Y120.573 E136.57282
G1 X107.845 Y121.413 E136.67759
G1 X107.85 Y121.55 E136.69469
G1 X107.878 Y121.897 E136.73811
G1 X107.9 Y122.042 E136.7564
G1 X124.633 Y138.776 E139.708
G1 X124.573 Y138.826 E139.71774
G1 X124.387 Y138.971 E139.74715
G1 X124.2 Y139.109 E139.77614
G1 X124.044 Y139.217 E139.79981
G1 X123.873 Y139.33 E139.82537
G1 X123.812 Y139.368 E139.83433
G1 X108.844 Y124.401 E142.47443
G1 X108.973 Y124.794 E142.52602
G1 X109.103 Y125.465 E142.61127
G1 X109.143 Y126.113 E142.69224
G1 X122.896 Y139.867 E145.1182
G1 X122.889 Y139.871 E145.11921
G1 X122.716 Y139.949 E145.14288
G1 X122.508 Y140.04 E145.17119
G1 X122.187 Y140.166 E145.2142
G1 X121.91 Y140.266 E145.25093
G1 X121.888 Y140.273 E145.25381
G1 X109.144 Y127.528 E147.5018
G1 X109.144 Y128.088 E147.57164
G1 X109.146 Y128.861 E147.66806
G1 X109.148 Y128.947 E147.67879
G1 X120.786 Y140.585 E149.7316
G1 X120.667 Y140.613 E149.74684
G1 X120.383 Y140.673 E149.78305
G1 X120.16 Y140.712 E149.81128
G1 X120.022 Y140.736 E149.82875
G1 X119.75 Y140.777 E149.86306
G1 X119.583 Y140.796 E149.88403
G1 X109.202 Y130.415 E151.71511
G1 X109.225 Y130.736 E151.75525
G1 X109.255 Y131.1 E151.80081
G1 X109.291 Y131.482 E151.84866
G1 X109.329 Y131.815 E151.89047
G1 X109.35 Y131.977 E151.91084
G1 X118.256 Y140.883 E153.48176
G1 X118.055 Y140.884 E153.50683
G1 X117.788 Y140.878 E153.54014
G1 X117.487 Y140.864 E153.57772
G1 X117.119 Y140.834 E153.62377
G1 X116.791 Y140.796 E153.66496
G1 X116.748 Y140.789 E153.67039
G1 X109.648 Y133.689 E154.92275
G1 X109.718 Y133.982 E154.96032
G1 X109.764 Y134.163 E154.98361
G1 X109.876 Y134.56 E155.03506
G1 X109.974 Y134.878 E155.07657
G1 X110.074 Y135.181 E155.11636
G1 X110.203 Y135.527 E155.16242
G1 X110.29 Y135.746 E155.19181
G1 X114.872 Y140.328 E156.00002
G1 X114.83 Y140.313 E156.00559
G1 X114.649 Y140.241 E156.02988
G1 X114.317 Y140.098 E156.07497
G1 X114.116 Y140.002 E156.10275
G1 X113.984 Y139.935 E156.12121
G1 X113.796 Y139.835 E156.14777
G1 X113.497 Y139.659 E156.19105
G1 X113.308 Y139.537 E156.21911
G1 X113.105 Y139.399 E156.24972
G1 X112.9 Y139.248 E156.28148
G1 X112.664 Y139.061 E156.31903
G1 X112.504 Y138.927 E156.34506
G1 X112.364 Y138.8 E156.36864
G1 X112.223 Y138.666 E156.3929
G1 X112.029 Y138.47 E156.4273
G1 X111.896 Y138.327 E156.45165
G1 X111.756 Y138.17 E156.47789
G1 X111.658 Y138.056 E156.49664
G1 X111.49 Y137.844 E156.53038
G1 X111.401 Y137.728 E156.54861
G1 X111.236 Y137.498 E156.58392
G1 X111.09 Y137.279 E156.61675
G1 X110.994 Y137.129 E156.63896
G1 X110.909 Y136.99 E156.65928
G1 X110.763 Y136.732 E156.69626
G1 X110.577 Y136.375 E156.74646
G1 X110.46 Y136.132 E156.7801
G1 X110.375 Y135.944 E156.80584
G1 X110.298 Y135.763 E156.83037
G0 F600 X110.298 Y135.763 Z0.985
G0 F6600 X109.868 Y135.2
;TIME_ELAPSED:73.449712
;LAYER:-4
;TYPE:SUPPORT-INTERFACE
G1 F1500 X109.786 Y134.953 E156.84119
