;FLAVOR:Marlin
;TIME:8728
;Filament used: 3.58406m, 4.13399m
;Layer height: 0.2
;MINX:0
;MINY:0
;MINZ:0.36
;MAXX:174.899
;MAXY:169.326
;MAXZ:16.31
;Generated with Cura_SteamEngine 4.12.1
T1
M140 S60
M105
M190 S60
M104 T0 S190
M104 S200
M105
M109 T0 S190
M105
M109 S200
M82 ;absolute extrusion mode
M201 X500.00 Y500.00 Z100.00 E5000.00 	;Setup machine max acceleration
M203 X500.00 Y500.00 Z10.00 E50.00 	;Setup machine max feedrate
M204 P500.00 R1000.00 T500.00 		;Setup Print/Retract/Travel acceleration
M205 X8.00 Y8.00 Z0.40 E5.00 		;Setup Jerk
M220 S100 				;Reset Feedrate
M221 S100 				;Reset Flowrate
G28				;Home the Machine
G29 				;Bed Level
G92 E0
M300 P150 S587
M300 P150 S587
G92 E0
;LAYER_COUNT:75
;LAYER:-6
M107
G0 F6600 X54.843 Y78.902 Z0.36
;TYPE:SUPPORT-INTERFACE
G1 F1012.5 X55.383 Y78.54 E0.07784
G1 X55.947 Y78.194 E0.15707
G1 X56.856 Y77.706 E0.2806
G1 X56.998 Y77.636 E0.29956
G1 X57.804 Y77.277 E0.40521
G1 X57.984 Y77.204 E0.42846
G1 X58.791 Y76.912 E0.53122
G1 X59 Y76.847 E0.55743
G1 X60.226 Y76.52 E0.70936
G1 X60.476 Y76.464 E0.74003
G1 X61.409 Y76.299 E0.85348
G1 X61.55 Y76.28 E0.87052
G1 X62.479 Y76.184 E0.98234
G1 X62.619 Y76.175 E0.99914
G1 X63.545 Y76.146 E1.11007
G1 X71.795 Y76.145 E2.0979
G1 X72.476 Y76.147 E2.17944
G1 X72.587 Y76.149 E2.19273
G1 X73.518 Y76.186 E2.30429
G1 X73.694 Y76.199 E2.32543
G1 X74.769 Y76.324 E2.45501
G1 X74.913 Y76.349 E2.47251
G1 X75.826 Y76.524 E2.58382
G1 X76.001 Y76.564 E2.60531
G1 X76.85 Y76.793 E2.7106
G1 X77.029 Y76.85 E2.7331
G1 X77.597 Y77.053 E2.80532
G1 X78.241 Y77.238 E2.88555
G1 X78.915 Y77.343 E2.96722
G1 X79.598 Y77.363 E3.04904
G1 X80.278 Y77.295 E3.13087
G1 X80.943 Y77.142 E3.21257
G1 X81.584 Y76.907 E3.29432
G1 X82.19 Y76.592 E3.3761
G1 X82.751 Y76.204 E3.45777
G1 X83.26 Y75.748 E3.53959
G1 X83.706 Y75.231 E3.62135
G1 X84.082 Y74.665 E3.70271
G1 X84.736 Y73.393 E3.87397
G1 X84.802 Y73.276 E3.89005
G1 X85.276 Y72.497 E3.99924
G1 X85.376 Y72.346 E4.02092
G1 X85.894 Y71.622 E4.12751
G1 X85.991 Y71.495 E4.14665
G1 X86.576 Y70.793 E4.25606
G1 X86.677 Y70.68 E4.27421
G1 X87.302 Y70.031 E4.3821
G1 X87.427 Y69.911 E4.40284
G1 X88.098 Y69.308 E4.51086
G1 X88.214 Y69.212 E4.52889
G1 X88.926 Y68.662 E4.63662
G1 X89.085 Y68.549 E4.65997
G1 X89.823 Y68.059 E4.76604
G1 X89.949 Y67.983 E4.78366
G1 X90.743 Y67.537 E4.8927
G1 X90.893 Y67.459 E4.91295
G1 X91.708 Y67.076 E5.02077
G1 X91.851 Y67.016 E5.03934
G1 X92.71 Y66.687 E5.14948
G1 X92.86 Y66.635 E5.16849
G1 X93.71 Y66.38 E5.27475
G1 X93.883 Y66.333 E5.29621
G1 X94.778 Y66.133 E5.40602
G1 X94.909 Y66.11 E5.42194
G1 X95.794 Y65.979 E5.52906
G1 X96.004 Y65.958 E5.55434
G1 X97.408 Y65.879 E5.72271
G1 X97.562 Y65.875 E5.74116
G1 X98.173 Y65.874 E5.81432
G1 X100.607 Y65.879 E6.10575
G1 X134.404 Y65.879 E10.15249
G1 X137.489 Y65.876 E10.52188
G1 X138.476 Y65.911 E10.64013
G1 X138.616 Y65.921 E10.65694
G1 X139.518 Y66.019 E10.76557
G1 X139.694 Y66.045 E10.78688
G1 X140.558 Y66.202 E10.89202
G1 X140.745 Y66.244 E10.91497
G1 X141.612 Y66.469 E11.02222
G1 X141.759 Y66.513 E11.04059
G1 X142.612 Y66.803 E11.14847
G1 X142.779 Y66.867 E11.16989
G1 X143.609 Y67.217 E11.27774
G1 X143.747 Y67.282 E11.29601
G1 X144.545 Y67.691 E11.40337
G1 X144.711 Y67.783 E11.4261
G1 X145.462 Y68.241 E11.53142
G1 X145.593 Y68.327 E11.55019
G1 X146.338 Y68.858 E11.65973
G1 X146.47 Y68.96 E11.6797
G1 X147.165 Y69.537 E11.78786
G1 X147.279 Y69.639 E11.80618
G1 X147.942 Y70.275 E11.91618
G1 X148.046 Y70.382 E11.93405
G1 X148.635 Y71.038 E12.03961
G1 X148.773 Y71.203 E12.06537
G1 X149.298 Y71.88 E12.16795
G1 X149.407 Y72.032 E12.19034
G1 X149.902 Y72.776 E12.29734
G1 X149.989 Y72.918 E12.31728
G1 X150.427 Y73.697 E12.42429
G1 X150.503 Y73.844 E12.44411
G1 X150.889 Y74.662 E12.55241
G1 X150.962 Y74.833 E12.57467
G1 X151.275 Y75.648 E12.6792
G1 X151.332 Y75.814 E12.70022
G1 X151.594 Y76.677 E12.80821
G1 X151.636 Y76.836 E12.8279
G1 X151.837 Y77.727 E12.93727
G1 X151.859 Y77.847 E12.95187
G1 X151.978 Y78.644 E13.04836
G1 X152.119 Y79.299 E13.12859
G1 X152.345 Y79.942 E13.21019
G1 X152.651 Y80.554 E13.29212
G1 X153.031 Y81.121 E13.37385
G1 X153.479 Y81.635 E13.45549
G1 X153.989 Y82.09 E13.53733
G1 X154.553 Y82.475 E13.61909
G1 X155.16 Y82.787 E13.70081
G1 X155.803 Y83.02 E13.7827
G1 X156.462 Y83.168 E13.86357
G1 X156.973 Y83.228 E13.92518
G1 X157.489 Y83.285 E13.98734
G1 X158.004 Y83.354 E14.04955
G1 X158.702 Y83.468 E14.13424
G1 X159.334 Y83.589 E14.21128
G1 X160.015 Y83.742 E14.29486
G1 X160.644 Y83.904 E14.37263
G1 X161.363 Y84.111 E14.46222
G1 X162.023 Y84.326 E14.54533
G1 X162.291 Y84.421 E14.57938
G1 X162.785 Y84.604 E14.64245
G1 X163.436 Y84.87 E14.72666
G1 X163.743 Y85.003 E14.76672
G1 X164.297 Y85.26 E14.83984
G1 X164.472 Y85.345 E14.86314
G1 X164.963 Y85.596 E14.92916
G1 X165.2 Y85.725 E14.96147
G1 X165.786 Y86.059 E15.04224
G1 X166.024 Y86.201 E15.07542
G1 X166.543 Y86.529 E15.14893
G1 X166.716 Y86.645 E15.17387
G1 X167.365 Y87.101 E15.26885
G1 X167.49 Y87.193 E15.28743
G1 X168.085 Y87.657 E15.37777
G1 X168.301 Y87.838 E15.41152
G1 X168.882 Y88.344 E15.50377
G1 X169.037 Y88.488 E15.5291
G1 X169.67 Y89.108 E15.63519
G1 X169.807 Y89.252 E15.65899
G1 X170.385 Y89.889 E15.76198
G1 X170.48 Y89.998 E15.7793
G1 X171.075 Y90.742 E15.89336
G1 X171.251 Y90.977 E15.92852
G1 X171.754 Y91.694 E16.03339
G1 X171.881 Y91.891 E16.06145
G1 X172.356 Y92.673 E16.17101
G1 X172.441 Y92.822 E16.19155
G1 X172.904 Y93.71 E16.31146
G1 X172.989 Y93.889 E16.33518
G1 X173.393 Y94.806 E16.45517
G1 X173.464 Y94.987 E16.47845
G1 X173.782 Y95.861 E16.58981
G1 X173.86 Y96.105 E16.62048
G1 X174.076 Y96.846 E16.7129
G1 X174.157 Y97.152 E16.7508
G1 X174.367 Y98.091 E16.86601
G1 X174.406 Y98.306 E16.89217
G1 X174.53 Y99.086 E16.98674
G1 X174.565 Y99.345 E17.01803
G1 X174.642 Y100.128 E17.11224
G1 X174.664 Y100.441 E17.14981
G1 X174.695 Y101.22 E17.24316
G1 X174.699 Y101.449 E17.27058
G1 X174.693 Y102.083 E17.3465
G1 X174.684 Y102.373 E17.38124
G1 X174.635 Y103.145 E17.47386
G1 X174.613 Y103.4 E17.50451
G1 X174.538 Y104.054 E17.58333
G1 X174.414 Y104.875 E17.68275
G1 X174.379 Y105.079 E17.70753
G1 X174.259 Y105.683 E17.78126
G1 X174.211 Y105.906 E17.80858
G1 X174.03 Y106.644 E17.89956
G1 X173.853 Y107.271 E17.97757
G1 X173.632 Y107.974 E18.06581
G1 X173.39 Y108.661 E18.15302
G1 X173.132 Y109.329 E18.23876
G1 X172.847 Y110.004 E18.32649
G1 X172.589 Y110.568 E18.40075
G1 X172.278 Y111.207 E18.48585
G1 X171.992 Y111.757 E18.56007
G1 X171.696 Y112.296 E18.6337
G1 X171.392 Y112.824 E18.70665
G1 X171.041 Y113.4 E18.78742
G1 X170.748 Y113.861 E18.85282
G1 X170.423 Y114.353 E18.92343
G1 X170.348 Y114.464 E18.93947
G1 X170.005 Y115.039 E19.01963
G1 X169.733 Y115.666 E19.10147
G1 X169.542 Y116.322 E19.18328
G1 X169.436 Y116.997 E19.26509
G1 X169.415 Y117.679 E19.34679
G1 X169.481 Y118.359 E19.42859
G1 X169.631 Y119.024 E19.51022
G1 X169.866 Y119.666 E19.59208
G1 X170.175 Y120.267 E19.67299
G1 X170.603 Y120.917 E19.76618
G1 X170.895 Y121.369 E19.83061
G1 X171.217 Y121.885 E19.90344
G1 X171.503 Y122.365 E19.97034
G1 X171.838 Y122.957 E20.05178
G1 X172.183 Y123.605 E20.13969
G1 X172.427 Y124.094 E20.20512
G1 X172.754 Y124.791 E20.29731
G1 X172.976 Y125.3 E20.3638
G1 X173.264 Y126.009 E20.45543
G1 X173.375 Y126.3 E20.49272
G1 X173.558 Y126.807 E20.55726
G1 X173.64 Y127.049 E20.58785
G1 X173.792 Y127.528 E20.64802
G1 X173.994 Y128.229 E20.73537
G1 X174.057 Y128.466 E20.76474
G1 X174.196 Y129.035 E20.83487
G1 X174.265 Y129.351 E20.8736
G1 X174.368 Y129.864 E20.93625
G1 X174.411 Y130.102 E20.96521
G1 X174.504 Y130.686 E21.03602
G1 X174.546 Y131.009 E21.07502
G1 X174.62 Y131.671 E21.15478
G1 X174.647 Y132.004 E21.19478
G1 X174.684 Y132.64 E21.27106
G1 X174.691 Y132.816 E21.29215
G1 X174.7 Y133.567 E21.38208
G1 X174.697 Y133.777 E21.40723
G1 X174.66 Y134.648 E21.51161
G1 X174.646 Y134.834 E21.53394
G1 X174.559 Y135.707 E21.63899
G1 X174.534 Y135.901 E21.66241
G1 X174.408 Y136.689 E21.75796
G1 X174.348 Y137.005 E21.79648
G1 X174.121 Y137.995 E21.91809
G1 X174.074 Y138.17 E21.93979
G1 X173.84 Y138.963 E22.03879
G1 X173.784 Y139.133 E22.06022
G1 X173.425 Y140.114 E22.1853
G1 X173.345 Y140.308 E22.21042
G1 X172.962 Y141.17 E22.32337
G1 X172.877 Y141.345 E22.34666
G1 X172.416 Y142.222 E22.46529
G1 X172.313 Y142.4 E22.48992
G1 X171.777 Y143.269 E22.61217
G1 X171.707 Y143.375 E22.62738
G1 X171.188 Y144.111 E22.73521
G1 X171.033 Y144.313 E22.7657
G1 X170.476 Y145.006 E22.87216
G1 X170.334 Y145.169 E22.89804
G1 X169.671 Y145.891 E23.01541
G1 X169.528 Y146.035 E23.03971
G1 X169.023 Y146.525 E23.12396
G1 X168.865 Y146.671 E23.14972
G1 X168.187 Y147.259 E23.25718
G1 X168.051 Y147.37 E23.2782
G1 X167.504 Y147.795 E23.36114
G1 X167.294 Y147.951 E23.39246
G1 X166.71 Y148.359 E23.47777
G1 X166.507 Y148.492 E23.50682
G1 X165.908 Y148.869 E23.59157
G1 X165.732 Y148.974 E23.61611
G1 X165.117 Y149.321 E23.70066
G1 X164.924 Y149.423 E23.7268
G1 X164.443 Y149.669 E23.79149
G1 X164.235 Y149.769 E23.81912
G1 X163.643 Y150.041 E23.89713
G1 X163.459 Y150.12 E23.9211
G1 X162.903 Y150.349 E23.9931
G1 X162.31 Y150.572 E24.06896
G1 X161.684 Y150.785 E24.14814
G1 X160.943 Y151.013 E24.24097
G1 X160.69 Y151.084 E24.27243
G1 X160.166 Y151.22 E24.33725
G1 X159.57 Y151.359 E24.41053
G1 X158.939 Y151.488 E24.48764
G1 X158.25 Y151.607 E24.57136
G1 X157.606 Y151.7 E24.64928
G1 X156.903 Y151.779 E24.73398
G1 X156.807 Y151.787 E24.74551
G1 X156.145 Y151.892 E24.82577
G1 X155.489 Y152.082 E24.90755
G1 X154.863 Y152.353 E24.98922
G1 X154.276 Y152.702 E25.07099
G1 X153.737 Y153.122 E25.15281
G1 X153.256 Y153.606 E25.23451
G1 X152.84 Y154.147 E25.31623
G1 X152.495 Y154.737 E25.39806
G1 X152.227 Y155.364 E25.47971
G1 X152.042 Y156.019 E25.5612
G1 X152.017 Y156.128 E25.5746
G1 X151.927 Y156.743 E25.64902
G1 X151.765 Y157.622 E25.75604
G1 X151.735 Y157.756 E25.77248
G1 X151.504 Y158.641 E25.882
G1 X151.453 Y158.81 E25.90313
G1 X151.166 Y159.655 E26.00999
G1 X151.102 Y159.821 E26.03129
G1 X150.761 Y160.624 E26.13575
G1 X150.68 Y160.799 E26.15884
G1 X150.265 Y161.607 E26.2676
G1 X150.198 Y161.724 E26.28374
G1 X149.724 Y162.503 E26.39293
G1 X149.624 Y162.654 E26.41461
G1 X149.113 Y163.368 E26.51975
G1 X149 Y163.516 E26.54204
G1 X148.424 Y164.207 E26.64975
G1 X148.323 Y164.32 E26.6679
G1 X147.698 Y164.969 E26.77579
G1 X147.573 Y165.089 E26.79653
G1 X146.903 Y165.691 E26.90438
G1 X146.786 Y165.788 E26.92258
G1 X146.074 Y166.338 E27.03031
G1 X145.915 Y166.451 E27.05366
G1 X145.177 Y166.941 E27.15973
G1 X145.051 Y167.017 E27.17735
G1 X144.257 Y167.463 E27.28639
G1 X144.106 Y167.541 E27.30674
G1 X143.292 Y167.924 E27.41446
G1 X143.149 Y167.984 E27.43303
G1 X142.29 Y168.313 E27.54317
G1 X142.14 Y168.365 E27.56218
G1 X141.29 Y168.62 E27.66843
G1 X141.117 Y168.667 E27.6899
G1 X140.222 Y168.867 E27.79971
G1 X140.091 Y168.89 E27.81563
G1 X139.206 Y169.021 E27.92275
G1 X138.996 Y169.042 E27.94802
G1 X137.592 Y169.121 E28.1164
G1 X137.438 Y169.125 E28.13484
G1 X136.827 Y169.126 E28.208
G1 X134.393 Y169.121 E28.49944
G1 X100.596 Y169.121 E32.54618
G1 X97.511 Y169.124 E32.91556
G1 X96.524 Y169.089 E33.03382
G1 X96.384 Y169.079 E33.05062
G1 X95.482 Y168.981 E33.15926
G1 X95.306 Y168.955 E33.18056
G1 X94.442 Y168.798 E33.28571
G1 X94.255 Y168.756 E33.30866
G1 X93.388 Y168.531 E33.41591
G1 X93.241 Y168.487 E33.43428
G1 X92.388 Y168.197 E33.54216
G1 X92.221 Y168.133 E33.56357
G1 X91.389 Y167.782 E33.6717
G1 X91.253 Y167.718 E33.68969
G1 X90.455 Y167.309 E33.79706
G1 X90.289 Y167.217 E33.81979
G1 X89.538 Y166.759 E33.92511
G1 X89.405 Y166.672 E33.94414
G1 X88.662 Y166.142 E34.05342
G1 X88.53 Y166.04 E34.07339
G1 X87.835 Y165.463 E34.18155
G1 X87.72 Y165.36 E34.20004
G1 X87.058 Y164.725 E34.30987
G1 X86.954 Y164.618 E34.32774
G1 X86.348 Y163.943 E34.43635
G1 X86.227 Y163.798 E34.45897
G1 X85.693 Y163.108 E34.56344
G1 X85.576 Y162.944 E34.58756
G1 X85.106 Y162.237 E34.68921
G1 X85.011 Y162.082 E34.71098
G1 X84.563 Y161.285 E34.82045
G1 X84.294 Y160.727 E34.89462
G1 X83.97 Y160.141 E34.9748
G1 X83.567 Y159.59 E35.05654
G1 X83.098 Y159.094 E35.13827
G1 X82.57 Y158.661 E35.22003
G1 X81.991 Y158.298 E35.30186
G1 X81.372 Y158.011 E35.38356
G1 X80.721 Y157.805 E35.46531
G1 X80.049 Y157.682 E35.54711
G1 X79.367 Y157.645 E35.62889
G1 X78.686 Y157.695 E35.71065
G1 X78.023 Y157.829 E35.79164
G1 X77.621 Y157.953 E35.84202
G1 X76.702 Y158.249 E35.95762
G1 X76.513 Y158.301 E35.98109
G1 X75.13 Y158.612 E36.15082
G1 X74.874 Y158.657 E36.18195
G1 X73.935 Y158.78 E36.29534
G1 X73.789 Y158.793 E36.31289
G1 X72.532 Y158.852 E36.46356
G1 X72.43 Y158.854 E36.47578
G1 X63.495 Y158.852 E37.54562
G1 X62.495 Y158.816 E37.66544
G1 X62.372 Y158.807 E37.68021
G1 X61.435 Y158.703 E37.79309
G1 X61.298 Y158.683 E37.80967
G1 X60.585 Y158.557 E37.89636
G1 X60.327 Y158.504 E37.9279
G1 X59.436 Y158.284 E38.03779
G1 X59.244 Y158.229 E38.0617
G1 X58.413 Y157.958 E38.16636
G1 X58.248 Y157.898 E38.18738
G1 X57.435 Y157.566 E38.29253
G1 X57.259 Y157.486 E38.31568
G1 X56.432 Y157.075 E38.42626
G1 X56.339 Y157.026 E38.43884
G1 X55.647 Y156.624 E38.53467
G1 X55.521 Y156.545 E38.55247
G1 X54.724 Y156.012 E38.66728
G1 X54.607 Y155.928 E38.68452
G1 X53.861 Y155.347 E38.79774
G1 X53.758 Y155.26 E38.81388
G1 X53.088 Y154.654 E38.92205
G1 X52.969 Y154.539 E38.94187
G1 X52.359 Y153.903 E39.04739
G1 X52.288 Y153.821 E39.06037
G1 X51.704 Y153.123 E39.16934
G1 X51.595 Y152.983 E39.19059
G1 X51.049 Y152.227 E39.30225
G1 X50.939 Y152.06 E39.32619
G1 X50.44 Y151.255 E39.4396
G1 X50.341 Y151.078 E39.46388
G1 X49.712 Y149.824 E39.63186
G1 X49.665 Y149.724 E39.64509
G1 X49.314 Y148.831 E39.75998
G1 X49.258 Y148.673 E39.78005
G1 X48.97 Y147.755 E39.89525
G1 X48.914 Y147.55 E39.9207
G1 X48.703 Y146.652 E40.03115
G1 X48.658 Y146.421 E40.05933
G1 X48.485 Y145.278 E40.19774
G1 X48.454 Y144.992 E40.23219
G1 X48.377 Y143.555 E40.4045
G1 X48.375 Y143.459 E40.41599
G1 X48.375 Y142.53 E40.52723
G1 X48.335 Y141.861 E40.60748
G1 X48.208 Y141.19 E40.68925
G1 X47.998 Y140.54 E40.77104
G1 X47.708 Y139.922 E40.85277
G1 X47.342 Y139.346 E40.93449
G1 X46.906 Y138.82 E41.01629
G1 X46.407 Y138.354 E41.09804
G1 X45.854 Y137.954 E41.17976
G1 X45.254 Y137.628 E41.26153
G1 X44.618 Y137.379 E41.34331
G1 X43.95 Y137.211 E41.42578
G1 X42.988 Y137.124 E41.54144
G1 X42.012 Y137.124 E41.6583
G1 X40.993 Y137.088 E41.78039
G1 X40.43 Y137.039 E41.84805
G1 X40.115 Y137.002 E41.88603
G1 X39.22 Y136.87 E41.99435
G1 X39.053 Y136.839 E42.01469
G1 X38.095 Y136.621 E42.13233
G1 X37.754 Y136.531 E42.17456
G1 X36.902 Y136.269 E42.28129
G1 X36.724 Y136.207 E42.30386
G1 X35.877 Y135.878 E42.41266
G1 X35.758 Y135.827 E42.42816
G1 X35.233 Y135.587 E42.49728
G1 X34.323 Y135.106 E42.62052
G1 X34.206 Y135.039 E42.63667
G1 X33.494 Y134.597 E42.73701
G1 X33.253 Y134.435 E42.77178
G1 X32.505 Y133.895 E42.88224
G1 X32.356 Y133.779 E42.90485
G1 X31.572 Y133.121 E43.02741
G1 X30.869 Y132.436 E43.14494
G1 X30.758 Y132.32 E43.16416
G1 X30.159 Y131.645 E43.27222
G1 X30.05 Y131.513 E43.29271
G1 X29.498 Y130.792 E43.40144
G1 X29.412 Y130.671 E43.41921
G1 X29.031 Y130.102 E43.50121
G1 X28.967 Y130.001 E43.51552
G1 X28.692 Y129.549 E43.57888
G1 X28.206 Y128.644 E43.70187
G1 X28.136 Y128.502 E43.72083
G1 X27.777 Y127.696 E43.82648
G1 X27.703 Y127.513 E43.85011
G1 X27.411 Y126.706 E43.95287
G1 X27.347 Y126.5 E43.9787
G1 X27.017 Y125.266 E44.13165
G1 X26.96 Y125.003 E44.16387
G1 X26.799 Y124.089 E44.27499
G1 X26.78 Y123.95 E44.29179
G1 X26.684 Y123.021 E44.40362
G1 X26.675 Y122.881 E44.42042
G1 X26.646 Y121.954 E44.53147
G1 X26.645 Y113.438 E45.55114
G1 X26.649 Y112.91 E45.61436
G1 X26.687 Y111.976 E45.72629
G1 X26.703 Y111.777 E45.7502
