;FLAVOR:Marlin
;TIME:1975
;Filament used: 1.84688m
;Layer height: 0.25
;MINX:93.9
;MINY:76.875
;MINZ:0.3
;MAXX:141.1
;MAXY:158.125
;MAXZ:4.05
;Generated with Cura_SteamEngine 4.12.1
M140 S60
M105
M190 S60
M104 S200
M105
M109 S200
M82 ;absolute extrusion mode
M201 X500.00 Y500.00 Z100.00 E5000.00 	;Setup machine max acceleration
M203 X500.00 Y500.00 Z10.00 E50.00 	;Setup machine max feedrate
M204 P500.00 R1000.00 T500.00 		;Setup Print/Retract/Travel acceleration
M205 X8.00 Y8.00 Z0.40 E5.00 		;Setup Jerk
M220 S100 				;Reset Feedrate
M221 S100 				;Reset Flowrate
G28					;Home the Machine
G92 E0
M300 P150 S587
G92 E0
G1 F1500 E-6.5
;LAYER_COUNT:16
;LAYER:0
M107
G0 F1980 X94.898 Y78.019 Z0.3
;TYPE:SKIRT
G1 F1500 E0
G1 F900 X95.295 Y77.658 E0.02677
G1 X95.741 Y77.361 E0.0535
G1 X96.227 Y77.133 E0.08029
G1 X96.741 Y76.98 E0.10704
G1 X97.428 Y76.898 E0.14156
G1 X98.496 Y76.875 E0.19485
G1 X100.584 Y76.879 E0.29903
G1 X134.418 Y76.879 E1.98701
G1 X136.844 Y76.876 E2.10804
G1 X137.537 Y76.885 E2.14262
G1 X138.071 Y76.932 E2.16937
G1 X138.592 Y77.058 E2.19611
G1 X139.089 Y77.26 E2.22287
G1 X139.551 Y77.533 E2.24965
G1 X139.966 Y77.872 E2.27638
G1 X140.327 Y78.269 E2.30315
G1 X140.625 Y78.715 E2.32991
G1 X140.853 Y79.2 E2.35665
G1 X141.006 Y79.714 E2.3834
G1 X141.088 Y80.373 E2.41653
G1 X141.1 Y80.806 E2.43815
G1 X141.1 Y89.87 E2.89035
G1 X141.087 Y90.662 E2.92987
G1 X141.059 Y91.321 E2.96278
G1 X140.979 Y94.113 E3.10213
G1 X140.979 Y96.809 E3.23663
G1 X141.057 Y99.582 E3.37503
G1 X141.076 Y99.977 E3.39476
G1 X141.1 Y100.805 E3.43609
G1 X141.1 Y109.869 E3.88829
G1 X141.09 Y110.574 E3.92347
G1 X141.077 Y110.884 E3.93895
G1 X140.938 Y113.337 E4.06152
G1 X140.86 Y116.105 E4.19968
G1 X140.86 Y118.8 E4.33413
G1 X140.939 Y121.587 E4.47323
G1 X141.016 Y123.103 E4.54896
G1 X141.083 Y124.241 E4.60583
G1 X141.1 Y124.805 E4.63398
G1 X141.1 Y133.87 E5.08624
G1 X141.087 Y134.662 E5.12576
G1 X141.059 Y135.321 E5.15866
G1 X140.979 Y138.113 E5.29802
G1 X140.979 Y140.809 E5.43252
G1 X141.057 Y143.582 E5.57092
G1 X141.076 Y143.977 E5.59065
G1 X141.1 Y144.805 E5.63198
G1 X141.1 Y153.834 E6.08243
G1 X141.091 Y154.548 E6.11806
G1 X141.044 Y155.083 E6.14485
G1 X140.919 Y155.604 E6.17158
G1 X140.717 Y156.101 E6.19835
G1 X140.444 Y156.562 E6.22508
G1 X140.105 Y156.978 E6.25185
G1 X139.708 Y157.339 E6.27862
G1 X139.262 Y157.637 E6.30538
G1 X138.777 Y157.865 E6.33212
G1 X138.263 Y158.019 E6.35889
G1 X137.572 Y158.102 E6.39361
G1 X136.504 Y158.125 E6.44691
G1 X134.416 Y158.121 E6.55108
G1 X100.582 Y158.121 E8.23906
G1 X98.156 Y158.124 E8.3601
G1 X97.463 Y158.115 E8.39467
G1 X96.929 Y158.068 E8.42142
G1 X96.408 Y157.942 E8.44816
G1 X95.911 Y157.74 E8.47492
G1 X95.449 Y157.467 E8.5017
G1 X95.034 Y157.128 E8.52843
G1 X94.673 Y156.731 E8.5552
G1 X94.375 Y156.285 E8.58196
G1 X94.147 Y155.8 E8.6087
G1 X93.994 Y155.286 E8.63546
G1 X93.912 Y154.623 E8.66878
G1 X93.9 Y154.181 E8.69084
G1 X93.9 Y145.131 E9.14235
G1 X93.913 Y144.321 E9.18277
G1 X93.941 Y143.662 E9.21567
G1 X94.021 Y140.874 E9.35483
G1 X94.021 Y138.191 E9.48868
G1 X93.943 Y135.401 E9.62793
G1 X93.924 Y135.023 E9.64681
G1 X93.9 Y134.195 E9.68814
G1 X93.9 Y125.131 E10.14034
G1 X93.91 Y124.425 E10.17557
G1 X93.923 Y124.116 E10.191
G1 X94.062 Y121.663 E10.31358
G1 X94.14 Y118.895 E10.45173
G1 X94.14 Y116.2 E10.58618
G1 X94.061 Y113.409 E10.72548
G1 X93.984 Y111.896 E10.80106
G1 X93.916 Y110.736 E10.85903
G1 X93.9 Y110.195 E10.88604
G1 X93.9 Y101.131 E11.33824
G1 X93.913 Y100.321 E11.37866
G1 X93.941 Y99.662 E11.41156
G1 X94.021 Y96.874 E11.55071
G1 X94.021 Y94.191 E11.68457
G1 X93.943 Y91.401 E11.82382
G1 X93.924 Y91.023 E11.8427
G1 X93.9 Y90.195 E11.88403
G1 X93.9 Y81.103 E12.33763
G1 X93.909 Y80.448 E12.37031
G1 X93.957 Y79.913 E12.39711
G1 X94.083 Y79.392 E12.42385
G1 X94.285 Y78.895 E12.45062
G1 X94.559 Y78.434 E12.47737
G1 X94.898 Y78.019 E12.50411
G0 F1980 X95.29 Y78.191
G1 F900 X95.681 Y77.871 E12.52931
G1 X96.117 Y77.616 E12.55451
G1 X96.588 Y77.432 E12.57974
G1 X97.083 Y77.326 E12.60499
G1 X97.437 Y77.298 E12.62271
G1 X98.495 Y77.275 E12.67551
G1 X100.583 Y77.279 E12.77968
G1 X134.419 Y77.279 E14.46776
G1 X136.839 Y77.276 E14.5885
G1 X137.532 Y77.285 E14.62307
G1 X138.035 Y77.332 E14.64828
G1 X138.525 Y77.457 E14.67351
G1 X138.989 Y77.658 E14.69874
G1 X139.415 Y77.929 E14.72392
G1 X139.794 Y78.264 E14.74916
G1 X140.115 Y78.655 E14.7744
G1 X140.37 Y79.091 E14.7996
G1 X140.554 Y79.562 E14.82483
G1 X140.661 Y80.056 E14.85004
G1 X140.698 Y80.706 E14.88252
G1 X140.7 Y80.806 E14.88751
G1 X140.7 Y89.864 E15.33942
G1 X140.69 Y90.556 E15.37395
G1 X140.659 Y91.31 E15.4116
G1 X140.579 Y94.102 E15.55095
G1 X140.579 Y96.821 E15.6866
G1 X140.656 Y99.572 E15.8239
G1 X140.676 Y99.989 E15.84473
G1 X140.7 Y100.805 E15.88546
G1 X140.7 Y109.863 E16.33736
G1 X140.69 Y110.568 E16.37254
G1 X140.678 Y110.862 E16.38722
G1 X140.538 Y113.341 E16.51109
G1 X140.46 Y116.093 E16.64845
G1 X140.46 Y118.811 E16.78405
G1 X140.538 Y121.576 E16.92205
G1 X140.618 Y123.153 E17.00083
G1 X140.687 Y124.353 E17.06079
G1 X140.7 Y124.805 E17.08335
G1 X140.7 Y133.864 E17.53531
G1 X140.69 Y134.556 E17.56984
G1 X140.659 Y135.31 E17.60749
G1 X140.579 Y138.102 E17.74684
G1 X140.579 Y140.821 E17.88249
G1 X140.656 Y143.572 E18.01979
G1 X140.676 Y143.989 E18.04062
G1 X140.7 Y144.805 E18.08135
G1 X140.7 Y153.829 E18.53155
G1 X140.691 Y154.543 E18.56718
G1 X140.644 Y155.047 E18.59243
G1 X140.519 Y155.537 E18.61766
G1 X140.319 Y156.001 E18.64287
G1 X140.048 Y156.427 E18.66806
G1 X139.713 Y156.806 E18.6933
G1 X139.322 Y157.127 E18.71853
G1 X138.886 Y157.383 E18.74376
G1 X138.415 Y157.567 E18.76899
G1 X137.921 Y157.674 E18.7942
G1 X137.563 Y157.702 E18.81212
G1 X136.505 Y157.725 E18.86492
G1 X134.417 Y157.721 E18.96909
G1 X100.581 Y157.721 E20.65717
G1 X98.161 Y157.724 E20.77791
G1 X97.468 Y157.715 E20.81248
G1 X96.965 Y157.668 E20.83769
G1 X96.475 Y157.543 E20.86292
G1 X96.011 Y157.342 E20.88814
G1 X95.585 Y157.071 E20.91333
G1 X95.206 Y156.736 E20.93857
G1 X94.885 Y156.345 E20.96381
G1 X94.63 Y155.909 E20.98901
G1 X94.446 Y155.438 E21.01423
G1 X94.339 Y154.944 E21.03945
G1 X94.301 Y154.277 E21.07278
G1 X94.3 Y145.137 E21.52878
G1 X94.31 Y144.431 E21.564
G1 X94.341 Y143.69 E21.60101
G1 X94.421 Y140.898 E21.74036
G1 X94.421 Y138.179 E21.87601
G1 X94.344 Y135.428 E22.01331
G1 X94.324 Y135.011 E22.03414
G1 X94.3 Y134.195 E22.07487
G1 X94.3 Y125.137 E22.52677
G1 X94.31 Y124.431 E22.562
G1 X94.322 Y124.138 E22.57663
G1 X94.462 Y121.659 E22.7005
G1 X94.54 Y118.907 E22.83786
G1 X94.54 Y116.189 E22.97346
G1 X94.462 Y113.424 E23.11146
G1 X94.382 Y111.847 E23.19024
G1 X94.311 Y110.622 E23.25145
G1 X94.3 Y110.195 E23.27276
G1 X94.3 Y101.137 E23.72467
G1 X94.31 Y100.431 E23.7599
G1 X94.341 Y99.69 E23.7969
G1 X94.421 Y96.898 E23.93625
G1 X94.421 Y94.179 E24.0719
G1 X94.344 Y91.428 E24.2092
G1 X94.324 Y91.011 E24.23003
G1 X94.3 Y90.195 E24.27076
G1 X94.3 Y81.108 E24.72411
G1 X94.309 Y80.453 E24.75679
G1 X94.356 Y79.95 E24.78199
G1 X94.482 Y79.46 E24.80724
G1 X94.683 Y78.996 E24.83246
G1 X94.954 Y78.57 E24.85765
G1 X95.29 Y78.191 E24.88292
G1 F1500 E18.38292
;MESH:Side_ribbon.stl
G0 F1980 X100.578 Y79.814
G0 X100.576 Y81.099
G0 X136.83 Y81.146
G1 F1500 E24.88292
G0 F1980 X136.9 Y81.076
;TYPE:WALL-INNER
G1 F900 X136.9 Y89.926 E25.32445
G1 X134.424 Y89.921 E25.44798
G1 X100.577 Y89.921 E27.13661
G1 X98.1 Y89.924 E27.26019
G1 X98.1 Y81.074 E27.70172
G1 X100.576 Y81.079 E27.82525
G1 X134.423 Y81.079 E29.51388
G1 X136.9 Y81.076 E29.63746
G0 F1980 X136.83 Y81.146
G0 X100.577 Y89.821
G0 X100.577 Y90.321
;TYPE:WALL-OUTER
G1 F900 X97.7 Y90.325 E29.78099
G1 X97.7 Y80.675 E30.26243
G1 X98.143 Y80.674 E30.28453
G1 X100.577 Y80.679 E30.40597
G1 X134.423 Y80.679 E32.09455
G1 X137.3 Y80.675 E32.23809
G1 X137.3 Y90.325 E32.71953
G1 X136.857 Y90.326 E32.74163
G1 X134.423 Y90.321 E32.86306
G1 X100.577 Y90.321 E34.55164
G0 F1980 X100.377 Y90.321
G0 X100.577 Y89.531
;TYPE:SKIN
G1 F900 X98.49 Y89.534 E34.66618
G1 X98.49 Y81.464 E35.10905
G1 X100.576 Y81.469 E35.22353
G1 X134.423 Y81.469 E37.08103
G1 X136.51 Y81.466 E37.19556
G1 X136.51 Y89.536 E37.63844
G1 X134.424 Y89.531 E37.75292
G1 X100.577 Y89.531 E39.61041
G0 F1980 X98.97 Y89.353
G1 F900 X98.669 Y89.053 E39.63373
G0 F1980 X98.669 Y88.487
G1 F900 X99.535 Y89.352 E39.70091
G0 F1980 X100.099 Y89.351
G1 F900 X98.669 Y87.921 E39.81189
G0 F1980 X98.669 Y87.355
G1 F900 X100.664 Y89.35 E39.96672
G0 F1980 X101.23 Y89.35
G1 F900 X98.669 Y86.79 E40.16545
G0 F1980 X98.669 Y86.224
G1 F900 X101.795 Y89.35 E40.40806
G0 F1980 X102.361 Y89.35
G1 F900 X98.669 Y85.658 E40.6946
G0 F1980 X98.669 Y85.093
G1 F900 X102.927 Y89.35 E41.02503
G0 F1980 X103.492 Y89.35
G1 F900 X98.669 Y84.527 E41.39934
G0 F1980 X98.669 Y83.961
G1 F900 X104.058 Y89.35 E41.81759
G0 F1980 X104.624 Y89.35
G1 F900 X98.669 Y83.396 E42.27972
G0 F1980 X98.669 Y82.83
G1 F900 X105.189 Y89.35 E42.78575
G0 F1980 X105.755 Y89.35
G1 F900 X98.669 Y82.264 E43.3357
G0 F1980 X98.669 Y81.699
G1 F900 X106.321 Y89.35 E43.92954
G0 F1980 X106.886 Y89.35
G1 F900 X99.181 Y81.645 E44.52753
G0 F1980 X99.748 Y81.646
G1 F900 X107.452 Y89.35 E45.12545
G0 F1980 X108.018 Y89.35
G1 F900 X100.316 Y81.648 E45.72321
G0 F1980 X100.882 Y81.648
G1 F900 X108.584 Y89.35 E46.32096
G0 F1980 X109.149 Y89.35
G1 F900 X101.447 Y81.648 E46.91872
G0 F1980 X102.013 Y81.648
G1 F900 X109.715 Y89.35 E47.51648
G0 F1980 X110.281 Y89.35
G1 F900 X102.579 Y81.648 E48.11424
G0 F1980 X103.144 Y81.648
G1 F900 X110.846 Y89.35 E48.712
G0 F1980 X111.412 Y89.35
G1 F900 X103.71 Y81.648 E49.30976
G0 F1980 X104.276 Y81.648
G1 F900 X111.978 Y89.35 E49.90752
G0 F1980 X112.543 Y89.35
G1 F900 X104.842 Y81.648 E50.50524
G0 F1980 X105.407 Y81.648
G1 F900 X113.109 Y89.35 E51.103
G0 F1980 X113.675 Y89.35
G1 F900 X105.973 Y81.648 E51.70076
G0 F1980 X106.539 Y81.648
G1 F900 X114.24 Y89.35 E52.29848
G0 F1980 X114.806 Y89.35
G1 F900 X107.104 Y81.648 E52.89624
G0 F1980 X107.67 Y81.648
G1 F900 X115.372 Y89.35 E53.494
G0 F1980 X115.937 Y89.35
G1 F900 X108.236 Y81.648 E54.09172
G0 F1980 X108.801 Y81.648
G1 F900 X116.503 Y89.35 E54.68948
G0 F1980 X117.069 Y89.35
G1 F900 X109.367 Y81.648 E55.28724
G0 F1980 X109.933 Y81.648
G1 F900 X117.634 Y89.35 E55.88496
G0 F1980 X118.2 Y89.35
G1 F900 X110.498 Y81.648 E56.48272
G0 F1980 X111.064 Y81.648
G1 F900 X118.766 Y89.35 E57.08048
G0 F1980 X119.332 Y89.35
G1 F900 X111.63 Y81.648 E57.67824
G0 F1980 X112.195 Y81.648
G1 F900 X119.897 Y89.35 E58.276
G0 F1980 X120.463 Y89.35
G1 F900 X112.761 Y81.648 E58.87376
G0 F1980 X113.327 Y81.648
G1 F900 X121.029 Y89.35 E59.47152
G0 F1980 X121.594 Y89.35
G1 F900 X113.892 Y81.648 E60.06928
G0 F1980 X114.458 Y81.648
G1 F900 X122.16 Y89.35 E60.66704
G0 F1980 X122.726 Y89.35
G1 F900 X115.024 Y81.648 E61.2648
G0 F1980 X115.59 Y81.648
G1 F900 X123.291 Y89.35 E61.86252
G0 F1980 X123.857 Y89.35
G1 F900 X116.155 Y81.648 E62.46028
G0 F1980 X116.721 Y81.648
G1 F900 X124.423 Y89.35 E63.05804
G0 F1980 X124.988 Y89.35
G1 F900 X117.287 Y81.648 E63.65576
G0 F1980 X117.852 Y81.648
G1 F900 X125.554 Y89.35 E64.25352
G0 F1980 X126.12 Y89.35
G1 F900 X118.418 Y81.648 E64.85128
G0 F1980 X118.984 Y81.648
G1 F900 X126.685 Y89.35 E65.449
G0 F1980 X127.251 Y89.35
G1 F900 X119.549 Y81.648 E66.04676
G0 F1980 X120.115 Y81.648
G1 F900 X127.817 Y89.35 E66.64452
G0 F1980 X128.383 Y89.35
G1 F900 X120.681 Y81.648 E67.24227
G0 F1980 X121.246 Y81.648
G1 F900 X128.948 Y89.35 E67.84003
G0 F1980 X129.514 Y89.35
G1 F900 X121.812 Y81.648 E68.43779
G0 F1980 X122.378 Y81.648
G1 F900 X130.08 Y89.35 E69.03555
G0 F1980 X130.645 Y89.35
G1 F900 X122.943 Y81.648 E69.63331
G0 F1980 X123.509 Y81.648
G1 F900 X131.211 Y89.35 E70.23107
G0 F1980 X131.777 Y89.35
G1 F900 X124.075 Y81.648 E70.82883
G0 F1980 X124.641 Y81.648
G1 F900 X132.342 Y89.35 E71.42655
G0 F1980 X132.908 Y89.35
G1 F900 X125.206 Y81.648 E72.02431
G0 F1980 X125.772 Y81.648
G1 F900 X133.474 Y89.35 E72.62207
G0 F1980 X134.039 Y89.35
G1 F900 X126.338 Y81.648 E73.21979
G0 F1980 X126.903 Y81.648
G1 F900 X134.605 Y89.35 E73.81755
G0 F1980 X135.173 Y89.352
G1 F900 X127.469 Y81.648 E74.41547
G0 F1980 X128.035 Y81.648
G1 F900 X135.74 Y89.354 E75.0135
G0 F1980 X136.307 Y89.355
G1 F900 X128.6 Y81.648 E75.61164
G0 F1980 X129.166 Y81.648
G1 F900 X136.329 Y88.811 E76.16757
G0 F1980 X136.329 Y88.246
G1 F900 X129.732 Y81.648 E76.67961
G0 F1980 X130.297 Y81.648
G1 F900 X136.329 Y87.68 E77.14776
G0 F1980 X136.329 Y87.114
G1 F900 X130.863 Y81.648 E77.57198
G0 F1980 X131.429 Y81.648
G1 F900 X136.329 Y86.549 E77.95231
G0 F1980 X136.329 Y85.983
G1 F900 X131.994 Y81.648 E78.28876
G0 F1980 X132.56 Y81.648
G1 F900 X136.329 Y85.417 E78.58127
G0 F1980 X136.329 Y84.852
G1 F900 X133.126 Y81.648 E78.8299
G0 F1980 X133.691 Y81.648
G1 F900 X136.329 Y84.286 E79.03464
G0 F1980 X136.329 Y83.72
G1 F900 X134.257 Y81.648 E79.19545
G0 F1980 X134.823 Y81.648
G1 F900 X136.329 Y83.155 E79.31237
G0 F1980 X136.329 Y82.589
G1 F900 X135.387 Y81.647 E79.38548
G0 F1980 X135.952 Y81.646
G1 F900 X136.329 Y82.023 E79.41474
G1 F1500 E72.91474
G0 F1980 X136.854 Y89.906
G0 X136.857 Y91.191
G0 X136.884 Y99.812
G0 X136.886 Y101.09
G1 F1500 E79.41474
G0 F1980 X136.9 Y101.076
;TYPE:WALL-INNER
G1 F900 X136.9 Y109.926 E79.85626
G1 X134.424 Y109.921 E79.97979
G1 X100.577 Y109.921 E81.66843
G1 X98.1 Y109.924 E81.792
G1 X98.1 Y101.074 E82.23353
G1 X100.576 Y101.079 E82.35706
G1 X134.423 Y101.079 E84.04569
G1 X136.9 Y101.076 E84.16927
G0 F1980 X136.83 Y101.146
G0 X100.577 Y109.821
G0 X100.577 Y110.321
;TYPE:WALL-OUTER
G1 F900 X97.7 Y110.325 E84.31281
G1 X97.7 Y100.675 E84.79425
G1 X98.143 Y100.674 E84.81635
G1 X100.577 Y100.679 E84.93778
G1 X134.423 Y100.679 E86.62637
G1 X137.3 Y100.675 E86.7699
G1 X137.3 Y110.325 E87.25134
G1 X136.857 Y110.326 E87.27344
G1 X134.423 Y110.321 E87.39487
G1 X100.577 Y110.321 E89.08346
G0 F1980 X100.377 Y110.321
G0 X100.577 Y109.531
;TYPE:SKIN
G1 F900 X98.49 Y109.534 E89.19799
G1 X98.49 Y101.464 E89.64087
G1 X100.576 Y101.469 E89.75535
G1 X134.423 Y101.469 E91.61284
G1 X136.51 Y101.466 E91.72738
G1 X136.51 Y109.536 E92.17025
G1 X134.424 Y109.531 E92.28473
G1 X100.577 Y109.531 E94.14223
G0 F1980 X99.169 Y109.351
G1 F900 X98.67 Y108.852 E94.18095
G0 F1980 X98.67 Y108.287
G1 F900 X99.734 Y109.351 E94.26353
G0 F1980 X100.299 Y109.35
G1 F900 X98.67 Y107.721 E94.38996
G0 F1980 X98.67 Y107.155
G1 F900 X100.865 Y109.35 E94.56032
G0 F1980 X101.43 Y109.35
G1 F900 X98.67 Y106.589 E94.77456
G0 F1980 X98.67 Y106.024
G1 F900 X101.996 Y109.35 E95.0327
G0 F1980 X102.562 Y109.35
G1 F900 X98.67 Y105.458 E95.33476
G0 F1980 X98.67 Y104.892
G1 F900 X103.127 Y109.35 E95.68071
G0 F1980 X103.693 Y109.35
G1 F900 X98.67 Y104.327 E96.07055
G0 F1980 X98.67 Y103.761
G1 F900 X104.259 Y109.35 E96.50432
G0 F1980 X104.825 Y109.35
G1 F900 X98.67 Y103.195 E96.98201
G0 F1980 X98.67 Y102.63
G1 F900 X105.39 Y109.35 E97.50356
G0 F1980 X105.956 Y109.35
G1 F900 X98.67 Y102.064 E98.06903
G0 F1980 X98.815 Y101.643
G1 F900 X106.522 Y109.35 E98.66718
G0 F1980 X107.087 Y109.35
G1 F900 X99.382 Y101.645 E99.26517
G0 F1980 X99.949 Y101.646
G1 F900 X107.653 Y109.35 E99.86308
G0 F1980 X108.219 Y109.35
G1 F900 X100.516 Y101.648 E100.46088
G0 F1980 X101.083 Y101.648
G1 F900 X108.784 Y109.35 E101.0586
G0 F1980 X109.35 Y109.35
G1 F900 X101.648 Y101.648 E101.65636
G0 F1980 X102.214 Y101.648
G1 F900 X109.916 Y109.35 E102.25412
G0 F1980 X110.481 Y109.35
G1 F900 X102.78 Y101.648 E102.85184
G0 F1980 X103.345 Y101.648
G1 F900 X111.047 Y109.35 E103.4496
G0 F1980 X111.613 Y109.35
G1 F900 X103.911 Y101.648 E104.04736
G0 F1980 X104.477 Y101.648
G1 F900 X112.178 Y109.35 E104.64508
G0 F1980 X112.744 Y109.35
