;FLAVOR:Marlin
;TIME:19294
;Filament used: 12.5233m, 3.66466m
;Layer height: 0.2
;MINX:0
;MINY:0
;MINZ:0.36
;MAXX:190.722
;MAXY:158.3
;MAXZ:41.31
;Generated with Cura_SteamEngine 4.12.1
T1
M140 S60
M105
M190 S60
M104 T0 S190
M104 S200
M105
M109 T0 S190
M105
M109 S200
M82 ;absolute extrusion mode
M201 X500.00 Y500.00 Z100.00 E5000.00 	;Setup machine max acceleration
M203 X500.00 Y500.00 Z10.00 E50.00 	;Setup machine max feedrate
M204 P500.00 R1000.00 T500.00 		;Setup Print/Retract/Travel acceleration
M205 X8.00 Y8.00 Z0.40 E5.00 		;Setup Jerk
M220 S100 				;Reset Feedrate
M221 S100 				;Reset Flowrate
G28				;Home the Machine
G29 				;Bed Level
G92 E0
M300 P150 S587
M300 P150 S587
G92 E0
;LAYER_COUNT:200
;LAYER:-6
M107
G0 F6600 X63.068 Y81.315 Z0.36
;TYPE:SUPPORT-INTERFACE
G1 F1012.5 X63.223 Y81.197 E0.02333
G1 X63.939 Y80.692 E0.12824
G1 X64.107 Y80.582 E0.15228
G1 X64.995 Y80.053 E0.27604
G1 X65.084 Y80.005 E0.28815
G1 X65.935 Y79.577 E0.40221
G1 X66.089 Y79.507 E0.42246
G1 X66.937 Y79.155 E0.5324
G1 X67.056 Y79.111 E0.54759
G1 X67.66 Y78.902 E0.62412
G1 X67.877 Y78.835 E0.65131
G1 X68.73 Y78.597 E0.75735
G1 X68.94 Y78.547 E0.7832
G1 X70.169 Y78.31 E0.93306
G1 X71.2 Y78.194 E1.05729
G1 X71.346 Y78.183 E1.07482
G1 X72.395 Y78.145 E1.20051
G1 X118.684 Y78.146 E6.74299
G1 X119.359 Y78.103 E6.82397
G1 X120.327 Y77.887 E6.94273
G1 X121.5 Y77.505 E7.09044
G1 X121.789 Y77.428 E7.12625
G1 X123.193 Y77.13 E7.29811
G1 X123.453 Y77.089 E7.32962
G1 X124.911 Y76.936 E7.50516
G1 X125.16 Y76.921 E7.53503
G1 X125.922 Y76.9 E7.6263
G1 X173.943 Y76.901 E13.37617
G1 X174.67 Y76.92 E13.46324
G1 X174.865 Y76.93 E13.48662
G1 X175.891 Y77.018 E13.60992
G1 X176.448 Y77.096 E13.67727
G1 X176.768 Y77.153 E13.71619
G1 X178.136 Y77.449 E13.88378
G1 X178.427 Y77.528 E13.91988
G1 X179.761 Y77.968 E14.08807
G1 X180.066 Y78.085 E14.12719
G1 X181.334 Y78.653 E14.29355
G1 X181.612 Y78.795 E14.33093
G1 X182.923 Y79.556 E14.51243
G1 X183.151 Y79.707 E14.54518
G1 X184.313 Y80.563 E14.71799
G1 X184.559 Y80.763 E14.75595
G1 X185.528 Y81.638 E14.91228
G1 X185.743 Y81.854 E14.94877
G1 X186.721 Y82.937 E15.12349
G1 X186.909 Y83.167 E15.15906
G1 X187.765 Y84.348 E15.33371
G1 X187.934 Y84.609 E15.37094
G1 X188.648 Y85.849 E15.54227
G1 X188.782 Y86.114 E15.57782
G1 X189.348 Y87.386 E15.74452
G1 X189.459 Y87.669 E15.78092
G1 X189.92 Y89.077 E15.95832
G1 X189.968 Y89.26 E15.98097
G1 X190.195 Y90.231 E16.10037
G1 X190.3 Y90.811 E16.17095
G1 X190.344 Y91.098 E16.20571
G1 X190.493 Y92.568 E16.38263
G1 X190.501 Y92.719 E16.40073
G1 X190.522 Y93.5 E16.49428
G1 X190.522 Y141.496 E22.24115
G1 X190.503 Y142.232 E22.32931
G1 X190.49 Y142.458 E22.35641
G1 X190.337 Y143.943 E22.53516
G1 X190.289 Y144.254 E22.57284
G1 X190.109 Y145.169 E22.6845
G1 X189.957 Y145.782 E22.76012
G1 X189.878 Y146.062 E22.79496
G1 X189.454 Y147.341 E22.9563
G1 X189.344 Y147.632 E22.99355
G1 X188.746 Y148.964 E23.16837
G1 X188.674 Y149.106 E23.18743
G1 X188.175 Y150.006 E23.31065
G1 X187.827 Y150.564 E23.38939
G1 X187.704 Y150.745 E23.4156
G1 X186.892 Y151.851 E23.57988
G1 X186.684 Y152.107 E23.61938
G1 X185.731 Y153.158 E23.78925
G1 X185.522 Y153.368 E23.82473
G1 X184.529 Y154.262 E23.98471
G1 X184.255 Y154.484 E24.02694
G1 X183.102 Y155.323 E24.19768
G1 X182.831 Y155.502 E24.23656
G1 X181.611 Y156.206 E24.40522
G1 X181.341 Y156.344 E24.44153
G1 X179.967 Y156.957 E24.62167
G1 X179.694 Y157.058 E24.65653
G1 X178.378 Y157.484 E24.82215
G1 X178.055 Y157.572 E24.86223
G1 X176.651 Y157.87 E25.03409
G1 X176.391 Y157.911 E25.06561
G1 X174.933 Y158.064 E25.24114
G1 X174.684 Y158.079 E25.27101
G1 X173.922 Y158.1 E25.36228
G1 X125.941 Y158.1 E31.10736
G1 X125.174 Y158.08 E31.19923
G1 X124.979 Y158.07 E31.22261
G1 X123.953 Y157.982 E31.34591
G1 X123.892 Y157.975 E31.35326
G1 X123.346 Y157.896 E31.41932
G1 X123.076 Y157.847 E31.45217
G1 X121.708 Y157.551 E31.61976
G1 X121.414 Y157.47 E31.65628
G1 X120.359 Y157.122 E31.78929
G1 X119.71 Y156.954 E31.86957
G1 X119.039 Y156.867 E31.95058
G1 X118.69 Y156.855 E31.99239
G1 X72.292 Y156.853 E37.54793
G1 X71.38 Y156.819 E37.6572
G1 X71.196 Y156.805 E37.6793
G1 X70.007 Y156.662 E37.82269
G1 X69.81 Y156.631 E37.84657
G1 X68.859 Y156.435 E37.96283
G1 X68.723 Y156.402 E37.97959
G1 X67.952 Y156.19 E38.07533
G1 X67.763 Y156.13 E38.09907
G1 X66.88 Y155.823 E38.21101
G1 X66.713 Y155.758 E38.23247
G1 X65.888 Y155.401 E38.3401
G1 X65.758 Y155.34 E38.3573
G1 X64.981 Y154.939 E38.46199
G1 X64.874 Y154.878 E38.47674
G1 X64.07 Y154.394 E38.5891
G1 X63.931 Y154.303 E38.609
G1 X63.194 Y153.782 E38.71707
G1 X63.046 Y153.668 E38.73943
G1 X62.292 Y153.046 E38.85647
G1 X62.061 Y152.841 E38.89345
G1 X61.469 Y152.281 E38.99102
G1 X60.806 Y151.568 E39.1076
G1 X60.689 Y151.431 E39.12917
G1 X60.135 Y150.74 E39.23522
G1 X60.031 Y150.601 E39.25601
G1 X59.523 Y149.863 E39.36328
G1 X59.436 Y149.727 E39.38261
G1 X58.95 Y148.9 E39.49747
G1 X58.83 Y148.673 E39.52821
G1 X58.428 Y147.86 E39.63681
G1 X58.348 Y147.682 E39.66018
G1 X58.027 Y146.895 E39.76195
G1 X57.953 Y146.686 E39.78849
G1 X57.549 Y145.371 E39.95321
G1 X57.469 Y145.054 E39.99236
G1 X57.287 Y144.195 E40.09749
G1 X57.249 Y143.98 E40.12363
G1 X57.137 Y143.191 E40.21905
G1 X57.062 Y142.196 E40.33853
G1 X57.056 Y141.611 E40.40858
G1 X57.046 Y141.379 E40.43638
G1 X57.045 Y96.734 E45.78202
G1 X57.047 Y93.484 E46.17116
G1 X57.072 Y92.584 E46.27897
G1 X57.083 Y92.414 E46.29937
G1 X57.19 Y91.392 E46.4224
G1 X57.205 Y91.302 E46.43333
G1 X57.44 Y90.072 E46.58327
G1 X57.49 Y89.847 E46.61087
G1 X57.692 Y89.096 E46.70399
G1 X58.02 Y88.122 E46.82704
G1 X58.072 Y87.984 E46.8447
G1 X58.428 Y87.138 E46.9546
G1 X58.491 Y87 E46.97277
G1 X58.802 Y86.379 E47.05593
G1 X58.928 Y86.144 E47.08785
G1 X59.293 Y85.503 E47.17618
G1 X59.357 Y85.401 E47.19059
G1 X59.856 Y84.642 E47.29935
G1 X59.951 Y84.507 E47.31912
G1 X60.492 Y83.802 E47.42552
G1 X60.599 Y83.673 E47.44559
G1 X61.21 Y82.987 E47.55559
G1 X61.313 Y82.88 E47.57337
G1 X62.165 Y82.063 E47.71471
G1 X62.348 Y81.904 E47.74374
G1 X63.068 Y81.315 E47.85512
G0 F6600 X62.4 Y81.861
G1 F1012.5 X62.4 Y153.135 E56.38922
G0 F6600 X64 Y154.348
G1 F1012.5 X64 Y80.652 E65.21332
G0 F6600 X65.6 Y79.745
G1 F1012.5 X65.6 Y155.258 E74.25498
G0 F6600 X67.2 Y155.934
G1 F1012.5 X67.2 Y79.061 E83.45948
G0 F6600 X68.8 Y78.58
G1 F1012.5 X68.8 Y156.42 E92.77977
G0 F6600 X70.4 Y156.709
G1 F1012.5 X70.4 Y78.284 E102.17011
G0 F6600 X72 Y78.159
G1 F1012.5 X72 Y156.842 E111.59133
G0 F6600 X73.6 Y156.853
G1 F1012.5 X73.6 Y78.146 E121.01543
G0 F6600 X75.2 Y78.146
G1 F1012.5 X75.2 Y156.853 E130.43953
G0 F6600 X76.8 Y156.853
G1 F1012.5 X76.8 Y78.146 E139.86363
G0 F6600 X78.4 Y78.146
G1 F1012.5 X78.4 Y156.853 E149.28773
G0 F6600 X80 Y156.853
G1 F1012.5 X80 Y78.146 E158.71183
G0 F6600 X81.6 Y78.146
G1 F1012.5 X81.6 Y156.853 E168.13593
G0 F6600 X83.2 Y156.853
G1 F1012.5 X83.2 Y78.146 E177.56003
G0 F6600 X84.8 Y78.146
G1 F1012.5 X84.8 Y156.853 E186.98413
G0 F6600 X86.4 Y156.853
G1 F1012.5 X86.4 Y78.146 E196.40823
G0 F6600 X88 Y78.146
G1 F1012.5 X88 Y156.853 E205.83233
G0 F6600 X89.6 Y156.853
G1 F1012.5 X89.6 Y78.146 E215.25643
G0 F6600 X91.2 Y78.146
G1 F1012.5 X91.2 Y156.853 E224.68053
G0 F6600 X92.8 Y156.853
G1 F1012.5 X92.8 Y78.146 E234.10463
G0 F6600 X94.4 Y78.146
G1 F1012.5 X94.4 Y156.853 E243.52873
G0 F6600 X96 Y156.854
G1 F1012.5 X96 Y78.146 E252.95294
G0 F6600 X97.6 Y78.146
G1 F1012.5 X97.6 Y156.854 E262.37716
G0 F6600 X99.2 Y156.854
G1 F1012.5 X99.2 Y78.146 E271.80138
G0 F6600 X100.8 Y78.146
G1 F1012.5 X100.8 Y156.854 E281.2256
G0 F6600 X102.4 Y156.854
G1 F1012.5 X102.4 Y78.146 E290.64982
G0 F6600 X104 Y78.146
G1 F1012.5 X104 Y156.854 E300.07404
G0 F6600 X105.6 Y156.854
G1 F1012.5 X105.6 Y78.146 E309.49826
G0 F6600 X107.2 Y78.146
G1 F1012.5 X107.2 Y156.854 E318.92248
G0 F6600 X108.8 Y156.854
G1 F1012.5 X108.8 Y78.146 E328.3467
G0 F6600 X110.4 Y78.146
G1 F1012.5 X110.4 Y156.854 E337.77092
G0 F6600 X112 Y156.854
G1 F1012.5 X112 Y78.146 E347.19514
G0 F6600 X113.6 Y78.146
G1 F1012.5 X113.6 Y156.854 E356.61936
G0 F6600 X115.2 Y156.854
G1 F1012.5 X115.2 Y78.146 E366.04358
G0 F6600 X116.8 Y78.146
G1 F1012.5 X116.8 Y156.854 E375.4678
G0 F6600 X118.4 Y156.854
G1 F1012.5 X118.4 Y78.146 E384.89202
G0 F6600 X120 Y77.959
G1 F1012.5 X120 Y157.029 E394.35958
G0 F6600 X121.6 Y157.521
G1 F1012.5 X121.6 Y77.478 E403.94365
G0 F6600 X123.2 Y77.128
G1 F1012.5 X123.2 Y157.869 E413.61129
G0 F6600 X124.8 Y158.054
G1 F1012.5 X124.8 Y76.947 E423.32276
G0 F6600 X126.4 Y76.901
G1 F1012.5 X126.4 Y158.1 E433.04524
G0 F6600 X128 Y158.1
G1 F1012.5 X128 Y76.901 E442.76772
G0 F6600 X129.6 Y76.901
G1 F1012.5 X129.6 Y158.1 E452.49021
G0 F6600 X131.2 Y158.1
G1 F1012.5 X131.2 Y76.901 E462.21269
G0 F6600 X132.8 Y76.901
G1 F1012.5 X132.8 Y158.1 E471.93517
G0 F6600 X134.4 Y158.1
G1 F1012.5 X134.4 Y76.901 E481.65766
G0 F6600 X136 Y76.901
G1 F1012.5 X136 Y158.1 E491.38014
G0 F6600 X137.6 Y158.1
G1 F1012.5 X137.6 Y76.901 E501.10262
G0 F6600 X139.2 Y76.901
G1 F1012.5 X139.2 Y158.1 E510.8251
G0 F6600 X140.8 Y158.1
G1 F1012.5 X140.8 Y76.901 E520.54759
G0 F6600 X142.4 Y76.901
G1 F1012.5 X142.4 Y158.1 E530.27007
G0 F6600 X144 Y158.1
G1 F1012.5 X144 Y76.901 E539.99255
G0 F6600 X145.6 Y76.901
G1 F1012.5 X145.6 Y158.1 E549.71504
G0 F6600 X147.2 Y158.1
G1 F1012.5 X147.2 Y76.901 E559.43752
G0 F6600 X148.8 Y76.901
G1 F1012.5 X148.8 Y158.1 E569.16
G0 F6600 X150.4 Y158.1
G1 F1012.5 X150.4 Y76.901 E578.88249
G0 F6600 X152 Y76.901
G1 F1012.5 X152 Y158.1 E588.60497
G0 F6600 X153.6 Y158.1
G1 F1012.5 X153.6 Y76.901 E598.32745
G0 F6600 X155.2 Y76.901
G1 F1012.5 X155.2 Y158.1 E608.04993
G0 F6600 X156.8 Y158.1
G1 F1012.5 X156.8 Y76.901 E617.77242
G0 F6600 X158.4 Y76.901
G1 F1012.5 X158.4 Y158.1 E627.4949
G0 F6600 X160 Y158.1
G1 F1012.5 X160 Y76.901 E637.21738
G0 F6600 X161.6 Y76.901
G1 F1012.5 X161.6 Y158.1 E646.93987
G0 F6600 X163.2 Y158.1
G1 F1012.5 X163.2 Y76.901 E656.66235
G0 F6600 X164.8 Y76.901
G1 F1012.5 X164.8 Y158.1 E666.38483
G0 F6600 X166.4 Y158.1
G1 F1012.5 X166.4 Y76.901 E676.10731
G0 F6600 X168 Y76.901
G1 F1012.5 X168 Y158.1 E685.8298
G0 F6600 X169.6 Y158.1
G1 F1012.5 X169.6 Y76.901 E695.55228
G0 F6600 X171.2 Y76.901
G1 F1012.5 X171.2 Y158.1 E705.27476
G0 F6600 X172.8 Y158.1
G1 F1012.5 X172.8 Y76.901 E714.99725
G0 F6600 X174.4 Y76.913
G1 F1012.5 X174.4 Y158.087 E724.71674
G0 F6600 X176 Y157.953
G1 F1012.5 X176 Y77.034 E734.40569
G0 F6600 X177.6 Y77.334
G1 F1012.5 X177.6 Y157.669 E744.02472
G0 F6600 X179.2 Y157.218
G1 F1012.5 X179.2 Y77.783 E753.53599
G0 F6600 X180.8 Y78.414
G1 F1012.5 X180.8 Y156.586 E762.89603
G0 F6600 X182.4 Y155.751
G1 F1012.5 X182.4 Y79.253 E772.05563
G0 F6600 X184 Y80.333
G1 F1012.5 X184 Y154.67 E780.95648
G0 F6600 X185.6 Y153.29
G1 F1012.5 X185.6 Y81.711 E789.5271
G0 F6600 X187.2 Y83.569
G1 F1012.5 X187.2 Y151.432 E797.65278
G0 F6600 X188.8 Y148.844
G1 F1012.5 X188.8 Y86.155 E805.15894
G0 F6600 X190.4 Y91.651
G1 F1012.5 X190.4 Y143.332 E811.34704
G0 F6600 X60.8 Y151.56
G1 F1012.5 X60.8 Y83.447 E819.50265
G0 F6600 X59.2 Y85.666
G1 F1012.5 X59.2 Y149.325 E827.12496
G0 F6600 X57.6 Y145.537
G1 F1012.5 X57.6 Y89.438 E833.84205
G0 F600 X57.6 Y89.438 Z0.66
G0 F6600 X60.031 Y150.6
;TIME_ELAPSED:418.690320
;LAYER:-5
;TYPE:SUPPORT
G1 F1012.5 X60.135 Y150.739 E833.85938
G1 X60.688 Y151.43 E833.94769
G1 X60.806 Y151.567 E833.96573
G1 X61.469 Y152.28 E834.06288
G1 X62.095 Y152.872 E834.14885
G1 X62.291 Y153.044 E834.17487
G1 X63.045 Y153.667 E834.27246
G1 X63.194 Y153.781 E834.29118
G1 X63.458 Y153.968 E834.32346
G1 X59.899 Y150.408 E834.82574
G1 X59.522 Y149.862 E834.89195
G1 X59.435 Y149.726 E834.90806
G1 X58.95 Y148.899 E835.00372
G1 X58.88 Y148.772 E835.01819
G1 X58.428 Y147.858 E835.11993
G1 X58.348 Y147.681 E835.13931
G1 X58.183 Y147.279 E835.18267
G1 X66.622 Y155.718 E836.37351
G1 X66.712 Y155.757 E836.38329
G1 X66.879 Y155.822 E836.40117
G1 X67.763 Y156.129 E836.49455
G1 X67.952 Y156.189 E836.51433
G1 X68.718 Y156.399 E836.59359
G1 X57.499 Y145.18 E838.17671
G1 X57.469 Y145.053 E838.18973
G1 X57.286 Y144.194 E838.27736
G1 X57.248 Y143.979 E838.29915
G1 X57.171 Y143.438 E838.35367
G1 X70.446 Y156.713 E840.22692
G1 X71.196 Y156.804 E840.3023
G1 X71.38 Y156.818 E840.32072
G1 X71.987 Y156.84 E840.38132
G1 X57.055 Y141.907 E842.48846
G1 X57.055 Y141.61 E842.51809
G1 X57.045 Y141.378 E842.54127
G1 X57.045 Y140.483 E842.63057
G1 X73.413 Y156.851 E844.94027
G1 X74.827 Y156.851 E845.08136
G1 X57.045 Y139.069 E847.59059
G1 X57.045 Y137.655 E847.73168
G1 X76.241 Y156.851 E850.44044
G1 X77.655 Y156.851 E850.58153
G1 X57.045 Y136.241 E853.48983
G1 X57.045 Y134.826 E853.63102
G1 X79.07 Y156.851 E856.73898
G1 X80.484 Y156.851 E856.88007
G1 X57.045 Y133.412 E860.18757
G1 X57.045 Y131.998 E860.32866
G1 X81.898 Y156.851 E863.83568
G1 X83.312 Y156.851 E863.97677
G1 X57.045 Y130.584 E867.68333
G1 X57.045 Y129.17 E867.82442
G1 X84.726 Y156.851 E871.73051
G1 X86.141 Y156.851 E871.8717
G1 X57.045 Y127.755 E875.97746
G1 X57.045 Y126.341 E876.11855
G1 X87.555 Y156.851 E880.42384
G1 X88.97 Y156.852 E880.56503
G1 X57.045 Y124.927 E885.06999
G1 X57.045 Y123.513 E885.21108
G1 X90.384 Y156.852 E889.91557
G1 X91.798 Y156.852 E890.05666
G1 X57.045 Y122.098 E894.96076
G1 X57.045 Y120.684 E895.10185
G1 X93.212 Y156.852 E900.20547
G1 X94.627 Y156.852 E900.34666
G1 X57.045 Y119.27 E905.64989
G1 X57.045 Y117.856 E905.79098
G1 X96.041 Y156.852 E911.29373
G1 X97.455 Y156.852 E911.43482
G1 X57.045 Y116.442 E917.13711
G1 X57.045 Y115.027 E917.2783
G1 X98.869 Y156.852 E923.18019
G1 X100.284 Y156.852 E923.32138
G1 X57.045 Y113.613 E929.42287
G1 X57.045 Y112.199 E929.56396
G1 X101.698 Y156.852 E935.86498
G1 X103.112 Y156.852 E936.00607
G1 X57.045 Y110.785 E942.50662
G1 X57.045 Y109.371 E942.64771
G1 X104.527 Y156.853 E949.34793
G1 X105.941 Y156.853 E949.48902
G1 X57.045 Y107.956 E956.38884
G1 X57.045 Y106.542 E956.52993
G1 X107.355 Y156.853 E963.62929
G1 X108.769 Y156.853 E963.77038
G1 X57.045 Y105.128 E971.06926
G1 X57.045 Y103.714 E971.21035
G1 X110.184 Y156.853 E978.70884
G1 X111.598 Y156.853 E978.84993
G1 X57.045 Y102.299 E986.54802
G1 X57.045 Y100.885 E986.68911
G1 X113.012 Y156.853 E994.58673
G1 X114.426 Y156.853 E994.72782
G1 X57.045 Y99.471 E1002.82496
G1 X57.045 Y98.057 E1002.96605
G1 X115.841 Y156.853 E1011.26281
G1 X117.255 Y156.853 E1011.40389
G1 X57.045 Y96.643 E1019.90018
G1 X57.045 Y95.229 E1020.04127
G1 X118.669 Y156.853 E1028.73708
G1 X118.689 Y156.853 E1028.73907
G1 X119.039 Y156.866 E1028.77402
G1 X119.709 Y156.952 E1028.84142
G1 X120.348 Y157.118 E1028.9073
G1 X57.046 Y93.816 E1037.83989
G1 X57.047 Y93.483 E1037.87312
G1 X57.072 Y92.582 E1037.96306
G1 X57.081 Y92.436 E1037.97765
G1 X122.328 Y157.684 E1047.18478
G1 X123.076 Y157.846 E1047.26115
G1 X123.252 Y157.88 E1047.27903
G1 X123.346 Y157.895 E1047.28853
G1 X123.892 Y157.974 E1047.34358
G1 X123.952 Y157.981 E1047.34961
G1 X124.048 Y157.989 E1047.35922
G1 X57.229 Y91.17 E1056.7881
G1 X57.439 Y90.071 E1056.89974
G1 X57.458 Y89.984 E1056.90863
G1 X125.562 Y158.089 E1066.51891
G1 X125.941 Y158.099 E1066.55674
G1 X126.986 Y158.099 E1066.66101
G1 X57.764 Y88.877 E1076.42898
G1 X58.019 Y88.121 E1076.50859
G1 X58.072 Y87.983 E1076.52334
G1 X58.134 Y87.833 E1076.53954
G1 X128.4 Y158.099 E1086.45483
G1 X129.814 Y158.099 E1086.59592
G1 X58.565 Y86.849 E1096.64999
G1 X58.802 Y86.378 E1096.7026
G1 X58.887 Y86.215 E1096.72095
G1 X59.053 Y85.923 E1096.75446
G1 X131.229 Y158.099 E1106.93927
G1 X132.643 Y158.099 E1107.08036
G1 X59.59 Y85.045 E1117.389
G1 X59.855 Y84.641 E1117.43721
G1 X59.951 Y84.506 E1117.45374
G1 X60.174 Y84.215 E1117.49032
G1 X134.057 Y158.099 E1127.91608
G1 X135.471 Y158.099 E1128.05717
