;FLAVOR:Marlin
;TIME:12954
;Filament used: 13.2184m
;Layer height: 0.25
;MINX:48.389
;MINY:84.173
;MINZ:0.3
;MAXX:173.127
;MAXY:150.822
;MAXZ:40.05
;Generated with Cura_SteamEngine 4.12.1
M140 S60
M105
M190 S60
M104 S200
M105
M109 S200
M82 ;absolute extrusion mode
M201 X500.00 Y500.00 Z100.00 E5000.00 	;Setup machine max acceleration
M203 X500.00 Y500.00 Z10.00 E50.00 	;Setup machine max feedrate
M204 P500.00 R1000.00 T500.00 		;Setup Print/Retract/Travel acceleration
M205 X8.00 Y8.00 Z0.40 E5.00 		;Setup Jerk
M220 S100 				;Reset Feedrate
M221 S100 				;Reset Flowrate
G28					;Home the Machine
G92 E0
M300 P150 S587
G92 E0
G1 F1500 E-6.5
;LAYER_COUNT:160
;LAYER:0
M107
G0 F1980 X50.281 Y97.169 Z0.3
;TYPE:SKIRT
G1 F1500 E0
G1 F900 X50.817 Y96.896 E0.03001
G1 X51.654 Y96.617 E0.07403
G1 X97.009 Y84.465 E2.41661
G1 X97.685 Y84.291 E2.45143
G1 X98.395 Y84.184 E2.48726
G1 X98.695 Y84.173 E2.50223
G1 X99.2 Y84.195 E2.52745
G1 X99.703 Y84.295 E2.55304
G1 X100.555 Y84.529 E2.59712
G1 X101.736 Y84.869 E2.65843
G1 X104.43 Y85.564 E2.79724
G1 X107.106 Y86.175 E2.93418
G1 X109.797 Y86.71 E3.07106
G1 X112.448 Y87.157 E3.20519
G1 X115.193 Y87.542 E3.34347
G1 X117.894 Y87.844 E3.47907
G1 X120.64 Y88.072 E3.61654
G1 X123.357 Y88.22 E3.75229
G1 X127.293 Y88.3 E3.9487
G1 X167.272 Y88.3 E5.94326
G1 X168.038 Y88.311 E5.98148
G1 X168.951 Y88.417 E6.02733
G1 X169.57 Y88.576 E6.05922
G1 X170.367 Y88.929 E6.10271
G1 X170.944 Y89.28 E6.1364
G1 X171.425 Y89.67 E6.1673
G1 X171.946 Y90.223 E6.2052
G1 X172.326 Y90.75 E6.23762
G1 X172.59 Y91.226 E6.26477
G1 X172.817 Y91.766 E6.294
G1 X173 Y92.419 E6.32783
G1 X173.086 Y92.952 E6.35476
G1 X173.118 Y93.451 E6.37971
G1 X173.127 Y94.11 E6.41259
G1 X173.127 Y140.823 E8.74311
G1 X173.116 Y141.61 E8.78238
G1 X173.011 Y142.515 E8.82783
G1 X172.926 Y142.875 E8.84629
G1 X172.697 Y143.524 E8.88062
G1 X172.495 Y143.945 E8.90392
G1 X172.24 Y144.384 E8.92925
G1 X172.136 Y144.534 E8.93835
G1 X171.812 Y144.929 E8.96384
G1 X171.509 Y145.244 E8.98565
G1 X171.033 Y145.651 E9.01689
G1 X170.746 Y145.851 E9.03434
G1 X170.306 Y146.108 E9.05977
G1 X169.744 Y146.36 E9.09049
G1 X169.264 Y146.512 E9.11561
G1 X168.669 Y146.635 E9.14593
G1 X167.976 Y146.691 E9.18061
G1 X167.317 Y146.7 E9.21349
G1 X120.582 Y146.7 E11.54511
G1 X119.816 Y146.689 E11.58333
G1 X119.084 Y146.62 E11.62001
G1 X117.551 Y146.348 E11.69769
G1 X117.214 Y146.284 E11.7148
G1 X114.517 Y145.85 E11.85109
G1 X111.817 Y145.494 E11.98696
G1 X109.079 Y145.211 E12.12428
G1 X106.368 Y145.008 E12.25992
G1 X103.582 Y144.878 E12.39906
G1 X100.899 Y144.829 E12.53294
G1 X98.147 Y144.856 E12.67024
G1 X95.395 Y144.963 E12.80764
G1 X92.651 Y145.145 E12.94484
G1 X89.973 Y145.401 E13.07906
G1 X87.21 Y145.743 E13.21796
G1 X84.52 Y146.154 E13.35372
G1 X81.846 Y146.64 E13.48931
G1 X79.183 Y147.202 E13.6251
G1 X75.404 Y148.134 E13.81928
G1 X66.483 Y150.524 E14.28005
G1 X65.776 Y150.708 E14.31649
G1 X65.088 Y150.809 E14.35119
G1 X64.736 Y150.822 E14.36876
G1 X64.231 Y150.801 E14.39398
G1 X63.736 Y150.7 E14.41918
G1 X63.114 Y150.466 E14.45234
G1 X62.663 Y150.237 E14.47757
G1 X62.13 Y149.829 E14.51106
G1 X61.958 Y149.666 E14.52288
G1 X61.619 Y149.29 E14.54814
G1 X61.224 Y148.631 E14.58647
G1 X60.955 Y147.952 E14.62291
G1 X60.74 Y147.191 E14.66236
G1 X48.597 Y101.868 E17.00328
G1 X48.475 Y101.33 E17.0308
G1 X48.389 Y100.525 E17.07119
G1 X48.389 Y100.494 E17.07274
G1 X48.46 Y99.825 E17.1063
G1 X48.51 Y99.591 E17.11824
G1 X48.654 Y99.107 E17.14344
G1 X48.944 Y98.535 E17.17543
G1 X49.072 Y98.335 E17.18728
G1 X49.377 Y97.932 E17.21249
G1 X49.873 Y97.468 E17.24638
G1 X50.281 Y97.169 E17.27161
G1 F1500 E10.77161
;MESH:Top.stl
G0 F1980 X51.817 Y99.207
G0 X52.341 Y100.386
G0 X78.72 Y96.328
G0 X83.578 Y114.291
G1 F1500 E17.27161
G0 F1980 X83.528 Y114.377
;TYPE:WALL-INNER
G1 F900 X78.701 Y96.362 E18.20209
G1 X73.775 Y97.683 E18.45653
G1 X78.602 Y115.697 E19.38696
G1 X60.587 Y120.524 E20.31744
G1 X61.908 Y125.45 E20.57188
G1 X79.922 Y120.623 E21.50231
G1 X84.749 Y138.638 E22.43278
G1 X89.675 Y137.317 E22.68722
G1 X84.848 Y119.303 E23.61765
G1 X102.863 Y114.476 E24.54813
G1 X101.543 Y109.55 E24.80256
G1 X83.528 Y114.377 E25.73303
G0 F1980 X83.578 Y114.291
G0 X98.626 Y88.065
G0 X98.618 Y87.966
G1 F900 X98.772 Y87.981 E25.74075
G1 X98.855 Y88.101 E25.74803
G1 X111.26 Y134.401 E28.13942
G1 X111.265 Y134.508 E28.14476
G1 X111.116 Y134.631 E28.1544
G1 X64.83 Y147.033 E30.54508
G1 X64.673 Y147.009 E30.553
G1 X64.595 Y146.897 E30.55981
G1 X52.191 Y100.6 E32.95104
G1 X52.183 Y100.497 E32.9562
G1 X52.332 Y100.369 E32.966
G1 X98.618 Y87.966 E35.35668
G0 F1980 X98.626 Y88.065
G0 X111.174 Y134.468
G0 X111.671 Y134.533
;TYPE:WALL-OUTER
G1 F900 X111.634 Y134.684 E35.36444
G1 X111.471 Y134.896 E35.37778
G1 X111.267 Y135.005 E35.38932
G1 X64.888 Y147.431 E37.78479
G1 X64.665 Y147.44 E37.79592
G1 X64.411 Y147.332 E37.80969
G1 X64.227 Y147.069 E37.8257
G1 X51.795 Y100.665 E40.22245
G1 X51.779 Y100.465 E40.23246
G1 X51.815 Y100.32 E40.23992
G1 X51.982 Y100.101 E40.25366
G1 X52.183 Y99.995 E40.26499
G1 X98.58 Y87.562 E42.66142
G1 X98.868 Y87.582 E42.67582
G1 X99.043 Y87.67 E42.68559
G1 X99.223 Y87.931 E42.70141
G1 X111.656 Y134.335 E45.09817
G1 X111.671 Y134.533 E45.10808
G0 F1980 X111.634 Y134.684
G0 X111.607 Y134.719
G0 X111.174 Y134.468
G0 X84.73 Y138.672
G0 X85.032 Y138.148
G1 F900 X89.185 Y137.034 E45.3226
G1 X84.358 Y119.02 E46.25302
G1 X102.373 Y114.193 E47.1835
G1 X101.26 Y110.04 E47.39801
G1 X83.245 Y114.867 E48.32848
G1 X78.418 Y96.852 E49.25896
G1 X74.265 Y97.966 E49.47348
G1 X79.092 Y115.98 E50.4039
G1 X61.077 Y120.807 E51.33438
G1 X62.191 Y124.96 E51.5489
G1 X80.205 Y120.133 E52.47933
G1 X85.032 Y138.148 E53.4098
G0 F1980 X85.225 Y138.097
G0 X85.353 Y138.579
G0 X84.474 Y139.116
;TYPE:SKIN
G1 F900 X90.153 Y137.592 E53.73249
G1 X85.326 Y119.579 E54.75591
G1 X103.341 Y114.751 E55.77944
G1 X101.818 Y109.072 E56.10212
G1 X83.804 Y113.899 E57.12559
G1 X78.976 Y95.884 E58.14912
G1 X73.297 Y97.408 E58.47181
G1 X78.124 Y115.421 E59.49523
G1 X60.109 Y120.249 E60.51876
G1 X61.633 Y125.928 E60.84145
G1 X79.646 Y121.101 E61.86487
G1 X84.474 Y139.116 E62.88841
G0 F1980 X64.921 Y146.605
G1 F900 X52.621 Y100.695 E65.49677
G1 X98.529 Y88.393 E68.10505
G1 X110.83 Y134.304 E70.71348
G1 X64.921 Y146.605 E73.3218
G0 F1980 X65.396 Y146.289
G1 F900 X64.885 Y145.778 E73.36146
G0 F1980 X64.679 Y145.006
G1 F900 X65.842 Y146.17 E73.45176
G0 F1980 X66.289 Y146.05
G1 F900 X64.471 Y144.233 E73.59282
G1 X64.401 Y144.163
G0 F1980 X64.264 Y143.46
G1 F900 X66.735 Y145.931 E73.7846
G0 F1980 X67.181 Y145.811
G1 F900 X64.057 Y142.687 E74.02705
G0 F1980 X63.851 Y141.915
G1 F900 X67.627 Y145.692 E74.32015
G0 F1980 X68.073 Y145.572
G1 F900 X63.643 Y141.142 E74.66397
G1 X63.573 Y141.072
G0 F1980 X63.436 Y140.369
G1 F900 X68.52 Y145.453 E75.05854
G0 F1980 X68.966 Y145.333
G1 F900 X63.23 Y139.597 E75.50372
G1 X63.16 Y139.527
G0 F1980 X63.023 Y138.824
G1 F900 X69.412 Y145.214 E75.99961
G0 F1980 X69.858 Y145.094
G1 F900 X62.815 Y138.051 E76.54623
G0 F1980 X62.608 Y137.279
G1 F900 X70.304 Y144.975 E77.14352
G0 F1980 X70.75 Y144.855
G1 F900 X62.402 Y136.506 E77.79146
G0 F1980 X62.194 Y135.734
G1 F900 X71.196 Y144.735 E78.49007
G0 F1980 X71.642 Y144.616
G1 F900 X61.987 Y134.961 E79.2394
G1 X61.917 Y134.891
G0 F1980 X61.78 Y134.188
G1 F900 X72.088 Y144.496 E80.03942
G0 F1980 X72.535 Y144.377
G1 F900 X61.574 Y133.416 E80.89011
G1 X61.504 Y133.346
G0 F1980 X61.366 Y132.643
G1 F900 X72.981 Y144.257 E81.79152
G0 F1980 X73.427 Y144.138
G1 F900 X61.159 Y131.87 E82.74366
G1 X61.089 Y131.8
G0 F1980 X60.952 Y131.097
G1 F900 X73.873 Y144.018 E83.74647
G0 F1980 X74.319 Y143.899
G1 F900 X60.746 Y130.325 E84.79992
G1 X60.676 Y130.255
G0 F1980 X60.538 Y129.552
G1 F900 X74.765 Y143.779 E85.90409
G0 F1980 X75.212 Y143.66
G1 F900 X60.331 Y128.779 E87.05902
G1 X60.261 Y128.709
G0 F1980 X60.124 Y128.006
G1 F900 X75.658 Y143.54 E88.26463
G0 F1980 X76.104 Y143.421
G1 F900 X59.918 Y127.234 E89.52088
G1 X59.848 Y127.164
G0 F1980 X59.71 Y126.461
G1 F900 X76.55 Y143.301 E90.82784
G0 F1980 X76.996 Y143.182
G1 F900 X59.503 Y125.688 E92.18553
G0 F1980 X59.297 Y124.916
G1 F900 X77.443 Y143.062 E93.59386
G0 F1980 X77.889 Y142.943
G1 F900 X59.09 Y124.143 E95.05291
G0 F1980 X58.882 Y123.371
G1 F900 X61.45 Y125.938 E95.25217
G0 F1980 X61.627 Y126.116
G1 F900 X78.335 Y142.823 E96.54886
G0 F1980 X78.781 Y142.704
G1 F900 X62.074 Y125.996 E97.84554
G0 F1980 X62.52 Y125.877
G1 F900 X79.227 Y142.583 E99.14215
G0 F1980 X79.673 Y142.464
G1 F900 X62.966 Y125.757 E100.43879
G0 F1980 X63.412 Y125.638
G1 F900 X80.119 Y142.344 E101.7354
G0 F1980 X80.565 Y142.225
G1 F900 X63.858 Y125.518 E103.03205
G0 F1980 X64.304 Y125.399
G1 F900 X81.011 Y142.105 E104.32866
G0 F1980 X81.457 Y141.986
G1 F900 X64.751 Y125.279 E105.62526
G0 F1980 X65.197 Y125.16
G1 F900 X81.904 Y141.866 E106.92187
G0 F1980 X82.35 Y141.747
G1 F900 X65.643 Y125.04 E108.21852
G0 F1980 X66.089 Y124.921
G1 F900 X82.796 Y141.627 E109.51512
G0 F1980 X83.242 Y141.508
G1 F900 X66.535 Y124.801 E110.81177
G0 F1980 X66.982 Y124.682
G1 F900 X83.688 Y141.388 E112.10834
G0 F1980 X84.135 Y141.269
G1 F900 X67.428 Y124.562 E113.40498
G0 F1980 X67.874 Y124.443
G1 F900 X84.581 Y141.149 E114.70159
G0 F1980 X85.027 Y141.03
G1 F900 X68.319 Y124.322 E115.99831
G0 F1980 X68.766 Y124.203
G1 F900 X85.473 Y140.91 E117.29496
G0 F1980 X85.919 Y140.791
G1 F900 X84.439 Y139.311 E117.40982
G0 F1980 X84.304 Y139.176
G1 F900 X69.212 Y124.083 E118.58117
G0 F1980 X69.658 Y123.964
G1 F900 X84.097 Y138.403 E119.70179
G1 X84.167 Y138.473
G0 F1980 X83.89 Y137.63
G1 F900 X70.104 Y123.844 E120.77174
G0 F1980 X70.55 Y123.725
G1 F900 X83.683 Y136.857 E121.79096
G1 X83.753 Y136.927
G0 F1980 X83.476 Y136.084
G1 F900 X70.997 Y123.605 E122.75947
G0 F1980 X71.443 Y123.486
G1 F900 X83.268 Y135.311 E123.67722
G0 F1980 X83.061 Y134.539
G1 F900 X71.889 Y123.366 E124.54433
G0 F1980 X72.335 Y123.247
G1 F900 X82.854 Y133.766 E125.36072
G1 X82.924 Y133.836
G0 F1980 X82.647 Y132.993
G1 F900 X72.781 Y123.127 E126.12643
G0 F1980 X73.227 Y123.008
G1 F900 X82.44 Y132.22 E126.84142
G0 F1980 X82.233 Y131.448
G1 F900 X73.674 Y122.888 E127.50573
G0 F1980 X74.12 Y122.769
G1 F900 X82.026 Y130.675 E128.11932
G1 X82.096 Y130.745
G0 F1980 X81.819 Y129.902
G1 F900 X74.566 Y122.649 E128.68223
G0 F1980 X75.012 Y122.529
G1 F900 X81.612 Y129.129 E129.19446
G1 X81.682 Y129.199
G0 F1980 X81.404 Y128.356
G1 F900 X75.458 Y122.41 E129.65594
G0 F1980 X75.904 Y122.29
G1 F900 X81.197 Y127.583 E130.06673
G0 F1980 X80.99 Y126.811
G1 F900 X76.35 Y122.171 E130.42685
G0 F1980 X76.796 Y122.051
G1 F900 X80.783 Y126.038 E130.73628
G1 X80.853 Y126.108
G0 F1980 X80.576 Y125.265
G1 F900 X77.242 Y121.932 E130.995
G0 F1980 X77.689 Y121.812
G1 F900 X80.369 Y124.492 E131.203
G1 X80.439 Y124.562
G0 F1980 X80.161 Y123.719
G1 F900 X78.135 Y121.693 E131.36024
G0 F1980 X78.581 Y121.573
G1 F900 X79.954 Y122.946 E131.4668
G1 X80.024 Y123.016
G0 F1980 X79.747 Y122.173
G1 F900 X79.027 Y121.454 E131.52264
G0 F1980 X79.473 Y121.334
G1 F900 X79.541 Y121.401 E131.52788
G0 F1980 X84.73 Y138.672
G0 X89.709 Y137.336
G0 X85.673 Y120.18
G1 F900 X101.981 Y136.487 E132.79352
G0 F1980 X102.427 Y136.368
G1 F900 X85.718 Y119.659 E134.09032
G0 F1980 X86.164 Y119.539
G1 F900 X102.873 Y136.248 E135.38712
G0 F1980 X103.318 Y136.128
G1 F900 X86.61 Y119.42 E136.68384
G0 F1980 X87.056 Y119.3
G1 F900 X103.765 Y136.009 E137.98064
G0 F1980 X104.211 Y135.889
G1 F900 X87.503 Y119.181 E139.27737
G0 F1980 X87.949 Y119.061
G1 F900 X104.657 Y135.77 E140.57413
G0 F1980 X105.103 Y135.65
G1 F900 X88.395 Y118.942 E141.87085
G0 F1980 X88.841 Y118.822
G1 F900 X105.549 Y135.531 E143.16762
G0 F1980 X105.996 Y135.411
G1 F900 X89.287 Y118.703 E144.46438
G0 F1980 X89.733 Y118.583
G1 F900 X106.442 Y135.292 E145.76118
G0 F1980 X106.888 Y135.172
G1 F900 X90.18 Y118.464 E147.0579
G0 F1980 X90.625 Y118.344
G1 F900 X107.334 Y135.053 E148.3547
G0 F1980 X107.78 Y134.933
G1 F900 X91.071 Y118.224 E149.6515
G0 F1980 X91.518 Y118.105
G1 F900 X108.226 Y134.814 E150.94827
G0 F1980 X108.673 Y134.694
G1 F900 X91.964 Y117.985 E152.24507
G0 F1980 X92.41 Y117.866
G1 F900 X109.119 Y134.575 E153.54187
G0 F1980 X109.565 Y134.455
G1 F900 X92.856 Y117.746 E154.83867
G0 F1980 X93.302 Y117.627
G1 F900 X110.011 Y134.336 E156.13547
G0 F1980 X110.457 Y134.216
G1 F900 X93.748 Y117.507 E157.43227
G0 F1980 X94.195 Y117.388
G1 F900 X110.471 Y133.665 E158.69551
G1 X110.541 Y133.735
G0 F1980 X110.264 Y132.892
G1 F900 X94.641 Y117.268 E159.90806
G0 F1980 X95.087 Y117.149
G1 F900 X110.057 Y132.119 E161.0699
G1 X110.127 Y132.189
G0 F1980 X109.85 Y131.346
G1 F900 X95.533 Y117.029 E162.18105
G0 F1980 X95.979 Y116.909
G1 F900 X109.643 Y130.573 E163.24153
G0 F1980 X109.436 Y129.801
G1 F900 X96.425 Y116.789 E164.25136
G0 F1980 X96.871 Y116.67
G1 F900 X109.229 Y129.028 E165.21048
G1 X109.299 Y129.098
G0 F1980 X109.022 Y128.255
G1 F900 X97.317 Y116.55 E166.11892
G0 F1980 X97.763 Y116.431
G1 F900 X108.815 Y127.482 E166.97663
G0 F1980 X108.608 Y126.71
G1 F900 X98.21 Y116.311 E167.78367
G0 F1980 X98.656 Y116.192
G1 F900 X108.401 Y125.937 E168.53999
G1 X108.471 Y126.007
G0 F1980 X108.194 Y125.164
G1 F900 X99.102 Y116.072 E169.24563
G0 F1980 X99.548 Y115.953
G1 F900 X107.987 Y124.392 E169.90059
G1 X108.057 Y124.462
G0 F1980 X107.78 Y123.619
G1 F900 X99.994 Y115.833 E170.50487
G0 F1980 X100.44 Y115.714
G1 F900 X107.573 Y122.847 E171.05846
G1 X107.643 Y122.917
G0 F1980 X107.366 Y122.074
G1 F900 X100.887 Y115.594 E171.56135
G0 F1980 X101.332 Y115.474
G1 F900 X107.159 Y121.301 E172.01358
G0 F1980 X106.952 Y120.529
G1 F900 X101.778 Y115.355 E172.41514
G0 F1980 X102.225 Y115.235
G1 F900 X106.745 Y119.756 E172.76598
G1 X106.815 Y119.826
G0 F1980 X106.538 Y118.983
G1 F900 X102.671 Y115.116 E173.0661
G0 F1980 X103.117 Y114.996
G1 F900 X106.331 Y118.21 E173.31555
G1 X106.401 Y118.28
G0 F1980 X106.123 Y117.437
G1 F900 X103.561 Y114.875 E173.51439
G1 X103.491 Y114.805
G0 F1980 X103.353 Y114.101
G1 F900 X105.917 Y116.665 E173.71338
G1 X105.987 Y116.735
G0 F1980 X105.71 Y115.892
G1 F900 X103.146 Y113.328 E173.91237
G1 X103.076 Y113.258
G0 F1980 X102.939 Y112.555
G1 F900 X105.503 Y115.119 E174.11137
G1 X105.573 Y115.189
G0 F1980 X105.295 Y114.346
G1 F900 X102.731 Y111.782 E174.31036
G1 X102.661 Y111.712
G0 F1980 X102.524 Y111.009
G1 F900 X105.089 Y113.574 E174.50944
G1 X105.159 Y113.644
G0 F1980 X104.882 Y112.801
G1 F900 X102.316 Y110.235 E174.70859
G1 X102.246 Y110.165
G0 F1980 X102.109 Y109.462
G1 F900 X104.675 Y112.029 E174.90777
G1 X104.745 Y112.099
G0 F1980 X104.467 Y111.256
G1 F900 X85.328 Y92.116 E176.39321
G0 F1980 X85.774 Y91.997
G1 F900 X104.261 Y110.484 E177.828
G1 X104.331 Y110.554
G0 F1980 X104.054 Y109.711
G1 F900 X86.221 Y91.877 E179.21208
G0 F1980 X86.667 Y91.758
G1 F900 X103.847 Y108.938 E180.54543
G1 X103.917 Y109.008
G0 F1980 X103.639 Y108.165
G1 F900 X87.113 Y91.638 E181.82807
G0 F1980 X87.559 Y91.519
G1 F900 X103.432 Y107.392 E183.05999
G0 F1980 X103.226 Y106.62
G1 F900 X88.005 Y91.399 E184.2413
G0 F1980 X88.451 Y91.28
G1 F900 X103.019 Y105.847 E185.3719
G1 X103.089 Y105.917
G0 F1980 X102.811 Y105.074
G1 F900 X88.898 Y91.16 E186.45174
G0 F1980 X89.344 Y91.041
G1 F900 X102.604 Y104.301 E187.48086
G0 F1980 X102.398 Y103.529
G1 F900 X89.79 Y90.921 E188.45938
G0 F1980 X90.236 Y90.802
G1 F900 X102.191 Y102.756 E189.38718
G1 X102.261 Y102.826
G0 F1980 X101.983 Y101.983
G1 F900 X90.682 Y90.682 E190.26426
G0 F1980 X91.128 Y90.562
G1 F900 X101.776 Y101.211 E191.0907
G0 F1980 X101.57 Y100.438
G1 F900 X91.574 Y90.443 E191.86646
G0 F1980 X92.02 Y90.323
