;FLAVOR:Marlin
;TIME:573
;Filament used: 0.556257m
;Layer height: 0.25
;MINX:107.446
;MINY:93.725
;MINZ:0.3
;MAXX:127.544
;MAXY:141.273
;MAXZ:8.05
;Generated with Cura_SteamEngine 4.12.1
M140 S60
M105
M190 S60
M104 S200
M105
M109 S200
M82 ;absolute extrusion mode
M201 X500.00 Y500.00 Z100.00 E5000.00 	;Setup machine max acceleration
M203 X500.00 Y500.00 Z10.00 E50.00 	;Setup machine max feedrate
M204 P500.00 R1000.00 T500.00 		;Setup Print/Retract/Travel acceleration
M205 X8.00 Y8.00 Z0.40 E5.00 		;Setup Jerk
M220 S100 				;Reset Feedrate
M221 S100 				;Reset Flowrate
G28					;Home the Machine
G92 E0
M300 P150 S587
G92 E0
G1 F1500 E-6.5
;LAYER_COUNT:32
;LAYER:0
M107
G0 F1980 X111.34 Y96.723 Z0.3
;TYPE:SKIRT
G1 F1500 E0
G1 F900 X111.731 Y96.281 E0.02944
G1 X112.19 Y95.829 E0.06158
G1 X112.644 Y95.453 E0.09099
G1 X113.193 Y95.071 E0.12436
G1 X113.845 Y94.697 E0.16186
G1 X114.449 Y94.417 E0.19507
G1 X114.978 Y94.224 E0.22317
G1 X115.53 Y94.063 E0.25185
G1 X116.132 Y93.923 E0.28269
G1 X116.751 Y93.82 E0.31399
G1 X117.533 Y93.745 E0.35319
G1 X118.289 Y93.725 E0.39092
G1 X118.508 Y93.73 E0.40185
G1 X119.075 Y93.759 E0.43017
G1 X119.596 Y93.809 E0.45628
G1 X120.263 Y93.907 E0.48992
G1 X121.027 Y94.068 E0.52887
G1 X121.548 Y94.21 E0.55581
G1 X122.071 Y94.379 E0.58323
G1 X122.834 Y94.679 E0.62414
G1 X123.123 Y94.813 E0.64003
G1 X123.608 Y95.061 E0.6672
G1 X124.23 Y95.434 E0.70339
G1 X124.729 Y95.796 E0.73414
G1 X125.2 Y96.196 E0.76497
G1 X125.678 Y96.681 E0.79895
G1 X126.101 Y97.198 E0.83227
G1 X126.389 Y97.607 E0.85723
G1 X126.688 Y98.114 E0.88659
G1 X126.933 Y98.613 E0.91433
G1 X127.179 Y99.275 E0.94956
G1 X127.364 Y99.944 E0.98419
G1 X127.465 Y100.466 E1.01072
G1 X127.53 Y101.141 E1.04455
G1 X127.544 Y101.695 E1.0722
G1 X127.51 Y102.339 E1.10437
G1 X127.403 Y103.159 E1.14563
G1 X127.035 Y105.85 E1.28113
G1 X126.746 Y108.536 E1.41591
G1 X126.53 Y111.269 E1.55269
G1 X126.393 Y113.973 E1.68776
G1 X126.331 Y116.683 E1.823
G1 X126.348 Y119.389 E1.95801
G1 X126.442 Y122.134 E2.09503
G1 X126.608 Y124.799 E2.22825
G1 X126.856 Y127.531 E2.36511
G1 X127.178 Y130.221 E2.50027
G1 X127.327 Y131.224 E2.55086
G1 X127.447 Y132.101 E2.59502
G1 X127.513 Y132.702 E2.62519
G1 X127.544 Y133.351 E2.6576
G1 X127.515 Y134.063 E2.69315
G1 X127.375 Y135.008 E2.74082
G1 X127.196 Y135.692 E2.77609
G1 X126.986 Y136.276 E2.80705
G1 X126.589 Y137.063 E2.85103
G1 X126.187 Y137.69 E2.88819
G1 X125.827 Y138.147 E2.91721
G1 X125.425 Y138.583 E2.9468
G1 X125.057 Y138.931 E2.97207
G1 X124.525 Y139.359 E3.00613
G1 X124.007 Y139.709 E3.03732
G1 X123.556 Y139.967 E3.06324
G1 X122.888 Y140.294 E3.10035
G1 X122.322 Y140.527 E3.13088
G1 X121.755 Y140.726 E3.16086
G1 X120.912 Y140.96 E3.20451
G1 X120.369 Y141.073 E3.23218
G1 X119.822 Y141.161 E3.25982
G1 X119.222 Y141.227 E3.28994
G1 X118.519 Y141.269 E3.32507
G1 X117.993 Y141.273 E3.35132
G1 X117.13 Y141.224 E3.39444
G1 X116.579 Y141.154 E3.42215
G1 X115.913 Y141.03 E3.45595
G1 X115.418 Y140.907 E3.4814
G1 X115.024 Y140.792 E3.50187
G1 X114.519 Y140.606 E3.52872
G1 X113.982 Y140.367 E3.55805
G1 X113.21 Y139.933 E3.60223
G1 X112.671 Y139.558 E3.63499
G1 X111.97 Y138.961 E3.68093
G1 X111.58 Y138.548 E3.70927
G1 X111.186 Y138.077 E3.7399
G1 X110.858 Y137.623 E3.76785
G1 X110.561 Y137.157 E3.79541
G1 X110.246 Y136.578 E3.8283
G1 X109.905 Y135.825 E3.86954
G1 X109.819 Y135.605 E3.88132
G1 X109.606 Y135.01 E3.91285
G1 X109.341 Y134.094 E3.96043
G1 X109.192 Y133.444 E3.9937
G1 X109.072 Y132.807 E4.02604
G1 X108.981 Y132.216 E4.05587
G1 X108.911 Y131.653 E4.08417
G1 X108.819 Y130.801 E4.12693
G1 X108.536 Y128.398 E4.24764
G1 X108.143 Y125.702 E4.38357
G1 X107.678 Y123.126 E4.51416
G1 X107.513 Y122.165 E4.56281
G1 X107.457 Y121.599 E4.59118
G1 X107.446 Y121.164 E4.61289
G1 X107.446 Y114.145 E4.96307
G1 X107.457 Y113.438 E4.99835
G1 X107.524 Y112.771 E5.03179
G1 X107.738 Y111.617 E5.09035
G1 X108.196 Y108.949 E5.2254
G1 X108.58 Y106.243 E5.36176
G1 X108.808 Y104.241 E5.46228
G1 X108.824 Y104.156 E5.4666
G1 X108.93 Y103.178 E5.51568
G1 X109.004 Y102.622 E5.54366
G1 X109.101 Y102.024 E5.57388
G1 X109.209 Y101.474 E5.60185
G1 X109.339 Y100.917 E5.63038
G1 X109.507 Y100.302 E5.66219
G1 X109.794 Y99.452 E5.70695
G1 X110.014 Y98.915 E5.7359
G1 X110.239 Y98.436 E5.7623
G1 X110.532 Y97.898 E5.79287
G1 X110.8 Y97.463 E5.81836
G1 X111.019 Y97.138 E5.83791
G1 X111.34 Y96.723 E5.86408
G0 F1980 X111.64 Y96.988
G1 F900 X112.031 Y96.546 E5.89352
G1 X112.453 Y96.13 E5.92309
G1 X112.89 Y95.769 E5.95137
G1 X113.401 Y95.413 E5.98244
G1 X114.018 Y95.058 E6.01795
G1 X114.597 Y94.789 E6.0498
G1 X115.092 Y94.608 E6.0761
G1 X115.628 Y94.451 E6.10396
G1 X116.2 Y94.317 E6.13327
G1 X116.804 Y94.216 E6.16383
G1 X117.562 Y94.143 E6.20182
G1 X118.291 Y94.125 E6.2382
G1 X118.488 Y94.13 E6.24803
G1 X119.055 Y94.159 E6.27635
G1 X119.553 Y94.206 E6.30131
G1 X120.197 Y94.302 E6.33379
G1 X120.936 Y94.458 E6.37148
G1 X121.441 Y94.595 E6.39758
G1 X121.945 Y94.759 E6.42402
G1 X122.681 Y95.049 E6.46349
G1 X122.941 Y95.169 E6.47778
G1 X123.426 Y95.417 E6.50495
G1 X124.003 Y95.763 E6.53852
G1 X124.487 Y96.115 E6.56838
G1 X124.936 Y96.497 E6.59779
G1 X125.386 Y96.954 E6.62978
G1 X125.785 Y97.443 E6.66127
G1 X126.165 Y97.998 E6.69483
G1 X126.484 Y98.598 E6.72873
G1 X126.682 Y99.065 E6.75404
G1 X126.875 Y99.646 E6.78458
G1 X127.025 Y100.272 E6.8167
G1 X127.131 Y101.174 E6.86201
G1 X127.144 Y101.695 E6.88801
G1 X127.112 Y102.297 E6.91808
G1 X127.014 Y103.053 E6.95612
G1 X126.636 Y105.82 E7.09545
G1 X126.347 Y108.498 E7.22983
G1 X126.129 Y111.254 E7.36775
G1 X125.993 Y113.945 E7.50218
G1 X125.931 Y116.675 E7.63841
G1 X125.948 Y119.405 E7.77462
G1 X126.041 Y122.137 E7.911
G1 X126.211 Y124.86 E8.04711
G1 X126.458 Y127.578 E8.18327
G1 X126.779 Y130.256 E8.31784
G1 X126.93 Y131.279 E8.36943
G1 X127.049 Y132.148 E8.41318
G1 X127.114 Y132.731 E8.44245
G1 X127.144 Y133.36 E8.47387
G1 X127.118 Y134.018 E8.50672
G1 X126.987 Y134.914 E8.5519
G1 X126.816 Y135.568 E8.58562
G1 X126.62 Y136.115 E8.61461
G1 X126.237 Y136.873 E8.65698
G1 X125.857 Y137.463 E8.69199
G1 X125.521 Y137.889 E8.71906
G1 X125.133 Y138.309 E8.74759
G1 X124.603 Y138.79 E8.7833
G1 X124.124 Y139.153 E8.81328
G1 X123.652 Y139.456 E8.84126
G1 X123.002 Y139.801 E8.87798
G1 X122.735 Y139.924 E8.89264
G1 X122.169 Y140.157 E8.92318
G1 X121.628 Y140.346 E8.95177
G1 X120.812 Y140.572 E8.99401
G1 X120.292 Y140.681 E9.02052
G1 X119.766 Y140.765 E9.0471
G1 X119.18 Y140.829 E9.0765
G1 X118.498 Y140.87 E9.11059
G1 X117.996 Y140.873 E9.13564
G1 X117.159 Y140.825 E9.17746
G1 X116.648 Y140.76 E9.20316
G1 X116.006 Y140.641 E9.23574
G1 X115.136 Y140.408 E9.28067
G1 X114.681 Y140.241 E9.30485
G1 X114.144 Y140.002 E9.33418
G1 X113.438 Y139.605 E9.37459
G1 X112.899 Y139.23 E9.40735
G1 X112.259 Y138.684 E9.44932
G1 X111.88 Y138.283 E9.47684
G1 X111.509 Y137.841 E9.50563
G1 X111.19 Y137.4 E9.53279
G1 X110.91 Y136.962 E9.55872
G1 X110.606 Y136.404 E9.59043
G1 X110.273 Y135.669 E9.63068
G1 X110.196 Y135.47 E9.64133
G1 X109.983 Y134.875 E9.67286
G1 X109.727 Y133.99 E9.71882
G1 X109.582 Y133.356 E9.75127
G1 X109.466 Y132.737 E9.78269
G1 X109.377 Y132.167 E9.81147
G1 X109.309 Y131.61 E9.83946
G1 X109.217 Y130.758 E9.88222
G1 X108.93 Y128.325 E10.00444
G1 X108.542 Y125.663 E10.13865
G1 X108.072 Y123.058 E10.27072
G1 X107.907 Y122.097 E10.31936
G1 X107.856 Y121.588 E10.34488
G1 X107.846 Y121.164 E10.36604
G1 X107.846 Y114.151 E10.71592
G1 X107.857 Y113.444 E10.7512
G1 X107.917 Y112.844 E10.78128
G1 X108.131 Y111.69 E10.83984
G1 X108.593 Y108.996 E10.9762
G1 X108.974 Y106.313 E11.1114
G1 X109.205 Y104.286 E11.21318
G1 X109.222 Y104.196 E11.21775
G1 X109.327 Y103.227 E11.26638
G1 X109.399 Y102.685 E11.29366
G1 X109.494 Y102.096 E11.32342
G1 X109.6 Y101.563 E11.35054
G1 X109.725 Y101.022 E11.37824
G1 X109.893 Y100.407 E11.41004
G1 X110.17 Y99.586 E11.45327
G1 X110.382 Y99.071 E11.48106
G1 X110.673 Y98.469 E11.51442
G1 X110.941 Y97.993 E11.54167
G1 X111.351 Y97.361 E11.57925
G1 X111.64 Y96.988 E11.60279
G0 F1980 X111.939 Y97.253
G1 F900 X112.33 Y96.811 E11.63224
G1 X112.715 Y96.432 E11.65919
G1 X113.136 Y96.084 E11.68644
G1 X113.61 Y95.754 E11.71525
G1 X114.191 Y95.418 E11.74874
G1 X114.745 Y95.161 E11.77921
G1 X115.599 Y94.874 E11.82415
G1 X116.268 Y94.712 E11.8585
G1 X116.856 Y94.613 E11.88824
G1 X117.591 Y94.542 E11.92508
G1 X118.292 Y94.525 E11.96007
G1 X118.467 Y94.529 E11.9688
G1 X119.034 Y94.558 E11.99713
G1 X119.615 Y94.617 E12.02626
G1 X120.132 Y94.696 E12.05235
G1 X120.845 Y94.848 E12.08872
G1 X121.334 Y94.981 E12.11401
G1 X121.818 Y95.138 E12.13939
G1 X122.528 Y95.418 E12.17747
G1 X122.759 Y95.525 E12.19017
G1 X123.244 Y95.773 E12.21735
G1 X123.775 Y96.092 E12.24825
G1 X124.245 Y96.433 E12.27722
G1 X124.671 Y96.797 E12.30518
G1 X125.093 Y97.227 E12.33523
G1 X125.469 Y97.689 E12.36495
G1 X125.822 Y98.205 E12.39614
G1 X126.126 Y98.777 E12.42846
G1 X126.423 Y99.538 E12.46922
G1 X126.581 Y100.11 E12.49882
G1 X126.678 Y100.62 E12.52472
G1 X126.733 Y101.208 E12.55419
G1 X126.739 Y101.867 E12.58706
G1 X126.685 Y102.529 E12.6202
G1 X126.612 Y103.04 E12.64595
G1 X126.241 Y105.755 E12.78266
G1 X125.946 Y108.495 E12.92015
G1 X125.732 Y111.2 E13.05553
G1 X125.593 Y113.952 E13.193
G1 X125.531 Y116.669 E13.32859
G1 X125.548 Y119.42 E13.46584
G1 X125.641 Y122.141 E13.60167
G1 X125.812 Y124.885 E13.73883
G1 X126.062 Y127.629 E13.8763
G1 X126.384 Y130.326 E14.01181
G1 X126.534 Y131.334 E14.06265
G1 X126.652 Y132.195 E14.10601
G1 X126.715 Y132.759 E14.13432
G1 X126.744 Y133.37 E14.16484
G1 X126.72 Y133.972 E14.1949
G1 X126.598 Y134.819 E14.23759
G1 X126.436 Y135.444 E14.2698
G1 X126.253 Y135.955 E14.29688
G1 X125.885 Y136.683 E14.33758
G1 X125.527 Y137.236 E14.37044
G1 X125.214 Y137.632 E14.39563
G1 X124.842 Y138.035 E14.42299
G1 X124.346 Y138.484 E14.45637
G1 X123.892 Y138.828 E14.48479
G1 X123.453 Y139.11 E14.51082
G1 X122.821 Y139.445 E14.5465
G1 X122.583 Y139.554 E14.55956
G1 X122.017 Y139.787 E14.5901
G1 X121.502 Y139.967 E14.61732
G1 X120.713 Y140.185 E14.65816
G1 X120.215 Y140.288 E14.68353
G1 X119.71 Y140.369 E14.70904
G1 X119.138 Y140.431 E14.73775
G1 X118.477 Y140.471 E14.77079
G1 X117.89 Y140.47 E14.80007
G1 X117.188 Y140.426 E14.83516
G1 X116.289 Y140.291 E14.88052
G1 X115.797 Y140.18 E14.90568
G1 X115.248 Y140.024 E14.93415
G1 X114.844 Y139.876 E14.95562
G1 X114.307 Y139.637 E14.98494
G1 X113.666 Y139.277 E15.02162
G1 X113.127 Y138.902 E15.05438
G1 X112.548 Y138.408 E15.09235
G1 X112.179 Y138.018 E15.11914
G1 X111.832 Y137.605 E15.14605
G1 X111.523 Y137.177 E15.17239
G1 X111.059 Y136.409 E15.21715
G1 X110.831 Y135.948 E15.24281
G1 X110.572 Y135.336 E15.27597
G1 X110.359 Y134.741 E15.30749
G1 X110.114 Y133.885 E15.35192
G1 X109.972 Y133.269 E15.38345
G1 X109.86 Y132.667 E15.414
G1 X109.774 Y132.118 E15.44173
G1 X109.706 Y131.568 E15.46938
G1 X109.614 Y130.716 E15.51213
G1 X109.328 Y128.292 E15.6339
G1 X108.931 Y125.566 E15.77134
G1 X108.466 Y122.991 E15.90188
G1 X108.301 Y122.03 E15.95053
G1 X108.247 Y121.253 E15.98939
G1 X108.246 Y114.157 E16.34341
G1 X108.257 Y113.45 E16.37868
G1 X108.311 Y112.917 E16.40541
G1 X108.517 Y111.805 E16.46183
G1 X108.989 Y109.054 E16.60109
G1 X109.374 Y106.343 E16.7377
G1 X109.603 Y104.331 E16.83872
G1 X109.617 Y104.259 E16.84238
G1 X109.724 Y103.277 E16.89166
G1 X109.794 Y102.748 E16.91829
G1 X109.888 Y102.168 E16.9476
G1 X109.99 Y101.651 E16.97389
G1 X110.111 Y101.128 E17.00067
G1 X110.279 Y100.513 E17.03248
G1 X110.547 Y99.721 E17.07419
G1 X110.751 Y99.227 E17.10086
G1 X111.028 Y98.652 E17.1327
G1 X111.282 Y98.201 E17.15852
G1 X111.682 Y97.585 E17.19517
G1 X111.939 Y97.253 E17.21611
G1 F1500 E10.71611
;MESH:Ribbon_bow.stl
G0 F1980 X112.499 Y102.009
G0 X113.7 Y102.533
G0 X114.061 Y111.073
G1 F1500 E17.21611
G0 F1980 X114.145 Y111.02
;TYPE:WALL-INNER
G1 F900 X114.833 Y111.344 E17.25405
G1 X115.738 Y110.597 E17.3126
G1 X116.042 Y110.34 E17.33246
G1 X116.594 Y109.855 E17.36912
G1 X117.165 Y109.333 E17.40771
G1 X117.686 Y108.834 E17.44371
G1 X118.192 Y108.327 E17.47944
G1 X118.663 Y107.831 E17.51357
G1 X119.117 Y107.327 E17.54741
G1 X119.534 Y106.837 E17.57951
G1 X119.934 Y106.338 E17.61142
G1 X120.295 Y105.856 E17.64146
G1 X120.639 Y105.365 E17.67137
G1 X120.941 Y104.897 E17.69916
G1 X121.211 Y104.438 E17.72573
G1 X121.459 Y103.977 E17.75184
G1 X121.752 Y103.33 E17.78728
G1 X121.967 Y102.726 E17.81926
G1 X122.1 Y102.173 E17.84764
G1 X122.157 Y101.548 E17.87895
G1 X122.072 Y100.946 E17.90928
G1 X121.836 Y100.472 E17.9357
G1 X121.412 Y100.042 E17.96583
G1 X120.904 Y99.721 E17.99581
G1 X120.273 Y99.455 E18.02997
G1 X119.718 Y99.295 E18.05879
G1 X118.972 Y99.162 E18.09659
G1 X118.414 Y99.118 E18.12452
G1 X118.215 Y99.114 E18.13445
G1 X117.531 Y99.148 E18.16861
G1 X116.918 Y99.26 E18.1997
G1 X116.311 Y99.487 E18.23203
G1 X115.828 Y99.804 E18.26086
G1 X115.413 Y100.252 E18.29132
G1 X115.038 Y100.878 E18.32773
G1 X114.769 Y101.543 E18.36352
G1 X114.592 Y102.134 E18.3943
G1 X114.444 Y102.804 E18.42853
G1 X114.323 Y103.55 E18.46623
G1 X114.259 Y104.091 E18.49341
G1 X114.232 Y104.375 E18.50765
G1 X114.189 Y104.963 E18.53706
G1 X114.16 Y105.589 E18.56832
G1 X114.145 Y106.251 E18.60136
G1 X114.145 Y111.02 E18.83929
G0 F1980 X114.061 Y111.073
G0 X114.057 Y120.831
G0 X114.129 Y120.9
G1 F900 X114.168 Y121.91 E18.88971
G1 X114.305 Y122.242 E18.90763
G1 X115.116 Y122.866 E18.95868
G1 X115.777 Y123.395 E19.00092
G1 X116.418 Y123.931 E19.04261
G1 X116.713 Y124.183 E19.06196
G1 X117.319 Y124.722 E19.10243
G1 X117.887 Y125.249 E19.14108
G1 X118.437 Y125.783 E19.17933
G1 X118.948 Y126.306 E19.21581
G1 X119.445 Y126.839 E19.25217
G1 X119.92 Y127.38 E19.28808
G1 X120.353 Y127.903 E19.32196
G1 X120.754 Y128.418 E19.35452
G1 X121.133 Y128.94 E19.38671
G1 X121.481 Y129.461 E19.41796
G1 X121.798 Y129.976 E19.44813
G1 X122.071 Y130.466 E19.47612
G1 X122.322 Y130.974 E19.50439
G1 X122.519 Y131.436 E19.52944
G1 X122.69 Y131.913 E19.55472
G1 X122.815 Y132.357 E19.57774
G1 X122.928 Y132.984 E19.60952
G1 X122.95 Y133.559 E19.63823
G1 X122.882 Y134.085 E19.66469
G1 X122.728 Y134.555 E19.68937
G1 X122.492 Y134.973 E19.71331
G1 X122.159 Y135.361 E19.73882
G1 X121.743 Y135.703 E19.76569
G1 X121.25 Y135.997 E19.79433
G1 X120.676 Y136.247 E19.82556
G1 X120.045 Y136.446 E19.85857
G1 X119.408 Y136.582 E19.89107
G1 X118.758 Y136.662 E19.92374
G1 X118.107 Y136.686 E19.95624
G1 X117.506 Y136.652 E19.98627
G1 X116.95 Y136.568 E20.01433
G1 X116.418 Y136.421 E20.04186
G1 X115.971 Y136.234 E20.06604
G1 X115.561 Y135.991 E20.08982
G1 X115.18 Y135.685 E20.1142
G1 X114.852 Y135.328 E20.13838
G1 X114.558 Y134.907 E20.164
G1 X114.289 Y134.407 E20.19233
G1 X114.05 Y133.825 E20.22372
G1 X113.847 Y133.175 E20.25769
G1 X113.73 Y132.694 E20.28239
G1 X113.626 Y132.179 E20.3086
G1 X113.541 Y131.632 E20.33622
G1 X113.471 Y131.063 E20.36482
G1 X113.415 Y130.449 E20.39558
G1 X113.376 Y129.821 E20.42697
G1 X113.353 Y129.143 E20.46081
G1 X113.346 Y128.785 E20.47868
G1 X113.344 Y128.088 E20.51345
G1 X113.344 Y120.9 E20.87206
G1 X112.046 Y120.9 E20.93682
G1 X112.046 Y114.1 E21.27607
G1 X113.345 Y114.1 E21.34088
G1 X113.346 Y106.196 E21.73521
G1 X113.362 Y105.511 E21.7694
G1 X113.395 Y104.847 E21.80256
G1 X113.442 Y104.228 E21.83354
G1 X113.507 Y103.626 E21.86374
G1 X113.583 Y103.078 E21.89135
G1 X113.681 Y102.53 E21.91912
G1 X113.786 Y102.065 E21.9429
G1 X113.983 Y101.371 E21.97889
G1 X114.207 Y100.775 E22.01066
G1 X114.465 Y100.252 E22.03975
G1 X114.754 Y99.802 E22.06644
G1 X115.08 Y99.416 E22.09164
G1 X115.43 Y99.104 E22.11503
G1 X115.835 Y98.836 E22.13926
G1 X116.274 Y98.632 E22.16341
G1 X116.766 Y98.476 E22.18917
