;FLAVOR:Marlin
;TIME:3985
;Filament used: 4.24729m, 0m
;Layer height: 0.2
;MINX:77.959
;MINY:65.948
;MINZ:0.3
;MAXX:154.46
;MAXY:162.678
;MAXZ:14.9
;Generated with Cura_SteamEngine 4.7.1
T0
M140 S60
M105
M190 S60
M104 S190
M105
M109 S190
M82 ;absolute extrusion mode
M201 X500.00 Y500.00 Z100.00 E5000.00 	;Setup machine max acceleration
M203 X500.00 Y500.00 Z10.00 E50.00 	;Setup machine max feedrate
M204 P500.00 R1000.00 T500.00 		;Setup Print/Retract/Travel acceleration
M205 X8.00 Y8.00 Z0.40 E5.00 		;Setup Jerk
M220 S100 				;Reset Feedrate
M221 S100 				;Reset Flowrate
G28				;Home the Machine
G29 				;Bed Level
G92 E0
M300 P150 S587
G92 E0
G1 F1500 E-6.5
;LAYER_COUNT:74
;LAYER:0
M107
G0 F1500 X79.332 Y67.508 Z0.3
;TYPE:SKIRT
G1 F1500 E0
G1 F900 X79.795 Y67.078 E0.03152
G1 X80.309 Y66.709 E0.06309
G1 X80.865 Y66.409 E0.09461
G1 X81.454 Y66.181 E0.12612
G1 X82.068 Y66.029 E0.15768
G1 X82.959 Y65.949 E0.20231
G1 X128.059 Y65.948 E2.45236
G1 X128.69 Y65.988 E2.4839
G1 X129.311 Y66.107 E2.51545
G1 X129.911 Y66.304 E2.54695
G1 X130.483 Y66.575 E2.57853
G1 X131.015 Y66.915 E2.61003
G1 X131.5 Y67.321 E2.64159
G1 X131.93 Y67.784 E2.67311
G1 X132.299 Y68.297 E2.70464
G1 X132.599 Y68.854 E2.7362
G1 X132.827 Y69.443 E2.76771
G1 X132.979 Y70.057 E2.79927
G1 X133.059 Y70.948 E2.8439
G1 X133.059 Y86.326 E3.61111
G1 X133.019 Y86.957 E3.64265
G1 X132.9 Y87.578 E3.6742
G1 X132.703 Y88.178 E3.70571
G1 X132.432 Y88.75 E3.73728
G1 X132.092 Y89.282 E3.76878
G1 X131.686 Y89.767 E3.80034
G1 X131.223 Y90.197 E3.83186
G1 X130.709 Y90.566 E3.86343
G1 X130.153 Y90.866 E3.89495
G1 X129.564 Y91.094 E3.92646
G1 X128.95 Y91.246 E3.95802
G1 X128.059 Y91.326 E4.00265
G1 X82.959 Y91.326 E6.2527
G1 X82.328 Y91.286 E6.28424
G1 X81.707 Y91.167 E6.31579
G1 X81.107 Y90.97 E6.34729
G1 X80.535 Y90.699 E6.37887
G1 X80.003 Y90.359 E6.41037
G1 X79.518 Y89.953 E6.44193
G1 X79.088 Y89.49 E6.47345
G1 X78.719 Y88.976 E6.50502
G1 X78.419 Y88.42 E6.53654
G1 X78.191 Y87.831 E6.56805
G1 X78.039 Y87.217 E6.5996
G1 X77.959 Y86.326 E6.64423
G1 X77.959 Y70.949 E7.4114
G1 X77.999 Y70.318 E7.44294
G1 X78.118 Y69.697 E7.47449
G1 X78.315 Y69.097 E7.50599
G1 X78.586 Y68.525 E7.53757
G1 X78.926 Y67.993 E7.56907
G1 X79.332 Y67.508 E7.60062
G0 F1500 X79.726 Y67.677
G1 F900 X80.184 Y67.28 E7.63086
G1 X80.691 Y66.947 E7.66113
G1 X81.237 Y66.683 E7.69138
G1 X81.813 Y66.494 E7.72163
G1 X82.409 Y66.382 E7.75188
G1 X82.959 Y66.349 E7.77937
G1 X128.059 Y66.348 E10.02942
G1 X128.664 Y66.388 E10.05967
G1 X129.258 Y66.507 E10.08989
G1 X129.832 Y66.703 E10.12015
G1 X130.375 Y66.973 E10.15041
G1 X130.877 Y67.313 E10.18066
G1 X131.331 Y67.715 E10.21091
G1 X131.728 Y68.173 E10.24115
G1 X132.061 Y68.68 E10.27141
G1 X132.324 Y69.226 E10.30165
G1 X132.514 Y69.802 E10.33191
G1 X132.626 Y70.398 E10.36216
G1 X132.659 Y70.948 E10.38965
G1 X132.659 Y86.326 E11.15686
G1 X132.619 Y86.931 E11.18711
G1 X132.5 Y87.525 E11.21734
G1 X132.304 Y88.099 E11.2476
G1 X132.033 Y88.642 E11.27787
G1 X131.694 Y89.145 E11.30813
G1 X131.292 Y89.598 E11.33835
G1 X130.834 Y89.995 E11.36859
G1 X130.327 Y90.328 E11.39885
G1 X129.781 Y90.592 E11.42911
G1 X129.205 Y90.781 E11.45935
G1 X128.609 Y90.893 E11.48961
G1 X128.059 Y90.926 E11.5171
G1 X82.959 Y90.926 E13.76715
G1 X82.354 Y90.886 E13.7974
G1 X81.76 Y90.767 E13.82762
G1 X81.186 Y90.571 E13.85788
G1 X80.643 Y90.3 E13.88816
G1 X80.14 Y89.961 E13.91842
G1 X79.687 Y89.559 E13.94863
G1 X79.29 Y89.101 E13.97887
G1 X78.957 Y88.594 E14.00914
G1 X78.693 Y88.048 E14.03939
G1 X78.504 Y87.472 E14.06964
G1 X78.392 Y86.876 E14.09989
G1 X78.359 Y86.326 E14.12738
G1 X78.359 Y70.949 E14.89454
G1 X78.399 Y70.344 E14.92479
G1 X78.518 Y69.75 E14.95502
G1 X78.714 Y69.176 E14.98528
G1 X78.985 Y68.633 E15.01555
G1 X79.324 Y68.13 E15.04581
G1 X79.726 Y67.677 E15.07603
G0 F1500 X79.72 Y68.275
G1 F900 X80.119 Y67.855 E15.10493
G1 X80.572 Y67.493 E15.13386
G1 X81.07 Y67.198 E15.16274
G1 X81.604 Y66.973 E15.19165
G1 X82.164 Y66.825 E15.22055
G1 X82.959 Y66.749 E15.26039
G1 X128.059 Y66.748 E17.51044
G1 X128.637 Y66.788 E17.53934
G1 X129.204 Y66.907 E17.56825
G1 X129.749 Y67.103 E17.59714
G1 X130.262 Y67.372 E17.62604
G1 X130.733 Y67.709 E17.65494
G1 X131.153 Y68.108 E17.68384
G1 X131.515 Y68.561 E17.71277
G1 X131.81 Y69.059 E17.74165
G1 X132.034 Y69.593 E17.77054
G1 X132.183 Y70.153 E17.79945
G1 X132.259 Y70.948 E17.83929
G1 X132.259 Y86.326 E18.6065
G1 X132.219 Y86.904 E18.63541
G1 X132.1 Y87.471 E18.66431
G1 X131.904 Y88.016 E18.69321
G1 X131.635 Y88.529 E18.72211
G1 X131.298 Y89 E18.751
G1 X130.899 Y89.42 E18.7799
G1 X130.446 Y89.782 E18.80883
G1 X129.948 Y90.077 E18.83771
G1 X129.414 Y90.302 E18.86662
G1 X128.854 Y90.45 E18.89552
G1 X128.059 Y90.526 E18.93536
G1 X82.959 Y90.526 E21.18541
G1 X82.381 Y90.486 E21.21431
G1 X81.814 Y90.367 E21.24322
G1 X81.269 Y90.171 E21.27211
G1 X80.756 Y89.902 E21.30101
G1 X80.285 Y89.565 E21.3299
G1 X79.865 Y89.166 E21.35881
G1 X79.503 Y88.713 E21.38774
G1 X79.208 Y88.215 E21.41661
G1 X78.983 Y87.681 E21.44552
G1 X78.835 Y87.121 E21.47442
G1 X78.759 Y86.326 E21.51426
G1 X78.759 Y70.949 E22.28143
G1 X78.799 Y70.371 E22.31033
G1 X78.918 Y69.804 E22.33924
G1 X79.114 Y69.259 E22.36813
G1 X79.383 Y68.746 E22.39703
G1 X79.72 Y68.275 E22.42592
G0 F1500 X80.116 Y68.427
G1 F900 X80.511 Y68.043 E22.45341
G1 X80.957 Y67.719 E22.48091
G1 X81.445 Y67.464 E22.50838
G1 X81.965 Y67.281 E22.53588
G1 X82.506 Y67.176 E22.56338
G1 X82.959 Y67.149 E22.58602
G1 X128.059 Y67.148 E24.83607
G1 X128.608 Y67.188 E24.86353
G1 X129.146 Y67.307 E24.89102
G1 X129.662 Y67.502 E24.91854
G1 X130.143 Y67.77 E24.94601
G1 X130.581 Y68.105 E24.97352
G1 X130.965 Y68.5 E25.001
G1 X131.289 Y68.946 E25.02851
G1 X131.544 Y69.434 E25.05598
G1 X131.727 Y69.954 E25.08348
G1 X131.832 Y70.495 E25.11097
G1 X131.859 Y70.948 E25.13361
G1 X131.859 Y86.326 E25.90082
G1 X131.819 Y86.876 E25.92834
G1 X131.7 Y87.414 E25.95583
G1 X131.504 Y87.929 E25.98332
G1 X131.236 Y88.41 E26.01079
G1 X130.902 Y88.848 E26.03827
G1 X130.507 Y89.232 E26.06575
G1 X130.061 Y89.556 E26.09326
G1 X129.573 Y89.811 E26.12073
G1 X129.053 Y89.994 E26.14823
G1 X128.512 Y90.099 E26.17572
G1 X128.059 Y90.126 E26.19836
G1 X82.959 Y90.126 E28.44841
G1 X82.409 Y90.086 E28.47592
G1 X81.871 Y89.967 E28.50341
G1 X81.356 Y89.771 E28.5309
G1 X80.875 Y89.503 E28.55837
G1 X80.437 Y89.169 E28.58585
G1 X80.053 Y88.774 E28.61334
G1 X79.729 Y88.328 E28.64084
G1 X79.474 Y87.84 E28.66831
G1 X79.291 Y87.32 E28.69581
G1 X79.186 Y86.779 E28.72331
G1 X79.159 Y86.326 E28.74595
G1 X79.159 Y70.949 E29.51311
G1 X79.199 Y70.399 E29.54062
G1 X79.318 Y69.861 E29.56811
G1 X79.514 Y69.346 E29.5956
G1 X79.782 Y68.865 E29.62307
G1 X80.116 Y68.427 E29.65055
G0 F1500 X80.511 Y68.589
G1 F900 X80.901 Y68.243 E29.67656
G1 X81.339 Y67.96 E29.70258
G1 X81.814 Y67.747 E29.72855
G1 X82.317 Y67.61 E29.75456
G1 X82.959 Y67.549 E29.78674
G1 X128.059 Y67.548 E32.03678
G1 X128.579 Y67.588 E32.0628
G1 X129.086 Y67.707 E32.08878
G1 X129.569 Y67.902 E32.11477
G1 X130.017 Y68.168 E32.14077
G1 X130.419 Y68.5 E32.16678
G1 X130.765 Y68.89 E32.19279
G1 X131.048 Y69.327 E32.21876
G1 X131.261 Y69.803 E32.24478
G1 X131.398 Y70.306 E32.27079
G1 X131.459 Y70.948 E32.30296
G1 X131.459 Y86.326 E33.07017
G1 X131.419 Y86.846 E33.09619
G1 X131.3 Y87.353 E33.12217
G1 X131.105 Y87.836 E33.14816
G1 X130.839 Y88.284 E33.17415
G1 X130.507 Y88.686 E33.20017
G1 X130.117 Y89.032 E33.22618
G1 X129.679 Y89.315 E33.25219
G1 X129.204 Y89.528 E33.27816
G1 X128.701 Y89.665 E33.30417
G1 X128.059 Y89.726 E33.33635
G1 X82.959 Y89.726 E35.5864
G1 X82.439 Y89.686 E35.61241
G1 X81.932 Y89.567 E35.6384
G1 X81.449 Y89.372 E35.66438
G1 X81.001 Y89.106 E35.69038
G1 X80.599 Y88.774 E35.71639
G1 X80.253 Y88.384 E35.7424
G1 X79.97 Y87.946 E35.76842
G1 X79.757 Y87.471 E35.79439
G1 X79.62 Y86.968 E35.8204
G1 X79.559 Y86.326 E35.85257
G1 X79.559 Y70.949 E36.61973
G1 X79.599 Y70.429 E36.64575
G1 X79.718 Y69.922 E36.67173
G1 X79.913 Y69.439 E36.69772
G1 X80.179 Y68.991 E36.72371
G1 X80.511 Y68.589 E36.74972
G0 F1500 X80.905 Y68.762
G1 F900 X81.288 Y68.457 E36.77415
G1 X81.716 Y68.219 E36.79858
G1 X82.176 Y68.053 E36.82298
G1 X82.959 Y67.949 E36.86239
G1 X128.059 Y67.948 E39.11244
G1 X128.547 Y67.988 E39.13686
G1 X129.022 Y68.107 E39.16129
G1 X129.471 Y68.301 E39.1857
G1 X129.883 Y68.566 E39.21014
G1 X130.246 Y68.894 E39.23454
G1 X130.551 Y69.277 E39.25897
G1 X130.789 Y69.704 E39.28336
G1 X130.955 Y70.165 E39.3078
G1 X131.059 Y70.948 E39.34721
G1 X131.059 Y86.326 E40.11442
G1 X131.019 Y86.814 E40.13885
G1 X130.9 Y87.289 E40.16328
G1 X130.706 Y87.738 E40.18768
G1 X130.441 Y88.15 E40.21212
G1 X130.113 Y88.513 E40.23653
G1 X129.73 Y88.818 E40.26096
G1 X129.302 Y89.056 E40.28539
G1 X128.842 Y89.222 E40.30979
G1 X128.059 Y89.326 E40.3492
G1 X82.959 Y89.326 E42.59924
G1 X82.471 Y89.286 E42.62367
G1 X81.996 Y89.167 E42.6481
G1 X81.547 Y88.973 E42.6725
G1 X81.135 Y88.708 E42.69694
G1 X80.772 Y88.38 E42.72135
G1 X80.467 Y87.997 E42.74578
G1 X80.229 Y87.569 E42.77021
G1 X80.063 Y87.109 E42.79461
G1 X79.959 Y86.326 E42.83402
G1 X79.959 Y70.949 E43.60118
G1 X79.999 Y70.461 E43.62561
G1 X80.118 Y69.986 E43.65004
G1 X80.312 Y69.537 E43.67444
G1 X80.577 Y69.125 E43.69888
G1 X80.905 Y68.762 E43.72329
G0 F1500 X80.974 Y69.27
G1 F900 X81.297 Y68.949 E43.746
G1 X81.672 Y68.69 E43.76874
G1 X82.086 Y68.5 E43.79147
G1 X82.527 Y68.385 E43.81421
G1 X82.959 Y68.349 E43.83583
G1 X128.059 Y68.348 E46.08588
G1 X128.513 Y68.388 E46.10862
G1 X128.953 Y68.506 E46.13135
G1 X129.365 Y68.7 E46.15407
G1 X129.738 Y68.963 E46.17684
G1 X130.058 Y69.286 E46.19952
G1 X130.318 Y69.661 E46.22228
G1 X130.508 Y70.075 E46.24501
G1 X130.623 Y70.516 E46.26775
G1 X130.659 Y70.948 E46.28938
G1 X130.659 Y86.326 E47.05659
G1 X130.619 Y86.78 E47.07932
G1 X130.501 Y87.22 E47.10205
G1 X130.307 Y87.632 E47.12477
G1 X130.044 Y88.005 E47.14754
G1 X129.721 Y88.326 E47.17026
G1 X129.346 Y88.585 E47.193
G1 X128.932 Y88.775 E47.21572
G1 X128.491 Y88.89 E47.23846
G1 X128.059 Y88.926 E47.26009
G1 X82.959 Y88.926 E49.51014
G1 X82.505 Y88.886 E49.53287
G1 X82.065 Y88.768 E49.5556
G1 X81.653 Y88.574 E49.57832
G1 X81.28 Y88.311 E49.60109
G1 X80.959 Y87.988 E49.62381
G1 X80.7 Y87.613 E49.64655
G1 X80.51 Y87.199 E49.66927
G1 X80.395 Y86.758 E49.69201
G1 X80.359 Y86.326 E49.71364
G1 X80.359 Y70.949 E50.4808
G1 X80.399 Y70.495 E50.50354
G1 X80.517 Y70.055 E50.52626
G1 X80.711 Y69.643 E50.54898
G1 X80.974 Y69.27 E50.57175
G0 F1500 X81.369 Y69.429
G1 F900 X81.686 Y69.155 E50.59266
G1 X82.049 Y68.946 E50.61356
G1 X82.446 Y68.81 E50.63449
G1 X82.959 Y68.749 E50.66027
G1 X128.059 Y68.748 E52.91031
G1 X128.476 Y68.788 E52.93121
G1 X128.878 Y68.906 E52.95212
G1 X129.25 Y69.099 E52.97302
G1 X129.579 Y69.358 E52.99391
G1 X129.853 Y69.675 E53.01482
G1 X130.062 Y70.038 E53.03571
G1 X130.198 Y70.435 E53.05665
G1 X130.259 Y70.948 E53.08243
G1 X130.259 Y86.326 E53.84964
G1 X130.219 Y86.743 E53.87054
G1 X130.101 Y87.145 E53.89144
G1 X129.908 Y87.517 E53.91235
G1 X129.649 Y87.846 E53.93324
G1 X129.332 Y88.12 E53.95414
G1 X128.969 Y88.329 E53.97504
G1 X128.572 Y88.465 E53.99597
G1 X128.059 Y88.526 E54.02175
G1 X82.959 Y88.526 E56.2718
G1 X82.542 Y88.486 E56.2927
G1 X82.14 Y88.368 E56.3136
G1 X81.768 Y88.175 E56.33451
G1 X81.439 Y87.916 E56.3554
G1 X81.165 Y87.599 E56.3763
G1 X80.956 Y87.236 E56.3972
G1 X80.82 Y86.839 E56.41813
G1 X80.759 Y86.326 E56.44391
G1 X80.759 Y70.949 E57.21107
G1 X80.799 Y70.532 E57.23197
G1 X80.917 Y70.13 E57.25287
G1 X81.11 Y69.758 E57.27378
G1 X81.369 Y69.429 E57.29467
G0 F1500 X81.762 Y69.604
G1 F900 X82.071 Y69.384 E57.31359
G1 X82.418 Y69.232 E57.33249
G1 X82.959 Y69.149 E57.3598
G1 X128.059 Y69.148 E59.60985
G1 X128.436 Y69.188 E59.62876
G1 X128.796 Y69.306 E59.64766
G1 X129.123 Y69.496 E59.66653
G1 X129.404 Y69.751 E59.68546
G1 X129.624 Y70.059 E59.70435
G1 X129.776 Y70.407 E59.72329
G1 X129.859 Y70.948 E59.7506
G1 X129.859 Y86.326 E60.51781
G1 X129.819 Y86.703 E60.53672
G1 X129.701 Y87.063 E60.55562
G1 X129.511 Y87.39 E60.57449
G1 X129.256 Y87.671 E60.59342
G1 X128.947 Y87.891 E60.61235
G1 X128.6 Y88.043 E60.63125
G1 X128.059 Y88.126 E60.65855
G1 X82.959 Y88.126 E62.9086
G1 X82.582 Y88.086 E62.92752
G1 X82.222 Y87.968 E62.94642
G1 X81.895 Y87.778 E62.96529
G1 X81.614 Y87.523 E62.98422
G1 X81.394 Y87.214 E63.00314
G1 X81.242 Y86.867 E63.02204
G1 X81.159 Y86.326 E63.04935
G1 X81.159 Y70.949 E63.81651
G1 X81.199 Y70.572 E63.83542
G1 X81.317 Y70.212 E63.85432
G1 X81.507 Y69.885 E63.87319
G1 X81.762 Y69.604 E63.89212
G0 F1500 X81.904 Y70.028
G1 F900 X82.152 Y69.805 E63.90876
G1 X82.446 Y69.646 E63.92544
G1 X82.959 Y69.549 E63.95148
G1 X128.059 Y69.548 E66.20153
G1 X128.391 Y69.588 E66.21822
G1 X128.703 Y69.705 E66.23484
G1 X128.98 Y69.893 E66.25154
G1 X129.203 Y70.141 E66.26818
G1 X129.362 Y70.435 E66.28486
G1 X129.459 Y70.948 E66.3109
G1 X129.459 Y86.326 E67.07812
G1 X129.419 Y86.658 E67.0948
G1 X129.302 Y86.97 E67.11142
G1 X129.114 Y87.247 E67.12812
G1 X128.866 Y87.47 E67.14476
G1 X128.572 Y87.629 E67.16144
G1 X128.059 Y87.726 E67.18749
G1 X82.959 Y87.726 E69.43753
G1 X82.627 Y87.686 E69.45422
G1 X82.315 Y87.569 E69.47084
G1 X82.038 Y87.381 E69.48754
G1 X81.815 Y87.133 E69.50418
G1 X81.656 Y86.839 E69.52086
G1 X81.559 Y86.326 E69.54691
G1 X81.559 Y70.949 E70.31407
G1 X81.599 Y70.617 E70.33075
G1 X81.716 Y70.305 E70.34737
G1 X81.904 Y70.028 E70.36408
G0 F1500 X82.298 Y70.198
G1 F900 X82.534 Y70.044 E70.37814
G1 X82.959 Y69.949 E70.39986
G1 X128.059 Y69.948 E72.64991
G1 X128.338 Y69.988 E72.66397
G1 X128.595 Y70.104 E72.67804
G1 X128.81 Y70.287 E72.69213
G1 X128.964 Y70.523 E72.70618
G1 X129.059 Y70.948 E72.72791
G1 X129.059 Y86.326 E73.49512
G1 X129.019 Y86.605 E73.50918
G1 X128.903 Y86.862 E73.52325
G1 X128.72 Y87.077 E73.53734
G1 X128.484 Y87.231 E73.5514
G1 X128.059 Y87.326 E73.57312
G1 X82.959 Y87.326 E75.82317
G1 X82.68 Y87.286 E75.83723
G1 X82.423 Y87.17 E75.8513
G1 X82.208 Y86.987 E75.86539
G1 X82.054 Y86.751 E75.87945
G1 X81.959 Y86.326 E75.90117
G1 X81.959 Y70.949 E76.66833
G1 X81.999 Y70.67 E76.6824
G1 X82.115 Y70.413 E76.69646
G1 X82.298 Y70.198 E76.71055
G0 F1500 X82.512 Y70.548
G1 F900 X82.685 Y70.415 E76.72144
G1 X82.959 Y70.349 E76.7355
G1 X128.059 Y70.348 E78.98554
G1 X128.274 Y70.388 E78.99645
G1 X128.46 Y70.501 E79.00731
G1 X128.593 Y70.674 E79.0182
G1 X128.659 Y70.948 E79.03226
G1 X128.659 Y86.326 E79.79947
G1 X128.619 Y86.541 E79.81038
G1 X128.506 Y86.727 E79.82124
G1 X128.333 Y86.86 E79.83213
G1 X128.059 Y86.926 E79.84619
G1 X82.959 Y86.926 E82.09624
G1 X82.744 Y86.886 E82.10715
G1 X82.558 Y86.773 E82.118
G1 X82.425 Y86.6 E82.12889
G1 X82.359 Y86.326 E82.14295
G1 X82.359 Y70.949 E82.91011
G1 X82.399 Y70.734 E82.92102
G1 X82.512 Y70.548 E82.93188
G0 F1500 X82.798 Y70.83
G1 F900 X82.959 Y70.749 E82.94087
G1 X128.059 Y70.748 E85.19092
G1 X128.178 Y70.787 E85.19717
G1 X128.259 Y70.948 E85.20616
G1 X128.259 Y86.326 E85.97337
G1 X128.22 Y86.445 E85.97962
G1 X128.059 Y86.526 E85.98861
G1 X82.959 Y86.526 E88.23866
G1 X82.84 Y86.487 E88.24491
G1 X82.759 Y86.326 E88.2539
G1 X82.759 Y70.949 E89.02106
G1 X82.798 Y70.83 E89.02731
G1 F1500 E82.52731
G0 F1500 X82.294 Y70.83
G0 X82.068 Y95.488
G1 F1500 E89.02731
G1 F900 X82.959 Y95.408 E89.07194
G1 X128.059 Y95.408 E91.32199
G1 X128.69 Y95.448 E91.35353
G1 X129.311 Y95.567 E91.38508
G1 X129.911 Y95.764 E91.41658
G1 X130.483 Y96.035 E91.44816
G1 X131.015 Y96.375 E91.47966
G1 X131.5 Y96.781 E91.51122
G1 X131.93 Y97.244 E91.54274
G1 X132.299 Y97.758 E91.57431
G1 X132.599 Y98.314 E91.60583
G1 X132.827 Y98.903 E91.63734
G1 X132.979 Y99.517 E91.66889
G1 X133.059 Y100.408 E91.71353
