;FLAVOR:Marlin
;TIME:5890
;Filament used: 6.98411m, 0m
;Layer height: 0.2
;MINX:66.63
;MINY:88.251
;MINZ:0.3
;MAXX:135.421
;MAXY:174.661
;MAXZ:12.3
;Generated with Cura_SteamEngine 4.7.1
T0
M140 S60
M105
M190 S60
M104 S190
M105
M109 S190
M82 ;absolute extrusion mode
M201 X500.00 Y500.00 Z100.00 E5000.00 	;Setup machine max acceleration
M203 X500.00 Y500.00 Z10.00 E50.00 	;Setup machine max feedrate
M204 P500.00 R1000.00 T500.00 		;Setup Print/Retract/Travel acceleration
M205 X8.00 Y8.00 Z0.40 E5.00 		;Setup Jerk
M220 S100 				;Reset Feedrate
M221 S100 				;Reset Flowrate
G28				;Home the Machine
G29 				;Bed Level
G92 E0
M300 P150 S587
G92 E0
G1 F1500 E-6.5
;LAYER_COUNT:61
;LAYER:0
M107
G0 F1500 X69.618 Y90.927 Z0.3
;TYPE:SKIRT
G1 F1500 E0
G1 F900 X70.252 Y90.465 E0.03914
G1 X70.651 Y90.22 E0.0625
G1 X71.359 Y89.859 E0.10215
G1 X71.795 Y89.679 E0.12568
G1 X72.533 Y89.44 E0.16438
G1 X72.99 Y89.33 E0.18783
G1 X73.768 Y89.206 E0.22714
G1 X74.631 Y89.154 E0.27027
G1 X96.03 Y89.154 E1.33787
G1 X96.661 Y89.194 E1.36941
G1 X97.282 Y89.313 E1.40096
G1 X97.882 Y89.51 E1.43247
G1 X98.454 Y89.781 E1.46404
G1 X98.986 Y90.121 E1.49554
G1 X99.471 Y90.527 E1.5271
G1 X99.817 Y90.899 E1.55244
G1 X99.827 Y90.887 E1.55322
G1 X100.389 Y90.326 E1.59284
G1 X100.749 Y90.019 E1.61644
G1 X101.381 Y89.559 E1.65544
G1 X101.781 Y89.314 E1.67884
G1 X102.476 Y88.96 E1.71776
G1 X102.912 Y88.779 E1.74131
G1 X103.667 Y88.534 E1.78091
G1 X104.123 Y88.425 E1.8043
G1 X104.894 Y88.303 E1.84324
G1 X105.757 Y88.251 E1.88638
G1 X127.156 Y88.251 E2.95398
G1 X127.787 Y88.291 E2.98552
G1 X128.408 Y88.41 E3.01707
G1 X129.008 Y88.607 E3.04857
G1 X129.58 Y88.878 E3.08015
G1 X130.112 Y89.218 E3.11165
G1 X130.597 Y89.624 E3.14321
G1 X131.027 Y90.087 E3.17473
G1 X131.396 Y90.601 E3.2063
G1 X131.696 Y91.157 E3.23782
G1 X131.924 Y91.746 E3.26933
G1 X132.076 Y92.36 E3.30089
G1 X132.156 Y93.251 E3.34552
G1 X132.156 Y128.979 E5.12799
G1 X132.273 Y129.017 E5.13413
G1 X132.845 Y129.288 E5.16571
G1 X133.377 Y129.628 E5.19721
G1 X133.862 Y130.034 E5.22876
G1 X134.292 Y130.497 E5.26029
G1 X134.661 Y131.011 E5.29186
G1 X134.961 Y131.567 E5.32337
G1 X135.189 Y132.156 E5.35489
G1 X135.341 Y132.77 E5.38644
G1 X135.421 Y133.661 E5.43107
G1 X135.421 Y169.661 E7.22712
G1 X135.381 Y170.292 E7.25866
G1 X135.262 Y170.913 E7.29021
G1 X135.065 Y171.513 E7.32172
G1 X134.794 Y172.085 E7.35329
G1 X134.454 Y172.617 E7.38479
G1 X134.048 Y173.102 E7.41635
G1 X133.585 Y173.532 E7.44787
G1 X133.071 Y173.901 E7.47944
G1 X132.515 Y174.201 E7.51096
G1 X131.926 Y174.429 E7.54247
G1 X131.312 Y174.581 E7.57403
G1 X130.421 Y174.661 E7.61866
G1 X109.022 Y174.661 E8.68626
G1 X108.159 Y174.609 E8.72939
G1 X107.38 Y174.485 E8.76875
G1 X106.923 Y174.375 E8.7922
G1 X106.181 Y174.134 E8.83112
G1 X105.746 Y173.954 E8.85461
G1 X105.043 Y173.596 E8.89396
G1 X104.642 Y173.35 E8.91744
G1 X104.007 Y172.888 E8.95661
G1 X103.648 Y172.581 E8.98018
G1 X103.097 Y172.03 E9.01906
G1 X102.574 Y171.373 E9.06095
G1 X102.331 Y171.885 E9.08923
G1 X101.991 Y172.417 E9.12072
G1 X101.585 Y172.902 E9.15228
G1 X101.122 Y173.332 E9.1838
G1 X100.608 Y173.701 E9.21537
G1 X100.052 Y174.001 E9.24689
G1 X99.463 Y174.229 E9.2784
G1 X98.849 Y174.381 E9.30996
G1 X97.958 Y174.461 E9.35459
G1 X76.559 Y174.461 E10.42219
G1 X75.696 Y174.409 E10.46532
G1 X74.918 Y174.285 E10.50463
G1 X74.461 Y174.175 E10.52808
G1 X73.723 Y173.936 E10.56678
G1 X73.287 Y173.756 E10.59031
G1 X72.576 Y173.393 E10.63014
G1 X72.176 Y173.147 E10.65357
G1 X71.545 Y172.688 E10.6925
G1 X71.186 Y172.381 E10.71606
G1 X70.635 Y171.83 E10.75494
G1 X70.329 Y171.472 E10.77844
G1 X69.868 Y170.838 E10.81754
G1 X69.622 Y170.437 E10.84102
G1 X69.262 Y169.73 E10.8806
G1 X69.082 Y169.294 E10.90413
G1 X68.842 Y168.551 E10.94308
G1 X68.733 Y168.096 E10.96643
G1 X68.61 Y167.324 E11.00543
G1 X68.558 Y166.462 E11.04851
G1 X68.558 Y136.462 E12.54522
G1 X68.61 Y135.599 E12.58835
G1 X68.733 Y134.823 E12.62755
G1 X68.842 Y134.369 E12.65084
G1 X69.082 Y133.628 E12.6897
G1 X69.303 Y133.112 E12.71771
G1 X69.258 Y133.074 E12.72065
G1 X68.707 Y132.523 E12.75952
G1 X68.401 Y132.165 E12.78302
G1 X67.94 Y131.531 E12.82213
G1 X67.694 Y131.13 E12.8456
G1 X67.334 Y130.423 E12.88518
G1 X67.154 Y129.987 E12.90871
G1 X66.914 Y129.244 E12.94767
G1 X66.805 Y128.789 E12.97101
G1 X66.682 Y128.017 E13.01001
G1 X66.63 Y127.155 E13.05309
G1 X66.63 Y97.155 E14.5498
G1 X66.682 Y96.292 E14.59293
G1 X66.805 Y95.519 E14.63198
G1 X66.914 Y95.064 E14.65532
G1 X67.154 Y94.321 E14.69428
G1 X67.334 Y93.885 E14.71781
G1 X67.691 Y93.183 E14.7571
G1 X67.937 Y92.781 E14.78062
G1 X68.406 Y92.137 E14.82036
G1 X68.712 Y91.78 E14.84382
G1 X69.258 Y91.235 E14.88231
G1 X69.618 Y90.927 E14.90595
G0 F1500 X69.878 Y91.231
G1 F900 X70.461 Y90.806 E14.94194
G1 X70.86 Y90.561 E14.9653
G1 X71.512 Y90.229 E15.0018
G1 X71.948 Y90.049 E15.02533
G1 X72.627 Y89.829 E15.06094
G1 X73.084 Y89.719 E15.08439
G1 X73.8 Y89.605 E15.12057
G1 X74.631 Y89.554 E15.1621
G1 X96.03 Y89.554 E16.2297
G1 X96.635 Y89.594 E16.25995
G1 X97.229 Y89.713 E16.29018
G1 X97.803 Y89.909 E16.32044
G1 X98.346 Y90.18 E16.35071
G1 X98.849 Y90.519 E16.38098
G1 X99.302 Y90.921 E16.41119
G1 X99.699 Y91.379 E16.44143
G1 X99.803 Y91.537 E16.45087
G1 X100.131 Y91.147 E16.47629
G1 X100.648 Y90.63 E16.51277
G1 X101.008 Y90.323 E16.53637
G1 X101.59 Y89.9 E16.57227
G1 X101.99 Y89.655 E16.59567
G1 X102.629 Y89.33 E16.63144
G1 X103.065 Y89.149 E16.65499
G1 X103.76 Y88.923 E16.69145
G1 X104.216 Y88.814 E16.71484
G1 X104.926 Y88.702 E16.7507
G1 X105.757 Y88.651 E16.79224
G1 X127.156 Y88.651 E17.85984
G1 X127.761 Y88.691 E17.89009
G1 X128.355 Y88.81 E17.92031
G1 X128.929 Y89.006 E17.95057
G1 X129.472 Y89.277 E17.98085
G1 X129.975 Y89.616 E18.01111
G1 X130.428 Y90.018 E18.04133
G1 X130.825 Y90.476 E18.07156
G1 X131.158 Y90.983 E18.10183
G1 X131.422 Y91.529 E18.13208
G1 X131.611 Y92.105 E18.16233
G1 X131.723 Y92.701 E18.19258
G1 X131.756 Y93.251 E18.22007
G1 X131.755 Y129.266 E20.01687
G1 X132.194 Y129.416 E20.04001
G1 X132.737 Y129.687 E20.07029
G1 X133.24 Y130.026 E20.10055
G1 X133.693 Y130.428 E20.13077
G1 X134.09 Y130.886 E20.16101
G1 X134.423 Y131.393 E20.19127
G1 X134.687 Y131.939 E20.22153
G1 X134.876 Y132.515 E20.25177
G1 X134.988 Y133.111 E20.28203
G1 X135.021 Y133.661 E20.30952
G1 X135.021 Y169.661 E22.10556
G1 X134.981 Y170.266 E22.13581
G1 X134.862 Y170.86 E22.16604
G1 X134.666 Y171.434 E22.1963
G1 X134.395 Y171.977 E22.22657
G1 X134.056 Y172.48 E22.25683
G1 X133.654 Y172.933 E22.28705
G1 X133.196 Y173.33 E22.31729
G1 X132.689 Y173.663 E22.34755
G1 X132.143 Y173.927 E22.37781
G1 X131.567 Y174.116 E22.40805
G1 X130.971 Y174.228 E22.43831
G1 X130.421 Y174.261 E22.4658
G1 X109.022 Y174.261 E23.5334
G1 X108.191 Y174.21 E23.57493
G1 X107.474 Y174.096 E23.61116
G1 X107.017 Y173.986 E23.63461
G1 X106.334 Y173.764 E23.67044
G1 X105.899 Y173.584 E23.69392
G1 X105.253 Y173.255 E23.73009
G1 X104.852 Y173.009 E23.75356
G1 X104.267 Y172.584 E23.78964
G1 X103.908 Y172.277 E23.8132
G1 X103.401 Y171.77 E23.84897
G1 X103.095 Y171.412 E23.87247
G1 X102.667 Y170.821 E23.90888
G1 X102.441 Y170.451 E23.93051
G1 X102.399 Y170.66 E23.94114
G1 X102.203 Y171.234 E23.9714
G1 X101.932 Y171.777 E24.00168
G1 X101.593 Y172.28 E24.03194
G1 X101.191 Y172.733 E24.06216
G1 X100.733 Y173.13 E24.0924
G1 X100.226 Y173.463 E24.12266
G1 X99.68 Y173.727 E24.15292
G1 X99.104 Y173.916 E24.18316
G1 X98.508 Y174.028 E24.21341
G1 X97.958 Y174.061 E24.2409
G1 X76.559 Y174.061 E25.3085
G1 X75.728 Y174.01 E25.35004
G1 X75.012 Y173.896 E25.38621
G1 X74.555 Y173.786 E25.40966
G1 X73.876 Y173.566 E25.44527
G1 X73.44 Y173.386 E25.46881
G1 X72.785 Y173.052 E25.50549
G1 X72.385 Y172.806 E25.52891
G1 X71.805 Y172.384 E25.5647
G1 X71.446 Y172.077 E25.58827
G1 X70.939 Y171.57 E25.62404
G1 X70.633 Y171.212 E25.64753
G1 X70.209 Y170.628 E25.68354
G1 X69.963 Y170.227 E25.70701
G1 X69.632 Y169.577 E25.7434
G1 X69.452 Y169.141 E25.76693
G1 X69.231 Y168.458 E25.80275
G1 X69.122 Y168.003 E25.82609
G1 X69.009 Y167.293 E25.86196
G1 X68.958 Y166.462 E25.90349
G1 X68.958 Y136.462 E27.4002
G1 X69.009 Y135.631 E27.44174
G1 X69.122 Y134.916 E27.47785
G1 X69.231 Y134.462 E27.50115
G1 X69.452 Y133.781 E27.53687
G1 X69.801 Y133.012 E27.579
G1 X69.518 Y132.77 E27.59757
G1 X69.011 Y132.263 E27.63335
G1 X68.705 Y131.905 E27.65684
G1 X68.281 Y131.321 E27.69285
G1 X68.035 Y130.92 E27.71632
G1 X67.704 Y130.27 E27.75271
G1 X67.524 Y129.834 E27.77624
G1 X67.303 Y129.151 E27.81206
G1 X67.194 Y128.696 E27.8354
G1 X67.081 Y127.986 E27.87127
G1 X67.03 Y127.155 E27.9128
G1 X67.03 Y97.155 E29.40951
G1 X67.081 Y96.324 E29.45105
G1 X67.194 Y95.612 E29.48701
G1 X67.303 Y95.157 E29.51035
G1 X67.524 Y94.474 E29.54617
G1 X67.704 Y94.038 E29.5697
G1 X68.032 Y93.392 E29.60585
G1 X68.278 Y92.99 E29.62936
G1 X68.709 Y92.397 E29.66593
G1 X69.015 Y92.04 E29.68939
G1 X69.518 Y91.539 E29.72481
G1 X69.878 Y91.231 E29.74845
G0 F1500 X70.138 Y91.535
G1 F900 X70.67 Y91.147 E29.7813
G1 X71.069 Y90.902 E29.80466
G1 X71.664 Y90.599 E29.83797
G1 X72.1 Y90.419 E29.8615
G1 X72.72 Y90.218 E29.89402
G1 X73.177 Y90.108 E29.91747
G1 X73.831 Y90.004 E29.95051
G1 X74.631 Y89.954 E29.9905
G1 X96.03 Y89.954 E31.0581
G1 X96.608 Y89.994 E31.08701
G1 X97.175 Y90.113 E31.11591
G1 X97.72 Y90.309 E31.1448
G1 X98.233 Y90.578 E31.1737
G1 X98.704 Y90.915 E31.2026
G1 X99.124 Y91.314 E31.2315
G1 X99.486 Y91.767 E31.26043
G1 X99.775 Y92.255 E31.28872
G1 X100.131 Y91.764 E31.31898
G1 X100.436 Y91.406 E31.34245
G1 X100.908 Y90.934 E31.37575
G1 X101.268 Y90.627 E31.39935
G1 X101.799 Y90.241 E31.4321
G1 X102.199 Y89.996 E31.45551
G1 X102.783 Y89.699 E31.48819
G1 X103.219 Y89.518 E31.51174
G1 X103.853 Y89.312 E31.545
G1 X104.309 Y89.203 E31.56839
G1 X104.957 Y89.101 E31.60112
G1 X105.757 Y89.051 E31.64111
G1 X127.156 Y89.051 E32.70871
G1 X127.734 Y89.091 E32.73762
G1 X128.301 Y89.21 E32.76652
G1 X128.846 Y89.406 E32.79542
G1 X129.359 Y89.675 E32.82431
G1 X129.83 Y90.012 E32.85321
G1 X130.25 Y90.411 E32.88211
G1 X130.612 Y90.864 E32.91104
G1 X130.907 Y91.362 E32.93992
G1 X131.132 Y91.896 E32.96883
G1 X131.28 Y92.456 E32.99772
G1 X131.356 Y93.251 E33.03757
G1 X131.356 Y129.251 E34.83362
G1 X131.334 Y129.571 E34.84962
G1 X131.566 Y129.62 E34.86145
G1 X132.111 Y129.816 E34.89034
G1 X132.624 Y130.085 E34.91924
G1 X133.095 Y130.422 E34.94814
G1 X133.515 Y130.821 E34.97704
G1 X133.877 Y131.274 E35.00597
G1 X134.172 Y131.772 E35.03484
G1 X134.397 Y132.306 E35.06375
G1 X134.545 Y132.866 E35.09265
G1 X134.621 Y133.661 E35.1325
G1 X134.621 Y169.661 E36.92854
G1 X134.581 Y170.239 E36.95745
G1 X134.462 Y170.806 E36.98635
G1 X134.266 Y171.351 E37.01525
G1 X133.997 Y171.864 E37.04415
G1 X133.66 Y172.335 E37.07304
G1 X133.261 Y172.755 E37.10194
G1 X132.808 Y173.117 E37.13087
G1 X132.31 Y173.412 E37.15975
G1 X131.776 Y173.637 E37.18866
G1 X131.216 Y173.785 E37.21756
G1 X130.421 Y173.861 E37.2574
G1 X109.022 Y173.861 E38.325
G1 X108.222 Y173.811 E38.36499
G1 X107.567 Y173.707 E38.39808
G1 X107.11 Y173.597 E38.42153
G1 X106.487 Y173.395 E38.4542
G1 X106.052 Y173.215 E38.47769
G1 X105.462 Y172.914 E38.51074
G1 X105.061 Y172.668 E38.53421
G1 X104.527 Y172.28 E38.56714
G1 X104.168 Y171.973 E38.5907
G1 X103.705 Y171.51 E38.62337
G1 X103.399 Y171.152 E38.64687
G1 X103.008 Y170.613 E38.68009
G1 X102.763 Y170.212 E38.70353
G1 X102.468 Y169.632 E38.736
G1 X102.158 Y168.798 E38.78039
G1 X102.158 Y169.461 E38.81346
G1 X102.118 Y170.039 E38.84237
G1 X101.999 Y170.606 E38.87127
G1 X101.803 Y171.151 E38.90017
G1 X101.534 Y171.664 E38.92907
G1 X101.197 Y172.135 E38.95796
G1 X100.798 Y172.555 E38.98686
G1 X100.345 Y172.917 E39.01579
G1 X99.847 Y173.212 E39.04467
G1 X99.313 Y173.437 E39.07358
G1 X98.753 Y173.585 E39.10248
G1 X97.958 Y173.661 E39.14232
G1 X76.559 Y173.661 E40.20992
G1 X75.759 Y173.611 E40.24991
G1 X75.105 Y173.507 E40.28295
G1 X74.648 Y173.397 E40.3064
G1 X74.028 Y173.196 E40.33892
G1 X73.592 Y173.016 E40.36245
G1 X72.995 Y172.712 E40.39587
G1 X72.595 Y172.466 E40.4193
G1 X72.065 Y172.08 E40.45201
G1 X71.706 Y171.773 E40.47558
G1 X71.243 Y171.31 E40.50825
G1 X70.937 Y170.952 E40.53174
G1 X70.55 Y170.419 E40.5646
G1 X70.304 Y170.018 E40.58808
G1 X70.002 Y169.425 E40.62128
G1 X69.822 Y168.989 E40.64481
G1 X69.62 Y168.364 E40.67758
G1 X69.511 Y167.909 E40.70092
G1 X69.408 Y167.261 E40.73366
G1 X69.358 Y166.462 E40.7736
G1 X69.358 Y136.462 E42.2703
G1 X69.408 Y135.662 E42.31029
G1 X69.511 Y135.009 E42.34327
G1 X69.62 Y134.555 E42.36657
G1 X69.822 Y133.933 E42.39919
G1 X70.002 Y133.497 E42.42273
G1 X70.308 Y132.898 E42.45628
G1 X69.778 Y132.466 E42.4904
G1 X69.315 Y132.003 E42.52306
G1 X69.009 Y131.645 E42.54656
G1 X68.622 Y131.112 E42.57942
G1 X68.376 Y130.711 E42.60289
G1 X68.074 Y130.118 E42.63609
G1 X67.894 Y129.682 E42.65963
G1 X67.692 Y129.057 E42.6924
G1 X67.583 Y128.602 E42.71574
G1 X67.48 Y127.954 E42.74847
G1 X67.43 Y127.155 E42.78841
G1 X67.43 Y97.155 E44.28512
G1 X67.48 Y96.355 E44.32511
G1 X67.583 Y95.706 E44.35789
G1 X67.692 Y95.251 E44.38124
G1 X67.894 Y94.626 E44.414
G1 X68.074 Y94.19 E44.43754
G1 X68.374 Y93.601 E44.47052
G1 X68.62 Y93.199 E44.49403
G1 X69.013 Y92.658 E44.52739
G1 X69.319 Y92.301 E44.55085
G1 X69.778 Y91.843 E44.5832
G1 X70.138 Y91.535 E44.60683
G0 F1500 X70.398 Y91.839
G1 F900 X70.88 Y91.488 E44.63658
G1 X71.279 Y91.243 E44.65994
G1 X71.817 Y90.969 E44.69006
G1 X72.253 Y90.789 E44.71359
G1 X72.814 Y90.607 E44.74302
G1 X73.271 Y90.497 E44.76647
G1 X73.862 Y90.403 E44.79633
G1 X74.631 Y90.354 E44.83477
G1 X96.03 Y90.354 E45.90237
G1 X96.58 Y90.394 E45.92988
G1 X97.118 Y90.513 E45.95737
G1 X97.633 Y90.709 E45.98486
G1 X98.114 Y90.977 E46.01233
G1 X98.552 Y91.311 E46.03981
G1 X98.936 Y91.706 E46.0673
G1 X99.26 Y92.152 E46.0948
G1 X99.515 Y92.64 E46.12227
G1 X99.698 Y93.16 E46.14977
G1 X100.087 Y92.505 E46.18778
G1 X100.435 Y92.024 E46.2174
G1 X100.74 Y91.666 E46.24086
G1 X101.167 Y91.239 E46.27099
G1 X101.527 Y90.932 E46.29459
G1 X102.008 Y90.583 E46.32424
G1 X102.408 Y90.338 E46.34764
G1 X102.936 Y90.068 E46.37723
G1 X103.372 Y89.887 E46.40078
G1 X103.946 Y89.701 E46.43089
G1 X104.402 Y89.592 E46.45428
G1 X104.988 Y89.5 E46.48387
G1 X105.757 Y89.451 E46.52231
G1 X127.156 Y89.451 E47.58991
G1 X127.706 Y89.491 E47.61743
G1 X128.244 Y89.61 E47.64492
G1 X128.759 Y89.806 E47.67241
G1 X129.24 Y90.074 E47.69988
G1 X129.678 Y90.408 E47.72736
G1 X130.062 Y90.803 E47.75484
G1 X130.386 Y91.249 E47.78235
G1 X130.641 Y91.737 E47.80982
G1 X130.824 Y92.257 E47.83732
G1 X130.929 Y92.798 E47.86481
G1 X130.956 Y93.251 E47.88745
G1 X130.956 Y129.251 E49.6835
G1 X130.916 Y129.801 E49.71101
G1 X130.895 Y129.895 E49.71582
G1 X130.971 Y129.901 E49.71962
G1 X131.509 Y130.02 E49.74711
G1 X132.024 Y130.216 E49.7746
G1 X132.505 Y130.484 E49.80207
G1 X132.943 Y130.818 E49.82955
G1 X133.327 Y131.213 E49.85704
G1 X133.651 Y131.659 E49.88454
G1 X133.906 Y132.147 E49.91201
G1 X134.089 Y132.667 E49.93951
G1 X134.194 Y133.208 E49.96701
G1 X134.221 Y133.661 E49.98965
G1 X134.221 Y169.661 E51.78569
G1 X134.181 Y170.211 E51.81321
G1 X134.062 Y170.749 E51.8407
G1 X133.866 Y171.264 E51.86819
G1 X133.598 Y171.745 E51.89566
G1 X133.264 Y172.183 E51.92314
G1 X132.869 Y172.567 E51.95062
G1 X132.423 Y172.891 E51.97812
G1 X131.935 Y173.146 E52.00559
G1 X131.415 Y173.329 E52.0331
G1 X130.874 Y173.434 E52.06059
G1 X130.421 Y173.461 E52.08323
G1 X109.022 Y173.461 E53.15083
G1 X108.253 Y173.412 E53.18928
G1 X107.661 Y173.318 E53.21918
G1 X107.204 Y173.208 E53.24263
G1 X106.64 Y173.025 E53.27221
G1 X106.205 Y172.845 E53.2957
G1 X105.671 Y172.573 E53.3256
G1 X105.27 Y172.327 E53.34907
