;FLAVOR:Marlin
;TIME:5992
;Filament used: 5.95664m, 0m
;Layer height: 0.2
;MINX:60.849
;MINY:66.83
;MINZ:0.3
;MAXX:174.151
;MAXY:164.172
;MAXZ:3.9
;POSTPROCESSED
;Generated with Cura_SteamEngine 4.7.1
T0
M140 S60
M105
M190 S60
M104 S190
M105
M109 S190
M82 ;absolute extrusion mode
M201 X500.00 Y500.00 Z100.00 E5000.00 	;Setup machine max acceleration
M203 X500.00 Y500.00 Z10.00 E50.00 	;Setup machine max feedrate
M204 P500.00 R1000.00 T500.00 		;Setup Print/Retract/Travel acceleration
M205 X8.00 Y8.00 Z0.40 E5.00 		;Setup Jerk
M220 S100 				;Reset Feedrate
M221 S100 				;Reset Flowrate
G28				;Home the Machine
G29 				;Bed Level
G92 E0
M300 P150 S587
G92 E0
G1 F1500 E-6.5
;LAYER_COUNT:19
;LAYER:0
M107
G0 F3600 X88.829 Y79.485 Z0.3
;TYPE:SKIRT
G1 F1500 E0
G1 X88.931 Y79.373 E0.00756
G1 X89.884 Y78.374 E0.07644
G1 X89.987 Y78.27 E0.08374
G1 X90.98 Y77.306 E0.15279
G1 X91.09 Y77.204 E0.16027
G1 X92.125 Y76.276 E0.22962
G1 X92.24 Y76.177 E0.2372
G1 X93.299 Y75.301 E0.30576
G1 X93.417 Y75.207 E0.31329
G1 X94.516 Y74.369 E0.38224
G1 X94.635 Y74.282 E0.38959
G1 X95.773 Y73.482 E0.45899
G1 X95.898 Y73.398 E0.46651
G1 X97.053 Y72.653 E0.53508
G1 X97.18 Y72.574 E0.54254
G1 X98.37 Y71.871 E0.61149
G1 X98.502 Y71.797 E0.61904
G1 X99.721 Y71.141 E0.68811
G1 X99.859 Y71.07 E0.69585
G1 X101.108 Y70.462 E0.76515
G1 X101.24 Y70.401 E0.77241
G1 X102.505 Y69.844 E0.84137
G1 X102.64 Y69.788 E0.84866
G1 X103.919 Y69.283 E0.91726
G1 X104.061 Y69.23 E0.92482
G1 X105.374 Y68.771 E0.99422
G1 X105.519 Y68.723 E1.00184
G1 X106.833 Y68.322 E1.07038
G1 X106.98 Y68.281 E1.07799
G1 X108.317 Y67.931 E1.14694
G1 X108.458 Y67.897 E1.15418
G1 X109.809 Y67.598 E1.22321
G1 X109.961 Y67.567 E1.23095
G1 X111.33 Y67.322 E1.30034
G1 X111.474 Y67.299 E1.30761
G1 X112.844 Y67.108 E1.37662
G1 X112.996 Y67.09 E1.38426
G1 X114.364 Y66.955 E1.45284
G1 X114.513 Y66.944 E1.46029
G1 X115.901 Y66.862 E1.52966
G1 X116.052 Y66.856 E1.5372
G1 X117.357 Y66.831 E1.60232
G1 X117.614 Y66.83 E1.61514
G1 X118.956 Y66.856 E1.68211
G1 X119.104 Y66.862 E1.6895
G1 X120.49 Y66.944 E1.75876
G1 X120.639 Y66.955 E1.76622
G1 X122.007 Y67.09 E1.8348
G1 X122.159 Y67.109 E1.84244
G1 X123.527 Y67.3 E1.91135
G1 X123.67 Y67.322 E1.91857
G1 X125.042 Y67.567 E1.9881
G1 X125.191 Y67.597 E1.99569
G1 X126.54 Y67.894 E2.0646
G1 X126.69 Y67.93 E2.0723
G1 X128.027 Y68.282 E2.14127
G1 X128.172 Y68.323 E2.14879
G1 X129.486 Y68.725 E2.21735
G1 X129.625 Y68.771 E2.22465
G1 X130.939 Y69.229 E2.29407
G1 X131.082 Y69.282 E2.30168
G1 X132.36 Y69.786 E2.37022
G1 X132.499 Y69.844 E2.37774
G1 X133.765 Y70.402 E2.44676
G1 X133.897 Y70.463 E2.45401
G1 X135.146 Y71.072 E2.52334
G1 X135.284 Y71.143 E2.53108
G1 X136.499 Y71.798 E2.59995
G1 X136.628 Y71.871 E2.60734
G1 X137.82 Y72.575 E2.67641
G1 X137.947 Y72.653 E2.68384
G1 X139.103 Y73.398 E2.75246
G1 X139.229 Y73.483 E2.76004
G1 X140.367 Y74.283 E2.82944
G1 X140.488 Y74.372 E2.83693
G1 X141.587 Y75.211 E2.90591
G1 X141.703 Y75.303 E2.9133
G1 X142.762 Y76.179 E2.98187
G1 X142.877 Y76.278 E2.98944
G1 X143.912 Y77.206 E3.05879
G1 X144.023 Y77.31 E3.06638
G1 X145.009 Y78.268 E3.13497
G1 X145.109 Y78.368 E3.14202
G1 X146.069 Y79.373 E3.21136
G1 X146.174 Y79.488 E3.21913
G1 X147.082 Y80.52 E3.28771
G1 X147.178 Y80.636 E3.29522
G1 X148.05 Y81.71 E3.36424
G1 X148.142 Y81.827 E3.37166
G1 X148.971 Y82.934 E3.44066
G1 X149.062 Y83.06 E3.44842
G1 X149.845 Y84.2 E3.51742
G1 X149.924 Y84.32 E3.52458
G1 X150.666 Y85.493 E3.59383
G1 X150.747 Y85.626 E3.6016
G1 X151.435 Y86.819 E3.67031
G1 X151.572 Y87.07 E3.68457
G1 X152.151 Y88.174 E3.74677
G1 X152.217 Y88.305 E3.75408
G1 X152.812 Y89.554 E3.82311
G1 X152.929 Y89.816 E3.83742
G1 X153.42 Y90.965 E3.89976
G1 X153.473 Y91.094 E3.90672
G1 X153.97 Y92.386 E3.97578
G1 X154.023 Y92.533 E3.98358
G1 X154.468 Y93.849 E4.05288
G1 X154.513 Y93.992 E4.06036
G1 X154.903 Y95.315 E4.12918
G1 X154.943 Y95.462 E4.13678
G1 X155.28 Y96.802 E4.20571
G1 X155.313 Y96.945 E4.21303
G1 X155.615 Y98.378 E4.2861
G1 X155.645 Y98.534 E4.29402
G1 X155.873 Y99.894 E4.36282
G1 X155.894 Y100.036 E4.36998
G1 X156.061 Y101.332 E4.43517
G1 X156.077 Y101.485 E4.44285
G1 X156.205 Y102.939 E4.51567
G1 X156.216 Y103.089 E4.52317
G1 X156.282 Y104.478 E4.59255
G1 X156.285 Y104.613 E4.59929
G1 X156.299 Y105.919 E4.66445
G1 X156.297 Y106.07 E4.67198
G1 X156.257 Y107.454 E4.74106
G1 X156.25 Y107.609 E4.7488
G1 X156.153 Y108.996 E4.81816
G1 X156.14 Y109.14 E4.82538
G1 X155.992 Y110.507 E4.89398
G1 X155.973 Y110.658 E4.90157
G1 X155.768 Y112.034 E4.97098
G1 X155.649 Y112.672 E5.00335
G1 X156.562 Y112.972 E5.0513
G1 X156.744 Y113.037 E5.06094
G1 X157.789 Y113.44 E5.11682
G1 X157.959 Y113.51 E5.12599
G1 X158.965 Y113.955 E5.18087
G1 X159.137 Y114.036 E5.19036
G1 X160.138 Y114.54 E5.24627
G1 X160.3 Y114.627 E5.25544
G1 X161.258 Y115.169 E5.31036
G1 X161.418 Y115.265 E5.31967
G1 X162.357 Y115.859 E5.3751
G1 X162.514 Y115.963 E5.3845
G1 X163.43 Y116.608 E5.44039
G1 X163.582 Y116.721 E5.44984
G1 X164.457 Y117.405 E5.50525
G1 X164.598 Y117.52 E5.51432
G1 X165.43 Y118.237 E5.56912
G1 X165.57 Y118.365 E5.57858
G1 X166.375 Y119.132 E5.63406
G1 X166.508 Y119.265 E5.64344
G1 X167.28 Y120.077 E5.69934
G1 X167.406 Y120.216 E5.7087
G1 X168.124 Y121.05 E5.7636
G1 X168.244 Y121.196 E5.77303
G1 X168.926 Y122.073 E5.82846
G1 X169.035 Y122.22 E5.83759
G1 X169.679 Y123.136 E5.89345
G1 X169.783 Y123.293 E5.90285
G1 X170.376 Y124.232 E5.95825
G1 X170.473 Y124.394 E5.96767
G1 X171.014 Y125.353 E6.02261
G1 X171.101 Y125.517 E6.03187
G1 X171.603 Y126.518 E6.08774
G1 X171.684 Y126.689 E6.09718
G1 X172.128 Y127.697 E6.15213
G1 X172.198 Y127.868 E6.16135
G1 X172.599 Y128.913 E6.21719
G1 X172.662 Y129.091 E6.22661
G1 X173.005 Y130.138 E6.28157
G1 X173.059 Y130.316 E6.29085
G1 X173.355 Y131.395 E6.34667
G1 X173.399 Y131.572 E6.35577
G1 X173.639 Y132.647 E6.41073
G1 X173.676 Y132.839 E6.42048
G1 X173.862 Y133.934 E6.47589
G1 X173.889 Y134.114 E6.48497
G1 X174.022 Y135.215 E6.5403
G1 X174.04 Y135.403 E6.54973
G1 X174.119 Y136.521 E6.60564
G1 X174.127 Y136.706 E6.61488
G1 X174.151 Y137.806 E6.66977
G1 X174.151 Y137.994 E6.67915
G1 X174.12 Y139.115 E6.7351
G1 X174.11 Y139.3 E6.74434
G1 X174.026 Y140.397 E6.79923
G1 X174.006 Y140.59 E6.80891
G1 X173.865 Y141.691 E6.86429
G1 X173.839 Y141.864 E6.87302
G1 X173.647 Y142.959 E6.92848
G1 X173.607 Y143.155 E6.93846
G1 X173.358 Y144.237 E6.99385
G1 X173.313 Y144.416 E7.00306
G1 X173.012 Y145.484 E7.05842
G1 X172.958 Y145.657 E7.06746
G1 X172.603 Y146.72 E7.12338
G1 X172.54 Y146.894 E7.13261
G1 X172.141 Y147.919 E7.18748
G1 X172.066 Y148.1 E7.19726
G1 X171.61 Y149.114 E7.25273
G1 X171.53 Y149.279 E7.26187
G1 X171.027 Y150.267 E7.31719
G1 X170.938 Y150.432 E7.32654
G1 X170.38 Y151.406 E7.38254
G1 X170.284 Y151.565 E7.39181
G1 X169.692 Y152.49 E7.4466
G1 X169.587 Y152.646 E7.45598
G1 X168.942 Y153.552 E7.51147
G1 X168.831 Y153.7 E7.52069
G1 X168.144 Y154.572 E7.57608
G1 X168.023 Y154.718 E7.58554
G1 X167.293 Y155.555 E7.64095
G1 X167.165 Y155.694 E7.65038
G1 X166.395 Y156.493 E7.70574
G1 X166.265 Y156.621 E7.71484
G1 X165.449 Y157.39 E7.77078
G1 X165.306 Y157.519 E7.78039
G1 X164.46 Y158.239 E7.83581
G1 X164.317 Y158.355 E7.845
G1 X163.444 Y159.028 E7.89999
G1 X163.29 Y159.14 E7.90949
G1 X162.379 Y159.772 E7.96481
G1 X162.227 Y159.873 E7.97391
G1 X161.278 Y160.466 E8.02974
G1 X161.114 Y160.562 E8.03922
G1 X160.147 Y161.101 E8.09445
G1 X159.979 Y161.19 E8.10394
G1 X158.98 Y161.683 E8.15952
G1 X158.814 Y161.759 E8.16862
G1 X157.805 Y162.198 E8.22352
G1 X157.637 Y162.267 E8.23258
G1 X156.588 Y162.665 E8.28856
G1 X156.4 Y162.731 E8.2985
G1 X155.352 Y163.067 E8.3534
G1 X155.181 Y163.117 E8.36229
G1 X154.101 Y163.408 E8.4181
G1 X153.919 Y163.452 E8.42744
G1 X152.842 Y163.686 E8.48242
G1 X152.651 Y163.723 E8.49213
G1 X151.555 Y163.903 E8.54754
G1 X151.376 Y163.928 E8.55656
G1 X150.27 Y164.056 E8.61211
G1 X150.081 Y164.073 E8.62157
G1 X148.967 Y164.146 E8.67727
G1 X148.784 Y164.153 E8.68641
G1 X147.681 Y164.172 E8.74144
G1 X147.49 Y164.171 E8.75097
G1 X146.373 Y164.134 E8.80673
G1 X146.189 Y164.123 E8.81593
G1 X145.088 Y164.033 E8.87104
G1 X144.897 Y164.013 E8.88062
G1 X143.799 Y163.867 E8.93588
G1 X143.617 Y163.838 E8.94508
G1 X142.522 Y163.638 E9.00061
G1 X142.337 Y163.6 E9.01003
G1 X141.25 Y163.345 E9.06573
G1 X141.071 Y163.298 E9.07497
G1 X140.003 Y162.992 E9.13039
G1 X139.823 Y162.936 E9.1398
G1 X138.782 Y162.581 E9.19467
G1 X138.61 Y162.517 E9.20383
G1 X137.567 Y162.104 E9.25979
G1 X137.389 Y162.028 E9.26945
G1 X136.389 Y161.572 E9.32428
G1 X136.225 Y161.493 E9.33336
G1 X135.228 Y160.979 E9.38933
G1 X135.063 Y160.888 E9.39873
G1 X134.111 Y160.336 E9.45363
G1 X133.954 Y160.24 E9.46281
G1 X133.015 Y159.633 E9.51859
G1 X132.856 Y159.525 E9.52818
G1 X131.954 Y158.875 E9.58365
G1 X131.807 Y158.763 E9.59287
G1 X130.939 Y158.071 E9.64825
G1 X130.794 Y157.949 E9.65771
G1 X129.96 Y157.213 E9.7132
G1 X129.823 Y157.087 E9.72249
G1 X129.028 Y156.313 E9.77784
G1 X128.899 Y156.18 E9.78709
G1 X128.149 Y155.375 E9.84198
G1 X128.023 Y155.234 E9.85141
G1 X127.3 Y154.376 E9.90739
G1 X127.184 Y154.231 E9.91665
G1 X126.517 Y153.356 E9.97154
G1 X126.408 Y153.206 E9.98079
G1 X125.773 Y152.283 E10.03669
G1 X125.669 Y152.123 E10.04621
G1 X125.092 Y151.187 E10.10107
G1 X124.999 Y151.028 E10.11026
G1 X124.462 Y150.054 E10.16574
G1 X124.375 Y149.886 E10.17518
G1 X124.137 Y149.398 E10.20227
G1 X123.817 Y149.75 E10.226
G1 X123.456 Y150.101 E10.25112
G1 X123.169 Y150.354 E10.27021
G1 X122.762 Y150.677 E10.29613
G1 X122.442 Y150.904 E10.31571
G1 X121.998 Y151.187 E10.34198
G1 X121.64 Y151.389 E10.36248
G1 X121.185 Y151.614 E10.38781
G1 X120.846 Y151.762 E10.40626
G1 X120.357 Y151.947 E10.43235
G1 X119.976 Y152.069 E10.45231
G1 X119.492 Y152.196 E10.47727
G1 X119.112 Y152.275 E10.49663
G1 X118.591 Y152.356 E10.52294
G1 X118.192 Y152.396 E10.54294
G1 X117.68 Y152.421 E10.56852
G1 X117.303 Y152.421 E10.58733
G1 X116.79 Y152.395 E10.61295
G1 X116.39 Y152.354 E10.63301
G1 X115.87 Y152.272 E10.65928
G1 X115.49 Y152.192 E10.67865
G1 X115.006 Y152.064 E10.70363
G1 X114.627 Y151.942 E10.72349
G1 X114.138 Y151.756 E10.74959
G1 X113.79 Y151.603 E10.76856
G1 X113.336 Y151.376 E10.79388
G1 X112.989 Y151.179 E10.81379
G1 X112.546 Y150.896 E10.84002
G1 X112.228 Y150.669 E10.85951
G1 X111.829 Y150.352 E10.88493
G1 X111.539 Y150.097 E10.9042
G1 X111.171 Y149.738 E10.92985
G1 X110.862 Y149.398 E10.95277
G1 X110.619 Y149.895 E10.98037
G1 X110.536 Y150.054 E10.98932
G1 X110.002 Y151.026 E11.04465
G1 X109.904 Y151.194 E11.05435
G1 X109.324 Y152.132 E11.10937
G1 X109.224 Y152.286 E11.11853
G1 X108.591 Y153.207 E11.17429
G1 X108.48 Y153.36 E11.18372
G1 X107.811 Y154.237 E11.23875
G1 X107.693 Y154.384 E11.24815
G1 X106.971 Y155.239 E11.30398
G1 X106.852 Y155.374 E11.31296
G1 X106.102 Y156.181 E11.36793
G1 X105.965 Y156.32 E11.37766
G1 X105.169 Y157.093 E11.43302
G1 X105.038 Y157.215 E11.44195
G1 X104.206 Y157.95 E11.49734
G1 X104.058 Y158.074 E11.50697
G1 X103.188 Y158.767 E11.56246
G1 X103.04 Y158.879 E11.57172
G1 X102.14 Y159.527 E11.62705
G1 X101.983 Y159.634 E11.63653
G1 X101.041 Y160.243 E11.69249
G1 X100.883 Y160.34 E11.70174
G1 X99.932 Y160.891 E11.75657
G1 X99.768 Y160.981 E11.76591
G1 X98.771 Y161.495 E11.82187
G1 X98.602 Y161.576 E11.83122
G1 X97.601 Y162.031 E11.88608
G1 X97.432 Y162.103 E11.89524
G1 X96.39 Y162.517 E11.95118
G1 X96.212 Y162.583 E11.96065
G1 X95.17 Y162.938 E12.01557
G1 X94.988 Y162.995 E12.02509
G1 X93.92 Y163.3 E12.0805
G1 X93.738 Y163.347 E12.08988
G1 X92.651 Y163.6 E12.14556
G1 X92.479 Y163.636 E12.15432
G1 X91.383 Y163.838 E12.20992
G1 X91.192 Y163.868 E12.21957
G1 X90.096 Y164.013 E12.27473
G1 X89.907 Y164.033 E12.28421
G1 X88.804 Y164.123 E12.33942
G1 X88.621 Y164.134 E12.34857
G1 X87.504 Y164.171 E12.40432
G1 X87.312 Y164.172 E12.4139
G1 X86.21 Y164.153 E12.46889
G1 X86.028 Y164.146 E12.47798
G1 X84.914 Y164.073 E12.53367
G1 X84.725 Y164.056 E12.54314
G1 X83.619 Y163.928 E12.59869
G1 X83.436 Y163.902 E12.60791
G1 X82.341 Y163.721 E12.66328
G1 X82.158 Y163.686 E12.67258
G1 X81.08 Y163.453 E12.7276
G1 X80.891 Y163.407 E12.7373
G1 X79.811 Y163.115 E12.79312
G1 X79.638 Y163.064 E12.80212
G1 X78.592 Y162.727 E12.85695
G1 X78.413 Y162.664 E12.86641
G1 X77.363 Y162.267 E12.92242
G1 X77.188 Y162.196 E12.93184
G1 X76.179 Y161.756 E12.98676
G1 X76.019 Y161.682 E12.99555
G1 X75.02 Y161.19 E13.05111
G1 X74.845 Y161.098 E13.06097
G1 X73.879 Y160.558 E13.11618
G1 X73.722 Y160.465 E13.12529
G1 X72.771 Y159.872 E13.1812
G1 X72.611 Y159.767 E13.19075
G1 X71.7 Y159.133 E13.24612
G1 X71.552 Y159.024 E13.25529
G1 X70.681 Y158.353 E13.31015
G1 X70.536 Y158.236 E13.31944
G1 X69.693 Y157.518 E13.37469
G1 X69.552 Y157.392 E13.38412
G1 X68.732 Y156.62 E13.44031
G1 X68.597 Y156.486 E13.4498
G1 X67.828 Y155.686 E13.50516
G1 X67.706 Y155.553 E13.51416
G1 X66.975 Y154.716 E13.56961
G1 X66.85 Y154.566 E13.57935
G1 X66.164 Y153.694 E13.6347
G1 X66.055 Y153.547 E13.64383
G1 X65.411 Y152.642 E13.69925
G1 X65.305 Y152.486 E13.70866
G1 X64.713 Y151.56 E13.76349
G1 X64.616 Y151.399 E13.77287
G1 X64.059 Y150.425 E13.82884
G1 X63.972 Y150.264 E13.83797
G1 X63.468 Y149.275 E13.89335
G1 X63.387 Y149.106 E13.9027
G1 X62.932 Y148.092 E13.95815
G1 X62.859 Y147.919 E13.96752
G1 X62.459 Y146.895 E14.02236
G1 X62.395 Y146.716 E14.03185
G1 X62.04 Y145.653 E14.08776
G1 X61.985 Y145.475 E14.09706
G1 X61.685 Y144.405 E14.1525
G1 X61.64 Y144.229 E14.16156
G1 X61.392 Y143.148 E14.21689
G1 X61.354 Y142.958 E14.22656
G1 X61.161 Y141.864 E14.28198
G1 X61.133 Y141.683 E14.29112
G1 X60.993 Y140.582 E14.34649
G1 X60.974 Y140.393 E14.35597
G1 X60.89 Y139.295 E14.41091
G1 X60.88 Y139.111 E14.4201
G1 X60.849 Y138.002 E14.47545
G1 X60.849 Y137.814 E14.48483
G1 X60.873 Y136.702 E14.54032
G1 X60.881 Y136.516 E14.54961
G1 X60.959 Y135.411 E14.60487
G1 X60.977 Y135.225 E14.6142
G1 X61.111 Y134.111 E14.67018
G1 X61.138 Y133.926 E14.6795
G1 X61.323 Y132.842 E14.73437
G1 X61.359 Y132.66 E14.74362
G1 X61.599 Y131.575 E14.79906
G1 X61.646 Y131.385 E14.80883
G1 X61.944 Y130.305 E14.86472
G1 X61.997 Y130.13 E14.87384
G1 X62.34 Y129.086 E14.92867
G1 X62.403 Y128.91 E14.93799
G1 X62.805 Y127.863 E14.99395
G1 X62.876 Y127.691 E15.00323
G1 X63.32 Y126.685 E15.05809
G1 X63.399 Y126.516 E15.0674
G1 X63.902 Y125.513 E15.12338
G1 X63.99 Y125.347 E15.13275
G1 X64.531 Y124.389 E15.18764
G1 X64.626 Y124.231 E15.19684
G1 X65.218 Y123.292 E15.25222
G1 X65.324 Y123.132 E15.26179
G1 X65.963 Y122.224 E15.31719
G1 X66.069 Y122.081 E15.32607
G1 X66.756 Y121.196 E15.38196
G1 X66.88 Y121.045 E15.39171
G1 X67.599 Y120.211 E15.44665
G1 X67.721 Y120.076 E15.45573
G1 X68.485 Y119.271 E15.51109
G1 X68.623 Y119.133 E15.52083
G1 X69.436 Y118.36 E15.5768
G1 X69.573 Y118.235 E15.58605
G1 X70.405 Y117.518 E15.64085
G1 X70.545 Y117.404 E15.64986
G1 X71.421 Y116.719 E15.70533
G1 X71.574 Y116.605 E15.71485
G1 X72.49 Y115.96 E15.77075
G1 X72.645 Y115.857 E15.78003
G1 X73.583 Y115.263 E15.83542
G1 X73.746 Y115.165 E15.84491
G1 X74.705 Y114.623 E15.89987
G1 X74.867 Y114.536 E15.90904
G1 X75.867 Y114.033 E15.96489
G1 X76.04 Y113.952 E15.97442
G1 X77.048 Y113.507 E16.02939
G1 X77.218 Y113.437 E16.03856
G1 X78.262 Y113.035 E16.09437
G1 X78.44 Y112.971 E16.10381
G1 X79.351 Y112.671 E16.15166
G1 X79.232 Y112.032 E16.18409
G1 X79.027 Y110.655 E16.25355
G1 X79.008 Y110.502 E16.26124
G1 X78.86 Y109.128 E16.33018
G1 X78.847 Y108.985 E16.33735
G1 X78.751 Y107.604 E16.40641
G1 X78.744 Y107.451 E16.41405
G1 X78.704 Y106.077 E16.48263
G1 X78.702 Y105.931 E16.48992
G1 X78.715 Y104.556 E16.55852
G1 X78.721 Y104.396 E16.56651
G1 X78.789 Y103.011 E16.63569
