;FLAVOR:Marlin
;TIME:6568
;Filament used: 6.0307m, 0m
;Layer height: 0.2
;MINX:31.292
;MINY:54.787
;MINZ:0.3
;MAXX:150.994
;MAXY:167.568
;MAXZ:3.9
;POSTPROCESSED
;Generated with Cura_SteamEngine 4.7.1
T0
M140 S60
M105
M190 S60
M104 S190
M105
M109 S190
M82 ;absolute extrusion mode
M201 X500.00 Y500.00 Z100.00 E5000.00 	;Setup machine max acceleration
M203 X500.00 Y500.00 Z10.00 E50.00 	;Setup machine max feedrate
M204 P500.00 R1000.00 T500.00 		;Setup Print/Retract/Travel acceleration
M205 X8.00 Y8.00 Z0.40 E5.00 		;Setup Jerk
M220 S100 				;Reset Feedrate
M221 S100 				;Reset Flowrate
G28				;Home the Machine
G29 				;Bed Level
G92 E0
M300 P150 S587
G92 E0
G1 F1500 E-6.5
;LAYER_COUNT:19
;LAYER:0
M107
G0 F3600 X62.21 Y66.338 Z0.3
;TYPE:SKIRT
G1 F1500 E0
G1 X62.518 Y66.049 E0.02107
G1 X63.477 Y65.182 E0.08557
G1 X63.797 Y64.906 E0.10665
G1 X64.791 Y64.079 E0.17116
G1 X65.121 Y63.816 E0.19222
G1 X66.149 Y63.03 E0.25678
G1 X66.488 Y62.782 E0.27773
G1 X67.545 Y62.04 E0.34216
G1 X67.896 Y61.804 E0.36326
G1 X69.067 Y61.052 E0.43269
G1 X69.347 Y60.881 E0.44906
G1 X70.559 Y60.173 E0.51909
G1 X70.823 Y60.026 E0.53417
G1 X71.964 Y59.418 E0.59867
G1 X72.342 Y59.227 E0.6198
G1 X73.508 Y58.666 E0.68435
G1 X73.888 Y58.492 E0.7052
G1 X75.075 Y57.979 E0.76972
G1 X75.465 Y57.82 E0.79073
G1 X76.738 Y57.331 E0.85876
G1 X77.064 Y57.213 E0.87606
G1 X78.289 Y56.798 E0.94059
G1 X78.697 Y56.669 E0.96194
G1 X80.036 Y56.278 E1.03153
G1 X80.345 Y56.195 E1.04749
G1 X81.677 Y55.864 E1.11597
G1 X82.007 Y55.789 E1.13285
G1 X83.343 Y55.514 E1.2009
G1 X83.688 Y55.45 E1.21841
G1 X85.055 Y55.227 E1.28751
G1 X85.373 Y55.182 E1.30353
G1 X86.789 Y55.008 E1.37471
G1 X87.083 Y54.98 E1.38944
G1 X88.466 Y54.869 E1.45866
G1 X88.788 Y54.85 E1.47475
G1 X90.153 Y54.795 E1.54291
G1 X90.491 Y54.788 E1.55978
G1 X91.784 Y54.787 E1.62428
G1 X92.204 Y54.797 E1.64524
G1 X93.498 Y54.849 E1.70985
G1 X93.913 Y54.875 E1.7306
G1 X95.202 Y54.979 E1.79512
G1 X95.629 Y55.022 E1.81653
G1 X96.912 Y55.18 E1.88102
G1 X97.321 Y55.24 E1.90164
G1 X98.597 Y55.449 E1.96615
G1 X99.016 Y55.527 E1.98741
G1 X100.283 Y55.789 E2.05196
G1 X100.684 Y55.881 E2.07249
G1 X101.94 Y56.193 E2.13706
G1 X102.346 Y56.305 E2.15807
G1 X103.587 Y56.668 E2.22258
G1 X103.994 Y56.797 E2.24388
G1 X105.218 Y57.211 E2.30834
G1 X105.613 Y57.355 E2.32932
G1 X106.82 Y57.819 E2.39383
G1 X107.206 Y57.976 E2.41462
G1 X108.393 Y58.488 E2.47911
G1 X108.776 Y58.664 E2.50014
G1 X109.943 Y59.225 E2.56474
G1 X110.321 Y59.417 E2.58589
G1 X111.462 Y60.025 E2.6504
G1 X111.824 Y60.229 E2.67113
G1 X112.938 Y60.881 E2.73552
G1 X113.295 Y61.101 E2.75644
G1 X114.385 Y61.8 E2.82105
G1 X114.744 Y62.04 E2.84259
G1 X115.802 Y62.784 E2.90712
G1 X116.142 Y63.033 E2.92814
G1 X117.227 Y63.865 E2.99636
G1 X117.495 Y64.078 E3.01344
G1 X118.49 Y64.906 E3.07802
G1 X118.805 Y65.179 E3.09881
G1 X119.838 Y66.113 E3.16829
G1 X120.075 Y66.337 E3.18456
G1 X120.997 Y67.242 E3.24902
G1 X121.283 Y67.534 E3.26941
G1 X122.256 Y68.567 E3.34021
G1 X122.46 Y68.795 E3.35547
G1 X123.306 Y69.773 E3.41999
G1 X123.576 Y70.097 E3.44103
G1 X124.428 Y71.169 E3.50934
G1 X124.636 Y71.441 E3.52643
G1 X125.4 Y72.485 E3.59097
G1 X125.644 Y72.833 E3.61217
G1 X126.439 Y74.02 E3.68345
G1 X126.59 Y74.255 E3.69738
G1 X127.266 Y75.357 E3.76188
G1 X127.477 Y75.718 E3.78274
G1 X128.173 Y76.965 E3.85399
G1 X128.305 Y77.215 E3.8681
G1 X128.938 Y78.466 E3.93804
G1 X129.073 Y78.747 E3.9536
G1 X129.61 Y79.923 E4.01809
G1 X129.777 Y80.31 E4.03912
G1 X130.266 Y81.508 E4.10368
G1 X130.421 Y81.911 E4.12522
G1 X130.904 Y83.255 E4.19647
G1 X130.992 Y83.517 E4.21026
G1 X131.405 Y84.83 E4.27893
G1 X131.501 Y85.155 E4.29584
G1 X131.839 Y86.403 E4.36034
G1 X131.934 Y86.786 E4.38003
G1 X132.251 Y88.178 E4.45126
G1 X132.31 Y88.465 E4.46587
G1 X132.568 Y89.867 E4.53699
G1 X132.614 Y90.143 E4.55095
G1 X132.816 Y91.556 E4.62216
G1 X132.851 Y91.845 E4.63669
G1 X132.994 Y93.263 E4.70779
G1 X133.016 Y93.538 E4.72156
G1 X133.103 Y94.962 E4.79273
G1 X133.115 Y95.257 E4.80746
G1 X133.142 Y96.684 E4.87867
G1 X133.142 Y96.956 E4.89224
G1 X133.115 Y98.307 E4.95965
G1 X133.103 Y98.59 E4.97378
G1 X133.008 Y100.147 E5.05161
G1 X132.988 Y100.373 E5.06293
G1 X132.851 Y101.719 E5.13043
G1 X133.092 Y101.82 E5.14346
G1 X134.132 Y102.29 E5.2004
G1 X134.448 Y102.443 E5.21792
G1 X135.466 Y102.966 E5.27502
G1 X135.786 Y103.141 E5.29321
G1 X136.773 Y103.715 E5.35018
G1 X137.069 Y103.897 E5.36751
G1 X138.026 Y104.519 E5.42445
G1 X138.318 Y104.72 E5.44214
G1 X139.244 Y105.391 E5.49919
G1 X139.526 Y105.605 E5.51685
G1 X140.417 Y106.322 E5.57391
G1 X140.691 Y106.555 E5.59186
G1 X141.543 Y107.316 E5.64885
G1 X141.796 Y107.554 E5.66618
G1 X142.609 Y108.356 E5.72315
G1 X142.858 Y108.614 E5.74104
G1 X143.63 Y109.458 E5.79811
G1 X143.867 Y109.731 E5.81614
G1 X144.594 Y110.613 E5.87317
G1 X144.807 Y110.885 E5.8904
G1 X145.489 Y111.801 E5.94738
G1 X145.696 Y112.094 E5.96528
G1 X146.331 Y113.045 E6.02233
G1 X146.52 Y113.344 E6.03997
G1 X147.105 Y114.324 E6.09692
G1 X147.279 Y114.633 E6.11461
G1 X147.815 Y115.644 E6.1717
G1 X147.974 Y115.965 E6.18957
G1 X148.457 Y117.001 E6.2466
G1 X148.596 Y117.318 E6.26386
G1 X149.027 Y118.376 E6.32086
G1 X149.155 Y118.715 E6.33894
G1 X149.531 Y119.795 E6.39599
G1 X149.638 Y120.129 E6.41349
G1 X149.959 Y121.225 E6.47047
G1 X150.05 Y121.57 E6.48827
G1 X150.315 Y122.682 E6.5453
G1 X150.389 Y123.031 E6.5631
G1 X150.597 Y124.155 E6.62013
G1 X150.652 Y124.497 E6.63741
G1 X150.804 Y125.629 E6.69439
G1 X150.843 Y125.992 E6.7126
G1 X150.936 Y127.132 E6.76967
G1 X150.956 Y127.48 E6.78706
G1 X150.992 Y128.621 E6.84401
G1 X150.994 Y128.977 E6.86177
G1 X150.972 Y130.12 E6.91881
G1 X150.956 Y130.475 E6.93654
G1 X150.876 Y131.616 E6.9936
G1 X150.842 Y131.972 E7.01144
G1 X150.704 Y133.106 E7.06844
G1 X150.652 Y133.454 E7.08599
G1 X150.457 Y134.58 E7.143
G1 X150.387 Y134.934 E7.16101
G1 X150.134 Y136.05 E7.2181
G1 X150.048 Y136.388 E7.2355
G1 X149.74 Y137.489 E7.29253
G1 X149.637 Y137.824 E7.31002
G1 X149.275 Y138.906 E7.36694
G1 X149.151 Y139.248 E7.38509
G1 X148.732 Y140.313 E7.44219
G1 X148.597 Y140.633 E7.45952
G1 X148.127 Y141.673 E7.51645
G1 X147.974 Y141.989 E7.53397
G1 X147.452 Y143.005 E7.59096
G1 X147.276 Y143.327 E7.60927
G1 X146.701 Y144.315 E7.6663
G1 X146.517 Y144.613 E7.68377
G1 X145.894 Y145.57 E7.74074
G1 X145.693 Y145.862 E7.75843
G1 X145.021 Y146.788 E7.81551
G1 X144.81 Y147.065 E7.83288
G1 X144.094 Y147.955 E7.88987
G1 X143.861 Y148.23 E7.90785
G1 X143.1 Y149.082 E7.96484
G1 X142.856 Y149.341 E7.9826
G1 X142.053 Y150.153 E8.03957
G1 X141.797 Y150.399 E8.05728
G1 X140.952 Y151.171 E8.11439
G1 X140.683 Y151.405 E8.13217
G1 X139.801 Y152.132 E8.1892
G1 X139.525 Y152.348 E8.20668
G1 X138.609 Y153.029 E8.26363
G1 X138.317 Y153.234 E8.28143
G1 X137.365 Y153.869 E8.33852
G1 X137.069 Y154.057 E8.35601
G1 X136.089 Y154.642 E8.41295
G1 X135.775 Y154.818 E8.43091
G1 X134.764 Y155.353 E8.48798
G1 X134.448 Y155.51 E8.50558
G1 X133.412 Y155.993 E8.56261
G1 X133.087 Y156.135 E8.5803
G1 X132.028 Y156.565 E8.63733
G1 X131.697 Y156.69 E8.65498
G1 X130.617 Y157.066 E8.71203
G1 X130.281 Y157.173 E8.72963
G1 X129.184 Y157.494 E8.78665
G1 X128.836 Y157.586 E8.80461
G1 X127.725 Y157.85 E8.86158
G1 X127.38 Y157.923 E8.87917
G1 X126.255 Y158.131 E8.93625
G1 X125.841 Y158.196 E8.95716
G1 X125.632 Y158.754 E8.98689
G1 X125.291 Y159.522 E9.02881
G1 X124.903 Y160.27 E9.07085
G1 X124.495 Y160.958 E9.11075
G1 X124.008 Y161.681 E9.15424
G1 X123.554 Y162.282 E9.19182
G1 X122.974 Y162.97 E9.23672
G1 X122.78 Y163.191 E9.25139
G1 X122.282 Y163.688 E9.28649
G1 X121.833 Y164.093 E9.31666
G1 X121.517 Y164.361 E9.33733
G1 X121.067 Y164.721 E9.36608
G1 X120.703 Y164.993 E9.38875
G1 X120.255 Y165.306 E9.41601
G1 X119.842 Y165.574 E9.44058
G1 X119.391 Y165.844 E9.4668
G1 X118.92 Y166.102 E9.49359
G1 X118.467 Y166.328 E9.51885
G1 X117.717 Y166.649 E9.55955
G1 X116.841 Y166.965 E9.60601
G1 X116.014 Y167.207 E9.649
G1 X115.507 Y167.322 E9.67494
G1 X114.552 Y167.47 E9.72315
G1 X113.646 Y167.547 E9.76852
G1 X112.816 Y167.568 E9.80994
G1 X112.285 Y167.55 E9.83644
G1 X111.392 Y167.462 E9.88121
G1 X110.438 Y167.306 E9.92944
G1 X109.696 Y167.143 E9.96734
G1 X109.134 Y166.987 E9.99644
G1 X108.636 Y166.829 E10.0225
G1 X108.108 Y166.639 E10.0505
G1 X107.699 Y166.477 E10.07245
G1 X107.158 Y166.243 E10.10186
G1 X106.939 Y166.144 E10.11385
G1 X106.116 Y165.754 E10.15928
G1 X105.93 Y165.662 E10.16963
G1 X105.141 Y165.259 E10.21384
G1 X104.97 Y165.168 E10.2235
G1 X104.212 Y164.754 E10.26659
G1 X104.015 Y164.643 E10.27787
G1 X103.29 Y164.216 E10.31985
G1 X103.105 Y164.103 E10.33066
G1 X102.408 Y163.663 E10.37179
G1 X102.226 Y163.544 E10.38263
G1 X101.557 Y163.092 E10.42291
G1 X101.357 Y162.952 E10.43509
G1 X100.714 Y162.484 E10.47477
G1 X100.536 Y162.35 E10.48589
G1 X99.92 Y161.871 E10.52482
G1 X99.731 Y161.719 E10.53692
G1 X99.138 Y161.224 E10.57546
G1 X98.952 Y161.063 E10.58773
G1 X98.384 Y160.554 E10.62578
G1 X98.209 Y160.391 E10.63771
G1 X97.661 Y159.865 E10.67561
G1 X97.484 Y159.69 E10.68802
G1 X96.96 Y159.15 E10.72556
G1 X96.79 Y158.967 E10.73803
G1 X96.285 Y158.408 E10.77561
G1 X96.123 Y158.223 E10.78788
G1 X95.64 Y157.649 E10.8253
G1 X95.489 Y157.463 E10.83726
G1 X95.023 Y156.869 E10.87492
G1 X94.876 Y156.675 E10.88707
G1 X94.43 Y156.064 E10.92481
G1 X94.289 Y155.864 E10.93701
G1 X93.86 Y155.231 E10.97516
G1 X93.734 Y155.039 E10.98662
G1 X93.324 Y154.389 E11.02496
G1 X93.198 Y154.18 E11.03714
G1 X92.805 Y153.506 E11.07606
G1 X92.701 Y153.321 E11.08665
G1 X92.324 Y152.627 E11.12605
G1 X92.223 Y152.434 E11.13692
G1 X91.861 Y151.715 E11.17708
G1 X91.762 Y151.511 E11.1884
G1 X91.418 Y150.769 E11.2292
G1 X91.143 Y150.135 E11.26368
G1 X90.867 Y150.77 E11.29822
G1 X90.523 Y151.512 E11.33902
G1 X90.428 Y151.709 E11.34993
G1 X90.068 Y152.426 E11.38996
G1 X89.967 Y152.619 E11.40083
G1 X89.59 Y153.315 E11.44032
G1 X89.474 Y153.521 E11.45211
G1 X89.08 Y154.193 E11.49098
G1 X88.963 Y154.386 E11.50224
G1 X88.552 Y155.038 E11.54069
G1 X88.427 Y155.228 E11.55204
G1 X88 Y155.859 E11.59005
G1 X87.859 Y156.06 E11.6023
G1 X87.412 Y156.673 E11.64015
G1 X87.265 Y156.867 E11.65229
G1 X86.801 Y157.459 E11.68982
G1 X86.642 Y157.655 E11.70241
G1 X86.156 Y158.231 E11.74001
G1 X86.001 Y158.409 E11.75178
G1 X85.498 Y158.966 E11.78923
G1 X85.326 Y159.149 E11.80176
G1 X84.8 Y159.691 E11.83944
G1 X84.624 Y159.866 E11.85182
G1 X84.078 Y160.39 E11.88957
G1 X83.904 Y160.552 E11.90143
G1 X83.334 Y161.063 E11.93963
G1 X83.145 Y161.226 E11.95208
G1 X82.554 Y161.719 E11.99048
G1 X82.369 Y161.868 E12.00233
G1 X81.751 Y162.349 E12.0414
G1 X81.568 Y162.487 E12.05283
G1 X80.927 Y162.953 E12.09237
G1 X80.732 Y163.09 E12.10426
G1 X80.062 Y163.543 E12.14461
G1 X79.878 Y163.663 E12.15557
G1 X79.181 Y164.103 E12.19669
G1 X78.993 Y164.218 E12.20768
G1 X78.267 Y164.645 E12.24971
G1 X78.084 Y164.749 E12.26021
G1 X77.329 Y165.163 E12.30317
G1 X77.141 Y165.262 E12.31377
G1 X76.35 Y165.665 E12.35806
G1 X76.17 Y165.754 E12.36807
G1 X75.347 Y166.144 E12.41351
G1 X75.132 Y166.241 E12.42528
G1 X74.592 Y166.475 E12.45464
G1 X74.15 Y166.649 E12.47834
G1 X73.671 Y166.819 E12.5037
G1 X73.275 Y166.946 E12.52444
G1 X72.76 Y167.095 E12.55119
G1 X72.296 Y167.212 E12.57506
G1 X71.788 Y167.322 E12.601
G1 X71.23 Y167.42 E12.62926
G1 X70.734 Y167.486 E12.65422
G1 X70.18 Y167.537 E12.68198
G1 X69.649 Y167.565 E12.70851
G1 X68.717 Y167.552 E12.75501
G1 X67.812 Y167.479 E12.80031
G1 X66.907 Y167.346 E12.84594
G1 X66.394 Y167.236 E12.87212
G1 X65.522 Y166.989 E12.91733
G1 X64.648 Y166.679 E12.9636
G1 X63.913 Y166.37 E13.00338
G1 X63.459 Y166.148 E13.02859
G1 X62.978 Y165.889 E13.05585
G1 X62.527 Y165.623 E13.08197
G1 X62.106 Y165.354 E13.10689
G1 X61.615 Y165.015 E13.13666
G1 X61.219 Y164.721 E13.16127
G1 X60.769 Y164.361 E13.19002
G1 X60.448 Y164.088 E13.21104
G1 X60 Y163.683 E13.24117
G1 X59.377 Y163.043 E13.28573
G1 X58.817 Y162.389 E13.32869
G1 X58.365 Y161.8 E13.36573
G1 X57.873 Y161.084 E13.40907
G1 X57.466 Y160.415 E13.44814
G1 X57.067 Y159.667 E13.49043
G1 X56.716 Y158.902 E13.53242
G1 X56.442 Y158.195 E13.57025
G1 X56.037 Y158.132 E13.5907
G1 X54.912 Y157.925 E13.64777
G1 X54.555 Y157.85 E13.66597
G1 X53.444 Y157.585 E13.72295
G1 X53.102 Y157.494 E13.74061
G1 X52.005 Y157.173 E13.79763
G1 X51.668 Y157.065 E13.81529
G1 X50.589 Y156.689 E13.87229
G1 X50.255 Y156.563 E13.8901
G1 X49.195 Y156.132 E13.94719
G1 X48.876 Y155.993 E13.96455
G1 X47.839 Y155.51 E14.02163
G1 X47.523 Y155.353 E14.03923
G1 X46.513 Y154.819 E14.09623
G1 X46.197 Y154.642 E14.1143
G1 X45.217 Y154.057 E14.17124
G1 X44.924 Y153.871 E14.18855
G1 X43.974 Y153.238 E14.24551
G1 X43.677 Y153.029 E14.26362
G1 X42.759 Y152.346 E14.32071
G1 X42.484 Y152.131 E14.33812
G1 X41.601 Y151.403 E14.39522
G1 X41.33 Y151.167 E14.41315
G1 X40.487 Y150.396 E14.47014
G1 X40.237 Y150.156 E14.48743
G1 X39.432 Y149.343 E14.54451
G1 X39.179 Y149.074 E14.56294
G1 X38.421 Y148.223 E14.61979
G1 X38.197 Y147.959 E14.63707
G1 X37.479 Y147.068 E14.69416
G1 X37.264 Y146.786 E14.71185
G1 X36.593 Y145.861 E14.76886
G1 X36.395 Y145.573 E14.78629
G1 X35.77 Y144.614 E14.8434
G1 X35.584 Y144.314 E14.86101
G1 X35.01 Y143.328 E14.91793
G1 X34.834 Y143.005 E14.93629
G1 X34.312 Y141.989 E14.99327
G1 X34.16 Y141.676 E15.01063
G1 X33.689 Y140.635 E15.06764
G1 X33.553 Y140.311 E15.08517
G1 X33.135 Y139.248 E15.14215
G1 X33.011 Y138.907 E15.16026
G1 X32.648 Y137.822 E15.21734
G1 X32.545 Y137.488 E15.23477
G1 X32.237 Y136.388 E15.29176
G1 X32.151 Y136.045 E15.30941
G1 X31.899 Y134.931 E15.36639
G1 X31.828 Y134.58 E15.38425
G1 X31.633 Y133.453 E15.44132
G1 X31.582 Y133.1 E15.45911
G1 X31.445 Y131.966 E15.5161
G1 X31.411 Y131.616 E15.53364
G1 X31.331 Y130.475 E15.5907
G1 X31.315 Y130.126 E15.60813
G1 X31.292 Y128.985 E15.66507
G1 X31.294 Y128.623 E15.68313
G1 X31.33 Y127.481 E15.74013
G1 X31.351 Y127.126 E15.75788
G1 X31.445 Y125.987 E15.81489
G1 X31.482 Y125.638 E15.8324
G1 X31.633 Y124.505 E15.88943
G1 X31.688 Y124.163 E15.90671
G1 X31.895 Y123.038 E15.96378
G1 X31.971 Y122.675 E15.98228
G1 X32.237 Y121.564 E16.03928
G1 X32.327 Y121.226 E16.05673
G1 X32.648 Y120.13 E16.1137
G1 X32.755 Y119.796 E16.1312
G1 X33.131 Y118.716 E16.18825
G1 X33.256 Y118.385 E16.20591
G1 X33.686 Y117.326 E16.26293
G1 X33.831 Y116.994 E16.281
G1 X34.315 Y115.959 E16.33801
G1 X34.469 Y115.65 E16.35523
G1 X35.004 Y114.639 E16.4123
G1 X35.182 Y114.323 E16.43039
G1 X35.768 Y113.342 E16.4874
G1 X35.958 Y113.041 E16.50516
G1 X36.594 Y112.09 E16.56224
G1 X36.796 Y111.804 E16.57971
G1 X37.478 Y110.887 E16.63672
G1 X37.695 Y110.609 E16.65432
G1 X38.421 Y109.729 E16.71123
G1 X38.659 Y109.456 E16.7293
G1 X39.432 Y108.612 E16.7864
G1 X39.672 Y108.363 E16.80365
G1 X40.485 Y107.559 E16.8607
G1 X40.747 Y107.312 E16.87866
G1 X41.599 Y106.552 E16.93562
G1 X41.867 Y106.325 E16.95315
G1 X42.757 Y105.608 E17.01016
G1 X43.046 Y105.388 E17.02828
G1 X43.972 Y104.718 E17.08531
G1 X44.256 Y104.523 E17.1025
G1 X45.213 Y103.9 E17.15947
G1 X45.516 Y103.713 E17.17723
G1 X46.504 Y103.139 E17.23424
G1 X46.819 Y102.967 E17.25214
G1 X47.836 Y102.444 E17.3092
G1 X48.154 Y102.29 E17.32682
G1 X49.194 Y101.82 E17.38376
G1 X49.437 Y101.718 E17.39691
G1 X49.285 Y100.224 E17.47183
G1 X49.27 Y100.014 E17.48233
G1 X49.184 Y98.592 E17.55341
G1 X49.172 Y98.309 E17.56754
G1 X49.145 Y96.957 E17.635
G1 X49.145 Y96.612 E17.65222
G1 X49.17 Y95.261 E17.71963
G1 X49.182 Y94.964 E17.73446
G1 X49.269 Y93.54 E17.80564
G1 X49.292 Y93.26 E17.81965
G1 X49.436 Y91.842 E17.89076
G1 X49.47 Y91.563 E17.90478
G1 X49.671 Y90.15 E17.97599
G1 X49.716 Y89.87 E17.99013
G1 X49.974 Y88.467 E18.0613
G1 X50.033 Y88.182 E18.07582
