;FLAVOR:Marlin
;TIME:6453
;Filament used: 6.37191m, 0m
;Layer height: 0.2
;MINX:59.649
;MINY:61.108
;MINZ:0.3
;MAXX:175.351
;MAXY:169.879
;MAXZ:3.9
;POSTPROCESSED
;Generated with Cura_SteamEngine 4.7.1
T0
M140 S60
M105
M190 S60
M104 S190
M105
M109 S190
M82 ;absolute extrusion mode
M201 X500.00 Y500.00 Z100.00 E5000.00 	;Setup machine max acceleration
M203 X500.00 Y500.00 Z10.00 E50.00 	;Setup machine max feedrate
M204 P500.00 R1000.00 T500.00 		;Setup Print/Retract/Travel acceleration
M205 X8.00 Y8.00 Z0.40 E5.00 		;Setup Jerk
M220 S100 				;Reset Feedrate
M221 S100 				;Reset Flowrate
G28				;Home the Machine
G29 				;Bed Level
G92 E0
M300 P150 S587
G92 E0
G1 F1500 E-6.5
;LAYER_COUNT:19
;LAYER:0
M107
G0 F3600 X86.851 Y75.402 Z0.3
;TYPE:SKIRT
G1 F1500 E0
G1 X87.698 Y74.425 E0.06451
G1 X87.922 Y74.177 E0.08118
G1 X88.806 Y73.235 E0.14563
G1 X89.044 Y72.994 E0.16253
G1 X89.967 Y72.088 E0.22706
G1 X90.216 Y71.854 E0.2441
G1 X91.178 Y70.985 E0.30878
G1 X91.433 Y70.766 E0.32555
G1 X92.519 Y69.864 E0.39598
G1 X92.689 Y69.73 E0.40678
G1 X93.72 Y68.94 E0.47158
G1 X93.994 Y68.74 E0.48851
G1 X95.109 Y67.958 E0.55645
G1 X95.341 Y67.803 E0.57037
G1 X96.465 Y67.083 E0.63697
G1 X96.708 Y66.933 E0.65121
G1 X97.828 Y66.276 E0.71599
G1 X98.118 Y66.114 E0.73257
G1 X99.262 Y65.504 E0.79725
G1 X99.567 Y65.35 E0.81429
G1 X100.812 Y64.752 E0.8832
G1 X101.037 Y64.65 E0.89553
G1 X102.229 Y64.135 E0.96031
G1 X102.542 Y64.008 E0.97716
G1 X103.879 Y63.495 E1.04861
G1 X104.073 Y63.425 E1.05889
G1 X105.354 Y62.993 E1.12634
G1 X105.615 Y62.911 E1.13999
G1 X106.929 Y62.525 E1.20832
G1 X107.196 Y62.454 E1.2221
G1 X108.582 Y62.112 E1.29332
G1 X108.775 Y62.068 E1.3032
G1 X110.174 Y61.781 E1.37445
G1 X110.37 Y61.745 E1.38439
G1 X111.644 Y61.536 E1.4488
G1 X111.974 Y61.488 E1.46544
G1 X113.262 Y61.33 E1.53018
G1 X113.604 Y61.295 E1.54733
G1 X114.887 Y61.191 E1.61155
G1 X115.224 Y61.17 E1.62839
G1 X116.574 Y61.115 E1.6958
G1 X116.853 Y61.109 E1.70972
G1 X118.14 Y61.108 E1.77393
G1 X118.485 Y61.116 E1.79115
G1 X119.776 Y61.169 E1.85561
G1 X120.111 Y61.19 E1.87236
G1 X121.398 Y61.294 E1.93677
G1 X121.74 Y61.329 E1.95393
G1 X123.087 Y61.495 E2.02164
G1 X123.367 Y61.535 E2.03575
G1 X124.639 Y61.746 E2.10007
G1 X124.966 Y61.808 E2.11668
G1 X126.229 Y62.068 E2.18101
G1 X126.564 Y62.144 E2.19815
G1 X127.816 Y62.456 E2.26252
G1 X128.149 Y62.547 E2.27975
G1 X129.389 Y62.911 E2.34422
G1 X129.713 Y63.014 E2.36118
G1 X130.935 Y63.428 E2.42555
G1 X131.251 Y63.543 E2.44233
G1 X132.563 Y64.048 E2.51246
G1 X132.774 Y64.136 E2.52387
G1 X134.013 Y64.672 E2.59122
G1 X134.268 Y64.788 E2.6052
G1 X135.433 Y65.349 E2.66971
G1 X135.732 Y65.501 E2.68644
G1 X136.879 Y66.111 E2.75125
G1 X137.175 Y66.277 E2.76819
G1 X138.288 Y66.93 E2.83256
G1 X138.577 Y67.108 E2.8495
G1 X139.664 Y67.806 E2.91395
G1 X139.944 Y67.995 E2.9308
G1 X141.117 Y68.819 E3.00232
G1 X141.283 Y68.944 E3.01269
G1 X142.416 Y69.813 E3.08392
G1 X142.57 Y69.935 E3.09372
G1 X143.567 Y70.764 E3.15841
G1 X143.816 Y70.981 E3.17489
G1 X144.776 Y71.846 E3.23936
G1 X145.032 Y72.086 E3.25687
G1 X146.005 Y73.043 E3.32496
G1 X146.191 Y73.233 E3.33822
G1 X147.121 Y74.225 E3.40606
G1 X147.3 Y74.424 E3.41941
G1 X148.2 Y75.461 E3.48792
G1 X148.368 Y75.664 E3.50106
G1 X149.214 Y76.728 E3.56888
G1 X149.381 Y76.947 E3.58262
G1 X150.189 Y78.051 E3.65088
G1 X150.339 Y78.265 E3.66391
G1 X151.095 Y79.392 E3.73162
G1 X151.244 Y79.624 E3.74538
G1 X151.965 Y80.804 E3.81437
G1 X152.089 Y81.017 E3.82666
G1 X152.743 Y82.189 E3.89362
G1 X152.881 Y82.447 E3.90822
G1 X153.496 Y83.664 E3.97625
G1 X153.608 Y83.896 E3.9891
G1 X154.177 Y85.142 E4.05744
G1 X154.285 Y85.393 E4.07107
G1 X154.823 Y86.717 E4.14237
G1 X154.898 Y86.913 E4.15284
G1 X155.379 Y88.256 E4.22401
G1 X155.44 Y88.435 E4.23344
G1 X155.831 Y89.672 E4.29817
G1 X155.929 Y90.007 E4.31558
G1 X156.295 Y91.368 E4.38589
G1 X156.343 Y91.558 E4.39567
G1 X156.658 Y92.944 E4.46658
G1 X156.699 Y93.143 E4.47672
G1 X156.958 Y94.544 E4.5478
G1 X156.991 Y94.749 E4.55816
G1 X157.192 Y96.162 E4.62936
G1 X157.216 Y96.361 E4.63936
G1 X157.36 Y97.779 E4.71047
G1 X157.377 Y97.979 E4.72049
G1 X157.464 Y99.404 E4.79171
G1 X157.472 Y99.614 E4.8022
G1 X157.499 Y101.04 E4.87335
G1 X157.499 Y101.235 E4.88308
G1 X157.472 Y102.586 E4.9505
G1 X157.464 Y102.786 E4.96048
G1 X157.378 Y104.217 E5.032
G1 X157.361 Y104.424 E5.04237
G1 X157.217 Y105.837 E5.11323
G1 X157.182 Y106.123 E5.1276
G1 X157.007 Y107.335 E5.1887
G1 X157.335 Y107.452 E5.20607
G1 X158.4 Y107.87 E5.26315
G1 X158.632 Y107.968 E5.27571
G1 X159.663 Y108.434 E5.33216
G1 X159.89 Y108.543 E5.34472
G1 X160.917 Y109.071 E5.40233
G1 X161.144 Y109.195 E5.41524
G1 X162.121 Y109.763 E5.47162
G1 X162.337 Y109.897 E5.4843
G1 X163.304 Y110.527 E5.54188
G1 X163.51 Y110.668 E5.55434
G1 X164.426 Y111.332 E5.61078
G1 X164.62 Y111.48 E5.62295
G1 X165.52 Y112.202 E5.68052
G1 X165.72 Y112.371 E5.69358
G1 X166.564 Y113.124 E5.75001
G1 X166.753 Y113.302 E5.76296
G1 X167.573 Y114.114 E5.82054
G1 X167.739 Y114.287 E5.8325
G1 X168.505 Y115.122 E5.88903
G1 X168.68 Y115.323 E5.90233
G1 X169.414 Y116.214 E5.95992
G1 X169.568 Y116.411 E5.97239
G1 X170.242 Y117.318 E6.02877
G1 X170.389 Y117.525 E6.04144
G1 X171.024 Y118.477 E6.09853
G1 X171.155 Y118.686 E6.11084
G1 X171.741 Y119.666 E6.1678
G1 X171.869 Y119.893 E6.1808
G1 X172.409 Y120.913 E6.23838
G1 X172.521 Y121.138 E6.25092
G1 X173.004 Y122.173 E6.3079
G1 X173.105 Y122.403 E6.32044
G1 X173.532 Y123.453 E6.37699
G1 X173.621 Y123.69 E6.38962
G1 X173.997 Y124.768 E6.44658
G1 X174.075 Y125.012 E6.45936
G1 X174.396 Y126.11 E6.51643
G1 X174.461 Y126.353 E6.52898
G1 X174.726 Y127.464 E6.58596
G1 X174.778 Y127.713 E6.59865
G1 X174.988 Y128.846 E6.65614
G1 X175.028 Y129.095 E6.66872
G1 X175.178 Y130.218 E6.72525
G1 X175.205 Y130.469 E6.73784
G1 X175.299 Y131.608 E6.79486
G1 X175.314 Y131.861 E6.8075
G1 X175.35 Y133.003 E6.86451
G1 X175.351 Y133.257 E6.87718
G1 X175.329 Y134.4 E6.93421
G1 X175.318 Y134.654 E6.9469
G1 X175.238 Y135.795 E7.00396
G1 X175.214 Y136.048 E7.01664
G1 X175.075 Y137.193 E7.07419
G1 X175.038 Y137.442 E7.08674
G1 X174.845 Y138.558 E7.14325
G1 X174.795 Y138.809 E7.15602
G1 X174.544 Y139.919 E7.21279
G1 X174.481 Y140.168 E7.22561
G1 X174.171 Y141.272 E7.28282
G1 X174.098 Y141.508 E7.29514
G1 X173.732 Y142.601 E7.35265
G1 X173.645 Y142.842 E7.36543
G1 X173.23 Y143.898 E7.42204
G1 X173.132 Y144.128 E7.43451
G1 X172.662 Y145.168 E7.49145
G1 X172.553 Y145.395 E7.50401
G1 X172.026 Y146.42 E7.56151
G1 X171.9 Y146.65 E7.57459
G1 X171.33 Y147.629 E7.63111
G1 X171.198 Y147.842 E7.64361
G1 X170.568 Y148.809 E7.70119
G1 X170.427 Y149.015 E7.71365
G1 X169.762 Y149.932 E7.77016
G1 X169.609 Y150.132 E7.78272
G1 X168.888 Y151.028 E7.8401
G1 X168.722 Y151.224 E7.85291
G1 X167.967 Y152.069 E7.90945
G1 X167.793 Y152.254 E7.92212
G1 X166.989 Y153.067 E7.97916
G1 X166.808 Y153.241 E7.99169
G1 X165.956 Y154.02 E8.04929
G1 X165.762 Y154.189 E8.06212
G1 X164.881 Y154.915 E8.11908
G1 X164.685 Y155.068 E8.13148
G1 X163.776 Y155.744 E8.188
G1 X163.569 Y155.89 E8.20063
G1 X162.618 Y156.525 E8.25769
G1 X162.4 Y156.663 E8.27056
G1 X161.418 Y157.248 E8.32758
G1 X161.199 Y157.371 E8.34012
G1 X160.181 Y157.91 E8.39758
G1 X159.95 Y158.024 E8.41043
G1 X158.912 Y158.507 E8.46755
G1 X158.684 Y158.607 E8.47997
G1 X157.635 Y159.033 E8.53646
G1 X157.395 Y159.123 E8.54925
G1 X156.307 Y159.501 E8.60671
G1 X156.069 Y159.577 E8.61917
G1 X154.981 Y159.895 E8.67573
G1 X154.735 Y159.96 E8.68842
G1 X153.617 Y160.226 E8.74575
G1 X153.372 Y160.278 E8.75825
G1 X152.246 Y160.487 E8.81539
G1 X151.991 Y160.528 E8.82827
G1 X150.86 Y160.678 E8.88519
G1 X150.664 Y160.699 E8.89503
G1 X150.579 Y161.045 E8.9128
G1 X150.397 Y161.63 E8.94337
G1 X150.097 Y162.421 E8.98557
G1 X149.854 Y162.963 E9.01521
G1 X149.467 Y163.704 E9.05691
G1 X149.173 Y164.195 E9.08547
G1 X148.68 Y164.922 E9.12929
G1 X148.352 Y165.353 E9.15631
G1 X147.77 Y166.038 E9.20115
G1 X147.312 Y166.511 E9.234
G1 X146.846 Y166.932 E9.26533
G1 X146.613 Y167.13 E9.28059
G1 X146.172 Y167.482 E9.30874
G1 X145.922 Y167.669 E9.32431
G1 X145.471 Y167.985 E9.35179
G1 X145.168 Y168.182 E9.36982
G1 X144.713 Y168.454 E9.39627
G1 X144.379 Y168.636 E9.41524
G1 X143.93 Y168.86 E9.44028
G1 X143.39 Y169.091 E9.46958
G1 X142.5 Y169.411 E9.51676
G1 X141.673 Y169.631 E9.55946
G1 X140.717 Y169.799 E9.60788
G1 X139.873 Y169.874 E9.65016
G1 X138.922 Y169.878 E9.6976
G1 X138.284 Y169.84 E9.72949
G1 X137.769 Y169.776 E9.75538
G1 X137.369 Y169.71 E9.77561
G1 X136.849 Y169.602 E9.8021
G1 X136.5 Y169.516 E9.82004
G1 X136 Y169.374 E9.84597
G1 X135.673 Y169.269 E9.8631
G1 X135.145 Y169.079 E9.8911
G1 X134.856 Y168.964 E9.90662
G1 X134.314 Y168.73 E9.93607
G1 X134.152 Y168.657 E9.94493
G1 X133.324 Y168.264 E9.99066
G1 X133.2 Y168.203 E9.99755
G1 X132.41 Y167.801 E10.04178
G1 X132.277 Y167.731 E10.04927
G1 X131.519 Y167.316 E10.09239
G1 X131.38 Y167.237 E10.10036
G1 X130.661 Y166.813 E10.14201
G1 X130.539 Y166.738 E10.14915
G1 X129.841 Y166.299 E10.19029
G1 X129.697 Y166.205 E10.19887
G1 X129.023 Y165.748 E10.2395
G1 X128.889 Y165.655 E10.24764
G1 X128.252 Y165.192 E10.28692
G1 X128.125 Y165.096 E10.29487
G1 X127.503 Y164.613 E10.33415
G1 X127.361 Y164.499 E10.34324
G1 X126.773 Y164.007 E10.38149
G1 X126.643 Y163.894 E10.39008
G1 X126.07 Y163.38 E10.42849
G1 X125.947 Y163.266 E10.43685
G1 X125.405 Y162.746 E10.47433
G1 X125.276 Y162.617 E10.48343
G1 X124.747 Y162.071 E10.52136
G1 X124.63 Y161.946 E10.5299
G1 X124.129 Y161.392 E10.56716
G1 X124.014 Y161.26 E10.5759
G1 X123.526 Y160.681 E10.61368
G1 X123.419 Y160.55 E10.62211
G1 X122.914 Y159.908 E10.66287
G1 X122.397 Y159.199 E10.70664
G1 X122.298 Y159.058 E10.71524
G1 X121.87 Y158.426 E10.75332
G1 X121.78 Y158.288 E10.76154
G1 X121.369 Y157.636 E10.79999
G1 X121.278 Y157.487 E10.8087
G1 X120.886 Y156.814 E10.84756
G1 X120.813 Y156.684 E10.855
G1 X120.436 Y155.99 E10.8944
G1 X120.367 Y155.856 E10.90192
G1 X120.004 Y155.137 E10.9421
G1 X119.928 Y154.981 E10.95076
G1 X119.588 Y154.245 E10.99121
G1 X119.532 Y154.118 E10.99813
G1 X119.201 Y153.346 E11.04004
G1 X119.148 Y153.218 E11.04695
G1 X118.833 Y152.423 E11.08961
G1 X118.784 Y152.295 E11.09645
G1 X118.484 Y151.473 E11.1401
G1 X118.438 Y151.342 E11.14703
G1 X118.235 Y150.732 E11.17911
G1 X117.519 Y150.776 E11.21489
G1 X116.765 Y150.733 E11.25257
G1 X116.561 Y151.344 E11.28471
G1 X116.515 Y151.475 E11.29164
G1 X116.215 Y152.297 E11.33529
G1 X116.168 Y152.422 E11.34195
G1 X115.854 Y153.216 E11.38455
G1 X115.8 Y153.346 E11.39158
G1 X115.468 Y154.121 E11.43364
G1 X115.403 Y154.266 E11.44157
G1 X115.06 Y155.001 E11.48203
G1 X114.999 Y155.128 E11.48906
G1 X114.639 Y155.846 E11.52913
G1 X114.564 Y155.989 E11.53719
G1 X114.187 Y156.684 E11.57664
G1 X114.108 Y156.824 E11.58466
G1 X113.715 Y157.496 E11.62349
G1 X113.63 Y157.637 E11.63171
G1 X113.218 Y158.291 E11.67027
G1 X113.127 Y158.43 E11.67856
G1 X112.701 Y159.059 E11.71646
G1 X112.602 Y159.199 E11.72501
G1 X112.197 Y159.755 E11.75933
G1 X112.087 Y159.907 E11.76869
G1 X111.58 Y160.552 E11.80962
G1 X111.472 Y160.685 E11.81817
G1 X110.983 Y161.265 E11.85602
G1 X110.869 Y161.395 E11.86465
G1 X110.369 Y161.948 E11.90184
G1 X110.248 Y162.078 E11.9107
G1 X109.718 Y162.624 E11.94866
G1 X109.595 Y162.746 E11.95731
G1 X109.054 Y163.266 E11.99474
G1 X108.924 Y163.386 E12.00357
G1 X108.35 Y163.9 E12.04201
G1 X108.22 Y164.013 E12.0506
G1 X107.632 Y164.504 E12.08882
G1 X107.498 Y164.612 E12.09741
G1 X106.876 Y165.096 E12.13673
G1 X106.741 Y165.198 E12.14517
G1 X106.104 Y165.66 E12.18443
G1 X105.97 Y165.753 E12.19257
G1 X105.296 Y166.209 E12.23317
G1 X105.163 Y166.296 E12.24109
G1 X104.466 Y166.736 E12.28222
G1 X104.327 Y166.821 E12.29035
G1 X103.606 Y167.244 E12.33205
G1 X103.484 Y167.313 E12.33904
G1 X102.727 Y167.729 E12.38214
G1 X102.582 Y167.806 E12.39033
G1 X101.792 Y168.207 E12.43453
G1 X101.677 Y168.263 E12.44091
G1 X100.849 Y168.657 E12.48666
G1 X100.673 Y168.737 E12.4963
G1 X100.13 Y168.97 E12.52578
G1 X99.858 Y169.077 E12.54036
G1 X99.327 Y169.269 E12.56853
G1 X98.975 Y169.382 E12.58698
G1 X98.475 Y169.522 E12.61288
G1 X98.137 Y169.604 E12.63023
G1 X97.618 Y169.711 E12.65667
G1 X97.035 Y169.796 E12.68606
G1 X96.089 Y169.877 E12.73343
G1 X95.25 Y169.879 E12.77529
G1 X94.32 Y169.805 E12.82184
G1 X93.435 Y169.656 E12.86661
G1 X92.509 Y169.414 E12.91436
G1 X91.901 Y169.212 E12.94632
G1 X91.423 Y169.019 E12.97204
G1 X91.055 Y168.853 E12.99218
G1 X90.606 Y168.628 E13.01724
G1 X90.276 Y168.447 E13.03602
G1 X89.822 Y168.175 E13.06242
G1 X89.519 Y167.978 E13.08045
G1 X89.069 Y167.662 E13.10788
G1 X88.828 Y167.482 E13.12289
G1 X88.387 Y167.131 E13.15101
G1 X88.144 Y166.924 E13.16694
G1 X87.686 Y166.509 E13.19777
G1 X87.234 Y166.043 E13.23016
G1 X86.672 Y165.382 E13.27345
G1 X86.355 Y164.967 E13.2995
G1 X85.856 Y164.238 E13.34357
G1 X85.56 Y163.747 E13.37218
G1 X85.167 Y163.002 E13.4142
G1 X84.922 Y162.462 E13.44378
G1 X84.622 Y161.681 E13.48552
G1 X84.436 Y161.093 E13.51629
G1 X84.338 Y160.7 E13.5365
G1 X84.129 Y160.677 E13.54699
G1 X83 Y160.526 E13.60382
G1 X82.756 Y160.487 E13.61614
G1 X81.628 Y160.279 E13.67337
G1 X81.374 Y160.225 E13.68632
G1 X80.256 Y159.958 E13.74367
G1 X80.013 Y159.894 E13.75621
G1 X78.926 Y159.576 E13.81271
G1 X78.685 Y159.499 E13.82533
G1 X77.597 Y159.12 E13.88281
G1 X77.364 Y159.032 E13.89524
G1 X76.315 Y158.607 E13.95171
G1 X76.077 Y158.503 E13.96466
G1 X75.041 Y158.019 E14.02171
G1 X74.818 Y157.908 E14.03414
G1 X73.798 Y157.368 E14.09172
G1 X73.576 Y157.243 E14.10443
G1 X72.595 Y156.658 E14.16141
G1 X72.381 Y156.524 E14.17401
G1 X71.429 Y155.889 E14.2311
G1 X71.22 Y155.741 E14.24388
G1 X70.311 Y155.065 E14.30039
G1 X70.113 Y154.909 E14.31297
G1 X69.232 Y154.182 E14.36996
G1 X69.04 Y154.016 E14.38262
G1 X68.189 Y153.238 E14.44014
G1 X68.008 Y153.064 E14.45267
G1 X67.204 Y152.251 E14.50972
G1 X67.026 Y152.062 E14.52267
G1 X66.272 Y151.216 E14.57921
G1 X66.114 Y151.029 E14.59142
G1 X65.391 Y150.133 E14.64886
G1 X65.232 Y149.925 E14.66192
G1 X64.568 Y149.008 E14.7184
G1 X64.431 Y148.808 E14.7305
G1 X63.8 Y147.841 E14.78811
G1 X63.664 Y147.621 E14.80101
G1 X63.095 Y146.642 E14.8575
G1 X62.97 Y146.413 E14.87052
G1 X62.444 Y145.388 E14.928
G1 X62.336 Y145.164 E14.9404
G1 X61.865 Y144.122 E14.99745
G1 X61.768 Y143.893 E15.00986
G1 X61.353 Y142.838 E15.06642
G1 X61.263 Y142.592 E15.07949
G1 X60.898 Y141.499 E15.13698
G1 X60.825 Y141.26 E15.14945
G1 X60.518 Y140.161 E15.20637
G1 X60.458 Y139.922 E15.21867
G1 X60.205 Y138.807 E15.27571
G1 X60.153 Y138.549 E15.28884
G1 X59.961 Y137.433 E15.34534
G1 X59.925 Y137.187 E15.35774
G1 X59.786 Y136.041 E15.41533
G1 X59.762 Y135.789 E15.42796
G1 X59.682 Y134.65 E15.48493
G1 X59.671 Y134.397 E15.49756
G1 X59.649 Y133.264 E15.5541
G1 X59.65 Y133.011 E15.56672
G1 X59.686 Y131.859 E15.62422
G1 X59.701 Y131.605 E15.63692
G1 X59.794 Y130.476 E15.69343
G1 X59.821 Y130.222 E15.70618
G1 X59.973 Y129.088 E15.76326
G1 X60.012 Y128.846 E15.77549
G1 X60.219 Y127.722 E15.83251
G1 X60.273 Y127.464 E15.84566
G1 X60.541 Y126.344 E15.90311
G1 X60.605 Y126.103 E15.91555
G1 X60.923 Y125.017 E15.97201
G1 X61.001 Y124.775 E15.98469
G1 X61.381 Y123.686 E16.04224
G1 X61.472 Y123.446 E16.05504
G1 X61.9 Y122.396 E16.11161
G1 X61.998 Y122.17 E16.1239
G1 X62.481 Y121.134 E16.18093
G1 X62.594 Y120.908 E16.19353
G1 X63.128 Y119.899 E16.25049
G1 X63.254 Y119.675 E16.26331
G1 X63.845 Y118.685 E16.32083
G1 X63.98 Y118.471 E16.33346
G1 X64.615 Y117.52 E16.39051
G1 X64.76 Y117.314 E16.40307
G1 X65.435 Y116.406 E16.45952
G1 X65.594 Y116.204 E16.47235
G1 X66.322 Y115.323 E16.52936
G1 X66.489 Y115.131 E16.54206
G1 X67.262 Y114.287 E16.59916
