;FLAVOR:Marlin
;TIME:5762
;Filament used: 5.66815m, 0m
;Layer height: 0.2
;MINX:86.821
;MINY:57.192
;MINZ:0.3
;MAXX:188.276
;MAXY:169.833
;MAXZ:3.9
;POSTPROCESSED
;Generated with Cura_SteamEngine 4.7.1
T0
M140 S60
M105
M190 S60
M104 S190
M105
M109 S190
M82 ;absolute extrusion mode
M201 X500.00 Y500.00 Z100.00 E5000.00 	;Setup machine max acceleration
M203 X500.00 Y500.00 Z10.00 E50.00 	;Setup machine max feedrate
M204 P500.00 R1000.00 T500.00 		;Setup Print/Retract/Travel acceleration
M205 X8.00 Y8.00 Z0.40 E5.00 		;Setup Jerk
M220 S100 				;Reset Feedrate
M221 S100 				;Reset Flowrate
G28				;Home the Machine
G29 				;Bed Level
G92 E0
M300 P150 S587
G92 E0
G1 F1500 E-6.5
;LAYER_COUNT:19
;LAYER:0
M107
G0 F3600 X91.963 Y67.902 Z0.3
;TYPE:SKIRT
G1 F1500 E0
G1 X92.64 Y67.023 E0.05535
G1 X92.761 Y66.875 E0.06489
G1 X93.483 Y66.029 E0.12038
G1 X93.603 Y65.894 E0.12939
G1 X94.363 Y65.085 E0.18477
G1 X94.498 Y64.949 E0.19433
G1 X95.298 Y64.179 E0.24972
G1 X95.436 Y64.053 E0.25905
G1 X96.272 Y63.324 E0.31439
G1 X96.415 Y63.205 E0.32367
G1 X97.288 Y62.516 E0.37915
G1 X97.439 Y62.402 E0.38859
G1 X98.343 Y61.759 E0.44394
G1 X98.495 Y61.657 E0.45307
G1 X99.431 Y61.057 E0.50854
G1 X99.593 Y60.959 E0.51798
G1 X100.555 Y60.408 E0.57329
G1 X100.719 Y60.319 E0.5826
G1 X101.71 Y59.814 E0.63809
G1 X101.881 Y59.732 E0.64755
G1 X102.894 Y59.278 E0.70294
G1 X103.064 Y59.207 E0.71213
G1 X104.097 Y58.803 E0.76746
G1 X104.274 Y58.739 E0.77685
G1 X105.328 Y58.386 E0.83231
G1 X105.507 Y58.331 E0.84165
G1 X106.575 Y58.031 E0.897
G1 X106.759 Y57.984 E0.90647
G1 X107.843 Y57.737 E0.96194
G1 X108.02 Y57.701 E0.97095
G1 X109.114 Y57.506 E1.02639
G1 X109.302 Y57.477 E1.03588
G1 X110.403 Y57.337 E1.09125
G1 X110.588 Y57.318 E1.10053
G1 X111.696 Y57.232 E1.15597
G1 X111.887 Y57.222 E1.16552
G1 X112.996 Y57.192 E1.22087
G1 X113.178 Y57.192 E1.22995
G1 X114.288 Y57.215 E1.28534
G1 X114.479 Y57.224 E1.29488
G1 X115.587 Y57.303 E1.35029
G1 X115.773 Y57.32 E1.35961
G1 X116.874 Y57.453 E1.41494
G1 X117.057 Y57.48 E1.42417
G1 X118.153 Y57.667 E1.47964
G1 X118.335 Y57.703 E1.4889
G1 X119.42 Y57.943 E1.54433
G1 X119.606 Y57.989 E1.55389
G1 X120.676 Y58.283 E1.60925
G1 X120.854 Y58.337 E1.61853
G1 X121.908 Y58.683 E1.67388
G1 X122.083 Y58.745 E1.68314
G1 X123.121 Y59.143 E1.7386
G1 X123.295 Y59.215 E1.748
G1 X124.31 Y59.663 E1.80335
G1 X124.478 Y59.742 E1.81261
G1 X125.472 Y60.24 E1.86808
G1 X125.64 Y60.329 E1.87756
G1 X126.606 Y60.875 E1.93292
G1 X126.764 Y60.969 E1.9421
G1 X127.704 Y61.562 E1.99755
G1 X127.861 Y61.667 E2.00697
G1 X128.769 Y62.305 E2.06233
G1 X128.917 Y62.414 E2.0715
G1 X129.794 Y63.096 E2.12693
G1 X129.942 Y63.218 E2.1365
G1 X130.783 Y63.943 E2.1919
G1 X130.918 Y64.065 E2.20097
G1 X131.723 Y64.829 E2.25634
G1 X131.86 Y64.966 E2.26601
G1 X132.626 Y65.771 E2.32145
G1 X132.75 Y65.907 E2.33063
G1 X133.474 Y66.746 E2.38592
G1 X133.592 Y66.89 E2.39521
G1 X134.277 Y67.767 E2.45072
G1 X134.39 Y67.92 E2.46021
G1 X135.028 Y68.827 E2.51554
G1 X135.13 Y68.979 E2.52467
G1 X135.725 Y69.918 E2.58013
G1 X135.822 Y70.081 E2.58959
G1 X136.368 Y71.046 E2.64491
G1 X136.455 Y71.208 E2.65408
G1 X136.892 Y72.076 E2.70257
G1 X137.366 Y71.911 E2.72761
G1 X137.51 Y71.863 E2.73518
G1 X138.835 Y71.46 E2.80427
G1 X138.976 Y71.421 E2.81157
G1 X140.313 Y71.07 E2.88054
G1 X140.462 Y71.034 E2.88818
G1 X141.812 Y70.737 E2.95715
G1 X141.958 Y70.708 E2.96457
G1 X143.32 Y70.464 E3.0336
G1 X143.468 Y70.44 E3.04108
G1 X144.839 Y70.25 E3.11014
G1 X144.99 Y70.232 E3.11772
G1 X146.366 Y70.097 E3.1867
G1 X146.512 Y70.086 E3.19401
G1 X147.894 Y70.004 E3.26308
G1 X148.048 Y69.998 E3.27077
G1 X149.43 Y69.972 E3.33973
G1 X149.578 Y69.972 E3.34711
G1 X150.96 Y70 E3.41607
G1 X151.111 Y70.006 E3.42361
G1 X152.492 Y70.089 E3.49263
G1 X152.639 Y70.101 E3.49999
G1 X153.996 Y70.235 E3.56802
G1 X154.167 Y70.256 E3.57662
G1 X155.472 Y70.438 E3.64235
G1 X155.686 Y70.472 E3.65317
G1 X157.048 Y70.717 E3.72221
G1 X157.194 Y70.746 E3.72963
G1 X158.544 Y71.044 E3.79861
G1 X158.696 Y71.081 E3.80641
G1 X160.032 Y71.434 E3.87535
G1 X160.171 Y71.474 E3.88257
G1 X161.426 Y71.858 E3.94804
G1 X161.636 Y71.926 E3.95906
G1 X162.942 Y72.382 E4.02807
G1 X163.083 Y72.435 E4.03559
G1 X164.279 Y72.907 E4.09973
G1 X164.509 Y73.002 E4.11215
G1 X165.773 Y73.56 E4.18108
G1 X165.908 Y73.622 E4.18849
G1 X167.151 Y74.23 E4.25753
G1 X167.283 Y74.298 E4.26494
G1 X168.501 Y74.954 E4.33395
G1 X168.635 Y75.03 E4.34164
G1 X169.824 Y75.734 E4.41058
G1 X169.951 Y75.813 E4.41804
G1 X171.111 Y76.563 E4.48696
G1 X171.234 Y76.646 E4.49436
G1 X172.366 Y77.442 E4.5634
G1 X172.489 Y77.532 E4.571
G1 X173.586 Y78.371 E4.6399
G1 X173.702 Y78.464 E4.64732
G1 X174.767 Y79.347 E4.71634
G1 X174.879 Y79.443 E4.7237
G1 X175.907 Y80.365 E4.79259
G1 X176.02 Y80.47 E4.80029
G1 X177.012 Y81.435 E4.86934
G1 X177.114 Y81.539 E4.8766
G1 X178.067 Y82.54 E4.94556
G1 X178.171 Y82.653 E4.95322
G1 X179.084 Y83.693 E5.02226
G1 X179.181 Y83.808 E5.02977
G1 X180.05 Y84.881 E5.09865
G1 X180.142 Y85 E5.10616
G1 X180.97 Y86.109 E5.17521
G1 X181.058 Y86.231 E5.18271
G1 X181.84 Y87.37 E5.25164
G1 X181.92 Y87.492 E5.25892
G1 X182.659 Y88.662 E5.32796
G1 X182.739 Y88.794 E5.33566
G1 X183.428 Y89.99 E5.40452
G1 X183.499 Y90.119 E5.41187
G1 X184.143 Y91.344 E5.48091
G1 X184.21 Y91.479 E5.48843
G1 X184.804 Y92.727 E5.55739
G1 X184.866 Y92.863 E5.56484
G1 X185.411 Y94.135 E5.63388
G1 X185.468 Y94.275 E5.64143
G1 X185.961 Y95.565 E5.71032
G1 X186.012 Y95.708 E5.7179
G1 X186.454 Y97.019 E5.78692
G1 X186.498 Y97.16 E5.79429
G1 X186.888 Y98.485 E5.8632
G1 X186.928 Y98.63 E5.8707
G1 X187.266 Y99.972 E5.93975
G1 X187.301 Y100.123 E5.94748
G1 X187.547 Y101.302 E6.00757
G1 X187.612 Y101.621 E6.02381
G1 X187.827 Y102.901 E6.08856
G1 X187.882 Y103.261 E6.10673
G1 X188.041 Y104.503 E6.1692
G1 X188.057 Y104.651 E6.17663
G1 X188.179 Y106.028 E6.2456
G1 X188.189 Y106.176 E6.253
G1 X188.257 Y107.556 E6.32193
G1 X188.262 Y107.705 E6.32937
G1 X188.276 Y109.089 E6.39842
G1 X188.233 Y110.618 E6.47473
G1 X188.226 Y110.773 E6.48247
G1 X188.13 Y112.152 E6.55144
G1 X188.116 Y112.303 E6.559
G1 X187.965 Y113.676 E6.62791
G1 X187.947 Y113.821 E6.6352
G1 X187.743 Y115.19 E6.70426
G1 X187.717 Y115.339 E6.7118
G1 X187.459 Y116.698 E6.78082
G1 X187.117 Y118.188 E6.85709
G1 X187.079 Y118.339 E6.86485
G1 X186.714 Y119.672 E6.93381
G1 X186.672 Y119.813 E6.94115
G1 X186.255 Y121.132 E7.01016
G1 X186.206 Y121.277 E7.0178
G1 X185.737 Y122.576 E7.0867
G1 X185.685 Y122.712 E7.09396
G1 X185.166 Y123.994 E7.16296
G1 X185.105 Y124.137 E7.17072
G1 X184.534 Y125.397 E7.23974
G1 X184.471 Y125.53 E7.24708
G1 X183.852 Y126.766 E7.31604
G1 X183.784 Y126.895 E7.32332
G1 X183.118 Y128.106 E7.39227
G1 X183.038 Y128.244 E7.40023
G1 X182.322 Y129.426 E7.46917
G1 X182.244 Y129.549 E7.47644
G1 X181.483 Y130.703 E7.5454
G1 X181.399 Y130.825 E7.55279
G1 X180.593 Y131.949 E7.6218
G1 X180.502 Y132.072 E7.62943
G1 X179.652 Y133.162 E7.69839
G1 X179.558 Y133.277 E7.7058
G1 X178.665 Y134.334 E7.77484
G1 X178.567 Y134.445 E7.78222
G1 X177.635 Y135.465 E7.85116
G1 X177.528 Y135.578 E7.85892
G1 X176.554 Y136.56 E7.92792
G1 X176.451 Y136.66 E7.93509
G1 X175.442 Y137.603 E8.00399
G1 X175.326 Y137.707 E8.01176
G1 X174.277 Y138.61 E8.08081
G1 X174.161 Y138.706 E8.08833
G1 X173.078 Y139.566 E8.15732
G1 X172.961 Y139.655 E8.16465
G1 X171.846 Y140.472 E8.23362
G1 X171.611 Y140.635 E8.24789
G1 X170.572 Y141.333 E8.31033
G1 X170.452 Y141.41 E8.31745
G1 X169.277 Y142.137 E8.38638
G1 X169.145 Y142.216 E8.39406
G1 X167.941 Y142.895 E8.46302
G1 X167.811 Y142.965 E8.47038
G1 X166.581 Y143.597 E8.53937
G1 X166.443 Y143.664 E8.54703
G1 X165.182 Y144.249 E8.61638
G1 X165.045 Y144.31 E8.62386
G1 X163.771 Y144.841 E8.69272
G1 X163.631 Y144.896 E8.70023
G1 X162.335 Y145.377 E8.76919
G1 X162.122 Y145.451 E8.78044
G1 X160.877 Y145.858 E8.84579
G1 X160.73 Y145.902 E8.85345
G1 X159.324 Y146.299 E8.92633
G1 X159.181 Y146.336 E8.9337
G1 X157.789 Y146.669 E9.00511
G1 X157.69 Y146.69 E9.01016
G1 X156.323 Y146.961 E9.07969
G1 X156.187 Y146.984 E9.08657
G1 X154.802 Y147.203 E9.15652
G1 X154.672 Y147.22 E9.16307
G1 X153.372 Y147.374 E9.22838
G1 X153.147 Y147.395 E9.23965
G1 X151.747 Y147.504 E9.30971
G1 X150.31 Y147.56 E9.38145
G1 X150.168 Y147.563 E9.38854
G1 X148.786 Y147.564 E9.45749
G1 X148.635 Y147.561 E9.46502
G1 X148.129 Y147.541 E9.49029
G1 X147.964 Y148.497 E9.53869
G1 X147.929 Y148.674 E9.54769
G1 X147.688 Y149.759 E9.60314
G1 X147.641 Y149.945 E9.61271
G1 X147.346 Y151.015 E9.66809
G1 X147.292 Y151.193 E9.67737
G1 X146.945 Y152.247 E9.73273
G1 X146.883 Y152.424 E9.74208
G1 X146.484 Y153.461 E9.79752
G1 X146.412 Y153.635 E9.80691
G1 X145.963 Y154.649 E9.86224
G1 X145.885 Y154.814 E9.87134
G1 X145.387 Y155.807 E9.92676
G1 X145.296 Y155.977 E9.93638
G1 X144.748 Y156.944 E9.99184
G1 X144.653 Y157.102 E10.00103
G1 X144.06 Y158.039 E10.05636
G1 X143.956 Y158.195 E10.06571
G1 X143.316 Y159.104 E10.12117
G1 X143.206 Y159.253 E10.13041
G1 X142.523 Y160.129 E10.18583
G1 X142.401 Y160.277 E10.1954
G1 X141.675 Y161.117 E10.25079
G1 X141.551 Y161.253 E10.25997
G1 X140.785 Y162.057 E10.31538
G1 X140.653 Y162.189 E10.32469
G1 X139.848 Y162.955 E10.38013
G1 X139.708 Y163.082 E10.38956
G1 X138.868 Y163.805 E10.44485
G1 X138.726 Y163.921 E10.454
G1 X137.849 Y164.605 E10.50949
G1 X137.695 Y164.719 E10.51905
G1 X136.786 Y165.357 E10.57445
G1 X136.635 Y165.458 E10.58351
G1 X135.698 Y166.051 E10.63884
G1 X135.533 Y166.15 E10.64844
G1 X134.565 Y166.696 E10.70388
G1 X134.403 Y166.782 E10.71303
G1 X133.411 Y167.28 E10.76841
G1 X133.238 Y167.362 E10.77796
G1 X132.221 Y167.81 E10.83341
G1 X132.052 Y167.879 E10.84251
G1 X131.016 Y168.277 E10.89788
G1 X130.836 Y168.341 E10.90741
G1 X129.78 Y168.687 E10.96285
G1 X129.601 Y168.741 E10.97218
G1 X128.531 Y169.034 E11.02753
G1 X128.354 Y169.078 E11.03663
G1 X127.269 Y169.32 E11.09209
G1 X127.082 Y169.357 E11.1016
G1 X125.988 Y169.544 E11.15697
G1 X125.803 Y169.571 E11.1663
G1 X124.699 Y169.704 E11.22178
G1 X124.514 Y169.721 E11.23104
G1 X123.407 Y169.8 E11.28641
G1 X123.219 Y169.809 E11.2958
G1 X122.109 Y169.833 E11.35119
G1 X121.921 Y169.833 E11.36057
G1 X120.811 Y169.802 E11.41597
G1 X120.626 Y169.792 E11.42522
G1 X119.52 Y169.707 E11.48056
G1 X119.333 Y169.688 E11.48993
G1 X118.23 Y169.548 E11.54541
G1 X118.043 Y169.519 E11.55485
G1 X116.951 Y169.325 E11.61018
G1 X116.775 Y169.29 E11.61913
G1 X115.691 Y169.044 E11.67459
G1 X115.502 Y168.996 E11.68432
G1 X114.433 Y168.695 E11.73972
G1 X114.254 Y168.64 E11.74907
G1 X113.202 Y168.287 E11.80443
G1 X113.029 Y168.224 E11.81361
G1 X111.994 Y167.82 E11.86904
G1 X111.82 Y167.747 E11.87846
G1 X110.806 Y167.292 E11.9339
G1 X110.639 Y167.212 E11.94314
G1 X109.65 Y166.709 E11.9985
G1 X109.483 Y166.619 E12.00796
G1 X108.52 Y166.067 E12.06334
G1 X108.363 Y165.971 E12.07252
G1 X107.428 Y165.373 E12.12789
G1 X107.27 Y165.266 E12.13741
G1 X106.365 Y164.621 E12.19286
G1 X106.216 Y164.51 E12.20213
G1 X105.344 Y163.822 E12.25754
G1 X105.202 Y163.705 E12.26672
G1 X104.365 Y162.976 E12.3221
G1 X104.224 Y162.846 E12.33167
G1 X103.424 Y162.075 E12.3871
G1 X103.296 Y161.946 E12.39616
G1 X102.534 Y161.138 E12.45157
G1 X102.407 Y160.996 E12.46108
G1 X101.687 Y160.151 E12.51646
G1 X101.569 Y160.006 E12.52579
G1 X100.89 Y159.125 E12.58128
G1 X100.778 Y158.971 E12.59078
G1 X100.146 Y158.06 E12.6461
G1 X100.048 Y157.913 E12.65491
G1 X99.458 Y156.972 E12.71032
G1 X99.358 Y156.801 E12.72021
G1 X98.818 Y155.831 E12.77559
G1 X98.732 Y155.669 E12.78475
G1 X98.239 Y154.673 E12.84019
G1 X98.159 Y154.5 E12.8497
G1 X97.717 Y153.482 E12.90507
G1 X97.65 Y153.316 E12.914
G1 X97.256 Y152.277 E12.96944
G1 X97.192 Y152.095 E12.97906
G1 X96.852 Y151.039 E13.03441
G1 X96.798 Y150.857 E13.04388
G1 X96.511 Y149.785 E13.09925
G1 X96.469 Y149.609 E13.10827
G1 X96.233 Y148.523 E13.16372
G1 X96.197 Y148.338 E13.17312
G1 X96.015 Y147.242 E13.22855
G1 X95.989 Y147.055 E13.23797
G1 X95.862 Y145.952 E13.29336
G1 X95.845 Y145.767 E13.30263
G1 X95.772 Y144.66 E13.35798
G1 X95.764 Y144.472 E13.36737
G1 X95.746 Y143.361 E13.4228
G1 X95.748 Y143.176 E13.43203
G1 X95.784 Y142.067 E13.48739
G1 X95.795 Y141.879 E13.49678
G1 X95.886 Y140.771 E13.55225
G1 X95.906 Y140.582 E13.56173
G1 X96.052 Y139.482 E13.61709
G1 X96.08 Y139.305 E13.62603
G1 X96.278 Y138.212 E13.68145
G1 X96.318 Y138.02 E13.69123
G1 X96.572 Y136.939 E13.74663
G1 X96.618 Y136.761 E13.75581
G1 X96.924 Y135.693 E13.81123
G1 X96.98 Y135.515 E13.82054
G1 X97.338 Y134.464 E13.87594
G1 X97.402 Y134.291 E13.88514
G1 X97.81 Y133.26 E13.94046
G1 X97.885 Y133.083 E13.95005
G1 X98.346 Y132.071 E14.00553
G1 X98.426 Y131.906 E14.01468
G1 X98.934 Y130.92 E14.07001
G1 X99.023 Y130.756 E14.07932
G1 X99.58 Y129.794 E14.13478
G1 X99.68 Y129.632 E14.14428
G1 X100.283 Y128.701 E14.19962
G1 X100.389 Y128.545 E14.20903
G1 X101.039 Y127.643 E14.2645
G1 X101.149 Y127.498 E14.27358
G1 X101.84 Y126.63 E14.32893
G1 X101.962 Y126.485 E14.33838
G1 X102.697 Y125.651 E14.39384
G1 X102.825 Y125.512 E14.40327
G1 X103.599 Y124.717 E14.45862
G1 X103.731 Y124.589 E14.4678
G1 X104.544 Y123.831 E14.52325
G1 X104.685 Y123.705 E14.53269
G1 X105.534 Y122.989 E14.5881
G1 X105.679 Y122.873 E14.59736
G1 X106.561 Y122.2 E14.65271
G1 X106.715 Y122.088 E14.66221
G1 X107.16 Y121.782 E14.68915
G1 X106.775 Y121.523 E14.7123
G1 X106.364 Y121.21 E14.73808
G1 X106.069 Y120.961 E14.75734
G1 X105.692 Y120.608 E14.7831
G1 X105.421 Y120.326 E14.80262
G1 X105.083 Y119.937 E14.82833
G1 X104.842 Y119.631 E14.84776
G1 X104.546 Y119.21 E14.87343
G1 X104.335 Y118.872 E14.89331
G1 X104.084 Y118.421 E14.91906
G1 X103.911 Y118.069 E14.93863
G1 X103.708 Y117.595 E14.96436
G1 X103.572 Y117.227 E14.98393
G1 X103.42 Y116.738 E15.00948
G1 X103.325 Y116.367 E15.02858
G1 X103.222 Y115.86 E15.0544
G1 X103.163 Y115.466 E15.07427
G1 X103.114 Y114.955 E15.09988
G1 X103.097 Y114.57 E15.11911
G1 X103.1 Y114.054 E15.14485
G1 X103.123 Y113.656 E15.16474
G1 X103.18 Y113.144 E15.19044
G1 X103.244 Y112.755 E15.21011
G1 X103.354 Y112.25 E15.2359
G1 X103.452 Y111.888 E15.25461
G1 X103.61 Y111.4 E15.2802
G1 X103.754 Y111.024 E15.30029
G1 X103.964 Y110.553 E15.32601
G1 X104.143 Y110.203 E15.34563
G1 X104.4 Y109.757 E15.37131
G1 X104.606 Y109.437 E15.39029
G1 X104.907 Y109.018 E15.41603
G1 X105.205 Y108.652 E15.43958
G1 X104.689 Y108.488 E15.46659
G1 X104.514 Y108.428 E15.47582
G1 X103.472 Y108.041 E15.53128
G1 X103.297 Y107.971 E15.54068
G1 X102.276 Y107.533 E15.59611
G1 X102.106 Y107.455 E15.60544
G1 X101.109 Y106.968 E15.6608
G1 X100.943 Y106.882 E15.67012
G1 X99.97 Y106.346 E15.72554
G1 X99.806 Y106.251 E15.735
G1 X98.861 Y105.667 E15.79042
G1 X98.706 Y105.565 E15.79968
G1 X97.791 Y104.936 E15.85508
G1 X97.641 Y104.827 E15.86433
G1 X96.758 Y104.154 E15.91972
G1 X96.609 Y104.035 E15.92923
G1 X95.761 Y103.319 E15.9846
G1 X95.627 Y103.2 E15.99354
G1 X94.813 Y102.444 E16.04896
G1 X94.675 Y102.309 E16.0586
G1 X93.901 Y101.513 E16.11399
G1 X93.773 Y101.375 E16.12338
G1 X93.038 Y100.54 E16.17888
G1 X92.92 Y100.399 E16.18805
G1 X92.228 Y99.532 E16.24339
G1 X92.115 Y99.383 E16.25272
G1 X91.466 Y98.482 E16.30812
G1 X91.359 Y98.325 E16.3176
G1 X90.756 Y97.393 E16.37298
G1 X90.657 Y97.233 E16.38237
G1 X90.1 Y96.271 E16.43783
G1 X90.012 Y96.11 E16.44698
G1 X89.503 Y95.124 E16.50234
G1 X89.421 Y94.953 E16.5118
G1 X88.961 Y93.941 E16.56726
G1 X88.888 Y93.77 E16.57654
G1 X88.479 Y92.739 E16.63187
G1 X88.415 Y92.565 E16.64112
G1 X88.056 Y91.513 E16.69658
G1 X88 Y91.334 E16.70594
G1 X87.694 Y90.268 E16.76127
G1 X87.645 Y90.083 E16.77081
G1 X87.393 Y89.002 E16.82619
G1 X87.356 Y88.823 E16.83531
G1 X87.156 Y87.73 E16.89075
