;FLAVOR:Marlin
;TIME:6008
;Filament used: 5.75946m, 0m
;Layer height: 0.2
;MINX:59.629
;MINY:65.611
;MINZ:0.3
;MAXX:175.371
;MAXY:165.392
;MAXZ:3.9
;POSTPROCESSED
;Generated with Cura_SteamEngine 4.7.1
T0
M140 S60
M105
M190 S60
M104 S190
M105
M109 S190
M82 ;absolute extrusion mode
M201 X500.00 Y500.00 Z100.00 E5000.00 	;Setup machine max acceleration
M203 X500.00 Y500.00 Z10.00 E50.00 	;Setup machine max feedrate
M204 P500.00 R1000.00 T500.00 		;Setup Print/Retract/Travel acceleration
M205 X8.00 Y8.00 Z0.40 E5.00 		;Setup Jerk
M220 S100 				;Reset Feedrate
M221 S100 				;Reset Flowrate
G28				;Home the Machine
G29 				;Bed Level
G92 E0
M300 P150 S587
G92 E0
G1 F1500 E-6.5
;LAYER_COUNT:19
;LAYER:0
M107
G0 F3600 X87.909 Y78.683 Z0.3
;TYPE:SKIRT
G1 F1500 E0
G1 X88.045 Y78.534 E0.01006
G1 X89 Y77.533 E0.07909
G1 X89.137 Y77.395 E0.08879
G1 X90.132 Y76.43 E0.15794
G1 X90.275 Y76.296 E0.16772
G1 X91.311 Y75.367 E0.23714
G1 X91.462 Y75.237 E0.24708
G1 X92.521 Y74.361 E0.31565
G1 X92.675 Y74.239 E0.32545
G1 X93.776 Y73.399 E0.39454
G1 X93.933 Y73.284 E0.40425
G1 X95.071 Y72.484 E0.47365
G1 X95.238 Y72.372 E0.48368
G1 X96.395 Y71.626 E0.55236
G1 X96.562 Y71.522 E0.56218
G1 X97.751 Y70.82 E0.63107
G1 X97.922 Y70.724 E0.64085
G1 X99.142 Y70.067 E0.70998
G1 X99.323 Y69.974 E0.72013
G1 X100.573 Y69.365 E0.7895
G1 X100.749 Y69.285 E0.79915
G1 X102.011 Y68.728 E0.86797
G1 X102.196 Y68.651 E0.87797
G1 X103.474 Y68.147 E0.94651
G1 X103.658 Y68.078 E0.95631
G1 X104.971 Y67.619 E1.0257
G1 X105.164 Y67.556 E1.03583
G1 X106.48 Y67.155 E1.10447
G1 X106.668 Y67.102 E1.11421
G1 X108.006 Y66.751 E1.18322
G1 X108.195 Y66.705 E1.19293
G1 X109.546 Y66.406 E1.26196
G1 X109.745 Y66.366 E1.27209
G1 X111.113 Y66.121 E1.34142
G1 X111.305 Y66.091 E1.35112
G1 X112.678 Y65.9 E1.42028
G1 X112.875 Y65.876 E1.43018
G1 X114.241 Y65.741 E1.49866
G1 X114.439 Y65.726 E1.50857
G1 X115.832 Y65.644 E1.57818
G1 X116.03 Y65.636 E1.58807
G1 X117.353 Y65.611 E1.65409
G1 X117.729 Y65.611 E1.67285
G1 X118.98 Y65.636 E1.73527
G1 X119.175 Y65.644 E1.74501
G1 X120.563 Y65.726 E1.81438
G1 X120.759 Y65.741 E1.82418
G1 X122.128 Y65.876 E1.89281
G1 X122.328 Y65.9 E1.90286
G1 X123.697 Y66.091 E1.97183
G1 X123.884 Y66.121 E1.98127
G1 X125.252 Y66.365 E2.0506
G1 X125.452 Y66.405 E2.06078
G1 X126.806 Y66.704 E2.12996
G1 X127 Y66.751 E2.13991
G1 X128.338 Y67.103 E2.20894
G1 X128.524 Y67.155 E2.21857
G1 X129.836 Y67.555 E2.287
G1 X130.028 Y67.618 E2.29709
G1 X131.344 Y68.078 E2.36664
G1 X131.527 Y68.146 E2.37638
G1 X132.806 Y68.65 E2.44496
G1 X132.994 Y68.729 E2.45514
G1 X134.252 Y69.285 E2.52375
G1 X134.426 Y69.364 E2.53329
G1 X135.68 Y69.975 E2.60288
G1 X135.862 Y70.069 E2.6131
G1 X137.079 Y70.725 E2.68208
G1 X137.25 Y70.821 E2.69186
G1 X138.442 Y71.525 E2.76093
G1 X138.607 Y71.627 E2.7706
G1 X139.762 Y72.371 E2.83915
G1 X139.931 Y72.485 E2.84932
G1 X141.071 Y73.287 E2.91886
G1 X141.228 Y73.402 E2.92857
G1 X142.327 Y74.241 E2.99755
G1 X142.48 Y74.363 E3.00731
G1 X143.54 Y75.24 E3.07595
G1 X143.691 Y75.369 E3.08586
G1 X144.726 Y76.297 E3.15521
G1 X144.867 Y76.428 E3.16481
G1 X145.853 Y77.383 E3.23329
G1 X146.949 Y78.529 E3.31241
G1 X147.087 Y78.679 E3.32257
G1 X147.997 Y79.712 E3.39126
G1 X148.125 Y79.865 E3.40121
G1 X148.996 Y80.937 E3.47012
G1 X149.12 Y81.096 E3.48018
G1 X149.949 Y82.205 E3.54926
G1 X150.065 Y82.366 E3.55916
G1 X150.85 Y83.508 E3.62829
G1 X150.956 Y83.667 E3.63783
G1 X151.698 Y84.84 E3.70707
G1 X151.804 Y85.016 E3.71732
G1 X152.493 Y86.211 E3.78614
G1 X152.651 Y86.501 E3.80262
G1 X153.231 Y87.607 E3.86492
G1 X153.317 Y87.778 E3.87447
G1 X153.913 Y89.029 E3.94361
G1 X154.049 Y89.332 E3.96018
G1 X154.542 Y90.485 E4.02274
G1 X154.611 Y90.655 E4.03189
G1 X155.107 Y91.944 E4.1008
G1 X155.178 Y92.141 E4.11124
G1 X155.624 Y93.462 E4.1808
G1 X155.683 Y93.646 E4.19044
G1 X156.073 Y94.968 E4.25921
G1 X156.126 Y95.162 E4.26924
G1 X156.464 Y96.504 E4.33829
G1 X156.507 Y96.691 E4.34786
G1 X156.793 Y98.044 E4.41685
G1 X156.847 Y98.33 E4.43137
G1 X157.076 Y99.695 E4.50042
G1 X157.104 Y99.883 E4.50991
G1 X157.271 Y101.179 E4.5751
G1 X157.293 Y101.38 E4.58519
G1 X157.421 Y102.834 E4.65801
G1 X157.434 Y103.031 E4.66786
G1 X157.497 Y104.337 E4.73309
G1 X157.505 Y104.6 E4.74622
G1 X157.519 Y105.906 E4.81138
G1 X157.517 Y106.104 E4.82126
G1 X157.477 Y107.489 E4.89038
G1 X157.467 Y107.694 E4.90062
G1 X157.37 Y109.081 E4.96999
G1 X157.353 Y109.269 E4.97941
G1 X157.205 Y110.638 E5.0481
G1 X157.18 Y110.836 E5.05806
G1 X157.03 Y111.844 E5.1089
G1 X157.181 Y111.897 E5.11689
G1 X158.227 Y112.3 E5.17281
G1 X158.454 Y112.394 E5.18507
G1 X159.461 Y112.84 E5.24002
G1 X159.683 Y112.945 E5.25227
G1 X160.689 Y113.451 E5.30845
G1 X160.905 Y113.566 E5.32066
G1 X161.861 Y114.107 E5.37546
G1 X162.072 Y114.234 E5.38775
G1 X163.012 Y114.829 E5.44325
G1 X163.217 Y114.966 E5.45555
G1 X164.133 Y115.611 E5.51144
G1 X164.331 Y115.758 E5.52375
G1 X165.207 Y116.442 E5.57919
G1 X165.397 Y116.598 E5.59146
G1 X166.229 Y117.316 E5.64629
G1 X166.411 Y117.481 E5.65854
G1 X167.217 Y118.249 E5.71409
G1 X167.392 Y118.424 E5.72643
G1 X168.165 Y119.237 E5.7824
G1 X168.33 Y119.419 E5.79466
G1 X169.049 Y120.254 E5.84963
G1 X169.207 Y120.447 E5.86208
G1 X169.89 Y121.325 E5.91757
G1 X170.034 Y121.52 E5.92967
G1 X170.677 Y122.435 E5.98546
G1 X170.814 Y122.641 E5.9978
G1 X171.408 Y123.582 E6.05332
G1 X171.537 Y123.798 E6.06587
G1 X172.073 Y124.75 E6.12038
G1 X172.192 Y124.97 E6.13286
G1 X172.695 Y125.975 E6.18893
G1 X172.801 Y126.2 E6.20133
G1 X173.244 Y127.207 E6.25622
G1 X173.334 Y127.425 E6.26799
G1 X173.737 Y128.473 E6.324
G1 X173.822 Y128.714 E6.33675
G1 X174.165 Y129.763 E6.39182
G1 X174.234 Y129.99 E6.40365
G1 X174.531 Y131.069 E6.45949
G1 X174.59 Y131.307 E6.47172
G1 X174.83 Y132.382 E6.52667
G1 X174.879 Y132.631 E6.53933
G1 X175.065 Y133.723 E6.5946
G1 X175.1 Y133.967 E6.60689
G1 X175.233 Y135.075 E6.66257
G1 X175.257 Y135.319 E6.6748
G1 X175.336 Y136.437 E6.73072
G1 X175.347 Y136.68 E6.74285
G1 X175.371 Y137.78 E6.79775
G1 X175.37 Y138.027 E6.81007
G1 X175.339 Y139.149 E6.86607
G1 X175.326 Y139.393 E6.87826
G1 X175.242 Y140.49 E6.93315
G1 X175.217 Y140.742 E6.94578
G1 X175.076 Y141.845 E7.00126
G1 X175.041 Y142.074 E7.01282
G1 X174.849 Y143.17 E7.06833
G1 X174.796 Y143.433 E7.08171
G1 X174.546 Y144.515 E7.13712
G1 X174.488 Y144.741 E7.14876
G1 X174.189 Y145.806 E7.20394
G1 X174.119 Y146.034 E7.21584
G1 X173.764 Y147.1 E7.2719
G1 X173.676 Y147.342 E7.28474
G1 X173.273 Y148.372 E7.33992
G1 X173.177 Y148.6 E7.35227
G1 X172.722 Y149.612 E7.40762
G1 X172.62 Y149.827 E7.4195
G1 X172.117 Y150.817 E7.4749
G1 X171.997 Y151.039 E7.48749
G1 X171.438 Y152.014 E7.54356
G1 X171.312 Y152.221 E7.55565
G1 X170.719 Y153.148 E7.61055
G1 X170.58 Y153.354 E7.62295
G1 X169.935 Y154.26 E7.67843
G1 X169.789 Y154.455 E7.69059
G1 X169.1 Y155.329 E7.74611
G1 X168.941 Y155.52 E7.75851
G1 X168.212 Y156.356 E7.81385
G1 X168.044 Y156.54 E7.82628
G1 X167.274 Y157.339 E7.88164
G1 X167.106 Y157.506 E7.89346
G1 X166.29 Y158.276 E7.94943
G1 X166.097 Y158.448 E7.96233
G1 X165.248 Y159.17 E8.01793
G1 X165.062 Y159.321 E8.02988
G1 X164.189 Y159.994 E8.08488
G1 X163.986 Y160.142 E8.09741
G1 X163.072 Y160.776 E8.15291
G1 X162.872 Y160.908 E8.16486
G1 X161.923 Y161.501 E8.22069
G1 X161.709 Y161.628 E8.2331
G1 X160.741 Y162.168 E8.2884
G1 X160.514 Y162.287 E8.30119
G1 X159.515 Y162.779 E8.35675
G1 X159.301 Y162.878 E8.36851
G1 X158.292 Y163.317 E8.42341
G1 X158.074 Y163.406 E8.43516
G1 X157.027 Y163.804 E8.49104
G1 X156.773 Y163.892 E8.50445
G1 X155.719 Y164.229 E8.55966
G1 X155.501 Y164.294 E8.57101
G1 X154.421 Y164.586 E8.62682
G1 X154.178 Y164.645 E8.6393
G1 X153.101 Y164.879 E8.69428
G1 X152.848 Y164.927 E8.70713
G1 X151.75 Y165.107 E8.76264
G1 X151.515 Y165.14 E8.77448
G1 X150.408 Y165.268 E8.83008
G1 X150.161 Y165.29 E8.84245
G1 X149.046 Y165.363 E8.89819
G1 X148.805 Y165.373 E8.91023
G1 X147.702 Y165.392 E8.96527
G1 X147.451 Y165.39 E8.97779
G1 X146.333 Y165.353 E9.0336
G1 X146.091 Y165.339 E9.04569
G1 X144.99 Y165.249 E9.1008
G1 X144.74 Y165.223 E9.11334
G1 X143.639 Y165.077 E9.16875
G1 X143.398 Y165.039 E9.18092
G1 X142.303 Y164.839 E9.23646
G1 X142.056 Y164.787 E9.24905
G1 X140.968 Y164.531 E9.30481
G1 X140.738 Y164.471 E9.31667
G1 X139.668 Y164.165 E9.37219
G1 X139.429 Y164.09 E9.38469
G1 X138.388 Y163.735 E9.43956
G1 X138.161 Y163.652 E9.45162
G1 X137.118 Y163.239 E9.50759
G1 X136.884 Y163.139 E9.52029
G1 X135.882 Y162.682 E9.57523
G1 X135.669 Y162.579 E9.58703
G1 X134.674 Y162.067 E9.64286
G1 X134.45 Y161.944 E9.65561
G1 X133.495 Y161.389 E9.71072
G1 X133.294 Y161.266 E9.72247
G1 X132.353 Y160.658 E9.77837
G1 X132.143 Y160.514 E9.79107
G1 X131.241 Y159.864 E9.84654
G1 X131.046 Y159.717 E9.85872
G1 X130.176 Y159.023 E9.91424
G1 X129.986 Y158.863 E9.92664
G1 X129.153 Y158.128 E9.98206
G1 X128.973 Y157.961 E9.99431
G1 X128.177 Y157.186 E10.04974
G1 X128.009 Y157.015 E10.0617
G1 X127.258 Y156.21 E10.11662
G1 X127.09 Y156.021 E10.12924
G1 X126.367 Y155.163 E10.18521
G1 X126.216 Y154.974 E10.19728
G1 X125.549 Y154.1 E10.25213
G1 X125.398 Y153.892 E10.26496
G1 X124.764 Y152.966 E10.32095
G1 X124.638 Y152.772 E10.33249
G1 X124.057 Y151.833 E10.38758
G1 X123.812 Y151.4 E10.4124
G1 X123.516 Y151.635 E10.43125
G1 X123.101 Y151.931 E10.45668
G1 X122.656 Y152.215 E10.48302
G1 X122.186 Y152.48 E10.50994
G1 X121.728 Y152.707 E10.53544
G1 X121.284 Y152.901 E10.55962
G1 X120.805 Y153.083 E10.58518
G1 X120.303 Y153.244 E10.61148
G1 X119.806 Y153.375 E10.63712
G1 X119.297 Y153.481 E10.66306
G1 X118.774 Y153.562 E10.68947
G1 X118.252 Y153.615 E10.71564
G1 X117.738 Y153.64 E10.74132
G1 X117.243 Y153.64 E10.76601
G1 X116.728 Y153.614 E10.79174
G1 X116.204 Y153.559 E10.81802
G1 X115.682 Y153.477 E10.84439
G1 X115.175 Y153.371 E10.87023
G1 X114.689 Y153.242 E10.89531
G1 X114.192 Y153.082 E10.92136
G1 X113.701 Y152.895 E10.94758
G1 X113.249 Y152.696 E10.97221
G1 X112.792 Y152.468 E10.99769
G1 X112.33 Y152.206 E11.02419
G1 X111.886 Y151.922 E11.05049
G1 X111.468 Y151.624 E11.0761
G1 X111.188 Y151.401 E11.09396
G1 X110.942 Y151.835 E11.11885
G1 X110.361 Y152.775 E11.17398
G1 X110.231 Y152.975 E11.18588
G1 X109.599 Y153.896 E11.2416
G1 X109.448 Y154.104 E11.25443
G1 X108.776 Y154.983 E11.30963
G1 X108.627 Y155.168 E11.32148
G1 X107.909 Y156.02 E11.37707
G1 X107.748 Y156.202 E11.38919
G1 X106.995 Y157.012 E11.44437
G1 X106.814 Y157.197 E11.45728
G1 X106.015 Y157.972 E11.51281
G1 X105.844 Y158.13 E11.52443
G1 X105.013 Y158.864 E11.57974
G1 X104.819 Y159.027 E11.59238
G1 X103.948 Y159.721 E11.64795
G1 X103.754 Y159.869 E11.66012
G1 X102.854 Y160.517 E11.71545
G1 X102.648 Y160.657 E11.72787
G1 X101.705 Y161.267 E11.78391
G1 X101.496 Y161.395 E11.79613
G1 X100.545 Y161.946 E11.85097
G1 X100.329 Y162.064 E11.86325
G1 X99.33 Y162.579 E11.91932
G1 X99.108 Y162.687 E11.93164
G1 X98.105 Y163.143 E11.9866
G1 X97.88 Y163.239 E11.99881
G1 X96.839 Y163.652 E12.05468
G1 X96.611 Y163.736 E12.06681
G1 X95.566 Y164.093 E12.1219
G1 X95.322 Y164.169 E12.13465
G1 X94.253 Y164.474 E12.19011
G1 X94.014 Y164.536 E12.20243
G1 X92.927 Y164.789 E12.25811
G1 X92.699 Y164.836 E12.26972
G1 X91.602 Y165.038 E12.32537
G1 X91.352 Y165.078 E12.338
G1 X90.255 Y165.223 E12.39321
G1 X90.006 Y165.249 E12.4057
G1 X88.902 Y165.339 E12.46096
G1 X88.661 Y165.353 E12.473
G1 X87.543 Y165.39 E12.52881
G1 X87.292 Y165.392 E12.54134
G1 X86.189 Y165.373 E12.59637
G1 X85.948 Y165.363 E12.60841
G1 X84.834 Y165.29 E12.6641
G1 X84.587 Y165.268 E12.67647
G1 X83.48 Y165.14 E12.73207
G1 X83.239 Y165.106 E12.74421
G1 X82.143 Y164.925 E12.79963
G1 X81.903 Y164.879 E12.81183
G1 X80.824 Y164.646 E12.8669
G1 X80.571 Y164.585 E12.87988
G1 X79.49 Y164.292 E12.93576
G1 X79.267 Y164.226 E12.94736
G1 X78.219 Y163.889 E13.00228
G1 X77.982 Y163.806 E13.01481
G1 X76.932 Y163.409 E13.07082
G1 X76.701 Y163.315 E13.08326
G1 X75.69 Y162.874 E13.13829
G1 X75.48 Y162.777 E13.14983
G1 X74.481 Y162.285 E13.20538
G1 X74.249 Y162.163 E13.21846
G1 X73.282 Y161.622 E13.27374
G1 X73.077 Y161.501 E13.28562
G1 X72.126 Y160.908 E13.34153
G1 X71.915 Y160.768 E13.35417
G1 X71.003 Y160.133 E13.40961
G1 X70.811 Y159.993 E13.42146
G1 X69.939 Y159.322 E13.47636
G1 X69.744 Y159.164 E13.48888
G1 X68.896 Y158.441 E13.54447
G1 X68.713 Y158.277 E13.55673
G1 X67.894 Y157.506 E13.61285
G1 X67.716 Y157.33 E13.62534
G1 X66.947 Y156.53 E13.6807
G1 X66.786 Y156.354 E13.6926
G1 X66.056 Y155.518 E13.74797
G1 X65.893 Y155.321 E13.76073
G1 X65.206 Y154.448 E13.81615
G1 X65.061 Y154.255 E13.8282
G1 X64.417 Y153.35 E13.88361
G1 X64.278 Y153.144 E13.89601
G1 X63.684 Y152.215 E13.95102
G1 X63.557 Y152.004 E13.96331
G1 X63 Y151.03 E14.01929
G1 X62.885 Y150.818 E14.03132
G1 X62.38 Y149.827 E14.08681
G1 X62.273 Y149.604 E14.09915
G1 X61.818 Y148.59 E14.1546
G1 X61.723 Y148.364 E14.16683
G1 X61.323 Y147.341 E14.22163
G1 X61.237 Y147.101 E14.23435
G1 X60.882 Y146.036 E14.29035
G1 X60.811 Y145.807 E14.30232
G1 X60.51 Y144.735 E14.35787
G1 X60.451 Y144.501 E14.36991
G1 X60.203 Y143.42 E14.42524
G1 X60.152 Y143.17 E14.43797
G1 X59.959 Y142.075 E14.49344
G1 X59.923 Y141.836 E14.5055
G1 X59.783 Y140.732 E14.56102
G1 X59.758 Y140.484 E14.57345
G1 X59.674 Y139.386 E14.62839
G1 X59.661 Y139.145 E14.64043
G1 X59.63 Y138.036 E14.69578
G1 X59.629 Y137.788 E14.70816
G1 X59.653 Y136.675 E14.7637
G1 X59.664 Y136.431 E14.77588
G1 X59.742 Y135.326 E14.83115
G1 X59.766 Y135.081 E14.84343
G1 X59.9 Y133.966 E14.89946
G1 X59.935 Y133.723 E14.91171
G1 X60.12 Y132.637 E14.96667
G1 X60.169 Y132.389 E14.97928
G1 X60.411 Y131.303 E15.03479
G1 X60.47 Y131.064 E15.04707
G1 X60.767 Y129.985 E15.1029
G1 X60.836 Y129.755 E15.11488
G1 X61.179 Y128.708 E15.16985
G1 X61.263 Y128.474 E15.18226
G1 X61.665 Y127.426 E15.23825
G1 X61.759 Y127.198 E15.25056
G1 X62.204 Y126.19 E15.30553
G1 X62.306 Y125.973 E15.31749
G1 X62.805 Y124.975 E15.37316
G1 X62.929 Y124.747 E15.38611
G1 X63.468 Y123.791 E15.44086
G1 X63.594 Y123.579 E15.45317
G1 X64.187 Y122.639 E15.50861
G1 X64.327 Y122.429 E15.52121
G1 X64.966 Y121.521 E15.5766
G1 X65.104 Y121.335 E15.58815
G1 X65.791 Y120.449 E15.64409
G1 X65.957 Y120.246 E15.65717
G1 X66.677 Y119.412 E15.71214
G1 X66.835 Y119.237 E15.7239
G1 X67.6 Y118.431 E15.77934
G1 X67.782 Y118.25 E15.79215
G1 X68.597 Y117.475 E15.84826
G1 X68.778 Y117.31 E15.86048
G1 X69.61 Y116.593 E15.91527
G1 X69.794 Y116.442 E15.92715
G1 X70.67 Y115.757 E15.98263
G1 X70.873 Y115.606 E15.99525
G1 X71.79 Y114.961 E16.05118
G1 X71.987 Y114.83 E16.06299
G1 X72.924 Y114.235 E16.11836
G1 X73.146 Y114.102 E16.13127
G1 X74.106 Y113.56 E16.18627
G1 X74.317 Y113.447 E16.19821
G1 X75.321 Y112.942 E16.25428
G1 X75.549 Y112.835 E16.26685
G1 X76.557 Y112.39 E16.32182
G1 X76.78 Y112.298 E16.33386
G1 X77.827 Y111.895 E16.38983
G1 X77.971 Y111.843 E16.39747
G1 X77.821 Y110.84 E16.44806
G1 X77.795 Y110.633 E16.45847
G1 X77.647 Y109.253 E16.52771
G1 X77.63 Y109.067 E16.53703
G1 X77.534 Y107.688 E16.606
G1 X77.524 Y107.486 E16.61609
G1 X77.484 Y106.112 E16.68467
G1 X77.482 Y105.921 E16.69419
G1 X77.494 Y104.61 E16.7596
G1 X77.502 Y104.337 E16.77323
G1 X77.57 Y102.949 E16.84256
G1 X77.584 Y102.751 E16.85246
G1 X77.706 Y101.379 E16.92118
G1 X77.727 Y101.179 E16.93122
G1 X77.905 Y99.806 E17.00029
G1 X77.935 Y99.611 E17.01013
G1 X78.18 Y98.179 E17.08261
G1 X78.204 Y98.055 E17.08891
G1 X78.491 Y96.692 E17.1584
G1 X78.536 Y96.498 E17.16834
G1 X78.874 Y95.159 E17.23724
G1 X78.926 Y94.969 E17.24707
G1 X79.317 Y93.643 E17.31604
G1 X79.378 Y93.452 E17.32604
G1 X79.823 Y92.139 E17.39521
G1 X79.888 Y91.956 E17.40489
G1 X80.383 Y90.663 E17.47397
G1 X80.458 Y90.48 E17.48384
