;FLAVOR:Marlin
;TIME:5637
;Filament used: 5.52156m, 0m
;Layer height: 0.2
;MINX:61.055
;MINY:67.035
;MINZ:0.3
;MAXX:173.944
;MAXY:163.966
;MAXZ:3.9
;POSTPROCESSED
;Generated with Cura_SteamEngine 4.7.1
T0
M140 S60
M105
M190 S60
M104 S190
M105
M109 S190
M82 ;absolute extrusion mode
M201 X500.00 Y500.00 Z100.00 E5000.00 	;Setup machine max acceleration
M203 X500.00 Y500.00 Z10.00 E50.00 	;Setup machine max feedrate
M204 P500.00 R1000.00 T500.00 		;Setup Print/Retract/Travel acceleration
M205 X8.00 Y8.00 Z0.40 E5.00 		;Setup Jerk
M220 S100 				;Reset Feedrate
M221 S100 				;Reset Flowrate
G28				;Home the Machine
G29 				;Bed Level
G92 E0
M300 P150 S587
G92 E0
G1 F1500 E-6.5
;LAYER_COUNT:19
;LAYER:0
M107
G0 F3600 X88.556 Y80.109 Z0.3
;TYPE:SKIRT
G1 F1500 E0
G1 X89.533 Y79.041 E0.07221
G1 X89.634 Y78.935 E0.07952
G1 X90.576 Y77.986 E0.14623
G1 X90.673 Y77.892 E0.15297
G1 X91.667 Y76.963 E0.22085
G1 X91.777 Y76.864 E0.22823
G1 X92.875 Y75.919 E0.3005
G1 X92.984 Y75.829 E0.30756
G1 X94.015 Y75.01 E0.37325
G1 X94.127 Y74.925 E0.38026
G1 X95.26 Y74.095 E0.45033
G1 X95.378 Y74.012 E0.45753
G1 X96.545 Y73.227 E0.5277
G1 X96.663 Y73.151 E0.5347
G1 X97.795 Y72.452 E0.60107
G1 X97.918 Y72.379 E0.60821
G1 X99.14 Y71.69 E0.6782
G1 X99.264 Y71.623 E0.68523
G1 X100.554 Y70.961 E0.75757
G1 X100.683 Y70.898 E0.76473
G1 X101.862 Y70.351 E0.82957
G1 X101.991 Y70.294 E0.83661
G1 X103.281 Y69.756 E0.90634
G1 X103.41 Y69.705 E0.91326
G1 X104.704 Y69.223 E0.98215
G1 X104.845 Y69.174 E0.9896
G1 X106.182 Y68.738 E1.05976
G1 X106.316 Y68.697 E1.06675
G1 X107.632 Y68.324 E1.13499
G1 X107.768 Y68.289 E1.142
G1 X109.096 Y67.968 E1.21016
G1 X109.236 Y67.937 E1.21732
G1 X110.754 Y67.634 E1.29454
G1 X111.6 Y67.488 E1.33737
G1 X112.195 Y67.406 E1.36734
G1 X113.151 Y67.28 E1.41545
G1 X113.86 Y67.214 E1.45097
G1 X114.632 Y67.142 E1.48965
G1 X115.159 Y67.106 E1.51601
G1 X115.487 Y67.094 E1.53238
G1 X116.104 Y67.06 E1.56321
G1 X116.919 Y67.039 E1.60389
G1 X117.331 Y67.035 E1.62444
G1 X118.067 Y67.041 E1.66116
G1 X118.18 Y67.044 E1.6668
G1 X119.882 Y67.111 E1.75178
G1 X120 Y67.117 E1.75768
G1 X120.764 Y67.173 E1.79589
G1 X121.309 Y67.223 E1.8232
G1 X122.306 Y67.336 E1.87326
G1 X122.823 Y67.404 E1.89927
G1 X123.817 Y67.556 E1.94944
G1 X124.129 Y67.609 E1.96523
G1 X125.77 Y67.937 E2.04872
G1 X125.909 Y67.968 E2.05582
G1 X127.218 Y68.284 E2.123
G1 X127.356 Y68.32 E2.13012
G1 X128.684 Y68.697 E2.19899
G1 X128.819 Y68.738 E2.20603
G1 X130.154 Y69.174 E2.2761
G1 X130.291 Y69.222 E2.28334
G1 X131.587 Y69.704 E2.35232
G1 X131.718 Y69.756 E2.35936
G1 X133.01 Y70.295 E2.4292
G1 X133.139 Y70.351 E2.43621
G1 X134.316 Y70.897 E2.50095
G1 X134.443 Y70.959 E2.508
G1 X135.731 Y71.619 E2.5802
G1 X135.859 Y71.688 E2.58745
G1 X137.083 Y72.379 E2.65758
G1 X137.204 Y72.451 E2.6646
G1 X138.336 Y73.15 E2.73098
G1 X138.454 Y73.226 E2.73798
G1 X139.621 Y74.011 E2.80815
G1 X139.739 Y74.094 E2.81535
G1 X140.872 Y74.924 E2.88542
G1 X140.984 Y75.009 E2.89243
G1 X142.015 Y75.828 E2.95812
G1 X142.127 Y75.921 E2.96539
G1 X143.223 Y76.866 E3.03758
G1 X143.327 Y76.959 E3.04455
G1 X144.323 Y77.888 E3.1125
G1 X144.426 Y77.988 E3.11966
G1 X145.366 Y78.937 E3.1863
G1 X145.462 Y79.037 E3.19321
G1 X146.441 Y80.105 E3.2655
G1 X146.538 Y80.215 E3.27281
G1 X147.412 Y81.25 E3.3404
G1 X147.5 Y81.359 E3.34739
G1 X148.343 Y82.44 E3.41578
G1 X148.428 Y82.554 E3.42287
G1 X149.254 Y83.704 E3.49351
G1 X149.334 Y83.82 E3.50054
G1 X150.077 Y84.945 E3.5678
G1 X150.155 Y85.069 E3.57511
G1 X150.943 Y86.375 E3.65121
G1 X151.004 Y86.48 E3.65727
G1 X151.505 Y87.377 E3.70853
G1 X151.581 Y87.52 E3.71661
G1 X152.35 Y89.056 E3.80231
G1 X152.403 Y89.167 E3.80844
G1 X152.838 Y90.115 E3.86048
G1 X152.901 Y90.261 E3.86841
G1 X153.539 Y91.832 E3.95301
G1 X153.587 Y91.956 E3.95964
G1 X154 Y93.091 E4.0199
G1 X154.045 Y93.223 E4.02686
G1 X154.316 Y94.07 E4.07122
G1 X155.188 Y96.663 E4.20771
G1 X156.144 Y99.263 E4.34591
G1 X157.154 Y101.786 E4.4815
G1 X158.23 Y104.27 E4.61655
G1 X159.388 Y106.746 E4.75292
G1 X160.609 Y109.177 E4.88864
G1 X161.906 Y111.586 E5.02514
G1 X163.282 Y113.978 E5.16282
G1 X164.689 Y116.267 E5.29686
G1 X166.169 Y118.534 E5.43193
G1 X167.745 Y120.803 E5.56976
G1 X168.628 Y122.005 E5.64417
G1 X169.107 Y122.672 E5.68514
G1 X169.644 Y123.46 E5.73271
G1 X169.876 Y123.817 E5.75396
G1 X170.371 Y124.627 E5.80131
G1 X170.533 Y124.911 E5.81763
G1 X170.954 Y125.679 E5.86132
G1 X171.141 Y126.043 E5.88174
G1 X171.516 Y126.818 E5.92469
G1 X171.706 Y127.239 E5.94774
G1 X172.055 Y128.064 E5.99243
G1 X172.19 Y128.404 E6.01068
G1 X172.478 Y129.189 E6.05239
G1 X172.63 Y129.637 E6.076
G1 X172.876 Y130.426 E6.11723
G1 X173.007 Y130.882 E6.1409
G1 X173.207 Y131.653 E6.18064
G1 X173.309 Y132.092 E6.20312
G1 X173.499 Y133.013 E6.25004
G1 X173.56 Y133.356 E6.26742
G1 X173.706 Y134.297 E6.31493
G1 X173.755 Y134.675 E6.33394
G1 X173.837 Y135.443 E6.37248
G1 X173.876 Y135.936 E6.39715
G1 X173.926 Y136.839 E6.44227
G1 X173.938 Y137.231 E6.46184
G1 X173.944 Y138.017 E6.50105
G1 X173.935 Y138.525 E6.5264
G1 X173.9 Y139.357 E6.56794
G1 X173.871 Y139.785 E6.58935
G1 X173.788 Y140.688 E6.63459
G1 X173.742 Y141.067 E6.65363
G1 X173.61 Y141.992 E6.70025
G1 X173.552 Y142.339 E6.7178
G1 X173.401 Y143.128 E6.75788
G1 X173.294 Y143.618 E6.7829
G1 X173.118 Y144.344 E6.82017
G1 X172.981 Y144.85 E6.84632
G1 X172.739 Y145.668 E6.88888
G1 X172.6 Y146.096 E6.91133
G1 X172.312 Y146.917 E6.95474
G1 X172.172 Y147.286 E6.97443
G1 X171.851 Y148.074 E7.01688
G1 X171.677 Y148.475 E7.03869
G1 X171.321 Y149.237 E7.08065
G1 X171.12 Y149.644 E7.1033
G1 X170.732 Y150.38 E7.14481
G1 X170.491 Y150.809 E7.16935
G1 X170.098 Y151.473 E7.20785
G1 X169.851 Y151.866 E7.23101
G1 X169.341 Y152.638 E7.27717
G1 X169.118 Y152.957 E7.29659
G1 X168.633 Y153.619 E7.33753
G1 X168.37 Y153.959 E7.35897
G1 X167.777 Y154.688 E7.40586
G1 X167.528 Y154.979 E7.42496
G1 X166.965 Y155.607 E7.46704
G1 X166.665 Y155.925 E7.48885
G1 X166.127 Y156.468 E7.52699
G1 X165.733 Y156.846 E7.55423
G1 X165.159 Y157.371 E7.59304
G1 X164.79 Y157.693 E7.61747
G1 X164.061 Y158.296 E7.66467
G1 X163.806 Y158.495 E7.68081
G1 X163.049 Y159.06 E7.72793
G1 X162.784 Y159.246 E7.74409
G1 X161.988 Y159.782 E7.79196
G1 X161.693 Y159.97 E7.80942
G1 X160.928 Y160.432 E7.854
G1 X160.594 Y160.622 E7.87317
G1 X159.797 Y161.052 E7.91835
G1 X159.443 Y161.231 E7.93814
G1 X158.651 Y161.608 E7.98191
G1 X158.295 Y161.766 E8.00134
G1 X157.391 Y162.144 E8.05022
G1 X157.09 Y162.26 E8.06632
G1 X156.323 Y162.538 E8.10702
G1 X155.877 Y162.686 E8.13046
G1 X154.923 Y162.977 E8.18022
G1 X154.661 Y163.049 E8.19378
G1 X153.774 Y163.274 E8.23943
G1 X153.377 Y163.364 E8.25974
G1 X152.552 Y163.53 E8.30172
G1 X152.105 Y163.609 E8.32437
G1 X151.291 Y163.732 E8.36544
G1 X150.875 Y163.784 E8.38636
G1 X150.001 Y163.873 E8.43019
G1 X149.56 Y163.906 E8.45225
G1 X148.607 Y163.954 E8.49986
G1 X148.297 Y163.961 E8.51533
G1 X147.521 Y163.964 E8.55404
G1 X146.969 Y163.952 E8.58159
G1 X146.038 Y163.906 E8.62809
G1 X145.693 Y163.88 E8.64535
G1 X144.773 Y163.791 E8.69147
G1 X144.439 Y163.749 E8.70826
G1 X143.516 Y163.613 E8.75481
G1 X143.174 Y163.552 E8.77214
G1 X142.218 Y163.362 E8.82077
G1 X141.896 Y163.289 E8.83724
G1 X140.859 Y163.031 E8.89055
G1 X138.17 Y162.401 E9.02834
G1 X135.511 Y161.857 E9.16375
G1 X132.796 Y161.381 E9.30126
G1 X130.089 Y160.986 E9.43775
G1 X127.409 Y160.671 E9.57237
G1 X124.656 Y160.427 E9.71026
G1 X121.968 Y160.265 E9.84461
G1 X119.237 Y160.178 E9.98093
G1 X116.505 Y160.167 E10.11723
G1 X113.778 Y160.235 E10.25332
G1 X111.045 Y160.38 E10.38986
G1 X108.328 Y160.601 E10.52586
G1 X105.651 Y160.895 E10.66022
G1 X102.932 Y161.272 E10.79717
G1 X100.235 Y161.724 E10.9336
G1 X97.569 Y162.247 E11.06914
G1 X94.511 Y162.947 E11.22565
G1 X93.216 Y163.263 E11.29216
G1 X92.29 Y163.465 E11.33944
G1 X91.961 Y163.528 E11.35615
G1 X91.124 Y163.669 E11.3985
G1 X90.652 Y163.737 E11.42229
G1 X89.736 Y163.843 E11.46829
G1 X89.396 Y163.874 E11.48533
G1 X88.48 Y163.935 E11.53113
G1 X88.117 Y163.949 E11.54925
G1 X87.21 Y163.966 E11.59451
G1 X86.823 Y163.962 E11.61382
G1 X85.892 Y163.933 E11.66029
G1 X85.576 Y163.916 E11.67608
G1 X84.734 Y163.849 E11.71822
G1 X84.238 Y163.797 E11.7431
G1 X83.299 Y163.674 E11.79035
G1 X82.981 Y163.624 E11.80641
G1 X82.101 Y163.464 E11.85103
G1 X81.708 Y163.383 E11.87105
G1 X80.894 Y163.195 E11.91273
G1 X80.434 Y163.075 E11.93645
G1 X79.571 Y162.828 E11.98123
G1 X79.253 Y162.728 E11.99786
G1 X78.339 Y162.419 E12.046
G1 X77.99 Y162.29 E12.06456
G1 X77.144 Y161.955 E12.10995
G1 X76.833 Y161.823 E12.12681
G1 X75.965 Y161.429 E12.17437
G1 X75.627 Y161.266 E12.19309
G1 X74.844 Y160.863 E12.23702
G1 X74.503 Y160.677 E12.2564
G1 X73.798 Y160.271 E12.29699
G1 X73.393 Y160.022 E12.32071
G1 X72.627 Y159.528 E12.36618
G1 X72.301 Y159.305 E12.38589
G1 X71.561 Y158.775 E12.4313
G1 X71.268 Y158.551 E12.4497
G1 X70.572 Y157.998 E12.49405
G1 X70.289 Y157.76 E12.5125
G1 X69.571 Y157.13 E12.56015
G1 X69.317 Y156.895 E12.57742
G1 X68.724 Y156.32 E12.61863
G1 X68.381 Y155.971 E12.64304
G1 X67.774 Y155.321 E12.68741
G1 X67.53 Y155.046 E12.70575
G1 X66.989 Y154.407 E12.74752
G1 X66.716 Y154.068 E12.76924
G1 X66.113 Y153.278 E12.81882
G1 X65.93 Y153.025 E12.8344
G1 X65.485 Y152.382 E12.87341
G1 X65.192 Y151.934 E12.90012
G1 X64.754 Y151.229 E12.94152
G1 X64.548 Y150.877 E12.96187
G1 X64.152 Y150.163 E13.00261
G1 X63.919 Y149.715 E13.0278
G1 X63.541 Y148.949 E13.07041
G1 X63.365 Y148.567 E13.0914
G1 X63.011 Y147.746 E13.136
G1 X62.858 Y147.364 E13.15653
G1 X62.554 Y146.549 E13.19993
G1 X62.421 Y146.161 E13.22039
G1 X62.157 Y145.333 E13.26375
G1 X62.058 Y144.993 E13.28142
G1 X61.824 Y144.114 E13.3268
G1 X61.728 Y143.71 E13.34752
G1 X61.523 Y142.747 E13.39664
G1 X61.473 Y142.472 E13.41058
G1 X61.318 Y141.518 E13.4588
G1 X61.271 Y141.174 E13.47612
G1 X61.174 Y140.306 E13.5197
G1 X61.136 Y139.871 E13.54148
G1 X61.084 Y139.051 E13.58247
G1 X61.066 Y138.585 E13.60574
G1 X61.055 Y137.772 E13.6463
G1 X61.06 Y137.3 E13.66985
G1 X61.09 Y136.458 E13.71189
G1 X61.116 Y136.032 E13.73318
G1 X61.185 Y135.222 E13.77374
G1 X61.239 Y134.729 E13.79848
G1 X61.36 Y133.842 E13.84314
G1 X61.421 Y133.469 E13.862
G1 X61.596 Y132.531 E13.9096
G1 X61.669 Y132.186 E13.9272
G1 X61.856 Y131.402 E13.96741
G1 X61.969 Y130.973 E13.98954
G1 X62.236 Y130.057 E14.03714
G1 X62.35 Y129.7 E14.05584
G1 X62.607 Y128.952 E14.0953
G1 X62.778 Y128.492 E14.11978
G1 X63.114 Y127.655 E14.16478
G1 X63.261 Y127.313 E14.18335
G1 X63.61 Y126.553 E14.22507
G1 X63.808 Y126.148 E14.24757
G1 X64.23 Y125.336 E14.29322
G1 X64.413 Y125.005 E14.31209
G1 X64.87 Y124.225 E14.35719
G1 X65.069 Y123.906 E14.37595
G1 X65.517 Y123.216 E14.41699
G1 X65.77 Y122.848 E14.43927
G1 X66.949 Y121.217 E14.53968
G1 X68.543 Y118.948 E14.67802
G1 X70.03 Y116.698 E14.81257
G1 X71.485 Y114.356 E14.95013
G1 X72.833 Y112.04 E15.08382
G1 X74.168 Y109.593 E15.22289
G1 X75.38 Y107.211 E15.35623
G1 X76.564 Y104.715 E15.49405
G1 X77.648 Y102.246 E15.62858
G1 X78.693 Y99.678 E15.7669
G1 X79.629 Y97.175 E15.90022
G1 X80.671 Y94.103 E16.06206
G1 X80.945 Y93.248 E16.10685
G1 X80.99 Y93.118 E16.11372
G1 X81.411 Y91.96 E16.17519
G1 X81.459 Y91.835 E16.18187
G1 X82.098 Y90.262 E16.26657
G1 X82.163 Y90.111 E16.27478
G1 X82.599 Y89.164 E16.32679
G1 X82.649 Y89.061 E16.3325
G1 X83.417 Y87.524 E16.41822
G1 X83.492 Y87.381 E16.42628
G1 X83.99 Y86.487 E16.47733
G1 X84.054 Y86.377 E16.48368
G1 X84.845 Y85.068 E16.55999
G1 X84.921 Y84.947 E16.56711
G1 X85.662 Y83.824 E16.63424
G1 X85.744 Y83.706 E16.64141
G1 X86.572 Y82.554 E16.71219
G1 X86.655 Y82.443 E16.7191
G1 X87.497 Y81.362 E16.78746
G1 X87.588 Y81.25 E16.79466
G1 X88.463 Y80.215 E16.86228
G1 X88.556 Y80.109 E16.86931
G0 F3600 X88.851 Y80.379
G1 F1500 X89.828 Y79.311 E16.94153
G1 X89.918 Y79.217 E16.94802
G1 X90.86 Y78.268 E17.01473
G1 X90.946 Y78.184 E17.02073
G1 X91.94 Y77.255 E17.08861
G1 X92.038 Y77.168 E17.09514
G1 X93.136 Y76.223 E17.16742
G1 X93.233 Y76.142 E17.17372
G1 X94.264 Y75.323 E17.23941
G1 X94.363 Y75.248 E17.24561
G1 X95.496 Y74.418 E17.31568
G1 X95.601 Y74.344 E17.32209
G1 X96.768 Y73.559 E17.39226
G1 X96.873 Y73.491 E17.3985
G1 X98.005 Y72.792 E17.46487
G1 X98.114 Y72.728 E17.47118
G1 X99.336 Y72.039 E17.54117
G1 X99.447 Y71.979 E17.54746
G1 X100.737 Y71.317 E17.6198
G1 X100.851 Y71.261 E17.62614
G1 X102.03 Y70.714 E17.69098
G1 X102.145 Y70.664 E17.69724
G1 X103.435 Y70.126 E17.76697
G1 X103.55 Y70.08 E17.77315
G1 X104.844 Y69.598 E17.84204
G1 X104.969 Y69.555 E17.84863
G1 X106.306 Y69.119 E17.9188
G1 X106.425 Y69.082 E17.92501
G1 X107.741 Y68.709 E17.99325
G1 X107.862 Y68.678 E17.99949
G1 X109.19 Y68.357 E18.06765
G1 X109.314 Y68.329 E18.07399
G1 X110.738 Y68.044 E18.14644
G1 X111.668 Y67.883 E18.19353
G1 X112.282 Y67.798 E18.22446
G1 X113.122 Y67.687 E18.26673
G1 X113.861 Y67.616 E18.30377
G1 X114.744 Y67.534 E18.34801
G1 X115.261 Y67.502 E18.37385
G1 X115.523 Y67.493 E18.38693
G1 X116.126 Y67.46 E18.41706
G1 X116.927 Y67.439 E18.45703
G1 X117.328 Y67.435 E18.47704
G1 X118.064 Y67.441 E18.51376
G1 X118.164 Y67.443 E18.51875
G1 X119.866 Y67.51 E18.60373
G1 X119.971 Y67.516 E18.60898
G1 X120.69 Y67.568 E18.64494
G1 X121.264 Y67.62 E18.6737
G1 X122.257 Y67.733 E18.72356
G1 X122.762 Y67.799 E18.74897
G1 X123.929 Y67.979 E18.80788
G1 X124.05 Y68.001 E18.81401
G1 X125.691 Y68.329 E18.8975
G1 X125.815 Y68.356 E18.90383
G1 X127.124 Y68.672 E18.97102
G1 X127.247 Y68.705 E18.97737
G1 X128.575 Y69.082 E19.04624
G1 X128.694 Y69.118 E19.05244
G1 X130.029 Y69.554 E19.12251
G1 X130.151 Y69.597 E19.12896
G1 X131.447 Y70.079 E19.19795
G1 X131.564 Y70.125 E19.20422
G1 X132.856 Y70.664 E19.27406
G1 X132.971 Y70.714 E19.28032
G1 X134.148 Y71.26 E19.34505
G1 X134.26 Y71.315 E19.35127
G1 X135.548 Y71.975 E19.42348
G1 X135.662 Y72.036 E19.42993
G1 X136.886 Y72.727 E19.50005
G1 X136.994 Y72.791 E19.50632
G1 X138.126 Y73.49 E19.57269
G1 X138.231 Y73.558 E19.57893
G1 X139.398 Y74.343 E19.6491
G1 X139.503 Y74.417 E19.65551
G1 X140.636 Y75.247 E19.72558
G1 X140.735 Y75.322 E19.73178
G1 X141.766 Y76.141 E19.79747
G1 X141.866 Y76.223 E19.80392
G1 X142.962 Y77.168 E19.87612
G1 X143.055 Y77.252 E19.88237
G1 X144.051 Y78.181 E19.95032
G1 X144.141 Y78.269 E19.9566
G1 X145.081 Y79.218 E20.02324
G1 X145.167 Y79.308 E20.02945
G1 X146.146 Y80.376 E20.10173
G1 X146.232 Y80.473 E20.1082
G1 X147.106 Y81.508 E20.17579
G1 X147.184 Y81.605 E20.18199
G1 X148.027 Y82.686 E20.25039
G1 X148.103 Y82.787 E20.25669
G1 X148.929 Y83.937 E20.32733
G1 X149 Y84.04 E20.33357
G1 X149.743 Y85.165 E20.40084
G1 X149.813 Y85.276 E20.40738
G1 X150.601 Y86.582 E20.48348
G1 X150.655 Y86.675 E20.48885
G1 X151.156 Y87.572 E20.54011
G1 X151.223 Y87.699 E20.54727
G1 X151.992 Y89.235 E20.63297
G1 X152.039 Y89.333 E20.63839
G1 X152.474 Y90.281 E20.69043
G1 X152.531 Y90.412 E20.69756
G1 X153.169 Y91.983 E20.78215
G1 X153.211 Y92.093 E20.78802
G1 X153.624 Y93.228 E20.84828
G1 X153.664 Y93.345 E20.85445
G1 X153.944 Y94.218 E20.90019
G1 X154.816 Y96.812 E21.03672
G1 X155.761 Y99.383 E21.17338
G1 X156.787 Y101.945 E21.31107
G1 X157.865 Y104.433 E21.44634
G1 X159.033 Y106.931 E21.58392
G1 X160.25 Y109.354 E21.7192
G1 X161.557 Y111.781 E21.85672
G1 X162.922 Y114.155 E21.99334
G1 X164.362 Y116.499 E22.13059
G1 X165.849 Y118.775 E22.26623
G1 X167.427 Y121.046 E22.40419
G1 X168.303 Y122.238 E22.47799
G1 X168.782 Y122.905 E22.51896
G1 X169.351 Y123.741 E22.56941
G1 X169.535 Y124.026 E22.58634
G1 X169.981 Y124.754 E22.62893
G1 X170.182 Y125.103 E22.64903
G1 X170.648 Y125.955 E22.69748
G1 X170.781 Y126.217 E22.71213
G1 X171.156 Y126.992 E22.75509
G1 X171.338 Y127.395 E22.77715
