;FLAVOR:Marlin
;TIME:6698
;Filament used: 5.53855m, 0m
;Layer height: 0.2
;MINX:60.655
;MINY:66.635
;MINZ:0.3
;MAXX:174.344
;MAXY:164.366
;MAXZ:3.9
;POSTPROCESSED
;Generated with Cura_SteamEngine 4.7.1
T0
M140 S60
M105
M190 S60
M104 S190
M105
M109 S190
M82 ;absolute extrusion mode
M201 X500.00 Y500.00 Z100.00 E5000.00 	;Setup machine max acceleration
M203 X500.00 Y500.00 Z10.00 E50.00 	;Setup machine max feedrate
M204 P500.00 R1000.00 T500.00 		;Setup Print/Retract/Travel acceleration
M205 X8.00 Y8.00 Z0.40 E5.00 		;Setup Jerk
M220 S100 				;Reset Feedrate
M221 S100 				;Reset Flowrate
G28				;Home the Machine
G29 				;Bed Level
G92 E0
M300 P150 S587
G92 E0
G1 F1500 E-6.5
;LAYER_COUNT:19
;LAYER:0
M107
G0 F2000 X88.261 Y79.839 Z0.3
;TYPE:SKIRT
G1 F1500 E0
G1 F900 X89.238 Y78.771 E0.07221
G1 X89.35 Y78.653 E0.08033
G1 X90.292 Y77.704 E0.14704
G1 X90.4 Y77.6 E0.15452
G1 X91.394 Y76.671 E0.2224
G1 X91.516 Y76.561 E0.23059
G1 X92.614 Y75.616 E0.30287
G1 X92.735 Y75.516 E0.3107
G1 X93.766 Y74.697 E0.37639
G1 X93.89 Y74.602 E0.38418
G1 X95.023 Y73.772 E0.45425
G1 X95.154 Y73.68 E0.46224
G1 X96.321 Y72.895 E0.53241
G1 X96.452 Y72.811 E0.54017
G1 X97.584 Y72.112 E0.60655
G1 X97.721 Y72.031 E0.61449
G1 X98.943 Y71.342 E0.68448
G1 X99.082 Y71.267 E0.69236
G1 X100.372 Y70.605 E0.7647
G1 X100.515 Y70.536 E0.77262
G1 X101.694 Y69.989 E0.83746
G1 X101.837 Y69.925 E0.84528
G1 X103.127 Y69.387 E0.91501
G1 X103.271 Y69.331 E0.92272
G1 X104.565 Y68.849 E0.99161
G1 X104.721 Y68.794 E0.99986
G1 X106.058 Y68.358 E1.07002
G1 X106.207 Y68.313 E1.07778
G1 X107.523 Y67.94 E1.14603
G1 X107.674 Y67.9 E1.15382
G1 X109.002 Y67.579 E1.22198
G1 X109.157 Y67.545 E1.2299
G1 X110.686 Y67.24 E1.30768
G1 X111.532 Y67.094 E1.35051
G1 X112.154 Y67.008 E1.38184
G1 X113.107 Y66.883 E1.42979
G1 X113.802 Y66.817 E1.46462
G1 X114.595 Y66.743 E1.50436
G1 X115.136 Y66.707 E1.53141
G1 X115.499 Y66.693 E1.54953
G1 X116.082 Y66.661 E1.57866
G1 X116.911 Y66.639 E1.62004
G1 X117.335 Y66.635 E1.64119
G1 X118.071 Y66.641 E1.67791
G1 X118.195 Y66.644 E1.6841
G1 X119.897 Y66.711 E1.76908
G1 X120.029 Y66.718 E1.77567
G1 X120.798 Y66.774 E1.81414
G1 X121.354 Y66.825 E1.84199
G1 X122.355 Y66.939 E1.89226
G1 X122.884 Y67.008 E1.91887
G1 X123.855 Y67.157 E1.96788
G1 X124.207 Y67.217 E1.9857
G1 X125.848 Y67.545 E2.06919
G1 X126.003 Y67.579 E2.0771
G1 X127.312 Y67.895 E2.14429
G1 X127.465 Y67.935 E2.15218
G1 X128.793 Y68.312 E2.22105
G1 X128.943 Y68.358 E2.22888
G1 X130.278 Y68.794 E2.29894
G1 X130.43 Y68.847 E2.30697
G1 X131.726 Y69.329 E2.37596
G1 X131.872 Y69.386 E2.38378
G1 X133.164 Y69.925 E2.45362
G1 X133.307 Y69.988 E2.46142
G1 X134.484 Y70.534 E2.52615
G1 X134.625 Y70.603 E2.53398
G1 X135.913 Y71.263 E2.60618
G1 X136.055 Y71.34 E2.61424
G1 X137.279 Y72.031 E2.68437
G1 X137.415 Y72.111 E2.69224
G1 X138.547 Y72.81 E2.75861
G1 X138.678 Y72.894 E2.76638
G1 X139.845 Y73.679 E2.83654
G1 X139.976 Y73.771 E2.84453
G1 X141.109 Y74.601 E2.9146
G1 X141.233 Y74.696 E2.92239
G1 X142.264 Y75.515 E2.98809
G1 X142.388 Y75.618 E2.99613
G1 X143.484 Y76.563 E3.06833
G1 X143.6 Y76.667 E3.0761
G1 X144.596 Y77.596 E3.14405
G1 X144.71 Y77.706 E3.15195
G1 X145.65 Y78.655 E3.21859
G1 X145.757 Y78.767 E3.22632
G1 X146.736 Y79.835 E3.2986
G1 X146.843 Y79.957 E3.3067
G1 X147.717 Y80.992 E3.37428
G1 X147.815 Y81.113 E3.38205
G1 X148.658 Y82.194 E3.45044
G1 X148.753 Y82.321 E3.45836
G1 X149.579 Y83.471 E3.529
G1 X149.668 Y83.6 E3.53681
G1 X150.411 Y84.725 E3.60408
G1 X150.498 Y84.863 E3.61222
G1 X151.286 Y86.169 E3.68831
G1 X151.353 Y86.284 E3.69495
G1 X151.854 Y87.181 E3.74621
G1 X151.939 Y87.341 E3.75525
G1 X152.708 Y88.877 E3.84095
G1 X152.767 Y89 E3.84776
G1 X153.202 Y89.948 E3.89979
G1 X153.272 Y90.111 E3.90864
G1 X153.91 Y91.682 E3.99324
G1 X153.963 Y91.819 E4.00057
G1 X154.376 Y92.954 E4.06082
G1 X154.426 Y93.101 E4.06857
G1 X154.691 Y93.928 E4.1119
G1 X155.578 Y96.566 E4.25075
G1 X156.515 Y99.113 E4.38614
G1 X157.521 Y101.627 E4.52124
G1 X158.602 Y104.121 E4.65685
G1 X159.743 Y106.562 E4.79128
G1 X160.968 Y109.001 E4.92745
G1 X162.262 Y111.404 E5.06361
G1 X163.602 Y113.734 E5.19771
G1 X165.031 Y116.06 E5.3339
G1 X166.516 Y118.333 E5.46936
G1 X168.063 Y120.56 E5.60464
G1 X168.953 Y121.772 E5.67966
G1 X169.491 Y122.523 E5.72575
G1 X169.975 Y123.235 E5.7687
G1 X170.217 Y123.608 E5.79088
G1 X170.663 Y124.336 E5.83348
G1 X170.884 Y124.718 E5.85549
G1 X171.305 Y125.486 E5.89919
G1 X171.501 Y125.869 E5.92065
G1 X171.876 Y126.644 E5.96361
G1 X172.074 Y127.083 E5.98763
G1 X172.426 Y127.914 E6.03266
G1 X172.565 Y128.266 E6.05154
G1 X172.886 Y129.144 E6.09818
G1 X173.012 Y129.518 E6.11787
G1 X173.283 Y130.39 E6.16342
G1 X173.394 Y130.782 E6.18375
G1 X173.617 Y131.646 E6.22827
G1 X173.701 Y132.01 E6.24691
G1 X173.874 Y132.845 E6.28945
G1 X173.955 Y133.295 E6.31226
G1 X174.102 Y134.244 E6.36017
G1 X174.152 Y134.632 E6.37969
G1 X174.234 Y135.4 E6.41822
G1 X174.276 Y135.914 E6.44395
G1 X174.326 Y136.826 E6.48952
G1 X174.338 Y137.227 E6.50953
G1 X174.344 Y138.013 E6.54875
G1 X174.334 Y138.542 E6.57514
G1 X174.294 Y139.473 E6.62164
G1 X174.27 Y139.821 E6.63904
G1 X174.197 Y140.626 E6.67936
G1 X174.138 Y141.123 E6.70433
G1 X174.005 Y142.057 E6.7514
G1 X173.945 Y142.414 E6.76946
G1 X173.794 Y143.203 E6.80954
G1 X173.682 Y143.712 E6.83554
G1 X173.506 Y144.438 E6.87281
G1 X173.365 Y144.964 E6.89998
G1 X173.123 Y145.782 E6.94254
G1 X172.978 Y146.228 E6.96594
G1 X172.687 Y147.058 E7.00982
G1 X172.542 Y147.437 E7.03006
G1 X172.186 Y148.309 E7.07705
G1 X172.039 Y148.644 E7.0953
G1 X171.648 Y149.479 E7.1413
G1 X171.473 Y149.83 E7.16087
G1 X171.034 Y150.661 E7.20776
G1 X170.835 Y151.012 E7.22789
G1 X170.387 Y151.768 E7.27173
G1 X170.185 Y152.086 E7.29053
G1 X169.724 Y152.785 E7.3323
G1 X169.441 Y153.193 E7.35707
G1 X168.956 Y153.855 E7.39801
G1 X168.681 Y154.211 E7.42046
G1 X168.142 Y154.875 E7.46313
G1 X167.825 Y155.246 E7.48747
G1 X167.197 Y155.945 E7.53435
G1 X166.949 Y156.206 E7.55231
G1 X166.411 Y156.749 E7.59045
G1 X166.003 Y157.142 E7.61871
G1 X165.429 Y157.667 E7.65752
G1 X165.045 Y158.001 E7.68291
G1 X164.391 Y158.543 E7.72529
G1 X164.045 Y158.815 E7.74725
G1 X163.28 Y159.386 E7.79487
G1 X163.008 Y159.578 E7.81148
G1 X162.282 Y160.068 E7.85518
G1 X161.9 Y160.312 E7.87779
G1 X161.135 Y160.774 E7.92238
G1 X160.784 Y160.974 E7.94253
G1 X159.979 Y161.408 E7.98816
G1 X159.615 Y161.592 E8.00851
G1 X158.823 Y161.969 E8.05227
G1 X158.45 Y162.135 E8.07264
G1 X157.536 Y162.517 E8.12206
G1 X157.226 Y162.636 E8.13863
G1 X156.459 Y162.914 E8.17933
G1 X155.994 Y163.069 E8.20378
G1 X155.03 Y163.363 E8.25406
G1 X154.76 Y163.437 E8.26803
G1 X153.945 Y163.644 E8.30998
G1 X153.456 Y163.756 E8.33501
G1 X152.631 Y163.922 E8.37699
G1 X152.165 Y164.004 E8.4006
G1 X151.259 Y164.14 E8.44631
G1 X150.915 Y164.182 E8.4636
G1 X150.041 Y164.271 E8.50743
G1 X149.58 Y164.306 E8.53049
G1 X148.617 Y164.354 E8.5786
G1 X148.298 Y164.361 E8.59452
G1 X147.522 Y164.364 E8.63323
G1 X146.949 Y164.351 E8.66182
G1 X146.009 Y164.305 E8.70878
G1 X145.655 Y164.279 E8.72649
G1 X144.824 Y164.199 E8.76814
G1 X144.382 Y164.145 E8.79035
G1 X143.554 Y164.024 E8.8321
G1 X143.096 Y163.945 E8.85529
G1 X142.131 Y163.753 E8.90437
G1 X141.799 Y163.678 E8.92136
G1 X140.734 Y163.413 E8.97611
G1 X138.043 Y162.783 E9.11399
G1 X135.455 Y162.252 E9.2458
G1 X135.442 Y162.251 E9.24645
G1 X132.735 Y161.777 E9.38356
G1 X130.06 Y161.386 E9.51843
G1 X127.328 Y161.065 E9.65567
G1 X124.665 Y160.829 E9.78905
G1 X121.93 Y160.664 E9.92575
G1 X119.223 Y160.578 E10.06087
G1 X116.514 Y160.567 E10.19602
G1 X113.773 Y160.635 E10.33281
G1 X111.101 Y160.777 E10.46631
G1 X108.368 Y160.999 E10.6031
G1 X105.678 Y161.295 E10.73812
G1 X102.982 Y161.669 E10.87391
G1 X100.307 Y162.117 E11.00923
G1 X97.669 Y162.634 E11.14334
G1 X94.646 Y163.326 E11.29806
G1 X93.398 Y163.632 E11.36217
G1 X92.463 Y163.838 E11.40993
G1 X92.027 Y163.922 E11.43209
G1 X91.095 Y164.078 E11.47923
G1 X90.698 Y164.134 E11.49923
G1 X89.773 Y164.241 E11.54569
G1 X89.423 Y164.273 E11.56322
G1 X88.596 Y164.329 E11.60458
G1 X88.125 Y164.349 E11.6281
G1 X87.207 Y164.366 E11.6739
G1 X86.81 Y164.362 E11.69371
G1 X85.779 Y164.329 E11.74517
G1 X85.545 Y164.314 E11.75687
G1 X84.607 Y164.239 E11.80382
G1 X84.186 Y164.194 E11.82494
G1 X83.332 Y164.083 E11.86791
G1 X82.91 Y164.017 E11.88922
G1 X82.021 Y163.856 E11.93429
G1 X81.618 Y163.772 E11.95483
G1 X80.804 Y163.584 E11.99651
G1 X80.324 Y163.46 E12.02124
G1 X79.452 Y163.21 E12.0665
G1 X79.125 Y163.107 E12.0836
G1 X78.202 Y162.795 E12.13221
G1 X77.843 Y162.663 E12.15129
G1 X77.073 Y162.359 E12.19259
G1 X76.668 Y162.187 E12.21455
G1 X75.792 Y161.79 E12.26253
G1 X75.444 Y161.621 E12.28183
G1 X74.653 Y161.214 E12.32621
G1 X74.304 Y161.023 E12.34606
G1 X73.599 Y160.617 E12.38665
G1 X73.176 Y160.359 E12.41137
G1 X72.486 Y159.915 E12.4523
G1 X72.068 Y159.631 E12.47751
G1 X71.408 Y159.159 E12.518
G1 X71.019 Y158.865 E12.54232
G1 X70.397 Y158.372 E12.58192
G1 X70.025 Y158.061 E12.60611
G1 X69.301 Y157.425 E12.65419
G1 X69.038 Y157.182 E12.67205
G1 X68.445 Y156.607 E12.71326
G1 X68.089 Y156.244 E12.73863
G1 X67.475 Y155.587 E12.78349
G1 X67.225 Y155.305 E12.80229
G1 X66.627 Y154.597 E12.84853
G1 X66.398 Y154.311 E12.86681
G1 X65.79 Y153.514 E12.91682
G1 X65.601 Y153.252 E12.93294
G1 X65.156 Y152.609 E12.97195
G1 X64.852 Y152.145 E12.99962
G1 X64.414 Y151.44 E13.04103
G1 X64.198 Y151.071 E13.06236
G1 X63.802 Y150.357 E13.1031
G1 X63.56 Y149.892 E13.12925
G1 X63.182 Y149.126 E13.17186
G1 X62.998 Y148.726 E13.19383
G1 X62.68 Y147.991 E13.23379
G1 X62.484 Y147.504 E13.25998
G1 X62.21 Y146.772 E13.29897
G1 X62.04 Y146.282 E13.32485
G1 X61.776 Y145.454 E13.3682
G1 X61.672 Y145.096 E13.3868
G1 X61.438 Y144.217 E13.43218
G1 X61.336 Y143.793 E13.45394
G1 X61.15 Y142.923 E13.49833
G1 X61.078 Y142.536 E13.51796
G1 X60.922 Y141.574 E13.56659
G1 X60.874 Y141.218 E13.58451
G1 X60.767 Y140.254 E13.6329
G1 X60.737 Y139.896 E13.65082
G1 X60.685 Y139.076 E13.69181
G1 X60.666 Y138.59 E13.71608
G1 X60.655 Y137.777 E13.75664
G1 X60.661 Y137.286 E13.78114
G1 X60.695 Y136.345 E13.82812
G1 X60.717 Y135.998 E13.84546
G1 X60.786 Y135.188 E13.88602
G1 X60.843 Y134.675 E13.91177
G1 X60.965 Y133.779 E13.95689
G1 X61.028 Y133.396 E13.97625
G1 X61.204 Y132.449 E14.02431
G1 X61.28 Y132.093 E14.04247
G1 X61.489 Y131.221 E14.0872
G1 X61.585 Y130.862 E14.10574
G1 X61.855 Y129.936 E14.15387
G1 X61.972 Y129.57 E14.17304
G1 X62.26 Y128.734 E14.21715
G1 X62.406 Y128.344 E14.23793
G1 X62.711 Y127.582 E14.27887
G1 X62.898 Y127.146 E14.30254
G1 X63.284 Y126.307 E14.34862
G1 X63.452 Y125.964 E14.36767
G1 X63.837 Y125.222 E14.40938
G1 X64.067 Y124.803 E14.43322
G1 X64.476 Y124.103 E14.47367
G1 X64.733 Y123.688 E14.49802
G1 X65.181 Y122.998 E14.53907
G1 X65.446 Y122.614 E14.56235
G1 X66.622 Y120.988 E14.66246
G1 X68.198 Y118.743 E14.79931
G1 X69.706 Y116.462 E14.93573
G1 X71.137 Y114.159 E15.071
G1 X72.495 Y111.826 E15.20567
G1 X73.803 Y109.427 E15.34199
G1 X75.034 Y107.008 E15.47741
G1 X76.2 Y104.549 E15.61318
G1 X77.283 Y102.084 E15.74751
G1 X78.307 Y99.567 E15.88307
G1 X79.255 Y97.033 E16.01805
G1 X80.29 Y93.981 E16.17884
G1 X80.564 Y93.126 E16.22363
G1 X80.614 Y92.981 E16.23128
G1 X81.035 Y91.823 E16.29275
G1 X81.088 Y91.685 E16.30013
G1 X81.727 Y90.112 E16.38483
G1 X81.8 Y89.944 E16.39397
G1 X82.236 Y88.997 E16.44598
G1 X82.291 Y88.882 E16.45234
G1 X83.059 Y87.345 E16.53807
G1 X83.143 Y87.186 E16.54704
G1 X83.641 Y86.292 E16.59809
G1 X83.712 Y86.17 E16.60513
G1 X84.503 Y84.861 E16.68144
G1 X84.587 Y84.727 E16.68933
G1 X85.328 Y83.604 E16.75645
G1 X85.419 Y83.472 E16.76445
G1 X86.247 Y82.32 E16.83523
G1 X86.339 Y82.197 E16.84289
G1 X87.181 Y81.116 E16.91125
G1 X87.282 Y80.992 E16.91923
G1 X88.157 Y79.957 E16.98685
G1 X88.261 Y79.839 E16.9947
G0 F2000 X88.556 Y80.109
G1 F900 X89.533 Y79.041 E17.06691
G1 X89.634 Y78.935 E17.07422
G1 X90.576 Y77.986 E17.14093
G1 X90.673 Y77.892 E17.14767
G1 X91.667 Y76.963 E17.21554
G1 X91.777 Y76.864 E17.22293
G1 X92.875 Y75.919 E17.2952
G1 X92.984 Y75.829 E17.30225
G1 X94.015 Y75.01 E17.36794
G1 X94.127 Y74.925 E17.37496
G1 X95.26 Y74.095 E17.44503
G1 X95.378 Y74.012 E17.45223
G1 X96.545 Y73.227 E17.52239
G1 X96.663 Y73.151 E17.5294
G1 X97.795 Y72.452 E17.59577
G1 X97.918 Y72.379 E17.60291
G1 X99.14 Y71.69 E17.6729
G1 X99.264 Y71.623 E17.67993
G1 X100.554 Y70.961 E17.75227
G1 X100.683 Y70.898 E17.75943
G1 X101.862 Y70.351 E17.82427
G1 X101.991 Y70.294 E17.83131
G1 X103.281 Y69.756 E17.90104
G1 X103.41 Y69.705 E17.90796
G1 X104.704 Y69.223 E17.97685
G1 X104.845 Y69.174 E17.9843
G1 X106.182 Y68.738 E18.05446
G1 X106.316 Y68.697 E18.06145
G1 X107.632 Y68.324 E18.12969
G1 X107.768 Y68.289 E18.1367
G1 X109.096 Y67.968 E18.20486
G1 X109.236 Y67.937 E18.21201
G1 X110.754 Y67.634 E18.28924
G1 X111.6 Y67.488 E18.33207
G1 X112.195 Y67.406 E18.36204
G1 X113.151 Y67.28 E18.41014
G1 X113.86 Y67.214 E18.44567
G1 X114.632 Y67.142 E18.48435
G1 X115.159 Y67.106 E18.5107
G1 X115.487 Y67.094 E18.52708
G1 X116.104 Y67.06 E18.55791
G1 X116.919 Y67.039 E18.59858
G1 X117.331 Y67.035 E18.61914
G1 X118.067 Y67.041 E18.65586
G1 X118.18 Y67.044 E18.6615
G1 X119.882 Y67.111 E18.74648
G1 X120 Y67.117 E18.75237
G1 X120.764 Y67.173 E18.79059
G1 X121.309 Y67.223 E18.81789
G1 X122.306 Y67.336 E18.86795
G1 X122.823 Y67.404 E18.89397
G1 X123.817 Y67.556 E18.94414
G1 X124.129 Y67.609 E18.95993
G1 X125.77 Y67.937 E19.04341
G1 X125.909 Y67.968 E19.05052
G1 X127.218 Y68.284 E19.1177
G1 X127.356 Y68.32 E19.12482
G1 X128.684 Y68.697 E19.19369
G1 X128.819 Y68.738 E19.20073
G1 X130.154 Y69.174 E19.27079
G1 X130.291 Y69.222 E19.27804
G1 X131.587 Y69.704 E19.34702
G1 X131.718 Y69.756 E19.35405
G1 X133.01 Y70.295 E19.42389
G1 X133.139 Y70.351 E19.43091
G1 X134.316 Y70.897 E19.49564
G1 X134.443 Y70.959 E19.50269
G1 X135.731 Y71.619 E19.5749
G1 X135.859 Y71.688 E19.58215
G1 X137.083 Y72.379 E19.65228
G1 X137.204 Y72.451 E19.6593
G1 X138.336 Y73.15 E19.72568
G1 X138.454 Y73.226 E19.73268
G1 X139.621 Y74.011 E19.80285
G1 X139.739 Y74.094 E19.81004
G1 X140.872 Y74.924 E19.88011
G1 X140.984 Y75.009 E19.88713
G1 X142.015 Y75.828 E19.95282
G1 X142.127 Y75.921 E19.96008
G1 X143.223 Y76.866 E20.03228
G1 X143.327 Y76.959 E20.03924
G1 X144.323 Y77.888 E20.10719
G1 X144.426 Y77.988 E20.11435
G1 X145.366 Y78.937 E20.18099
G1 X145.462 Y79.037 E20.18791
G1 X146.441 Y80.105 E20.26019
G1 X146.538 Y80.215 E20.26751
G1 X147.412 Y81.25 E20.33509
G1 X147.5 Y81.359 E20.34208
G1 X148.343 Y82.44 E20.41047
G1 X148.428 Y82.554 E20.41757
G1 X149.254 Y83.704 E20.48821
G1 X149.334 Y83.82 E20.49524
G1 X150.077 Y84.945 E20.5625
G1 X150.155 Y85.069 E20.56981
G1 X150.943 Y86.375 E20.64591
G1 X151.004 Y86.48 E20.65197
G1 X151.505 Y87.377 E20.70322
G1 X151.581 Y87.52 E20.7113
G1 X152.35 Y89.056 E20.797
G1 X152.403 Y89.167 E20.80314
G1 X152.838 Y90.115 E20.85518
G1 X152.901 Y90.261 E20.86311
G1 X153.539 Y91.832 E20.9477
G1 X153.587 Y91.956 E20.95434
G1 X154 Y93.091 E21.0146
G1 X154.045 Y93.223 E21.02155
G1 X154.316 Y94.07 E21.06592
G1 X155.188 Y96.663 E21.2024
G1 X156.144 Y99.263 E21.34061
G1 X157.154 Y101.786 E21.47619
G1 X158.23 Y104.27 E21.61125
G1 X159.388 Y106.746 E21.74762
G1 X160.609 Y109.177 E21.88334
G1 X161.906 Y111.586 E22.01984
G1 X163.282 Y113.978 E22.15751
G1 X164.689 Y116.267 E22.29156
G1 X166.169 Y118.534 E22.42663
G1 X167.745 Y120.803 E22.56446
G1 X168.628 Y122.005 E22.63887
G1 X169.107 Y122.672 E22.67984
G1 X169.644 Y123.46 E22.72741
G1 X169.876 Y123.817 E22.74865
G1 X170.371 Y124.627 E22.79601
G1 X170.533 Y124.911 E22.81232
G1 X170.954 Y125.679 E22.85602
G1 X171.141 Y126.043 E22.87643
