;FLAVOR:Marlin
;TIME:6659
;Filament used: 6.58599m, 0m
;Layer height: 0.2
;MINX:60.849
;MINY:62.308
;MINZ:0.3
;MAXX:174.151
;MAXY:168.692
;MAXZ:3.9
;POSTPROCESSED
;Generated with Cura_SteamEngine 4.7.1
T0
M140 S60
M105
M190 S60
M104 S190
M105
M109 S190
M82 ;absolute extrusion mode
M201 X500.00 Y500.00 Z100.00 E5000.00 	;Setup machine max acceleration
M203 X500.00 Y500.00 Z10.00 E50.00 	;Setup machine max feedrate
M204 P500.00 R1000.00 T500.00 		;Setup Print/Retract/Travel acceleration
M205 X8.00 Y8.00 Z0.40 E5.00 		;Setup Jerk
M220 S100 				;Reset Feedrate
M221 S100 				;Reset Flowrate
G28				;Home the Machine
G29 				;Bed Level
G92 E0
M300 P150 S587
G92 E0
G1 F1500 E-6.5
;LAYER_COUNT:19
;LAYER:0
M107
G0 F3600 X87.757 Y76.189 Z0.3
;TYPE:SKIRT
G1 F1500 E0
G1 X88.603 Y75.212 E0.06448
G1 X88.797 Y74.999 E0.07885
G1 X89.681 Y74.057 E0.1433
G1 X89.885 Y73.85 E0.1578
G1 X90.808 Y72.944 E0.22233
G1 X91.021 Y72.744 E0.2369
G1 X91.983 Y71.875 E0.30158
G1 X92.2 Y71.688 E0.31587
G1 X93.198 Y70.858 E0.38063
G1 X93.419 Y70.683 E0.39469
G1 X94.45 Y69.893 E0.45949
G1 X94.683 Y69.723 E0.47388
G1 X95.785 Y68.949 E0.54107
G1 X95.988 Y68.813 E0.55326
G1 X97.103 Y68.099 E0.61932
G1 X97.315 Y67.968 E0.63175
G1 X98.435 Y67.311 E0.69653
G1 X98.683 Y67.173 E0.71069
G1 X99.893 Y66.529 E0.77907
G1 X100.087 Y66.431 E0.78992
G1 X101.313 Y65.842 E0.85778
G1 X101.513 Y65.752 E0.86872
G1 X102.786 Y65.203 E0.93788
G1 X102.972 Y65.128 E0.94789
G1 X104.309 Y64.615 E1.01933
G1 X104.456 Y64.562 E1.02713
G1 X105.723 Y64.135 E1.09383
G1 X105.953 Y64.062 E1.10587
G1 X107.249 Y63.682 E1.17325
G1 X107.484 Y63.619 E1.18539
G1 X108.87 Y63.277 E1.25661
G1 X109.016 Y63.244 E1.26408
G1 X110.415 Y62.957 E1.33533
G1 X110.564 Y62.929 E1.34289
G1 X111.903 Y62.71 E1.41058
G1 X112.12 Y62.679 E1.42152
G1 X113.408 Y62.521 E1.48626
G1 X113.701 Y62.491 E1.50095
G1 X115.044 Y62.383 E1.56817
G1 X115.273 Y62.369 E1.57962
G1 X116.609 Y62.315 E1.64633
G1 X116.854 Y62.309 E1.65855
G1 X118.141 Y62.308 E1.72276
G1 X118.436 Y62.315 E1.73748
G1 X119.727 Y62.368 E1.80195
G1 X120.014 Y62.386 E1.81629
G1 X121.387 Y62.498 E1.88502
G1 X121.593 Y62.52 E1.89536
G1 X122.926 Y62.684 E1.96236
G1 X123.171 Y62.719 E1.97471
G1 X124.443 Y62.93 E2.03903
G1 X124.724 Y62.983 E2.0533
G1 X125.987 Y63.243 E2.11763
G1 X126.274 Y63.309 E2.13233
G1 X127.618 Y63.645 E2.20144
G1 X127.811 Y63.699 E2.21144
G1 X129.14 Y64.09 E2.28055
G1 X129.328 Y64.151 E2.29042
G1 X130.634 Y64.594 E2.35922
G1 X130.82 Y64.663 E2.36912
G1 X132.108 Y65.159 E2.43797
G1 X132.298 Y65.237 E2.44822
G1 X133.491 Y65.753 E2.51307
G1 X133.748 Y65.869 E2.52714
G1 X134.913 Y66.43 E2.59165
G1 X135.168 Y66.561 E2.60595
G1 X136.391 Y67.212 E2.67507
G1 X136.568 Y67.312 E2.68521
G1 X137.681 Y67.965 E2.74959
G1 X137.928 Y68.117 E2.76406
G1 X139.015 Y68.815 E2.82851
G1 X139.255 Y68.977 E2.84296
G1 X140.317 Y69.722 E2.90768
G1 X140.553 Y69.896 E2.9223
G1 X141.686 Y70.765 E2.99354
G1 X141.803 Y70.858 E3.001
G1 X142.8 Y71.687 E3.06569
G1 X143.013 Y71.873 E3.0798
G1 X144.015 Y72.776 E3.14709
G1 X144.19 Y72.942 E3.15912
G1 X145.152 Y73.887 E3.2264
G1 X145.316 Y74.055 E3.23811
G1 X146.235 Y75.034 E3.30511
G1 X146.395 Y75.212 E3.31705
G1 X147.28 Y76.233 E3.38446
G1 X147.426 Y76.409 E3.39586
G1 X148.265 Y77.463 E3.46307
G1 X148.413 Y77.656 E3.47521
G1 X149.209 Y78.744 E3.54247
G1 X149.343 Y78.934 E3.55407
G1 X150.061 Y80.003 E3.61831
G1 X150.22 Y80.251 E3.63301
G1 X150.931 Y81.413 E3.70097
G1 X151.041 Y81.602 E3.71188
G1 X151.69 Y82.764 E3.77828
G1 X151.811 Y82.989 E3.79103
G1 X152.418 Y84.19 E3.85817
G1 X152.517 Y84.395 E3.86952
G1 X153.055 Y85.571 E3.93404
G1 X153.173 Y85.844 E3.94888
G1 X153.711 Y87.168 E4.02018
G1 X153.768 Y87.318 E4.02819
G1 X154.249 Y88.661 E4.09936
G1 X154.295 Y88.797 E4.10652
G1 X154.701 Y90.082 E4.17375
G1 X154.771 Y90.318 E4.18603
G1 X155.137 Y91.679 E4.25634
G1 X155.173 Y91.824 E4.2638
G1 X155.488 Y93.21 E4.33471
G1 X155.519 Y93.361 E4.3424
G1 X155.778 Y94.762 E4.41348
G1 X155.803 Y94.918 E4.42136
G1 X156.004 Y96.331 E4.49257
G1 X156.023 Y96.482 E4.50016
G1 X156.167 Y97.9 E4.57127
G1 X156.179 Y98.052 E4.57888
G1 X156.266 Y99.477 E4.6501
G1 X156.272 Y99.637 E4.65809
G1 X156.299 Y101.063 E4.72925
G1 X156.299 Y101.211 E4.73663
G1 X156.272 Y102.562 E4.80404
G1 X156.266 Y102.714 E4.81163
G1 X156.18 Y104.145 E4.88316
G1 X156.167 Y104.302 E4.89101
G1 X156.013 Y105.807 E4.96649
G1 X155.994 Y105.952 E4.97379
G1 X155.791 Y107.358 E5.04466
G1 X155.766 Y107.508 E5.05225
G1 X155.648 Y108.145 E5.08457
G1 X156.714 Y108.502 E5.14065
G1 X156.896 Y108.569 E5.15033
G1 X157.961 Y108.987 E5.20741
G1 X158.138 Y109.061 E5.21698
G1 X159.169 Y109.527 E5.27343
G1 X159.341 Y109.61 E5.28296
G1 X160.368 Y110.138 E5.34057
G1 X160.541 Y110.233 E5.35041
G1 X161.518 Y110.801 E5.4068
G1 X161.682 Y110.902 E5.4164
G1 X162.649 Y111.532 E5.47398
G1 X162.805 Y111.639 E5.48342
G1 X163.721 Y112.303 E5.53986
G1 X163.869 Y112.416 E5.54915
G1 X164.769 Y113.138 E5.60672
G1 X164.921 Y113.266 E5.61663
G1 X165.765 Y114.019 E5.67306
G1 X165.909 Y114.155 E5.68294
G1 X166.729 Y114.967 E5.74052
G1 X166.855 Y115.098 E5.74959
G1 X167.621 Y115.933 E5.80612
G1 X167.754 Y116.086 E5.81623
G1 X168.488 Y116.977 E5.87383
G1 X168.605 Y117.126 E5.88328
G1 X169.279 Y118.033 E5.93965
G1 X169.39 Y118.191 E5.94929
G1 X170.025 Y119.143 E6.00638
G1 X170.125 Y119.302 E6.01575
G1 X170.711 Y120.282 E6.07272
G1 X170.808 Y120.454 E6.08257
G1 X171.348 Y121.474 E6.14015
G1 X171.433 Y121.645 E6.14967
G1 X171.916 Y122.68 E6.20666
G1 X171.993 Y122.854 E6.21615
G1 X172.42 Y123.903 E6.27265
G1 X172.488 Y124.085 E6.28235
G1 X172.864 Y125.163 E6.33931
G1 X172.924 Y125.349 E6.34906
G1 X173.245 Y126.448 E6.40618
G1 X173.293 Y126.631 E6.41562
G1 X173.558 Y127.742 E6.4726
G1 X173.598 Y127.931 E6.48224
G1 X173.808 Y129.064 E6.53973
G1 X173.839 Y129.254 E6.54933
G1 X173.989 Y130.377 E6.60585
G1 X174.009 Y130.567 E6.61539
G1 X174.103 Y131.706 E6.6724
G1 X174.114 Y131.899 E6.68205
G1 X174.15 Y133.041 E6.73905
G1 X174.151 Y133.234 E6.74868
G1 X174.129 Y134.377 E6.80571
G1 X174.121 Y134.57 E6.81535
G1 X174.041 Y135.711 E6.87242
G1 X174.022 Y135.903 E6.88204
G1 X173.883 Y137.048 E6.93959
G1 X173.855 Y137.238 E6.94917
G1 X173.662 Y138.354 E7.00567
G1 X173.624 Y138.544 E7.01534
G1 X173.373 Y139.654 E7.07211
G1 X173.326 Y139.843 E7.08183
G1 X173.016 Y140.947 E7.13904
G1 X172.96 Y141.127 E7.14844
G1 X172.594 Y142.22 E7.20595
G1 X172.528 Y142.403 E7.21566
G1 X172.113 Y143.459 E7.27226
G1 X172.039 Y143.634 E7.28174
G1 X171.569 Y144.674 E7.33868
G1 X171.486 Y144.845 E7.34816
G1 X170.962 Y145.865 E7.40537
G1 X170.866 Y146.041 E7.41538
G1 X170.293 Y147.025 E7.47218
G1 X170.193 Y147.187 E7.48168
G1 X169.563 Y148.154 E7.53926
G1 X169.455 Y148.311 E7.54877
G1 X168.79 Y149.228 E7.60528
G1 X168.675 Y149.379 E7.61475
G1 X167.954 Y150.275 E7.67213
G1 X167.827 Y150.425 E7.68193
G1 X167.072 Y151.27 E7.73847
G1 X166.94 Y151.41 E7.74807
G1 X166.136 Y152.223 E7.80511
G1 X165.998 Y152.355 E7.81464
G1 X165.146 Y153.134 E7.87223
G1 X164.999 Y153.263 E7.88199
G1 X164.118 Y153.989 E7.93895
G1 X163.969 Y154.105 E7.94837
G1 X163.06 Y154.781 E8.00488
G1 X162.902 Y154.892 E8.01452
G1 X161.951 Y155.527 E8.07157
G1 X161.786 Y155.632 E8.08132
G1 X160.804 Y156.217 E8.13835
G1 X160.637 Y156.31 E8.14789
G1 X159.619 Y156.849 E8.20536
G1 X159.444 Y156.936 E8.21511
G1 X158.406 Y157.419 E8.27222
G1 X158.233 Y157.495 E8.28165
G1 X157.184 Y157.921 E8.33814
G1 X157.001 Y157.99 E8.34789
G1 X155.913 Y158.368 E8.40536
G1 X155.732 Y158.425 E8.41482
G1 X154.644 Y158.743 E8.47138
G1 X154.458 Y158.793 E8.48098
G1 X153.34 Y159.059 E8.53832
G1 X153.153 Y159.098 E8.54785
G1 X152.027 Y159.307 E8.60498
G1 X151.834 Y159.338 E8.61474
G1 X150.703 Y159.488 E8.67166
G1 X150.511 Y159.509 E8.68129
G1 X149.675 Y159.577 E8.72314
G1 X149.611 Y159.945 E8.74177
G1 X149.421 Y160.731 E8.78212
G1 X149.284 Y161.175 E8.8053
G1 X148.99 Y161.957 E8.84698
G1 X148.806 Y162.369 E8.86949
G1 X148.415 Y163.123 E8.91187
G1 X148.19 Y163.502 E8.93385
G1 X147.702 Y164.224 E8.97733
G1 X147.463 Y164.54 E8.9971
G1 X146.89 Y165.222 E9.04154
G1 X146.497 Y165.63 E9.0698
G1 X146.05 Y166.035 E9.09989
G1 X145.866 Y166.192 E9.11196
G1 X145.42 Y166.547 E9.1404
G1 X145.234 Y166.686 E9.15198
G1 X144.783 Y167.002 E9.17946
G1 X144.552 Y167.152 E9.1932
G1 X144.097 Y167.424 E9.21965
G1 X143.837 Y167.565 E9.2344
G1 X143.38 Y167.792 E9.25986
G1 X142.976 Y167.965 E9.28179
G1 X142.106 Y168.278 E9.32791
G1 X141.648 Y168.411 E9.35171
G1 X141.133 Y168.526 E9.37803
G1 X140.634 Y168.603 E9.40322
G1 X139.748 Y168.68 E9.44759
G1 X139.292 Y168.692 E9.47035
G1 X138.754 Y168.674 E9.49721
G1 X138.274 Y168.627 E9.52127
G1 X137.328 Y168.474 E9.56908
G1 X136.916 Y168.384 E9.59012
G1 X136.341 Y168.224 E9.61989
G1 X136.066 Y168.136 E9.6343
G1 X135.544 Y167.947 E9.662
G1 X135.332 Y167.863 E9.67337
G1 X134.79 Y167.629 E9.70283
G1 X134.667 Y167.573 E9.70957
G1 X133.839 Y167.18 E9.7553
G1 X133.745 Y167.134 E9.76052
G1 X132.955 Y166.732 E9.80474
G1 X132.853 Y166.678 E9.8105
G1 X132.095 Y166.263 E9.85361
G1 X131.99 Y166.203 E9.85964
G1 X131.178 Y165.723 E9.9067
G1 X130.48 Y165.284 E9.94784
G1 X130.37 Y165.212 E9.9544
G1 X129.696 Y164.755 E9.99503
G1 X129.595 Y164.684 E10.00119
G1 X128.958 Y164.221 E10.04048
G1 X128.861 Y164.148 E10.04653
G1 X128.239 Y163.665 E10.08582
G1 X128.131 Y163.578 E10.09274
G1 X127.543 Y163.086 E10.13099
G1 X127.445 Y163.001 E10.13746
G1 X126.872 Y162.487 E10.17587
G1 X126.778 Y162.4 E10.18226
G1 X126.236 Y161.88 E10.21973
G1 X126.138 Y161.782 E10.22664
G1 X125.609 Y161.236 E10.26457
G1 X125.52 Y161.141 E10.27107
G1 X125.019 Y160.587 E10.30833
G1 X124.931 Y160.487 E10.31498
G1 X124.443 Y159.908 E10.35275
G1 X124.362 Y159.808 E10.35917
G1 X123.857 Y159.166 E10.39993
G1 X123.773 Y159.049 E10.40711
G1 X123.367 Y158.492 E10.4415
G1 X123.292 Y158.385 E10.44802
G1 X122.864 Y157.753 E10.4861
G1 X122.795 Y157.648 E10.49237
G1 X122.384 Y156.996 E10.53082
G1 X122.315 Y156.883 E10.53742
G1 X121.923 Y156.21 E10.57628
G1 X121.491 Y155.417 E10.62133
G1 X121.438 Y155.316 E10.62702
G1 X121.075 Y154.597 E10.66721
G1 X121.017 Y154.478 E10.67381
G1 X120.677 Y153.742 E10.71426
G1 X120.634 Y153.645 E10.71955
G1 X120.303 Y152.873 E10.76146
G1 X120.263 Y152.776 E10.76669
G1 X119.948 Y151.981 E10.80936
G1 X119.911 Y151.884 E10.81454
G1 X119.611 Y151.062 E10.85819
G1 X119.576 Y150.962 E10.86348
G1 X119.292 Y150.111 E10.90824
G1 X119.073 Y149.399 E10.9454
G1 X118.515 Y149.499 E10.97368
G1 X117.896 Y149.558 E11.0047
G1 X117.238 Y149.565 E11.03753
G1 X116.646 Y149.521 E11.06715
G1 X115.992 Y149.416 E11.1002
G1 X115.927 Y149.4 E11.10354
G1 X115.707 Y150.113 E11.14076
G1 X115.423 Y150.964 E11.18552
G1 X115.388 Y151.064 E11.19081
G1 X115.088 Y151.886 E11.23446
G1 X114.738 Y152.774 E11.28208
G1 X114.697 Y152.873 E11.28743
G1 X114.365 Y153.648 E11.32949
G1 X114.315 Y153.759 E11.33557
G1 X113.926 Y154.59 E11.38134
G1 X113.566 Y155.308 E11.42141
G1 X113.509 Y155.417 E11.42755
G1 X113.132 Y156.112 E11.467
G1 X113.072 Y156.218 E11.47307
G1 X112.679 Y156.89 E11.51191
G1 X112.614 Y156.997 E11.51816
G1 X112.202 Y157.651 E11.55672
G1 X112.133 Y157.757 E11.56303
G1 X111.707 Y158.386 E11.60093
G1 X111.633 Y158.492 E11.60738
G1 X111.144 Y159.165 E11.64888
G1 X110.637 Y159.81 E11.68981
G1 X110.554 Y159.911 E11.69634
G1 X110.065 Y160.491 E11.73419
G1 X109.979 Y160.591 E11.74077
G1 X109.479 Y161.144 E11.77796
G1 X109.387 Y161.242 E11.78467
G1 X108.857 Y161.788 E11.82263
G1 X108.763 Y161.881 E11.82923
G1 X108.222 Y162.401 E11.86666
G1 X108.124 Y162.492 E11.87333
G1 X107.55 Y163.006 E11.91178
G1 X107.451 Y163.092 E11.91832
G1 X106.863 Y163.583 E11.95654
G1 X106.761 Y163.665 E11.96307
G1 X106.139 Y164.149 E12.00239
G1 X106.036 Y164.226 E12.0088
G1 X105.399 Y164.688 E12.04806
G1 X105.297 Y164.759 E12.05426
G1 X104.623 Y165.215 E12.09486
G1 X104.522 Y165.281 E12.10088
G1 X103.72 Y165.786 E12.14816
G1 X102.999 Y166.209 E12.18987
G1 X102.149 Y166.677 E12.23828
G1 X102.039 Y166.735 E12.24448
G1 X101.162 Y167.179 E12.29352
G1 X100.334 Y167.573 E12.33927
G1 X100.199 Y167.634 E12.34666
G1 X99.656 Y167.867 E12.37614
G1 X99.45 Y167.949 E12.3872
G1 X98.919 Y168.141 E12.41537
G1 X98.652 Y168.226 E12.42935
G1 X98.152 Y168.366 E12.45525
G1 X97.893 Y168.429 E12.46855
G1 X97.373 Y168.536 E12.49504
G1 X96.938 Y168.6 E12.51697
G1 X96.023 Y168.68 E12.5628
G1 X95.57 Y168.692 E12.58541
G1 X95.042 Y168.675 E12.61176
G1 X94.529 Y168.624 E12.63748
G1 X93.62 Y168.47 E12.68348
G1 X93.158 Y168.361 E12.70716
G1 X92.667 Y168.213 E12.73275
G1 X92.204 Y168.04 E12.7574
G1 X91.329 Y167.646 E12.80528
G1 X90.959 Y167.454 E12.82608
G1 X90.513 Y167.191 E12.85191
G1 X90.278 Y167.041 E12.86582
G1 X89.776 Y166.693 E12.89629
G1 X89.571 Y166.541 E12.90902
G1 X89.131 Y166.19 E12.9371
G1 X88.95 Y166.035 E12.94899
G1 X88.493 Y165.621 E12.97976
G1 X88.153 Y165.271 E13.0041
G1 X87.597 Y164.619 E13.04685
G1 X87.356 Y164.305 E13.0666
G1 X86.866 Y163.592 E13.10976
G1 X86.642 Y163.222 E13.13134
G1 X86.237 Y162.459 E13.17444
G1 X86.051 Y162.054 E13.19667
G1 X85.761 Y161.308 E13.2366
G1 X85.619 Y160.864 E13.25986
G1 X85.411 Y160.043 E13.30211
G1 X85.324 Y159.577 E13.32576
G1 X84.484 Y159.509 E13.36781
G1 X84.288 Y159.487 E13.37765
G1 X83.159 Y159.336 E13.43448
G1 X82.974 Y159.307 E13.44382
G1 X81.846 Y159.099 E13.50104
G1 X81.652 Y159.058 E13.51094
G1 X80.534 Y158.791 E13.56828
G1 X80.35 Y158.742 E13.57778
G1 X79.263 Y158.424 E13.63428
G1 X79.08 Y158.366 E13.64386
G1 X77.992 Y157.987 E13.70134
G1 X77.815 Y157.92 E13.71078
G1 X76.766 Y157.495 E13.76725
G1 X76.585 Y157.416 E13.7771
G1 X75.549 Y156.932 E13.83415
G1 X75.379 Y156.847 E13.84363
G1 X74.359 Y156.307 E13.90121
G1 X74.191 Y156.213 E13.91082
G1 X73.21 Y155.628 E13.9678
G1 X73.047 Y155.525 E13.97742
G1 X72.095 Y154.89 E14.03451
G1 X71.936 Y154.778 E14.04422
G1 X71.027 Y154.102 E14.10073
G1 X70.876 Y153.984 E14.11029
G1 X69.995 Y153.257 E14.16728
G1 X69.85 Y153.131 E14.17686
G1 X68.999 Y152.353 E14.23439
G1 X68.861 Y152.22 E14.24395
G1 X68.057 Y151.407 E14.30099
G1 X67.922 Y151.263 E14.31084
G1 X67.168 Y150.417 E14.36738
G1 X67.048 Y150.275 E14.37666
G1 X66.325 Y149.379 E14.4341
G1 X66.204 Y149.222 E14.44398
G1 X65.54 Y148.305 E14.50047
G1 X65.436 Y148.153 E14.50966
G1 X64.805 Y147.186 E14.56726
G1 X64.702 Y147.019 E14.57705
G1 X64.13 Y146.035 E14.63384
G1 X64.034 Y145.859 E14.64384
G1 X63.511 Y144.839 E14.70102
G1 X63.429 Y144.669 E14.71044
G1 X62.958 Y143.626 E14.76754
G1 X62.885 Y143.452 E14.77695
G1 X62.471 Y142.399 E14.8334
G1 X62.403 Y142.215 E14.84319
G1 X62.037 Y141.121 E14.90074
G1 X61.981 Y140.937 E14.91033
G1 X61.674 Y139.838 E14.96726
G1 X61.628 Y139.657 E14.97658
G1 X61.375 Y138.542 E15.03362
G1 X61.336 Y138.345 E15.04364
G1 X61.144 Y137.229 E15.10014
G1 X61.117 Y137.043 E15.10951
G1 X60.978 Y135.897 E15.16711
G1 X60.959 Y135.705 E15.17673
G1 X60.879 Y134.566 E15.2337
G1 X60.871 Y134.374 E15.24328
G1 X60.849 Y133.241 E15.29982
G1 X60.85 Y133.048 E15.30945
G1 X60.886 Y131.896 E15.36695
G1 X60.897 Y131.703 E15.3766
G1 X60.99 Y130.574 E15.43311
G1 X61.011 Y130.381 E15.4428
G1 X61.163 Y129.247 E15.49988
G1 X61.192 Y129.064 E15.50912
G1 X61.399 Y127.94 E15.56614
G1 X61.44 Y127.744 E15.57613
G1 X61.708 Y126.624 E15.63359
G1 X61.757 Y126.44 E15.64309
G1 X62.075 Y125.354 E15.69954
G1 X62.134 Y125.17 E15.70918
G1 X62.514 Y124.081 E15.76673
G1 X62.581 Y123.904 E15.77617
G1 X63.007 Y122.854 E15.8327
G1 X63.086 Y122.673 E15.84255
G1 X63.57 Y121.638 E15.89956
G1 X63.653 Y121.47 E15.90891
G1 X64.187 Y120.461 E15.96586
G1 X64.284 Y120.29 E15.97567
G1 X64.876 Y119.299 E16.03326
G1 X64.978 Y119.138 E16.04277
