;FLAVOR:Marlin
;TIME:5977
;Filament used: 5.4623m, 0m
;Layer height: 0.2
;MINX:56.206
;MINY:79.546
;MINZ:0.3
;MAXX:175.907
;MAXY:183.286
;MAXZ:3.9
;POSTPROCESSED
;Generated with Cura_SteamEngine 4.7.1
T0
M140 S60
M105
M190 S60
M104 S190
M105
M109 S190
M82 ;absolute extrusion mode
M201 X500.00 Y500.00 Z100.00 E5000.00 	;Setup machine max acceleration
M203 X500.00 Y500.00 Z10.00 E50.00 	;Setup machine max feedrate
M204 P500.00 R1000.00 T500.00 		;Setup Print/Retract/Travel acceleration
M205 X8.00 Y8.00 Z0.40 E5.00 		;Setup Jerk
M220 S100 				;Reset Feedrate
M221 S100 				;Reset Flowrate
G28				;Home the Machine
G29 				;Bed Level
G92 E0
M300 P150 S587
G92 E0
G1 F1500 E-6.5
;LAYER_COUNT:19
;LAYER:0
M107
G0 F3600 X87.308 Y90.923 Z0.3
;TYPE:SKIRT
G1 F1500 E0
G1 X87.512 Y90.733 E0.01391
G1 X88.542 Y89.81 E0.08291
G1 X88.752 Y89.629 E0.09674
G1 X89.817 Y88.748 E0.1657
G1 X90.031 Y88.579 E0.1793
G1 X91.131 Y87.739 E0.24835
G1 X91.36 Y87.57 E0.26255
G1 X92.491 Y86.777 E0.33146
G1 X92.715 Y86.627 E0.34491
G1 X93.876 Y85.878 E0.41384
G1 X94.113 Y85.732 E0.42773
G1 X95.304 Y85.029 E0.49673
G1 X95.541 Y84.895 E0.51031
G1 X96.758 Y84.239 E0.57929
G1 X97.011 Y84.109 E0.59348
G1 X98.254 Y83.503 E0.66247
G1 X98.504 Y83.387 E0.67622
G1 X99.768 Y82.831 E0.74511
G1 X100.018 Y82.727 E0.75862
G1 X101.306 Y82.219 E0.8277
G1 X101.563 Y82.123 E0.84138
G1 X102.867 Y81.667 E0.9103
G1 X103.134 Y81.58 E0.92431
G1 X104.457 Y81.176 E0.99333
G1 X104.732 Y81.098 E1.00759
G1 X106.068 Y80.749 E1.07648
G1 X106.325 Y80.687 E1.08967
G1 X107.677 Y80.388 E1.15875
G1 X107.948 Y80.334 E1.17254
G1 X109.308 Y80.089 E1.24148
G1 X109.593 Y80.044 E1.25587
G1 X110.898 Y79.863 E1.3216
G1 X111.225 Y79.822 E1.33805
G1 X112.603 Y79.685 E1.40713
G1 X112.887 Y79.663 E1.42134
G1 X114.124 Y79.591 E1.48316
G1 X114.546 Y79.57 E1.50424
G1 X115.9 Y79.546 E1.5718
G1 X116.32 Y79.546 E1.59276
G1 X117.572 Y79.57 E1.65523
G1 X117.854 Y79.581 E1.66931
G1 X119.233 Y79.663 E1.73823
G1 X119.505 Y79.685 E1.75185
G1 X120.882 Y79.821 E1.82088
G1 X121.31 Y79.876 E1.84241
G1 X122.519 Y80.043 E1.9033
G1 X122.801 Y80.088 E1.91755
G1 X124.163 Y80.333 E1.98659
G1 X124.428 Y80.385 E2.00006
G1 X125.778 Y80.682 E2.06902
G1 X126.051 Y80.748 E2.08303
G1 X127.388 Y81.099 E2.152
G1 X127.657 Y81.176 E2.16596
G1 X128.979 Y81.58 E2.23492
G1 X129.242 Y81.666 E2.24873
G1 X130.547 Y82.122 E2.3177
G1 X130.804 Y82.217 E2.33136
G1 X132.091 Y82.724 E2.40038
G1 X132.346 Y82.831 E2.41417
G1 X133.611 Y83.388 E2.48313
G1 X133.858 Y83.502 E2.4967
G1 X135.101 Y84.108 E2.56569
G1 X135.354 Y84.238 E2.57988
G1 X136.571 Y84.894 E2.64886
G1 X136.813 Y85.03 E2.66271
G1 X138.002 Y85.733 E2.73162
G1 X138.229 Y85.874 E2.74495
G1 X139.392 Y86.623 E2.81397
G1 X139.622 Y86.777 E2.82778
G1 X140.754 Y87.571 E2.89676
G1 X140.982 Y87.738 E2.91086
G1 X142.081 Y88.577 E2.97984
G1 X142.295 Y88.747 E2.99348
G1 X143.36 Y89.628 E3.06243
G1 X143.57 Y89.809 E3.07626
G1 X144.6 Y90.732 E3.14527
G1 X144.806 Y90.925 E3.15935
G1 X145.798 Y91.889 E3.22836
G1 X145.987 Y92.08 E3.24176
G1 X146.94 Y93.08 E3.31068
G1 X147.127 Y93.283 E3.32445
G1 X148.041 Y94.321 E3.39345
G1 X148.218 Y94.533 E3.40723
G1 X149.09 Y95.606 E3.47621
G1 X149.265 Y95.831 E3.49043
G1 X150.093 Y96.939 E3.55944
G1 X150.255 Y97.163 E3.57323
G1 X151.038 Y98.302 E3.64219
G1 X151.184 Y98.522 E3.65536
G1 X151.923 Y99.689 E3.72428
G1 X152.073 Y99.937 E3.73874
G1 X152.764 Y101.135 E3.80773
G1 X152.96 Y101.494 E3.82814
G1 X153.542 Y102.603 E3.89062
G1 X153.722 Y102.966 E3.91084
G1 X154.26 Y104.097 E3.97332
G1 X154.428 Y104.471 E3.99378
G1 X154.92 Y105.621 E4.05618
G1 X155.02 Y105.868 E4.06948
G1 X155.515 Y107.159 E4.13846
G1 X155.655 Y107.552 E4.15927
G1 X156.055 Y108.738 E4.22172
G1 X156.175 Y109.123 E4.24183
G1 X156.53 Y110.329 E4.30455
G1 X156.602 Y110.593 E4.31821
G1 X156.94 Y111.932 E4.38711
G1 X157.002 Y112.198 E4.40073
G1 X157.288 Y113.552 E4.46977
G1 X157.356 Y113.912 E4.48805
G1 X157.573 Y115.201 E4.55326
G1 X157.624 Y115.544 E4.57057
G1 X157.791 Y116.841 E4.63581
G1 X157.82 Y117.112 E4.6494
G1 X157.943 Y118.489 E4.71838
G1 X157.968 Y118.846 E4.73623
G1 X158.032 Y120.153 E4.80152
G1 X158.042 Y120.5 E4.81884
G1 X158.055 Y121.806 E4.88399
G1 X158.052 Y122.078 E4.89757
G1 X158.012 Y123.463 E4.96669
G1 X157.998 Y123.742 E4.98063
G1 X157.903 Y125.12 E5.04954
G1 X157.879 Y125.398 E5.06346
G1 X157.761 Y126.477 E5.11761
G1 X158.819 Y126.944 E5.17531
G1 X159.13 Y127.091 E5.19247
G1 X160.123 Y127.59 E5.24792
G1 X160.432 Y127.755 E5.26539
G1 X161.397 Y128.302 E5.32074
G1 X161.687 Y128.476 E5.33761
G1 X162.626 Y129.07 E5.39304
G1 X162.913 Y129.261 E5.41024
G1 X163.821 Y129.9 E5.46563
G1 X164.096 Y130.105 E5.48275
G1 X164.972 Y130.788 E5.53816
G1 X165.245 Y131.012 E5.55578
G1 X166.085 Y131.738 E5.61117
G1 X166.337 Y131.966 E5.62813
G1 X167.141 Y132.732 E5.68353
G1 X167.386 Y132.978 E5.70085
G1 X168.151 Y133.783 E5.75626
G1 X168.379 Y134.035 E5.77321
G1 X169.103 Y134.875 E5.82854
G1 X169.324 Y135.144 E5.8459
G1 X170.007 Y136.021 E5.90136
G1 X170.212 Y136.298 E5.91855
G1 X170.85 Y137.206 E5.97392
G1 X171.04 Y137.491 E5.99101
G1 X171.634 Y138.431 E6.04648
G1 X171.813 Y138.73 E6.06387
G1 X172.358 Y139.696 E6.1192
G1 X172.516 Y139.993 E6.13599
G1 X173.015 Y140.986 E6.19143
G1 X173.165 Y141.305 E6.20902
G1 X173.613 Y142.321 E6.26442
G1 X173.745 Y142.64 E6.28164
G1 X174.142 Y143.676 E6.33699
G1 X174.255 Y143.994 E6.35383
G1 X174.602 Y145.049 E6.40924
G1 X174.704 Y145.39 E6.42699
G1 X174.997 Y146.462 E6.48244
G1 X175.078 Y146.787 E6.49915
G1 X175.319 Y147.87 E6.5545
G1 X175.386 Y148.214 E6.57199
G1 X175.573 Y149.31 E6.62746
G1 X175.622 Y149.648 E6.64449
G1 X175.755 Y150.749 E6.69982
G1 X175.788 Y151.091 E6.71696
G1 X175.867 Y152.2 E6.77243
G1 X175.883 Y152.546 E6.78971
G1 X175.907 Y153.655 E6.84505
G1 X175.906 Y154.001 E6.86232
G1 X175.875 Y155.112 E6.91777
G1 X175.857 Y155.46 E6.93515
G1 X175.771 Y156.566 E6.9905
G1 X175.737 Y156.898 E7.00715
G1 X175.598 Y158.001 E7.06261
G1 X175.545 Y158.349 E7.08017
G1 X175.351 Y159.442 E7.13556
G1 X175.283 Y159.78 E7.15276
G1 X175.035 Y160.864 E7.20823
G1 X174.95 Y161.196 E7.22533
G1 X174.65 Y162.264 E7.28068
G1 X174.547 Y162.598 E7.29811
G1 X174.194 Y163.65 E7.35347
G1 X174.079 Y163.968 E7.37035
G1 X173.675 Y165.003 E7.42578
G1 X173.542 Y165.321 E7.44297
G1 X173.088 Y166.334 E7.49836
G1 X172.938 Y166.647 E7.51567
G1 X172.434 Y167.637 E7.57109
G1 X172.269 Y167.942 E7.5884
G1 X171.717 Y168.905 E7.64377
G1 X171.54 Y169.197 E7.66081
G1 X170.941 Y170.133 E7.71625
G1 X170.748 Y170.419 E7.73346
G1 X170.104 Y171.324 E7.78888
G1 X169.894 Y171.604 E7.80634
G1 X169.206 Y172.475 E7.86172
G1 X168.989 Y172.737 E7.87869
G1 X168.26 Y173.573 E7.93403
G1 X168.027 Y173.826 E7.95119
G1 X167.256 Y174.627 E8.00665
G1 X167.012 Y174.869 E8.0238
G1 X166.204 Y175.63 E8.07917
G1 X165.949 Y175.859 E8.09627
G1 X165.104 Y176.58 E8.15169
G1 X164.828 Y176.803 E8.16939
G1 X163.948 Y177.48 E8.22478
G1 X163.671 Y177.683 E8.24192
G1 X162.759 Y178.316 E8.2973
G1 X162.479 Y178.5 E8.31402
G1 X161.537 Y179.089 E8.36945
G1 X161.236 Y179.267 E8.38689
G1 X160.266 Y179.808 E8.4423
G1 X159.966 Y179.966 E8.45922
G1 X158.972 Y180.459 E8.51458
G1 X158.653 Y180.608 E8.53214
G1 X157.634 Y181.051 E8.58758
G1 X157.316 Y181.18 E8.6047
G1 X156.278 Y181.572 E8.66005
G1 X155.952 Y181.685 E8.67727
G1 X154.894 Y182.026 E8.73272
G1 X154.559 Y182.125 E8.75015
G1 X153.488 Y182.412 E8.80547
G1 X153.161 Y182.492 E8.82226
G1 X152.074 Y182.728 E8.87776
G1 X151.736 Y182.792 E8.89492
G1 X150.64 Y182.974 E8.95035
G1 X150.294 Y183.023 E8.96778
G1 X149.192 Y183.15 E9.02313
G1 X148.851 Y183.181 E9.04021
G1 X147.742 Y183.254 E9.09566
G1 X147.395 Y183.268 E9.11298
G1 X146.285 Y183.286 E9.16837
G1 X145.945 Y183.283 E9.18533
G1 X144.836 Y183.247 E9.24069
G1 X144.49 Y183.227 E9.25798
G1 X143.383 Y183.136 E9.31339
G1 X143.035 Y183.099 E9.33085
G1 X141.935 Y182.953 E9.38621
G1 X141.609 Y182.902 E9.40268
G1 X140.515 Y182.704 E9.45814
G1 X140.161 Y182.63 E9.47619
G1 X139.08 Y182.376 E9.53159
G1 X138.751 Y182.291 E9.54854
G1 X137.684 Y181.985 E9.60392
G1 X137.359 Y181.883 E9.62091
G1 X136.307 Y181.525 E9.67635
G1 X135.98 Y181.404 E9.69375
G1 X134.947 Y180.994 E9.74919
G1 X134.633 Y180.861 E9.76621
G1 X133.623 Y180.402 E9.82156
G1 X133.313 Y180.252 E9.83874
G1 X132.325 Y179.743 E9.89419
G1 X132.015 Y179.573 E9.91182
G1 X131.056 Y179.016 E9.96715
G1 X130.767 Y178.838 E9.98409
G1 X129.836 Y178.235 E10.03943
G1 X129.552 Y178.041 E10.05659
G1 X128.649 Y177.391 E10.11209
G1 X128.374 Y177.183 E10.1293
G1 X127.506 Y176.491 E10.18468
G1 X127.242 Y176.27 E10.20186
G1 X126.409 Y175.536 E10.25725
G1 X126.154 Y175.3 E10.27458
G1 X125.359 Y174.526 E10.32994
G1 X125.122 Y174.284 E10.34684
G1 X124.364 Y173.471 E10.40229
G1 X124.133 Y173.21 E10.41968
G1 X123.417 Y172.361 E10.47509
G1 X123.201 Y172.092 E10.4923
G1 X122.527 Y171.208 E10.54776
G1 X122.325 Y170.928 E10.56498
G1 X121.753 Y170.095 E10.6154
G1 X121.658 Y170.149 E10.62085
G1 X121.197 Y170.38 E10.64657
G1 X120.537 Y170.67 E10.68254
G1 X120.053 Y170.853 E10.70836
G1 X119.364 Y171.073 E10.74444
G1 X118.868 Y171.204 E10.77003
G1 X118.15 Y171.354 E10.80663
G1 X117.639 Y171.433 E10.83242
G1 X116.938 Y171.505 E10.86758
G1 X116.425 Y171.532 E10.89321
G1 X115.69 Y171.532 E10.92988
G1 X115.176 Y171.505 E10.95556
G1 X114.474 Y171.433 E10.99077
G1 X113.963 Y171.354 E11.01656
G1 X113.245 Y171.204 E11.05316
G1 X112.749 Y171.073 E11.07875
G1 X112.06 Y170.853 E11.11484
G1 X111.576 Y170.67 E11.14065
G1 X110.916 Y170.38 E11.17662
G1 X110.455 Y170.149 E11.20234
G1 X110.362 Y170.096 E11.20768
G1 X109.783 Y170.936 E11.25858
G1 X109.584 Y171.211 E11.27552
G1 X108.911 Y172.093 E11.33087
G1 X108.697 Y172.36 E11.34794
G1 X107.98 Y173.21 E11.40342
G1 X107.755 Y173.464 E11.42035
G1 X106.999 Y174.277 E11.47573
G1 X106.75 Y174.532 E11.49351
G1 X105.953 Y175.306 E11.54894
G1 X105.703 Y175.536 E11.56589
G1 X104.871 Y176.269 E11.62121
G1 X104.608 Y176.49 E11.63835
G1 X103.739 Y177.183 E11.6938
G1 X103.465 Y177.391 E11.71096
G1 X102.565 Y178.039 E11.76629
G1 X102.281 Y178.233 E11.78345
G1 X101.347 Y178.838 E11.83897
G1 X101.052 Y179.019 E11.85624
G1 X100.093 Y179.575 E11.91154
G1 X99.793 Y179.739 E11.9286
G1 X98.805 Y180.249 E11.98407
G1 X98.488 Y180.403 E12.00165
G1 X97.477 Y180.862 E12.05705
G1 X97.17 Y180.993 E12.0737
G1 X96.139 Y181.403 E12.12905
G1 X95.807 Y181.525 E12.1467
G1 X94.755 Y181.883 E12.20214
G1 X94.428 Y181.985 E12.21923
G1 X93.36 Y182.291 E12.27466
G1 X93.027 Y182.378 E12.29183
G1 X91.946 Y182.631 E12.34722
G1 X91.606 Y182.702 E12.36454
G1 X90.514 Y182.901 E12.41992
G1 X90.178 Y182.953 E12.43688
G1 X89.076 Y183.099 E12.49234
G1 X88.73 Y183.136 E12.5097
G1 X87.623 Y183.227 E12.56512
G1 X87.277 Y183.247 E12.58241
G1 X86.168 Y183.283 E12.63777
G1 X85.827 Y183.286 E12.65478
G1 X84.718 Y183.268 E12.71012
G1 X84.373 Y183.254 E12.72734
G1 X83.263 Y183.181 E12.78284
G1 X82.921 Y183.15 E12.79997
G1 X81.818 Y183.023 E12.85536
G1 X81.471 Y182.974 E12.87285
G1 X80.376 Y182.792 E12.92823
G1 X80.044 Y182.729 E12.94509
G1 X78.958 Y182.494 E13.00052
G1 X78.622 Y182.412 E13.01778
G1 X77.55 Y182.124 E13.07316
G1 X77.215 Y182.025 E13.09058
G1 X76.159 Y181.684 E13.14595
G1 X75.841 Y181.573 E13.16275
G1 X74.801 Y181.181 E13.2182
G1 X74.477 Y181.05 E13.23563
G1 X73.459 Y180.607 E13.29102
G1 X73.147 Y180.462 E13.30819
G1 X72.151 Y179.969 E13.36363
G1 X71.844 Y179.807 E13.38095
G1 X70.875 Y179.266 E13.43632
G1 X70.583 Y179.094 E13.45323
G1 X69.64 Y178.506 E13.50867
G1 X69.345 Y178.312 E13.52628
G1 X68.434 Y177.678 E13.58166
G1 X68.166 Y177.481 E13.59825
G1 X67.287 Y176.805 E13.65357
G1 X67.007 Y176.578 E13.67156
G1 X66.162 Y175.856 E13.72701
G1 X65.916 Y175.636 E13.74347
G1 X65.106 Y174.875 E13.79892
G1 X64.852 Y174.624 E13.81674
G1 X64.083 Y173.824 E13.8721
G1 X63.855 Y173.575 E13.88894
G1 X63.124 Y172.737 E13.94442
G1 X62.905 Y172.473 E13.96153
G1 X62.218 Y171.603 E14.01684
G1 X62.009 Y171.324 E14.03423
G1 X61.365 Y170.419 E14.08965
G1 X61.175 Y170.138 E14.10657
G1 X60.575 Y169.202 E14.16204
G1 X60.392 Y168.9 E14.17965
G1 X59.841 Y167.937 E14.23501
G1 X59.679 Y167.637 E14.25202
G1 X59.175 Y166.647 E14.30744
G1 X59.025 Y166.334 E14.32476
G1 X58.571 Y165.321 E14.38014
G1 X58.44 Y165.009 E14.39702
G1 X58.035 Y163.974 E14.45247
G1 X57.916 Y163.644 E14.46997
G1 X57.564 Y162.592 E14.52532
G1 X57.462 Y162.261 E14.5426
G1 X57.162 Y161.191 E14.59804
G1 X57.079 Y160.865 E14.61482
G1 X56.831 Y159.783 E14.6702
G1 X56.762 Y159.442 E14.68756
G1 X56.568 Y158.349 E14.74294
G1 X56.515 Y158.002 E14.76045
G1 X56.376 Y156.9 E14.81587
G1 X56.342 Y156.566 E14.83262
G1 X56.256 Y155.458 E14.88806
G1 X56.238 Y155.112 E14.90535
G1 X56.207 Y154.003 E14.9607
G1 X56.206 Y153.656 E14.97801
G1 X56.23 Y152.547 E15.03335
G1 X56.246 Y152.201 E15.05063
G1 X56.325 Y151.092 E15.1061
G1 X56.358 Y150.75 E15.12324
G1 X56.491 Y149.649 E15.17857
G1 X56.54 Y149.311 E15.19561
G1 X56.727 Y148.215 E15.25108
G1 X56.794 Y147.874 E15.26842
G1 X57.035 Y146.789 E15.32387
G1 X57.117 Y146.458 E15.34088
G1 X57.41 Y145.388 E15.39623
G1 X57.511 Y145.05 E15.41383
G1 X57.858 Y143.995 E15.46923
G1 X57.97 Y143.681 E15.48587
G1 X58.367 Y142.643 E15.54131
G1 X58.503 Y142.312 E15.55916
G1 X58.952 Y141.297 E15.61454
G1 X59.094 Y140.996 E15.63114
G1 X59.59 Y140.005 E15.68643
G1 X59.756 Y139.694 E15.70402
G1 X60.303 Y138.726 E15.75949
G1 X60.477 Y138.434 E15.77645
G1 X61.069 Y137.496 E15.83178
G1 X61.263 Y137.205 E15.84923
G1 X61.903 Y136.295 E15.90474
G1 X62.105 Y136.023 E15.92164
G1 X62.786 Y135.148 E15.97696
G1 X63.009 Y134.876 E15.9945
G1 X63.735 Y134.034 E16.04997
G1 X63.959 Y133.786 E16.06664
G1 X64.723 Y132.981 E16.12201
G1 X64.975 Y132.729 E16.13979
G1 X65.78 Y131.963 E16.19523
G1 X66.028 Y131.738 E16.21194
G1 X66.867 Y131.013 E16.26726
G1 X67.139 Y130.789 E16.28484
G1 X68.016 Y130.105 E16.34032
G1 X68.294 Y129.9 E16.35756
G1 X69.201 Y129.262 E16.41288
G1 X69.481 Y129.074 E16.42971
G1 X70.42 Y128.479 E16.48517
G1 X70.72 Y128.3 E16.5026
G1 X71.685 Y127.754 E16.55791
G1 X71.986 Y127.593 E16.57494
G1 X72.98 Y127.093 E16.63045
G1 X73.297 Y126.943 E16.64795
G1 X74.311 Y126.495 E16.70326
G1 X74.353 Y126.478 E16.70552
G1 X74.235 Y125.401 E16.75957
G1 X74.211 Y125.122 E16.77354
G1 X74.116 Y123.742 E16.84255
G1 X74.102 Y123.468 E16.85624
G1 X74.061 Y122.085 E16.92527
G1 X74.058 Y121.814 E16.93879
G1 X74.072 Y120.388 E17.00994
G1 X74.08 Y120.154 E17.02162
G1 X74.144 Y118.847 E17.0869
G1 X74.169 Y118.492 E17.10466
G1 X74.292 Y117.114 E17.17368
G1 X74.321 Y116.841 E17.18738
G1 X74.488 Y115.545 E17.25257
G1 X74.539 Y115.204 E17.26977
G1 X74.756 Y113.914 E17.33503
G1 X74.823 Y113.557 E17.35315
G1 X75.108 Y112.204 E17.42214
G1 X75.17 Y111.935 E17.43591
G1 X75.49 Y110.666 E17.5012
G1 X75.584 Y110.326 E17.5188
G1 X75.955 Y109.065 E17.58438
G1 X76.057 Y108.739 E17.60142
G1 X76.476 Y107.497 E17.66681
G1 X76.595 Y107.164 E17.68446
G1 X77.089 Y105.873 E17.75342
G1 X77.193 Y105.617 E17.76721
G1 X77.717 Y104.397 E17.83345
G1 X77.853 Y104.094 E17.85002
G1 X78.448 Y102.845 E17.91904
G1 X78.571 Y102.601 E17.93267
G1 X79.188 Y101.426 E17.99888
G1 X79.351 Y101.131 E18.0157
G1 X80.042 Y99.935 E18.08461
G1 X80.186 Y99.697 E18.09849
G1 X80.925 Y98.528 E18.16749
G1 X81.078 Y98.297 E18.18131
G1 X81.862 Y97.159 E18.25025
G1 X82.019 Y96.94 E18.2637
G1 X82.847 Y95.832 E18.33271
G1 X83.019 Y95.61 E18.34672
G1 X83.89 Y94.537 E18.41567
G1 X84.069 Y94.326 E18.42947
G1 X84.983 Y93.287 E18.49851
G1 X85.169 Y93.083 E18.51228
G1 X86.121 Y92.083 E18.58116
G1 X86.315 Y91.887 E18.59492
G1 X87.308 Y90.923 E18.66397
G0 F3600 X87.587 Y91.21
G1 F1500 X87.779 Y91.031 E18.67707
