;FLAVOR:Marlin
;TIME:6389
;Filament used: 6.33245m, 0m
;Layer height: 0.2
;MINX:51.474
;MINY:56.815
;MINZ:0.3
;MAXX:162.71
;MAXY:166.878
;MAXZ:3.9
;POSTPROCESSED
;Generated with Cura_SteamEngine 4.7.1
T0
M140 S60
M105
M190 S60
M104 S190
M105
M109 S190
M82 ;absolute extrusion mode
M201 X500.00 Y500.00 Z100.00 E5000.00 	;Setup machine max acceleration
M203 X500.00 Y500.00 Z10.00 E50.00 	;Setup machine max feedrate
M204 P500.00 R1000.00 T500.00 		;Setup Print/Retract/Travel acceleration
M205 X8.00 Y8.00 Z0.40 E5.00 		;Setup Jerk
M220 S100 				;Reset Feedrate
M221 S100 				;Reset Flowrate
G28				;Home the Machine
G29 				;Bed Level
G92 E0
M300 P150 S587
G92 E0
G1 F1500 E-6.5
;LAYER_COUNT:19
;LAYER:0
M107
G0 F3600 X85.918 Y70.42 Z0.3
;TYPE:SKIRT
G1 F1500 E0
G1 X86.017 Y70.305 E0.00757
G1 X86.969 Y69.24 E0.07884
G1 X87.172 Y69.024 E0.09363
G1 X88.124 Y68.046 E0.16172
G1 X88.277 Y67.895 E0.17244
G1 X89.215 Y67.005 E0.23695
G1 X89.433 Y66.808 E0.25161
G1 X90.47 Y65.905 E0.32021
G1 X90.63 Y65.772 E0.33059
G1 X91.7 Y64.914 E0.39902
G1 X91.865 Y64.789 E0.40935
G1 X92.905 Y64.02 E0.47388
G1 X93.142 Y63.853 E0.48834
G1 X94.214 Y63.127 E0.55293
G1 X94.457 Y62.97 E0.56737
G1 X95.556 Y62.289 E0.63187
G1 X95.805 Y62.142 E0.6463
G1 X96.931 Y61.506 E0.71081
G1 X97.189 Y61.368 E0.72541
G1 X98.428 Y60.736 E0.7948
G1 X98.602 Y60.654 E0.8044
G1 X99.849 Y60.08 E0.87289
G1 X100.041 Y59.997 E0.88332
G1 X101.298 Y59.479 E0.95115
G1 X101.508 Y59.398 E0.96238
G1 X102.79 Y58.931 E1.03045
G1 X102.996 Y58.861 E1.0413
G1 X104.278 Y58.452 E1.10844
G1 X104.506 Y58.384 E1.12031
G1 X105.833 Y58.02 E1.18896
G1 X106.033 Y57.97 E1.19924
G1 X107.357 Y57.664 E1.26704
G1 X107.577 Y57.618 E1.27825
G1 X108.905 Y57.368 E1.34567
G1 X109.134 Y57.329 E1.35726
G1 X110.414 Y57.141 E1.42181
G1 X110.702 Y57.105 E1.43629
G1 X112.046 Y56.964 E1.50371
G1 X112.272 Y56.945 E1.51502
G1 X113.641 Y56.857 E1.58346
G1 X113.857 Y56.848 E1.59425
G1 X115.181 Y56.817 E1.66032
G1 X115.315 Y56.815 E1.66701
G1 X116.727 Y56.837 E1.73746
G1 X117.021 Y56.848 E1.75214
G1 X118.311 Y56.923 E1.8166
G1 X118.595 Y56.946 E1.83082
G1 X119.882 Y57.072 E1.89534
G1 X120.169 Y57.108 E1.90977
G1 X121.546 Y57.301 E1.97914
G1 X121.739 Y57.333 E1.9889
G1 X123.01 Y57.564 E2.05335
G1 X123.294 Y57.623 E2.06782
G1 X124.647 Y57.927 E2.137
G1 X124.836 Y57.975 E2.14673
G1 X126.085 Y58.308 E2.21122
G1 X126.368 Y58.391 E2.22593
G1 X127.601 Y58.776 E2.29038
G1 X127.871 Y58.867 E2.30459
G1 X129.089 Y59.301 E2.3691
G1 X129.364 Y59.407 E2.3838
G1 X130.644 Y59.925 E2.45269
G1 X130.831 Y60.006 E2.46286
G1 X132.061 Y60.564 E2.53025
G1 X132.268 Y60.663 E2.54169
G1 X133.423 Y61.243 E2.60617
G1 X133.679 Y61.379 E2.62064
G1 X134.89 Y62.051 E2.68973
G1 X135.064 Y62.154 E2.69982
G1 X136.205 Y62.85 E2.7665
G1 X136.414 Y62.983 E2.77886
G1 X137.489 Y63.701 E2.84335
G1 X137.724 Y63.864 E2.85762
G1 X138.77 Y64.625 E2.92216
G1 X139.001 Y64.801 E2.93665
G1 X140.063 Y65.642 E3.00423
G1 X140.241 Y65.79 E3.01578
G1 X141.281 Y66.687 E3.0843
G1 X141.43 Y66.823 E3.09436
G1 X142.429 Y67.755 E3.16252
G1 X142.589 Y67.912 E3.17371
G1 X143.532 Y68.87 E3.24077
G1 X143.696 Y69.042 E3.25263
G1 X144.564 Y69.997 E3.31701
G1 X144.753 Y70.216 E3.33145
G1 X145.626 Y71.259 E3.3993
G1 X145.765 Y71.433 E3.41041
G1 X146.598 Y72.515 E3.47854
G1 X146.727 Y72.691 E3.48943
G1 X147.473 Y73.746 E3.55389
G1 X147.635 Y73.987 E3.56838
G1 X148.338 Y75.072 E3.63288
G1 X148.492 Y75.321 E3.64748
G1 X149.175 Y76.478 E3.71451
G1 X149.292 Y76.685 E3.72638
G1 X149.926 Y77.866 E3.79325
G1 X150.037 Y78.084 E3.80546
G1 X150.62 Y79.286 E3.87211
G1 X150.724 Y79.512 E3.88452
G1 X151.259 Y80.744 E3.95153
G1 X151.35 Y80.963 E3.96336
G1 X151.832 Y82.207 E4.02992
G1 X151.918 Y82.441 E4.04236
G1 X152.351 Y83.708 E4.10916
G1 X152.426 Y83.942 E4.12142
G1 X152.831 Y85.31 E4.19259
G1 X152.872 Y85.462 E4.20045
G1 X153.199 Y86.764 E4.26742
G1 X153.253 Y86.994 E4.27921
G1 X153.528 Y88.307 E4.34614
G1 X153.575 Y88.55 E4.35848
G1 X153.809 Y89.958 E4.42969
G1 X153.831 Y90.11 E4.43736
G1 X154.008 Y91.528 E4.50865
G1 X154.024 Y91.681 E4.51632
G1 X154.134 Y93.002 E4.58246
G1 X154.152 Y93.258 E4.59526
G1 X154.213 Y94.687 E4.66662
G1 X154.216 Y94.837 E4.6741
G1 X154.22 Y96.13 E4.73861
G1 X154.215 Y96.394 E4.75178
G1 X154.165 Y97.743 E4.81913
G1 X154.156 Y97.898 E4.82688
G1 X154.041 Y99.378 E4.90094
G1 X154.023 Y99.55 E4.90957
G1 X153.851 Y100.985 E4.98167
G1 X153.831 Y101.122 E4.98858
G1 X153.616 Y102.456 E5.05599
G1 X153.575 Y102.681 E5.0674
G1 X153.286 Y104.099 E5.1396
G1 X153.255 Y104.23 E5.14632
G1 X152.932 Y105.543 E5.21378
G1 X152.893 Y105.688 E5.22127
G1 X152.498 Y107.057 E5.29235
G1 X152.427 Y107.284 E5.30422
G1 X151.974 Y108.636 E5.37536
G1 X151.921 Y108.785 E5.38325
G1 X151.412 Y110.117 E5.45439
G1 X151.353 Y110.263 E5.46224
G1 X150.789 Y111.574 E5.53344
G1 X150.727 Y111.71 E5.5409
G1 X150.45 Y112.29 E5.57297
G1 X151.383 Y112.909 E5.62883
G1 X151.538 Y113.017 E5.63825
G1 X152.459 Y113.696 E5.69534
G1 X152.611 Y113.815 E5.70497
G1 X153.494 Y114.538 E5.76191
G1 X153.641 Y114.665 E5.7716
G1 X154.488 Y115.434 E5.82867
G1 X154.624 Y115.563 E5.83803
G1 X155.43 Y116.371 E5.89496
G1 X155.568 Y116.516 E5.90495
G1 X156.332 Y117.367 E5.96201
G1 X156.454 Y117.511 E5.97142
G1 X157.174 Y118.398 E6.02842
G1 X157.293 Y118.552 E6.03813
G1 X157.967 Y119.475 E6.09515
G1 X158.074 Y119.629 E6.1045
G1 X158.701 Y120.583 E6.16146
G1 X158.803 Y120.748 E6.17114
G1 X159.381 Y121.734 E6.22816
G1 X159.478 Y121.909 E6.23814
G1 X160.004 Y122.925 E6.29522
G1 X160.086 Y123.094 E6.30459
G1 X160.56 Y124.132 E6.36152
G1 X160.633 Y124.304 E6.37084
G1 X161.056 Y125.366 E6.42787
G1 X161.125 Y125.552 E6.43777
G1 X161.492 Y126.635 E6.49482
G1 X161.549 Y126.817 E6.50433
G1 X161.861 Y127.916 E6.56133
G1 X161.909 Y128.106 E6.57111
G1 X162.164 Y129.22 E6.62812
G1 X162.202 Y129.407 E6.63764
G1 X162.401 Y130.533 E6.69469
G1 X162.43 Y130.722 E6.70423
G1 X162.572 Y131.856 E6.76125
G1 X162.591 Y132.049 E6.77092
G1 X162.675 Y133.188 E6.8279
G1 X162.684 Y133.381 E6.83754
G1 X162.71 Y134.524 E6.89458
G1 X162.71 Y134.716 E6.90416
G1 X162.678 Y135.859 E6.96121
G1 X162.667 Y136.049 E6.9707
G1 X162.578 Y137.188 E7.0277
G1 X162.558 Y137.384 E7.03753
G1 X162.41 Y138.518 E7.09458
G1 X162.382 Y138.701 E7.10382
G1 X162.179 Y139.826 E7.16085
G1 X162.138 Y140.022 E7.17084
G1 X161.876 Y141.134 E7.22784
G1 X161.828 Y141.318 E7.23733
G1 X161.511 Y142.415 E7.29429
G1 X161.452 Y142.599 E7.30394
G1 X161.079 Y143.68 E7.36099
G1 X161.013 Y143.857 E7.37041
G1 X160.587 Y144.918 E7.42745
G1 X160.509 Y145.098 E7.43724
G1 X160.029 Y146.135 E7.49425
G1 X159.944 Y146.307 E7.50382
G1 X159.413 Y147.317 E7.56075
G1 X159.319 Y147.486 E7.5704
G1 X158.736 Y148.47 E7.62746
G1 X158.634 Y148.633 E7.63705
G1 X158.002 Y149.586 E7.6941
G1 X157.894 Y149.741 E7.70353
G1 X157.215 Y150.662 E7.76061
G1 X157.095 Y150.816 E7.77035
G1 X156.371 Y151.699 E7.82732
G1 X156.246 Y151.844 E7.83687
G1 X155.478 Y152.69 E7.89388
G1 X155.346 Y152.828 E7.9034
G1 X154.537 Y153.634 E7.96038
G1 X154.392 Y153.771 E7.97033
G1 X153.541 Y154.534 E8.02735
G1 X153.397 Y154.657 E8.0368
G1 X152.509 Y155.377 E8.09384
G1 X152.355 Y155.495 E8.10352
G1 X151.431 Y156.169 E8.16058
G1 X151.279 Y156.275 E8.16982
G1 X150.325 Y156.902 E8.22678
G1 X150.157 Y157.006 E8.23663
G1 X149.171 Y157.583 E8.29363
G1 X148.999 Y157.678 E8.30343
G1 X147.983 Y158.204 E8.36051
G1 X147.812 Y158.287 E8.36999
G1 X146.772 Y158.761 E8.42701
G1 X146.598 Y158.835 E8.43645
G1 X145.537 Y159.256 E8.4934
G1 X145.354 Y159.323 E8.50312
G1 X144.27 Y159.69 E8.56021
G1 X144.086 Y159.747 E8.56982
G1 X142.987 Y160.058 E8.62681
G1 X142.804 Y160.105 E8.63623
G1 X141.691 Y160.361 E8.69321
G1 X141.497 Y160.401 E8.70309
G1 X140.37 Y160.599 E8.76018
G1 X140.181 Y160.627 E8.76971
G1 X139.047 Y160.768 E8.82672
G1 X138.857 Y160.787 E8.83625
G1 X137.717 Y160.871 E8.89328
G1 X137.521 Y160.88 E8.90307
G1 X136.379 Y160.905 E8.96006
G1 X136.189 Y160.905 E8.96954
G1 X135.048 Y160.873 E9.02648
G1 X134.856 Y160.862 E9.03608
G1 X133.716 Y160.772 E9.09313
G1 X133.523 Y160.752 E9.10281
G1 X132.389 Y160.604 E9.15986
G1 X132.206 Y160.576 E9.1691
G1 X131.368 Y160.425 E9.21158
G1 X131.22 Y160.74 E9.22895
G1 X130.824 Y161.471 E9.27042
G1 X130.577 Y161.868 E9.29375
G1 X130.097 Y162.541 E9.33499
G1 X129.806 Y162.899 E9.35801
G1 X129.235 Y163.523 E9.40021
G1 X128.924 Y163.826 E9.42187
G1 X128.268 Y164.396 E9.46523
G1 X127.946 Y164.648 E9.48562
G1 X127.171 Y165.187 E9.53272
G1 X126.728 Y165.452 E9.55848
G1 X126.189 Y165.727 E9.58866
G1 X125.988 Y165.822 E9.59976
G1 X125.461 Y166.053 E9.62846
G1 X125.23 Y166.146 E9.64089
G1 X124.714 Y166.333 E9.66827
G1 X124.451 Y166.417 E9.68204
G1 X123.948 Y166.559 E9.70812
G1 X123.684 Y166.624 E9.72168
G1 X123.185 Y166.727 E9.7471
G1 X122.728 Y166.792 E9.77013
G1 X121.803 Y166.868 E9.81644
G1 X121.353 Y166.878 E9.83889
G1 X120.833 Y166.859 E9.86485
G1 X120.313 Y166.804 E9.89094
G1 X119.416 Y166.646 E9.93638
G1 X118.959 Y166.537 E9.95982
G1 X118.451 Y166.381 E9.98633
G1 X118.003 Y166.211 E10.01024
G1 X117.124 Y165.814 E10.05836
G1 X116.754 Y165.622 E10.07915
G1 X116.25 Y165.324 E10.10836
G1 X116.014 Y165.172 E10.12237
G1 X115.554 Y164.852 E10.15033
G1 X115.368 Y164.715 E10.16185
G1 X114.906 Y164.35 E10.19122
G1 X114.8 Y164.263 E10.19807
G1 X114.105 Y163.672 E10.24358
G1 X114.023 Y163.6 E10.24903
G1 X113.366 Y163.008 E10.29315
G1 X113.281 Y162.929 E10.29894
G1 X112.657 Y162.331 E10.34206
G1 X112.579 Y162.254 E10.34752
G1 X111.989 Y161.655 E10.38947
G1 X111.907 Y161.569 E10.3954
G1 X111.347 Y160.964 E10.43653
G1 X111.263 Y160.87 E10.44282
G1 X110.735 Y160.26 E10.48307
G1 X110.658 Y160.168 E10.48905
G1 X110.157 Y159.551 E10.5287
G1 X110.073 Y159.445 E10.53545
G1 X109.603 Y158.822 E10.57439
G1 X109.087 Y158.092 E10.61899
G1 X109.008 Y157.976 E10.62599
G1 X108.591 Y157.336 E10.6641
G1 X108.525 Y157.23 E10.67033
G1 X108.132 Y156.581 E10.70818
G1 X108.063 Y156.464 E10.71496
G1 X107.696 Y155.806 E10.75255
G1 X107.632 Y155.687 E10.75929
G1 X107.289 Y155.017 E10.79684
G1 X107.23 Y154.895 E10.8036
G1 X106.912 Y154.215 E10.84105
G1 X106.858 Y154.095 E10.84762
G1 X106.563 Y153.403 E10.88515
G1 X106.515 Y153.284 E10.89155
G1 X106.241 Y152.576 E10.92942
G1 X106.195 Y152.45 E10.93612
G1 X105.945 Y151.729 E10.97419
G1 X105.906 Y151.61 E10.98043
G1 X105.678 Y150.875 E11.01883
G1 X105.642 Y150.752 E11.02522
G1 X105.436 Y149.999 E11.06417
G1 X105.406 Y149.881 E11.07024
G1 X105.196 Y149 E11.11543
G1 X105.033 Y148.214 E11.15548
G1 X105.011 Y148.095 E11.16151
G1 X104.852 Y147.18 E11.20785
G1 X104.732 Y146.353 E11.24954
G1 X104.718 Y146.243 E11.25507
G1 X104.62 Y145.395 E11.29766
G1 X104.609 Y145.289 E11.30298
G1 X104.533 Y144.417 E11.34665
G1 X104.471 Y143.424 E11.39628
G1 X104.466 Y143.323 E11.40133
G1 X104.443 Y142.674 E11.43373
G1 X103.844 Y142.621 E11.46373
G1 X103.237 Y142.515 E11.49447
G1 X102.637 Y142.359 E11.5254
G1 X102.059 Y142.157 E11.55595
G1 X101.481 Y141.899 E11.58752
G1 X101.405 Y141.857 E11.59186
G1 X101.059 Y142.411 E11.62444
G1 X100.509 Y143.243 E11.6742
G1 X99.95 Y144.042 E11.72285
G1 X99.892 Y144.123 E11.72782
G1 X99.383 Y144.81 E11.77048
G1 X99.317 Y144.897 E11.77593
G1 X98.801 Y145.553 E11.81757
G1 X98.727 Y145.644 E11.82342
G1 X98.201 Y146.272 E11.86429
G1 X98.124 Y146.361 E11.87016
G1 X97.589 Y146.961 E11.91026
G1 X97.513 Y147.044 E11.91588
G1 X96.969 Y147.619 E11.95537
G1 X96.879 Y147.711 E11.96179
G1 X96.325 Y148.258 E12.00063
G1 X96.237 Y148.342 E12.0067
G1 X95.671 Y148.866 E12.04518
G1 X95.572 Y148.955 E12.05182
G1 X94.995 Y149.453 E12.08985
G1 X94.9 Y149.532 E12.09601
G1 X94.311 Y150.008 E12.1338
G1 X94.203 Y150.092 E12.14062
G1 X93.599 Y150.545 E12.17829
G1 X93.492 Y150.624 E12.18492
G1 X92.876 Y151.053 E12.22238
G1 X92.767 Y151.126 E12.22892
G1 X92.136 Y151.534 E12.26641
G1 X92.021 Y151.605 E12.27315
G1 X91.373 Y151.992 E12.31081
G1 X91.261 Y152.057 E12.31727
G1 X90.598 Y152.423 E12.35505
G1 X90.475 Y152.488 E12.36199
G1 X89.792 Y152.833 E12.40017
G1 X89.673 Y152.89 E12.40675
G1 X88.972 Y153.214 E12.44528
G1 X88.858 Y153.265 E12.45151
G1 X88.139 Y153.569 E12.49045
G1 X88.018 Y153.618 E12.49697
G1 X87.329 Y153.882 E12.53378
G1 X87.161 Y153.945 E12.54273
G1 X86.398 Y154.209 E12.58301
G1 X86.283 Y154.247 E12.58905
G1 X85.495 Y154.492 E12.63022
G1 X85.374 Y154.527 E12.63651
G1 X84.563 Y154.75 E12.67847
G1 X84.456 Y154.778 E12.68399
G1 X83.619 Y154.982 E12.72697
G1 X83.512 Y155.006 E12.73244
G1 X82.645 Y155.191 E12.77667
G1 X82.54 Y155.212 E12.78201
G1 X81.644 Y155.377 E12.82746
G1 X81.503 Y155.4 E12.83459
G1 X80.919 Y155.485 E12.86403
G1 X80.684 Y155.512 E12.87583
G1 X80.125 Y155.558 E12.90382
G1 X79.87 Y155.571 E12.91656
G1 X79.336 Y155.579 E12.9432
G1 X79.058 Y155.573 E12.95707
G1 X78.544 Y155.543 E12.98276
G1 X78.107 Y155.492 E13.00471
G1 X77.18 Y155.329 E13.05167
G1 X76.73 Y155.221 E13.07476
G1 X76.228 Y155.068 E13.10094
G1 X75.752 Y154.887 E13.12634
G1 X74.932 Y154.511 E13.17135
G1 X74.505 Y154.281 E13.19555
G1 X74.053 Y153.999 E13.22213
G1 X73.661 Y153.719 E13.24616
G1 X72.927 Y153.12 E13.29343
G1 X72.625 Y152.845 E13.3138
G1 X72.256 Y152.471 E13.34001
G1 X72.064 Y152.261 E13.35421
G1 X71.676 Y151.804 E13.38412
G1 X71.509 Y151.593 E13.39754
G1 X71.17 Y151.131 E13.42613
G1 X71.046 Y150.952 E13.437
G1 X70.717 Y150.445 E13.46715
G1 X70.473 Y150.008 E13.49212
G1 X70.103 Y149.23 E13.5351
G1 X69.957 Y148.877 E13.55416
G1 X69.664 Y148.057 E13.5976
G1 X69.54 Y147.634 E13.61959
G1 X69.35 Y146.812 E13.66168
G1 X69.274 Y146.368 E13.68416
G1 X69.184 Y145.542 E13.72561
G1 X69.162 Y145.084 E13.74849
G1 X69.172 Y144.258 E13.7897
G1 X69.21 Y143.768 E13.81422
G1 X68.419 Y143.486 E13.85612
G1 X68.232 Y143.414 E13.86611
G1 X67.177 Y142.974 E13.92314
G1 X67.003 Y142.897 E13.93263
G1 X65.972 Y142.405 E13.98963
G1 X65.801 Y142.318 E13.9992
G1 X64.795 Y141.774 E14.05626
G1 X64.633 Y141.68 E14.0656
G1 X63.655 Y141.087 E14.12266
G1 X63.488 Y140.98 E14.13256
G1 X62.544 Y140.338 E14.18951
G1 X62.39 Y140.228 E14.19896
G1 X61.477 Y139.538 E14.25605
G1 X61.324 Y139.416 E14.26581
G1 X60.451 Y138.683 E14.32268
G1 X60.31 Y138.558 E14.33208
G1 X59.472 Y137.78 E14.38913
G1 X59.332 Y137.644 E14.39887
G1 X58.535 Y136.824 E14.45592
G1 X58.404 Y136.682 E14.46556
G1 X57.65 Y135.823 E14.52258
G1 X57.528 Y135.676 E14.53211
G1 X56.818 Y134.78 E14.58915
G1 X56.702 Y134.627 E14.59873
G1 X56.038 Y133.696 E14.65578
G1 X55.928 Y133.532 E14.66563
G1 X55.314 Y132.569 E14.72261
G1 X55.217 Y132.409 E14.73194
G1 X54.65 Y131.415 E14.78903
G1 X54.558 Y131.243 E14.79877
G1 X54.044 Y130.224 E14.85571
G1 X53.962 Y130.05 E14.8653
G1 X53.5 Y129.005 E14.92231
G1 X53.427 Y128.83 E14.93177
G1 X53.017 Y127.762 E14.98884
G1 X52.951 Y127.575 E14.99873
G1 X52.598 Y126.489 E15.0557
G1 X52.544 Y126.306 E15.06522
G1 X52.246 Y125.204 E15.12218
G1 X52.201 Y125.02 E15.13163
G1 X51.958 Y123.903 E15.18866
G1 X51.922 Y123.713 E15.19831
G1 X51.736 Y122.585 E15.25534
G1 X51.709 Y122.392 E15.26506
G1 X51.581 Y121.256 E15.3221
G1 X51.564 Y121.064 E15.33171
G1 X51.494 Y119.924 E15.3887
G1 X51.487 Y119.734 E15.39818
G1 X51.474 Y118.592 E15.45516
G1 X51.477 Y118.399 E15.46479
G1 X51.522 Y117.257 E15.52181
G1 X51.534 Y117.064 E15.53146
G1 X51.637 Y115.926 E15.58846
G1 X51.66 Y115.734 E15.59811
G1 X51.821 Y114.602 E15.65516
G1 X51.852 Y114.416 E15.66456
G1 X52.069 Y113.293 E15.72163
G1 X52.112 Y113.099 E15.73154
G1 X52.387 Y111.99 E15.78854
G1 X52.437 Y111.807 E15.79801
G1 X52.767 Y110.714 E15.85497
G1 X52.826 Y110.536 E15.86432
G1 X53.21 Y109.459 E15.92137
G1 X53.283 Y109.269 E15.93152
G1 X53.724 Y108.214 E15.98857
G1 X53.8 Y108.043 E15.99791
