;FLAVOR:Marlin
;TIME:5776
;Filament used: 5.65024m, 0m
;Layer height: 0.2
;MINX:66.108
;MINY:83.37
;MINZ:0.3
;MAXX:179.41
;MAXY:180.712
;MAXZ:3.9
;POSTPROCESSED
;Generated with Cura_SteamEngine 4.7.1
T0
M140 S60
M105
M190 S60
M104 S190
M105
M109 S190
M82 ;absolute extrusion mode
M201 X500.00 Y500.00 Z100.00 E5000.00 	;Setup machine max acceleration
M203 X500.00 Y500.00 Z10.00 E50.00 	;Setup machine max feedrate
M204 P500.00 R1000.00 T500.00 		;Setup Print/Retract/Travel acceleration
M205 X8.00 Y8.00 Z0.40 E5.00 		;Setup Jerk
M220 S100 				;Reset Feedrate
M221 S100 				;Reset Flowrate
G28				;Home the Machine
G29 				;Bed Level
G92 E0
M300 P150 S587
G92 E0
G1 F1500 E-6.5
;LAYER_COUNT:19
;LAYER:0
M107
G0 F3600 X75.793 Y89.309 Z0.3
;TYPE:SKIRT
G1 F1500 E0
G1 X75.936 Y89.193 E0.00919
G1 X76.817 Y88.514 E0.06468
G1 X76.969 Y88.403 E0.07407
G1 X77.88 Y87.77 E0.12941
G1 X78.034 Y87.668 E0.13863
G1 X78.975 Y87.08 E0.19399
G1 X79.139 Y86.983 E0.20349
G1 X80.11 Y86.442 E0.25895
G1 X80.274 Y86.356 E0.26819
G1 X81.268 Y85.864 E0.32352
G1 X81.439 Y85.785 E0.33292
G1 X82.458 Y85.342 E0.38835
G1 X82.627 Y85.273 E0.39746
G1 X83.665 Y84.88 E0.45283
G1 X83.845 Y84.817 E0.46235
G1 X84.903 Y84.476 E0.51781
G1 X85.085 Y84.423 E0.52726
G1 X86.156 Y84.136 E0.58258
G1 X86.333 Y84.093 E0.59167
G1 X87.419 Y83.857 E0.64711
G1 X87.607 Y83.821 E0.65666
G1 X88.703 Y83.64 E0.71208
G1 X88.884 Y83.614 E0.72121
G1 X89.988 Y83.486 E0.77665
G1 X90.176 Y83.469 E0.78607
G1 X91.283 Y83.396 E0.84142
G1 X91.471 Y83.388 E0.85081
G1 X92.582 Y83.37 E0.90624
G1 X92.771 Y83.372 E0.91567
G1 X93.88 Y83.409 E0.97103
G1 X94.065 Y83.42 E0.98028
G1 X95.171 Y83.511 E1.03564
G1 X95.355 Y83.531 E1.04488
G1 X96.456 Y83.676 E1.10028
G1 X96.644 Y83.705 E1.10977
G1 X97.737 Y83.905 E1.16521
G1 X97.921 Y83.943 E1.17458
G1 X99.004 Y84.197 E1.23008
G1 X99.181 Y84.244 E1.23921
G1 X100.247 Y84.549 E1.29453
G1 X100.428 Y84.605 E1.30398
G1 X101.478 Y84.963 E1.35933
G1 X101.652 Y85.027 E1.36858
G1 X102.687 Y85.437 E1.42412
G1 X102.86 Y85.511 E1.43351
G1 X103.869 Y85.97 E1.48881
G1 X104.036 Y86.051 E1.49807
G1 X105.022 Y86.559 E1.55341
G1 X105.189 Y86.65 E1.56289
G1 X106.151 Y87.208 E1.61838
G1 X106.307 Y87.304 E1.62752
G1 X107.238 Y87.906 E1.68283
G1 X107.395 Y88.013 E1.69231
G1 X108.298 Y88.663 E1.74782
G1 X108.446 Y88.775 E1.75708
G1 X109.313 Y89.466 E1.81239
G1 X109.457 Y89.587 E1.82177
G1 X110.291 Y90.322 E1.87723
G1 X110.432 Y90.452 E1.8868
G1 X111.227 Y91.227 E1.94219
G1 X111.352 Y91.355 E1.95112
G1 X112.11 Y92.167 E2.00654
G1 X112.237 Y92.31 E2.01608
G1 X112.953 Y93.159 E2.07149
G1 X113.07 Y93.305 E2.08082
G1 X113.744 Y94.189 E2.13628
G1 X113.852 Y94.339 E2.1455
G1 X114.481 Y95.253 E2.20086
G1 X114.585 Y95.411 E2.21029
G1 X115.167 Y96.354 E2.26558
G1 X115.26 Y96.516 E2.2749
G1 X115.797 Y97.49 E2.33039
G1 X115.882 Y97.654 E2.3396
G1 X116.122 Y98.144 E2.36682
G1 X116.436 Y97.798 E2.39013
G1 X116.805 Y97.439 E2.41582
G1 X117.096 Y97.184 E2.43512
G1 X117.5 Y96.864 E2.46083
G1 X117.818 Y96.638 E2.4803
G1 X118.253 Y96.361 E2.50603
G1 X118.595 Y96.167 E2.52564
G1 X119.055 Y95.937 E2.5513
G1 X119.41 Y95.782 E2.57063
G1 X119.894 Y95.599 E2.59644
G1 X120.263 Y95.48 E2.61578
G1 X120.76 Y95.348 E2.64144
G1 X121.154 Y95.266 E2.66152
G1 X121.665 Y95.187 E2.68731
G1 X122.054 Y95.147 E2.70682
G1 X122.567 Y95.121 E2.73245
G1 X122.951 Y95.121 E2.75161
G1 X123.465 Y95.147 E2.77728
G1 X123.854 Y95.187 E2.79679
G1 X124.365 Y95.266 E2.82259
G1 X124.761 Y95.349 E2.84278
G1 X125.257 Y95.481 E2.86838
G1 X125.624 Y95.599 E2.88762
G1 X126.108 Y95.782 E2.91343
G1 X126.46 Y95.936 E2.9326
G1 X126.919 Y96.165 E2.95819
G1 X127.266 Y96.361 E2.97807
G1 X127.702 Y96.639 E3.00387
G1 X128.018 Y96.864 E3.02323
G1 X128.422 Y97.184 E3.04894
G1 X128.713 Y97.439 E3.06824
G1 X129.081 Y97.797 E3.09386
G1 X129.397 Y98.144 E3.11727
G1 X129.636 Y97.655 E3.14442
G1 X129.72 Y97.494 E3.15348
G1 X130.256 Y96.52 E3.20895
G1 X130.352 Y96.356 E3.21843
G1 X130.936 Y95.41 E3.27389
G1 X131.039 Y95.249 E3.28343
G1 X131.668 Y94.336 E3.33874
G1 X131.776 Y94.187 E3.34792
G1 X132.449 Y93.305 E3.40327
G1 X132.565 Y93.16 E3.41254
G1 X133.282 Y92.31 E3.46802
G1 X133.404 Y92.172 E3.47721
G1 X134.159 Y91.36 E3.53252
G1 X134.291 Y91.225 E3.54194
G1 X135.087 Y90.45 E3.59737
G1 X135.229 Y90.319 E3.60701
G1 X136.064 Y89.585 E3.66247
G1 X136.204 Y89.468 E3.67158
G1 X137.072 Y88.776 E3.72696
G1 X137.22 Y88.664 E3.73622
G1 X138.121 Y88.015 E3.79162
G1 X138.276 Y87.909 E3.80099
G1 X139.207 Y87.306 E3.85632
G1 X139.369 Y87.206 E3.86582
G1 X140.331 Y86.649 E3.92128
G1 X140.492 Y86.561 E3.93044
G1 X141.478 Y86.052 E3.98579
G1 X141.649 Y85.97 E3.99526
G1 X142.661 Y85.51 E4.05072
G1 X142.832 Y85.437 E4.05999
G1 X143.863 Y85.028 E4.11533
G1 X144.04 Y84.963 E4.12474
G1 X145.092 Y84.605 E4.18018
G1 X145.269 Y84.549 E4.18944
G1 X146.337 Y84.243 E4.24486
G1 X146.518 Y84.196 E4.25419
G1 X147.599 Y83.943 E4.30958
G1 X147.78 Y83.905 E4.31881
G1 X148.871 Y83.705 E4.37415
G1 X149.06 Y83.675 E4.38369
G1 X150.162 Y83.53 E4.43915
G1 X150.347 Y83.511 E4.44843
G1 X151.455 Y83.42 E4.50389
G1 X151.639 Y83.409 E4.51309
G1 X152.748 Y83.372 E4.56845
G1 X152.937 Y83.37 E4.57788
G1 X154.047 Y83.388 E4.63326
G1 X154.235 Y83.396 E4.64265
G1 X155.342 Y83.469 E4.698
G1 X155.53 Y83.486 E4.70741
G1 X156.634 Y83.614 E4.76286
G1 X156.816 Y83.64 E4.77203
G1 X157.911 Y83.821 E4.82741
G1 X158.095 Y83.856 E4.83675
G1 X159.181 Y84.091 E4.89218
G1 X159.364 Y84.136 E4.90159
G1 X160.438 Y84.425 E4.95707
G1 X160.616 Y84.477 E4.96633
G1 X161.672 Y84.817 E5.02167
G1 X161.851 Y84.88 E5.03114
G1 X162.89 Y85.273 E5.08656
G1 X163.062 Y85.343 E5.09583
G1 X164.08 Y85.786 E5.15121
G1 X164.247 Y85.863 E5.16039
G1 X165.241 Y86.354 E5.2157
G1 X165.41 Y86.443 E5.22523
G1 X166.381 Y86.985 E5.28071
G1 X166.54 Y87.078 E5.2899
G1 X167.483 Y87.666 E5.34534
G1 X167.644 Y87.773 E5.35499
G1 X168.554 Y88.407 E5.41032
G1 X168.701 Y88.514 E5.41939
G1 X169.58 Y89.191 E5.47474
G1 X169.726 Y89.31 E5.48414
G1 X170.572 Y90.031 E5.53959
G1 X170.709 Y90.153 E5.54875
G1 X171.518 Y90.913 E5.60412
G1 X171.655 Y91.05 E5.61379
G1 X172.425 Y91.851 E5.66922
G1 X172.55 Y91.987 E5.67844
G1 X173.279 Y92.823 E5.73378
G1 X173.398 Y92.966 E5.74306
G1 X174.087 Y93.839 E5.79854
G1 X174.201 Y93.99 E5.80798
G1 X174.844 Y94.894 E5.86333
G1 X174.948 Y95.049 E5.87264
G1 X175.547 Y95.985 E5.92808
G1 X175.644 Y96.145 E5.93742
G1 X176.196 Y97.109 E5.99284
G1 X176.284 Y97.272 E6.00208
G1 X176.788 Y98.261 E6.05746
G1 X176.869 Y98.431 E6.06685
G1 X177.323 Y99.443 E6.12219
G1 X177.395 Y99.614 E6.13145
G1 X177.8 Y100.65 E6.18694
G1 X177.863 Y100.823 E6.19613
G1 X178.217 Y101.876 E6.25155
G1 X178.275 Y102.063 E6.26132
G1 X178.574 Y103.132 E6.3167
G1 X178.619 Y103.31 E6.32586
G1 X178.866 Y104.391 E6.38118
G1 X178.903 Y104.573 E6.39044
G1 X179.097 Y105.667 E6.44588
G1 X179.125 Y105.852 E6.45521
G1 X179.265 Y106.953 E6.51058
G1 X179.284 Y107.141 E6.52001
G1 X179.369 Y108.249 E6.57545
G1 X179.379 Y108.434 E6.58469
G1 X179.41 Y109.543 E6.64004
G1 X179.41 Y109.731 E6.64942
G1 X179.386 Y110.843 E6.70491
G1 X179.378 Y111.028 E6.71415
G1 X179.3 Y112.134 E6.76947
G1 X179.282 Y112.322 E6.77889
G1 X179.149 Y113.426 E6.83437
G1 X179.122 Y113.612 E6.84374
G1 X178.935 Y114.705 E6.89907
G1 X178.899 Y114.888 E6.90837
G1 X178.658 Y115.973 E6.96382
G1 X178.612 Y116.157 E6.97328
G1 X178.317 Y117.229 E7.02875
G1 X178.264 Y117.403 E7.03783
G1 X177.919 Y118.457 E7.09316
G1 X177.856 Y118.635 E7.10258
G1 X177.458 Y119.673 E7.15804
G1 X177.386 Y119.847 E7.16743
G1 X176.938 Y120.862 E7.22279
G1 X176.859 Y121.03 E7.23205
G1 X176.362 Y122.022 E7.2874
G1 X176.273 Y122.189 E7.29684
G1 X175.726 Y123.157 E7.35232
G1 X175.633 Y123.314 E7.36142
G1 X175.042 Y124.252 E7.41673
G1 X174.934 Y124.414 E7.42644
G1 X174.294 Y125.323 E7.48191
G1 X174.186 Y125.469 E7.49097
G1 X173.505 Y126.344 E7.54628
G1 X173.385 Y126.49 E7.55571
G1 X172.659 Y127.333 E7.61122
G1 X172.536 Y127.469 E7.62037
G1 X171.772 Y128.274 E7.67574
G1 X171.635 Y128.411 E7.6854
G1 X170.83 Y129.177 E7.74084
G1 X170.692 Y129.302 E7.75013
G1 X169.852 Y130.026 E7.80546
G1 X169.71 Y130.143 E7.81463
G1 X168.834 Y130.827 E7.87008
G1 X168.684 Y130.938 E7.87939
G1 X167.777 Y131.577 E7.93475
G1 X167.622 Y131.681 E7.94406
G1 X166.683 Y132.276 E7.99952
G1 X166.52 Y132.374 E8.00901
G1 X165.553 Y132.921 E8.06443
G1 X165.391 Y133.007 E8.07358
G1 X164.4 Y133.506 E8.12894
G1 X164.227 Y133.588 E8.13849
G1 X163.211 Y134.037 E8.19391
G1 X163.041 Y134.107 E8.20308
G1 X162.005 Y134.506 E8.25847
G1 X161.825 Y134.57 E8.268
G1 X160.907 Y134.872 E8.31621
G1 X161.001 Y135.365 E8.34125
G1 X161.026 Y135.513 E8.34874
G1 X161.23 Y136.881 E8.41774
G1 X161.25 Y137.029 E8.4252
G1 X161.4 Y138.404 E8.4942
G1 X161.413 Y138.555 E8.50176
G1 X161.508 Y139.935 E8.57077
G1 X161.515 Y140.083 E8.57817
G1 X161.556 Y141.466 E8.64719
G1 X161.558 Y141.614 E8.65458
G1 X161.545 Y142.986 E8.72303
G1 X161.539 Y143.148 E8.73112
G1 X161.472 Y144.521 E8.7997
G1 X161.46 Y144.681 E8.80771
G1 X161.337 Y146.059 E8.87673
G1 X161.321 Y146.206 E8.8841
G1 X161.145 Y147.569 E8.95267
G1 X161.121 Y147.727 E8.96064
G1 X160.903 Y149.016 E9.02586
G1 X160.86 Y149.24 E9.03724
G1 X160.575 Y150.593 E9.10623
G1 X160.542 Y150.736 E9.11355
G1 X160.204 Y152.079 E9.18264
G1 X160.163 Y152.228 E9.19035
G1 X159.8 Y153.462 E9.25452
G1 X159.727 Y153.696 E9.26675
G1 X159.316 Y154.913 E9.33084
G1 X159.232 Y155.15 E9.34338
G1 X158.738 Y156.441 E9.41234
G1 X158.68 Y156.583 E9.42
G1 X158.171 Y157.768 E9.48434
G1 X158.073 Y157.986 E9.49626
G1 X157.479 Y159.234 E9.56522
G1 X157.412 Y159.368 E9.57269
G1 X156.811 Y160.512 E9.63717
G1 X156.694 Y160.726 E9.64933
G1 X156.002 Y161.923 E9.71831
G1 X155.925 Y162.05 E9.72572
G1 X155.187 Y163.219 E9.79469
G1 X155.103 Y163.346 E9.80229
G1 X154.319 Y164.484 E9.87124
G1 X154.233 Y164.604 E9.8786
G1 X153.405 Y165.711 E9.94757
G1 X153.313 Y165.829 E9.95503
G1 X152.442 Y166.903 E10.02402
G1 X152.343 Y167.02 E10.03167
G1 X151.429 Y168.058 E10.10067
G1 X151.329 Y168.167 E10.10805
G1 X150.376 Y169.168 E10.177
G1 X150.269 Y169.276 E10.18459
G1 X149.276 Y170.239 E10.2536
G1 X149.168 Y170.34 E10.26098
G1 X148.139 Y171.263 E10.32994
G1 X148.024 Y171.362 E10.33751
G1 X146.959 Y172.243 E10.40647
G1 X146.842 Y172.336 E10.41392
G1 X145.742 Y173.175 E10.48294
G1 X145.622 Y173.263 E10.49037
G1 X144.491 Y174.058 E10.55934
G1 X144.366 Y174.142 E10.56685
G1 X143.205 Y174.891 E10.63578
G1 X143.077 Y174.97 E10.64329
G1 X141.886 Y175.673 E10.71228
G1 X141.755 Y175.747 E10.71979
G1 X140.538 Y176.402 E10.78874
G1 X140.402 Y176.472 E10.79637
G1 X139.159 Y177.078 E10.86536
G1 X139.025 Y177.14 E10.87273
G1 X137.76 Y177.697 E10.94169
G1 X137.624 Y177.754 E10.94905
G1 X136.337 Y178.262 E11.01808
G1 X136.19 Y178.316 E11.02589
G1 X135.04 Y178.716 E11.08663
G1 X134.748 Y178.816 E11.10203
G1 X133.426 Y179.22 E11.171
G1 X133.277 Y179.262 E11.17872
G1 X131.94 Y179.612 E11.24767
G1 X131.799 Y179.646 E11.25491
G1 X130.448 Y179.945 E11.32394
G1 X130.295 Y179.976 E11.33173
G1 X128.967 Y180.214 E11.39904
G1 X128.789 Y180.243 E11.40804
G1 X127.451 Y180.429 E11.47543
G1 X127.267 Y180.452 E11.48468
G1 X125.924 Y180.584 E11.55201
G1 X125.742 Y180.6 E11.56112
G1 X124.404 Y180.679 E11.62799
G1 X124.215 Y180.687 E11.63743
G1 X122.904 Y180.712 E11.70285
G1 X122.554 Y180.712 E11.72031
G1 X121.302 Y180.687 E11.78279
G1 X121.155 Y180.681 E11.79013
G1 X119.775 Y180.6 E11.85909
G1 X119.497 Y180.575 E11.87302
G1 X118.252 Y180.453 E11.93543
G1 X118.099 Y180.435 E11.94311
G1 X116.728 Y180.244 E12.01217
G1 X115.224 Y179.977 E12.08838
G1 X115.071 Y179.947 E12.09616
G1 X113.722 Y179.649 E12.16509
G1 X113.575 Y179.613 E12.17264
G1 X112.237 Y179.261 E12.24166
G1 X112.096 Y179.221 E12.24897
G1 X110.774 Y178.818 E12.31792
G1 X110.479 Y178.717 E12.33348
G1 X109.329 Y178.317 E12.39423
G1 X109.183 Y178.263 E12.40199
G1 X107.897 Y177.756 E12.47096
G1 X107.757 Y177.698 E12.47852
G1 X106.49 Y177.139 E12.54761
G1 X106.359 Y177.078 E12.55482
G1 X105.118 Y176.473 E12.6237
G1 X104.842 Y176.327 E12.63927
G1 X103.768 Y175.75 E12.7001
G1 X103.631 Y175.673 E12.70794
G1 X102.442 Y174.97 E12.77685
G1 X102.318 Y174.893 E12.78413
G1 X101.157 Y174.145 E12.85304
G1 X101.029 Y174.059 E12.86073
G1 X99.897 Y173.263 E12.92977
G1 X99.778 Y173.176 E12.93712
G1 X98.678 Y172.337 E13.00614
G1 X98.561 Y172.244 E13.0136
G1 X97.496 Y171.363 E13.08256
G1 X97.382 Y171.265 E13.09006
G1 X96.352 Y170.342 E13.15906
G1 X96.241 Y170.239 E13.16661
G1 X95.249 Y169.276 E13.23559
G1 X95.145 Y169.171 E13.24296
G1 X94.191 Y168.17 E13.31195
G1 X94.089 Y168.058 E13.31951
G1 X93.176 Y167.02 E13.38848
G1 X93.079 Y166.905 E13.39598
G1 X92.207 Y165.831 E13.465
G1 X92.115 Y165.713 E13.47247
G1 X91.287 Y164.607 E13.54139
G1 X91.198 Y164.483 E13.54901
G1 X90.414 Y163.343 E13.61804
G1 X90.333 Y163.221 E13.62534
G1 X89.595 Y162.054 E13.69423
G1 X89.515 Y161.92 E13.70201
G1 X88.771 Y160.627 E13.77644
G1 X88.69 Y160.476 E13.78499
G1 X88.108 Y159.368 E13.84743
G1 X88.042 Y159.237 E13.85475
G1 X87.447 Y157.99 E13.92368
G1 X87.385 Y157.853 E13.93118
G1 X86.84 Y156.583 E14.00013
G1 X86.785 Y156.447 E14.00745
G1 X86.289 Y155.156 E14.07645
G1 X86.192 Y154.883 E14.0909
G1 X85.792 Y153.697 E14.15334
G1 X85.709 Y153.43 E14.16729
G1 X85.354 Y152.222 E14.23011
G1 X85.315 Y152.078 E14.23755
G1 X84.978 Y150.739 E14.30644
G1 X84.945 Y150.597 E14.31371
G1 X84.659 Y149.243 E14.38275
G1 X84.616 Y149.014 E14.39438
G1 X84.387 Y147.653 E14.46323
G1 X84.366 Y147.508 E14.47054
G1 X84.198 Y146.21 E14.53584
G1 X84.182 Y146.06 E14.54337
G1 X84.059 Y144.683 E14.61234
G1 X84.043 Y144.451 E14.62394
G1 X83.977 Y143.065 E14.69317
G1 X83.974 Y142.929 E14.69995
G1 X83.96 Y141.622 E14.76516
G1 X83.962 Y141.468 E14.77285
G1 X84.003 Y140.084 E14.84193
G1 X84.01 Y139.936 E14.84932
G1 X84.105 Y138.557 E14.91828
G1 X84.118 Y138.406 E14.92584
G1 X84.268 Y137.031 E14.99485
G1 X84.287 Y136.885 E15.00219
G1 X84.49 Y135.517 E15.07119
G1 X84.516 Y135.367 E15.07879
G1 X84.61 Y134.871 E15.10397
G1 X83.693 Y134.569 E15.15214
G1 X83.516 Y134.507 E15.16149
G1 X82.479 Y134.108 E15.21693
G1 X82.306 Y134.036 E15.22628
G1 X81.289 Y133.586 E15.28176
G1 X81.121 Y133.506 E15.29104
G1 X80.13 Y133.008 E15.34638
G1 X79.962 Y132.919 E15.35586
G1 X78.995 Y132.371 E15.41131
G1 X78.838 Y132.277 E15.42044
G1 X77.9 Y131.684 E15.47581
G1 X77.742 Y131.578 E15.4853
G1 X76.834 Y130.938 E15.54072
G1 X76.685 Y130.827 E15.54999
G1 X75.81 Y130.144 E15.60537
G1 X75.667 Y130.027 E15.61459
G1 X74.826 Y129.302 E15.66998
G1 X74.684 Y129.174 E15.67952
G1 X73.881 Y128.408 E15.73489
G1 X73.753 Y128.279 E15.74395
G1 X72.986 Y127.474 E15.79943
G1 X72.854 Y127.329 E15.80921
G1 X72.131 Y126.487 E15.86458
G1 X72.018 Y126.348 E15.87352
G1 X71.334 Y125.471 E15.929
G1 X71.22 Y125.318 E15.93852
G1 X70.583 Y124.411 E15.99382
G1 X70.482 Y124.258 E16.00296
G1 X69.888 Y123.319 E16.0584
G1 X69.789 Y123.154 E16.068
G1 X69.244 Y122.187 E16.12338
G1 X69.158 Y122.026 E16.13248
G1 X68.659 Y121.032 E16.18797
G1 X68.577 Y120.859 E16.19752
G1 X68.13 Y119.844 E16.25285
G1 X68.061 Y119.675 E16.26196
G1 X67.663 Y118.639 E16.31733
G1 X67.599 Y118.459 E16.32686
G1 X67.253 Y117.403 E16.3823
G1 X67.199 Y117.224 E16.39163
G1 X66.906 Y116.154 E16.44698
G1 X66.861 Y115.974 E16.45623
G1 X66.62 Y114.889 E16.51168
G1 X66.584 Y114.705 E16.52104
G1 X66.397 Y113.61 E16.57646
G1 X66.37 Y113.425 E16.58579
G1 X66.237 Y112.323 E16.64116
G1 X66.22 Y112.139 E16.65038
G1 X66.141 Y111.033 E16.7057
G1 X66.132 Y110.844 E16.71514
G1 X66.108 Y109.732 E16.77063
G1 X66.108 Y109.544 E16.78001
G1 X66.139 Y108.435 E16.83536
G1 X66.149 Y108.25 E16.84461
