;FLAVOR:Marlin
;TIME:5980
;Filament used: 5.46398m, 0m
;Layer height: 0.2
;MINX:46.493
;MINY:70.412
;MINZ:0.3
;MAXX:166.194
;MAXY:174.152
;MAXZ:3.9
;POSTPROCESSED
;Generated with Cura_SteamEngine 4.7.1
T0
M140 S60
M105
M190 S60
M104 S190
M105
M109 S190
M82 ;absolute extrusion mode
M201 X500.00 Y500.00 Z100.00 E5000.00 	;Setup machine max acceleration
M203 X500.00 Y500.00 Z10.00 E50.00 	;Setup machine max feedrate
M204 P500.00 R1000.00 T500.00 		;Setup Print/Retract/Travel acceleration
M205 X8.00 Y8.00 Z0.40 E5.00 		;Setup Jerk
M220 S100 				;Reset Feedrate
M221 S100 				;Reset Flowrate
G28				;Home the Machine
G29 				;Bed Level
G92 E0
M300 P150 S587
G92 E0
G1 F1500 E-6.5
;LAYER_COUNT:19
;LAYER:0
M107
G0 F3600 X77.595 Y81.79 Z0.3
;TYPE:SKIRT
G1 F1500 E0
G1 X77.799 Y81.6 E0.01391
G1 X78.829 Y80.677 E0.08291
G1 X79.039 Y80.496 E0.09674
G1 X80.104 Y79.615 E0.1657
G1 X80.318 Y79.446 E0.1793
G1 X81.418 Y78.606 E0.24835
G1 X81.644 Y78.44 E0.26234
G1 X82.775 Y77.646 E0.33128
G1 X83.002 Y77.493 E0.34494
G1 X84.163 Y76.744 E0.41387
G1 X84.4 Y76.598 E0.42776
G1 X85.591 Y75.895 E0.49676
G1 X85.828 Y75.761 E0.51034
G1 X87.045 Y75.105 E0.57932
G1 X87.298 Y74.975 E0.59351
G1 X88.541 Y74.369 E0.6625
G1 X88.791 Y74.253 E0.67625
G1 X90.055 Y73.697 E0.74514
G1 X90.305 Y73.593 E0.75865
G1 X91.593 Y73.085 E0.82772
G1 X91.85 Y72.989 E0.84141
G1 X93.154 Y72.533 E0.91033
G1 X93.421 Y72.446 E0.92434
G1 X94.744 Y72.042 E0.99336
G1 X95.019 Y71.964 E1.00762
G1 X96.355 Y71.615 E1.07651
G1 X96.612 Y71.553 E1.0897
G1 X97.964 Y71.254 E1.15878
G1 X98.235 Y71.2 E1.17256
G1 X99.595 Y70.955 E1.24151
G1 X99.88 Y70.91 E1.2559
G1 X101.185 Y70.729 E1.32163
G1 X101.512 Y70.688 E1.33807
G1 X102.89 Y70.551 E1.40716
G1 X103.174 Y70.529 E1.42137
G1 X104.411 Y70.457 E1.48319
G1 X104.833 Y70.436 E1.50427
G1 X106.187 Y70.412 E1.57183
G1 X106.607 Y70.412 E1.59279
G1 X107.859 Y70.436 E1.65526
G1 X108.141 Y70.447 E1.66934
G1 X109.52 Y70.529 E1.73826
G1 X109.792 Y70.551 E1.75187
G1 X111.169 Y70.687 E1.82091
G1 X111.597 Y70.742 E1.84244
G1 X112.806 Y70.909 E1.90333
G1 X113.088 Y70.954 E1.91757
G1 X114.45 Y71.199 E1.98661
G1 X114.715 Y71.251 E2.00009
G1 X116.065 Y71.548 E2.06905
G1 X116.338 Y71.614 E2.08306
G1 X117.675 Y71.965 E2.15203
G1 X117.944 Y72.042 E2.16598
G1 X119.266 Y72.446 E2.23495
G1 X119.529 Y72.532 E2.24876
G1 X120.834 Y72.988 E2.31772
G1 X121.091 Y73.083 E2.33139
G1 X122.378 Y73.59 E2.4004
G1 X122.633 Y73.697 E2.4142
G1 X123.898 Y74.254 E2.48316
G1 X124.145 Y74.368 E2.49673
G1 X125.388 Y74.974 E2.56572
G1 X125.641 Y75.104 E2.57991
G1 X126.858 Y75.76 E2.64889
G1 X127.1 Y75.896 E2.66274
G1 X128.289 Y76.599 E2.73165
G1 X128.516 Y76.74 E2.74498
G1 X129.679 Y77.489 E2.814
G1 X129.912 Y77.646 E2.82801
G1 X131.044 Y78.441 E2.89702
G1 X131.269 Y78.605 E2.91091
G1 X132.368 Y79.444 E2.9799
G1 X132.582 Y79.614 E2.99353
G1 X133.647 Y80.495 E3.06249
G1 X133.857 Y80.676 E3.07632
G1 X134.887 Y81.599 E3.14532
G1 X135.091 Y81.789 E3.15923
G1 X136.083 Y82.752 E3.2282
G1 X136.274 Y82.946 E3.24179
G1 X137.227 Y83.946 E3.3107
G1 X137.414 Y84.149 E3.32447
G1 X138.328 Y85.187 E3.39347
G1 X138.505 Y85.399 E3.40725
G1 X139.377 Y86.472 E3.47623
G1 X139.552 Y86.697 E3.49045
G1 X140.38 Y87.805 E3.55946
G1 X140.542 Y88.029 E3.57325
G1 X141.325 Y89.168 E3.64221
G1 X141.471 Y89.388 E3.65538
G1 X142.21 Y90.555 E3.7243
G1 X142.361 Y90.805 E3.73887
G1 X143.052 Y92.004 E3.80791
G1 X143.246 Y92.359 E3.82809
G1 X143.828 Y93.467 E3.89053
G1 X144.009 Y93.832 E3.91086
G1 X144.547 Y94.963 E3.97334
G1 X144.715 Y95.337 E3.9938
G1 X145.207 Y96.487 E4.0562
G1 X145.307 Y96.734 E4.0695
G1 X145.802 Y98.025 E4.13848
G1 X145.942 Y98.418 E4.15929
G1 X146.342 Y99.604 E4.22174
G1 X146.462 Y99.989 E4.24185
G1 X146.817 Y101.195 E4.30457
G1 X146.889 Y101.459 E4.31823
G1 X147.227 Y102.798 E4.38713
G1 X147.289 Y103.064 E4.40075
G1 X147.575 Y104.418 E4.46979
G1 X147.643 Y104.778 E4.48807
G1 X147.86 Y106.067 E4.55328
G1 X147.911 Y106.41 E4.57059
G1 X148.078 Y107.707 E4.63583
G1 X148.107 Y107.979 E4.64947
G1 X148.23 Y109.357 E4.7185
G1 X148.255 Y109.712 E4.73625
G1 X148.319 Y111.018 E4.80149
G1 X148.329 Y111.366 E4.81885
G1 X148.342 Y112.672 E4.88401
G1 X148.339 Y112.944 E4.89759
G1 X148.299 Y114.329 E4.96671
G1 X148.285 Y114.608 E4.98065
G1 X148.19 Y115.986 E5.04956
G1 X148.166 Y116.264 E5.06348
G1 X148.048 Y117.344 E5.11768
G1 X148.093 Y117.362 E5.1201
G1 X149.107 Y117.811 E5.17543
G1 X149.414 Y117.956 E5.19237
G1 X150.408 Y118.455 E5.24786
G1 X150.716 Y118.62 E5.26529
G1 X151.682 Y119.167 E5.32067
G1 X151.976 Y119.343 E5.33777
G1 X152.913 Y119.936 E5.39309
G1 X153.2 Y120.127 E5.41029
G1 X154.109 Y120.767 E5.46575
G1 X154.383 Y120.971 E5.4828
G1 X155.259 Y121.654 E5.53821
G1 X155.532 Y121.878 E5.55583
G1 X156.372 Y122.604 E5.61122
G1 X156.624 Y122.832 E5.62818
G1 X157.428 Y123.598 E5.68358
G1 X157.673 Y123.844 E5.7009
G1 X158.438 Y124.649 E5.7563
G1 X158.666 Y124.901 E5.77326
G1 X159.39 Y125.741 E5.82858
G1 X159.611 Y126.01 E5.84595
G1 X160.294 Y126.887 E5.90141
G1 X160.499 Y127.164 E5.9186
G1 X161.137 Y128.072 E5.97397
G1 X161.327 Y128.357 E5.99106
G1 X161.921 Y129.297 E6.04653
G1 X162.1 Y129.596 E6.06392
G1 X162.645 Y130.562 E6.11925
G1 X162.803 Y130.859 E6.13604
G1 X163.302 Y131.852 E6.19148
G1 X163.452 Y132.171 E6.20907
G1 X163.9 Y133.187 E6.26446
G1 X164.032 Y133.506 E6.28169
G1 X164.429 Y134.542 E6.33704
G1 X164.542 Y134.86 E6.35388
G1 X164.889 Y135.915 E6.40928
G1 X164.991 Y136.256 E6.42704
G1 X165.284 Y137.328 E6.48249
G1 X165.365 Y137.653 E6.4992
G1 X165.606 Y138.736 E6.55455
G1 X165.673 Y139.08 E6.57203
G1 X165.86 Y140.176 E6.6275
G1 X165.909 Y140.514 E6.64454
G1 X166.042 Y141.615 E6.69987
G1 X166.075 Y141.957 E6.71701
G1 X166.154 Y143.066 E6.77248
G1 X166.17 Y143.412 E6.78976
G1 X166.194 Y144.521 E6.8451
G1 X166.193 Y144.867 E6.86237
G1 X166.162 Y145.978 E6.91781
G1 X166.144 Y146.325 E6.93515
G1 X166.058 Y147.432 E6.99054
G1 X166.024 Y147.766 E7.00729
G1 X165.885 Y148.868 E7.06271
G1 X165.834 Y149.208 E7.07986
G1 X165.641 Y150.302 E7.13528
G1 X165.569 Y150.656 E7.15331
G1 X165.32 Y151.738 E7.2087
G1 X165.237 Y152.061 E7.22534
G1 X164.937 Y153.129 E7.28068
G1 X164.836 Y153.459 E7.2979
G1 X164.483 Y154.513 E7.35335
G1 X164.366 Y154.835 E7.37045
G1 X163.962 Y155.87 E7.42588
G1 X163.829 Y156.188 E7.44307
G1 X163.375 Y157.201 E7.49846
G1 X163.224 Y157.516 E7.51588
G1 X162.72 Y158.505 E7.57126
G1 X162.556 Y158.808 E7.58845
G1 X162.004 Y159.771 E7.64383
G1 X161.827 Y160.063 E7.66087
G1 X161.228 Y160.999 E7.71631
G1 X161.035 Y161.285 E7.73352
G1 X160.391 Y162.19 E7.78894
G1 X160.181 Y162.47 E7.8064
G1 X159.493 Y163.341 E7.86177
G1 X159.276 Y163.603 E7.87874
G1 X158.547 Y164.439 E7.93408
G1 X158.314 Y164.692 E7.95124
G1 X157.543 Y165.493 E8.00671
G1 X157.299 Y165.735 E8.02385
G1 X156.491 Y166.496 E8.07923
G1 X156.232 Y166.728 E8.09658
G1 X155.386 Y167.449 E8.15203
G1 X155.122 Y167.663 E8.16899
G1 X154.242 Y168.342 E8.22444
G1 X153.956 Y168.551 E8.24211
G1 X153.045 Y169.183 E8.29743
G1 X152.764 Y169.368 E8.31421
G1 X151.823 Y169.956 E8.36957
G1 X151.521 Y170.135 E8.38709
G1 X150.55 Y170.676 E8.44254
G1 X150.253 Y170.832 E8.45928
G1 X149.259 Y171.325 E8.51463
G1 X148.94 Y171.474 E8.5322
G1 X147.921 Y171.917 E8.58763
G1 X147.603 Y172.046 E8.60476
G1 X146.565 Y172.438 E8.66011
G1 X146.239 Y172.551 E8.67733
G1 X145.181 Y172.892 E8.73278
G1 X144.846 Y172.991 E8.75021
G1 X143.775 Y173.278 E8.80553
G1 X143.454 Y173.356 E8.82201
G1 X142.367 Y173.593 E8.87751
G1 X142.018 Y173.66 E8.89524
G1 X140.923 Y173.841 E8.95061
G1 X140.581 Y173.889 E8.96784
G1 X139.477 Y174.016 E9.02329
G1 X139.137 Y174.047 E9.04032
G1 X138.029 Y174.12 E9.09572
G1 X137.682 Y174.134 E9.11304
G1 X136.572 Y174.152 E9.16843
G1 X136.232 Y174.149 E9.18539
G1 X135.122 Y174.113 E9.2408
G1 X134.774 Y174.093 E9.25819
G1 X133.669 Y174.002 E9.3135
G1 X133.325 Y173.965 E9.33077
G1 X132.223 Y173.819 E9.38623
G1 X131.895 Y173.768 E9.40279
G1 X130.801 Y173.57 E9.45825
G1 X130.445 Y173.496 E9.47639
G1 X129.365 Y173.242 E9.53174
G1 X129.038 Y173.157 E9.5486
G1 X127.971 Y172.851 E9.60398
G1 X127.646 Y172.749 E9.62097
G1 X126.594 Y172.391 E9.67641
G1 X126.264 Y172.269 E9.69397
G1 X125.232 Y171.859 E9.74937
G1 X124.92 Y171.727 E9.76627
G1 X123.908 Y171.267 E9.82173
G1 X123.599 Y171.117 E9.83887
G1 X122.613 Y170.609 E9.8942
G1 X122.306 Y170.441 E9.91166
G1 X121.346 Y169.884 E9.96704
G1 X121.057 Y169.706 E9.98397
G1 X120.125 Y169.103 E10.03935
G1 X119.839 Y168.908 E10.05662
G1 X118.937 Y168.259 E10.11206
G1 X118.658 Y168.047 E10.12954
G1 X117.79 Y167.354 E10.18495
G1 X117.529 Y167.136 E10.20192
G1 X116.695 Y166.401 E10.25738
G1 X116.443 Y166.168 E10.2745
G1 X115.648 Y165.395 E10.32982
G1 X115.408 Y165.15 E10.34693
G1 X114.65 Y164.337 E10.40239
G1 X114.416 Y164.072 E10.42003
G1 X113.701 Y163.223 E10.4754
G1 X113.488 Y162.958 E10.49237
G1 X112.814 Y162.074 E10.54783
G1 X112.612 Y161.794 E10.56505
G1 X112.04 Y160.961 E10.61546
G1 X111.945 Y161.015 E10.62092
G1 X111.484 Y161.246 E10.64664
G1 X110.824 Y161.536 E10.68261
G1 X110.34 Y161.719 E10.70842
G1 X109.651 Y161.939 E10.74451
G1 X109.155 Y162.07 E10.7701
G1 X108.451 Y162.218 E10.80599
G1 X107.94 Y162.298 E10.8318
G1 X107.211 Y162.373 E10.86836
G1 X106.698 Y162.399 E10.89398
G1 X105.99 Y162.399 E10.92931
G1 X105.476 Y162.373 E10.95498
G1 X104.747 Y162.298 E10.99154
G1 X104.236 Y162.218 E11.01735
G1 X103.532 Y162.07 E11.05324
G1 X103.036 Y161.939 E11.07883
G1 X102.347 Y161.719 E11.11492
G1 X101.863 Y161.536 E11.14073
G1 X101.203 Y161.246 E11.1767
G1 X100.742 Y161.015 E11.20242
G1 X100.649 Y160.962 E11.20776
G1 X100.066 Y161.807 E11.25898
G1 X99.873 Y162.073 E11.27538
G1 X99.201 Y162.955 E11.3307
G1 X98.984 Y163.226 E11.34802
G1 X98.267 Y164.076 E11.4035
G1 X98.042 Y164.33 E11.42043
G1 X97.286 Y165.143 E11.47581
G1 X97.037 Y165.398 E11.49359
G1 X96.24 Y166.172 E11.54902
G1 X95.99 Y166.402 E11.56597
G1 X95.158 Y167.135 E11.62129
G1 X94.899 Y167.353 E11.63818
G1 X94.03 Y168.047 E11.69366
G1 X93.749 Y168.26 E11.71125
G1 X92.848 Y168.908 E11.76662
G1 X92.568 Y169.099 E11.78353
G1 X91.636 Y169.703 E11.83894
G1 X91.339 Y169.885 E11.85632
G1 X90.378 Y170.442 E11.91174
G1 X90.079 Y170.606 E11.92875
G1 X89.093 Y171.115 E11.98411
G1 X88.773 Y171.27 E12.00185
G1 X87.761 Y171.729 E12.05729
G1 X87.457 Y171.859 E12.07378
G1 X86.426 Y172.269 E12.12914
G1 X86.094 Y172.391 E12.14678
G1 X85.042 Y172.749 E12.20222
G1 X84.715 Y172.851 E12.21931
G1 X83.647 Y173.157 E12.27474
G1 X83.314 Y173.244 E12.29191
G1 X82.233 Y173.497 E12.3473
G1 X81.893 Y173.568 E12.36463
G1 X80.801 Y173.767 E12.42001
G1 X80.465 Y173.819 E12.43697
G1 X79.363 Y173.965 E12.49243
G1 X79.017 Y174.002 E12.50979
G1 X77.91 Y174.093 E12.5652
G1 X77.564 Y174.113 E12.58249
G1 X76.455 Y174.149 E12.63785
G1 X76.114 Y174.152 E12.65486
G1 X75.005 Y174.134 E12.7102
G1 X74.66 Y174.12 E12.72743
G1 X73.55 Y174.047 E12.78292
G1 X73.208 Y174.016 E12.80006
G1 X72.106 Y173.889 E12.8554
G1 X71.766 Y173.841 E12.87253
G1 X70.67 Y173.66 E12.92795
G1 X70.325 Y173.594 E12.94547
G1 X69.239 Y173.358 E13.00092
G1 X68.905 Y173.277 E13.01807
G1 X67.832 Y172.988 E13.07351
G1 X67.507 Y172.892 E13.09041
G1 X66.451 Y172.552 E13.14576
G1 X66.127 Y172.439 E13.16288
G1 X65.087 Y172.047 E13.21833
G1 X64.761 Y171.915 E13.23588
G1 X63.744 Y171.472 E13.29122
G1 X63.434 Y171.328 E13.30827
G1 X62.438 Y170.835 E13.36372
G1 X62.131 Y170.673 E13.38103
G1 X61.162 Y170.132 E13.4364
G1 X60.87 Y169.96 E13.45331
G1 X59.927 Y169.372 E13.50875
G1 X59.637 Y169.181 E13.52608
G1 X58.726 Y168.548 E13.58142
G1 X58.445 Y168.342 E13.5988
G1 X57.566 Y167.664 E13.65419
G1 X57.294 Y167.443 E13.67167
G1 X56.45 Y166.722 E13.72705
G1 X56.207 Y166.505 E13.74331
G1 X55.397 Y165.745 E13.79872
G1 X55.141 Y165.491 E13.81671
G1 X54.371 Y164.69 E13.87214
G1 X54.142 Y164.441 E13.88902
G1 X53.411 Y163.603 E13.9445
G1 X53.192 Y163.339 E13.96161
G1 X52.505 Y162.469 E14.01692
G1 X52.296 Y162.19 E14.03431
G1 X51.652 Y161.285 E14.08973
G1 X51.462 Y161.004 E14.10665
G1 X50.862 Y160.068 E14.16212
G1 X50.679 Y159.766 E14.17973
G1 X50.128 Y158.803 E14.23509
G1 X49.968 Y158.508 E14.25183
G1 X49.463 Y157.518 E14.30728
G1 X49.309 Y157.195 E14.32513
G1 X48.856 Y156.182 E14.38049
G1 X48.727 Y155.874 E14.39715
G1 X48.323 Y154.841 E14.45249
G1 X48.204 Y154.514 E14.46985
G1 X47.851 Y153.46 E14.5253
G1 X47.749 Y153.127 E14.54268
G1 X47.449 Y152.057 E14.59812
G1 X47.366 Y151.732 E14.61485
G1 X47.118 Y150.651 E14.67019
G1 X47.049 Y150.308 E14.68764
G1 X46.855 Y149.214 E14.74307
G1 X46.802 Y148.869 E14.76049
G1 X46.663 Y147.768 E14.81585
G1 X46.629 Y147.432 E14.8327
G1 X46.543 Y146.323 E14.8882
G1 X46.525 Y145.978 E14.90543
G1 X46.494 Y144.869 E14.96078
G1 X46.493 Y144.522 E14.97809
G1 X46.517 Y143.413 E15.03343
G1 X46.533 Y143.067 E15.05071
G1 X46.612 Y141.958 E15.10618
G1 X46.645 Y141.616 E15.12332
G1 X46.778 Y140.515 E15.17865
G1 X46.827 Y140.177 E15.19569
G1 X47.014 Y139.081 E15.25116
G1 X47.081 Y138.74 E15.2685
G1 X47.322 Y137.655 E15.32395
G1 X47.404 Y137.324 E15.34096
G1 X47.697 Y136.254 E15.39631
G1 X47.798 Y135.916 E15.41391
G1 X48.145 Y134.861 E15.46932
G1 X48.257 Y134.547 E15.48595
G1 X48.654 Y133.509 E15.5414
G1 X48.79 Y133.178 E15.55925
G1 X49.239 Y132.163 E15.61462
G1 X49.381 Y131.862 E15.63122
G1 X49.877 Y130.871 E15.68651
G1 X50.043 Y130.56 E15.7041
G1 X50.59 Y129.592 E15.75957
G1 X50.764 Y129.3 E15.77653
G1 X51.356 Y128.362 E15.83187
G1 X51.55 Y128.071 E15.84932
G1 X52.19 Y127.161 E15.90482
G1 X52.392 Y126.889 E15.92172
G1 X53.073 Y126.014 E15.97704
G1 X53.296 Y125.742 E15.99459
G1 X54.022 Y124.9 E16.05005
G1 X54.246 Y124.652 E16.06673
G1 X55.01 Y123.847 E16.1221
G1 X55.262 Y123.595 E16.13988
G1 X56.067 Y122.829 E16.19531
G1 X56.315 Y122.604 E16.21202
G1 X57.154 Y121.879 E16.26734
G1 X57.426 Y121.655 E16.28492
G1 X58.303 Y120.971 E16.34041
G1 X58.581 Y120.766 E16.35764
G1 X59.488 Y120.128 E16.41297
G1 X59.768 Y119.94 E16.42979
G1 X60.707 Y119.345 E16.48525
G1 X61.007 Y119.166 E16.50268
G1 X61.972 Y118.62 E16.558
G1 X62.273 Y118.459 E16.57503
G1 X63.267 Y117.959 E16.63054
G1 X63.584 Y117.809 E16.64803
G1 X64.598 Y117.361 E16.70334
G1 X64.64 Y117.344 E16.7056
G1 X64.522 Y116.267 E16.75965
G1 X64.498 Y115.988 E16.77362
G1 X64.403 Y114.608 E16.84264
G1 X64.389 Y114.334 E16.85632
G1 X64.348 Y112.951 E16.92535
G1 X64.345 Y112.68 E16.93887
G1 X64.359 Y111.254 E17.01002
G1 X64.367 Y111.019 E17.02175
G1 X64.431 Y109.713 E17.08699
G1 X64.456 Y109.359 E17.10469
G1 X64.579 Y107.98 E17.17376
G1 X64.608 Y107.707 E17.18746
G1 X64.775 Y106.411 E17.25265
G1 X64.826 Y106.07 E17.26985
G1 X65.043 Y104.78 E17.33512
G1 X65.11 Y104.423 E17.35324
G1 X65.395 Y103.07 E17.42222
G1 X65.457 Y102.801 E17.43599
G1 X65.777 Y101.532 E17.50129
G1 X65.871 Y101.192 E17.51888
G1 X66.242 Y99.931 E17.58446
G1 X66.344 Y99.605 E17.6015
G1 X66.763 Y98.363 E17.6669
G1 X66.882 Y98.03 E17.68454
G1 X67.376 Y96.739 E17.7535
G1 X67.48 Y96.483 E17.76729
G1 X68.004 Y95.263 E17.83353
G1 X68.14 Y94.96 E17.8501
G1 X68.735 Y93.711 E17.91912
G1 X68.859 Y93.465 E17.93287
G1 X69.475 Y92.293 E17.99892
G1 X69.637 Y92 E18.01563
G1 X70.328 Y90.803 E18.08458
G1 X70.473 Y90.563 E18.09857
G1 X71.212 Y89.394 E18.16757
G1 X71.365 Y89.163 E18.18139
G1 X72.149 Y88.025 E18.25034
G1 X72.306 Y87.806 E18.26378
G1 X73.134 Y86.698 E18.33279
G1 X73.304 Y86.479 E18.34662
G1 X74.174 Y85.406 E18.41554
G1 X74.358 Y85.189 E18.42973
G1 X75.273 Y84.15 E18.4988
G1 X75.459 Y83.947 E18.51254
G1 X76.412 Y82.947 E18.58146
G1 X76.603 Y82.753 E18.59504
G1 X77.595 Y81.79 E18.66401
G0 F3600 X77.874 Y82.077
G1 F1500 X78.066 Y81.898 E18.67711
G1 X79.096 Y80.975 E18.74611
