;FLAVOR:Marlin
;TIME:12706
;Filament used: 11.8916m, 0m
;Layer height: 0.2
;MINX:55.206
;MINY:74.301
;MINZ:0.3
;MAXX:180.719
;MAXY:160.699
;MAXZ:68.1
;Generated with Cura_SteamEngine 4.7.1
T0
M140 S60
M105
M190 S60
M104 S200
M105
M109 S200
M82 ;absolute extrusion mode
M201 X500.00 Y500.00 Z100.00 E5000.00 	;Setup machine max acceleration
M203 X500.00 Y500.00 Z10.00 E50.00 	;Setup machine max feedrate
M204 P500.00 R1000.00 T500.00 		;Setup Print/Retract/Travel acceleration
M205 X8.00 Y8.00 Z0.40 E5.00 		;Setup Jerk
M220 S100 				;Reset Feedrate
M221 S100 				;Reset Flowrate
G28				;Home the Machine
G29 				;Bed Level
G92 E0
M300 P150 S587
G92 E0
;LAYER_COUNT:340
;LAYER:0
M107
G0 F3600 X57.621 Y74.884 Z0.3
;TYPE:SKIRT
G1 F1500 X58.058 Y74.629 E0.02524
G1 X58.529 Y74.445 E0.05047
G1 X59.023 Y74.339 E0.07568
G1 X59.681 Y74.302 E0.10856
G1 X175.198 Y74.301 E5.87172
G1 X175.896 Y74.311 E5.90655
G1 X176.399 Y74.358 E5.93175
G1 X176.889 Y74.484 E5.957
G1 X177.353 Y74.686 E5.98224
G1 X177.779 Y74.958 E6.00746
G1 X178.157 Y75.293 E6.03266
G1 X178.477 Y75.684 E6.05787
G1 X178.732 Y76.121 E6.08311
G1 X178.915 Y76.592 E6.10832
G1 X179.022 Y77.086 E6.13353
G1 X179.058 Y77.741 E6.16626
G1 X179.059 Y156.803 E10.11068
G1 X179.05 Y157.53 E10.14695
G1 X179.004 Y158.033 E10.17215
G1 X178.879 Y158.523 E10.19738
G1 X178.678 Y158.987 E10.22261
G1 X178.407 Y159.414 E10.24784
G1 X178.072 Y159.793 E10.27308
G1 X177.682 Y160.114 E10.29828
G1 X177.246 Y160.37 E10.3235
G1 X176.775 Y160.553 E10.34871
G1 X176.281 Y160.661 E10.37394
G1 X175.619 Y160.698 E10.40702
G1 X60.107 Y160.699 E16.16994
G1 X59.409 Y160.69 E16.20476
G1 X58.905 Y160.643 E16.23002
G1 X58.415 Y160.518 E16.25524
G1 X57.951 Y160.317 E16.28047
G1 X57.525 Y160.046 E16.30566
G1 X57.146 Y159.711 E16.3309
G1 X56.825 Y159.32 E16.35614
G1 X56.57 Y158.884 E16.38134
G1 X56.386 Y158.413 E16.40656
G1 X56.279 Y157.919 E16.43178
G1 X56.242 Y157.243 E16.46556
G1 X56.241 Y78.132 E20.41242
G1 X56.25 Y77.467 E20.4456
G1 X56.297 Y76.963 E20.47085
G1 X56.423 Y76.474 E20.49605
G1 X56.624 Y76.01 E20.52128
G1 X56.895 Y75.583 E20.54651
G1 X57.23 Y75.205 E20.57171
G1 X57.621 Y74.884 E20.59694
;MESH:filament-joiner.stl
G0 F3600 X60.055 Y76.836
G0 X60.055 Y78.115
G0 X78.295 Y84.831
G0 X78.365 Y84.901
;TYPE:WALL-INNER
G1 F900 X78.365 Y150.099 E23.84969
G1 X157.691 Y150.099 E27.80728
G1 X157.691 Y84.901 E31.06002
G1 X78.365 Y84.901 E35.01761
G0 F3600 X78.295 Y84.831
G0 X157.719 Y84.873
G0 X175.189 Y156.829
G0 X175.259 Y156.899
G1 F900 X60.041 Y156.899 E40.76586
G1 X60.041 Y78.101 E44.69711
G1 X175.259 Y78.101 E50.44535
G1 X175.259 Y156.899 E54.3766
G0 F3600 X175.659 Y157.299
;TYPE:WALL-OUTER
G1 F900 X59.641 Y157.299 E60.16476
G1 X59.641 Y77.701 E64.13592
G1 X175.659 Y77.701 E69.92409
G1 X175.659 Y157.299 E73.89525
G0 F3600 X175.459 Y157.299
G0 X175.189 Y156.829
G0 X157.719 Y84.873
G0 X78.765 Y84.801
G0 X78.765 Y85.301
G1 F900 X78.765 Y149.699 E77.10808
G1 X157.291 Y149.699 E81.02575
G1 X157.291 Y85.301 E84.23858
G1 X78.765 Y85.301 E88.15626
G0 F3600 X78.765 Y85.501
G0 X78.265 Y85.501
G0 X77.975 Y84.511
;TYPE:SKIN
G1 F900 X77.975 Y150.489 E91.77708
G1 X158.081 Y150.489 E96.17324
G1 X158.081 Y84.511 E99.79406
G1 X77.975 Y84.511 E104.19021
G0 F3600 X60.431 Y78.491
G1 F900 X174.869 Y78.491 E110.47048
G1 X174.869 Y156.509 E114.75205
G1 X60.431 Y156.509 E121.03232
G1 X60.431 Y78.491 E125.31389
G0 F3600 X60.727 Y156.327
G1 F900 X60.611 Y156.211 E125.32289
G0 F3600 X60.611 Y155.646
G1 F900 X61.292 Y156.327 E125.37574
G0 F3600 X61.858 Y156.327
G1 F900 X60.611 Y155.08 E125.47252
G0 F3600 X60.611 Y154.514
G1 F900 X62.424 Y156.327 E125.61323
G0 F3600 X62.989 Y156.327
G1 F900 X60.611 Y153.949 E125.79779
G0 F3600 X60.611 Y153.383
G1 F900 X63.555 Y156.327 E126.02628
G0 F3600 X64.121 Y156.327
G1 F900 X60.611 Y152.817 E126.29869
G0 F3600 X60.611 Y152.252
G1 F900 X64.686 Y156.327 E126.61496
G0 F3600 X65.252 Y156.327
G1 F900 X60.611 Y151.686 E126.97515
G0 F3600 X60.611 Y151.12
G1 F900 X65.818 Y156.327 E127.37927
G0 F3600 X66.383 Y156.327
G1 F900 X60.611 Y150.555 E127.82724
G0 F3600 X60.611 Y149.989
G1 F900 X66.949 Y156.327 E128.31914
G0 F3600 X67.515 Y156.327
G1 F900 X60.611 Y149.423 E128.85496
G0 F3600 X60.611 Y148.857
G1 F900 X68.08 Y156.327 E129.43468
G0 F3600 X68.646 Y156.327
G1 F900 X60.611 Y148.292 E130.05828
G0 F3600 X60.611 Y147.726
G1 F900 X69.212 Y156.327 E130.72581
G0 F3600 X69.778 Y156.327
G1 F900 X60.611 Y147.16 E131.43727
G0 F3600 X60.611 Y146.595
G1 F900 X70.343 Y156.327 E132.19258
G0 F3600 X70.909 Y156.327
G1 F900 X60.611 Y146.029 E132.99182
G0 F3600 X60.611 Y145.463
G1 F900 X71.475 Y156.327 E133.83498
G0 F3600 X72.04 Y156.327
G1 F900 X60.611 Y144.898 E134.722
G0 F3600 X60.611 Y144.332
G1 F900 X72.606 Y156.327 E135.65294
G0 F3600 X73.172 Y156.327
G1 F900 X60.611 Y143.766 E136.62781
G0 F3600 X60.611 Y143.201
G1 F900 X73.737 Y156.327 E137.64654
G0 F3600 X74.303 Y156.327
G1 F900 X60.611 Y142.635 E138.70918
G0 F3600 X60.611 Y142.069
G1 F900 X74.869 Y156.327 E139.81576
G0 F3600 X75.434 Y156.327
G1 F900 X60.611 Y141.504 E140.96619
G0 F3600 X60.611 Y140.938
G1 F900 X76 Y156.327 E142.16054
G0 F3600 X76.566 Y156.327
G1 F900 X60.611 Y140.372 E143.39883
G0 F3600 X60.611 Y139.807
G1 F900 X77.131 Y156.327 E144.68096
G0 F3600 X77.697 Y156.327
G1 F900 X60.611 Y139.241 E146.00702
G0 F3600 X60.611 Y138.675
G1 F900 X78.263 Y156.327 E147.37701
G0 F3600 X78.828 Y156.327
G1 F900 X60.611 Y138.109 E148.79088
G0 F3600 X60.611 Y137.544
G1 F900 X79.394 Y156.327 E150.24865
G0 F3600 X79.96 Y156.327
G1 F900 X60.611 Y136.978 E151.75035
G0 F3600 X60.611 Y136.412
G1 F900 X80.526 Y156.327 E153.29597
G0 F3600 X81.091 Y156.327
G1 F900 X60.611 Y135.847 E154.88544
G0 F3600 X60.611 Y135.281
G1 F900 X81.657 Y156.327 E156.51884
G0 F3600 X82.223 Y156.327
G1 F900 X60.611 Y134.715 E158.19617
G0 F3600 X60.611 Y134.15
G1 F900 X82.788 Y156.327 E159.91734
G0 F3600 X83.354 Y156.327
G1 F900 X60.611 Y133.584 E161.68245
G0 F3600 X60.611 Y133.018
G1 F900 X77.795 Y150.202 E163.01612
G0 F3600 X77.795 Y149.637
G1 F900 X60.611 Y132.453 E164.34978
G0 F3600 X60.611 Y131.887
G1 F900 X77.795 Y149.071 E165.68345
G0 F3600 X77.795 Y148.505
G1 F900 X60.611 Y131.321 E167.01712
G0 F3600 X60.611 Y130.756
G1 F900 X77.795 Y147.94 E168.35078
G0 F3600 X77.795 Y147.374
G1 F900 X60.611 Y130.19 E169.68445
G0 F3600 X60.611 Y129.624
G1 F900 X77.795 Y146.808 E171.01812
G0 F3600 X77.795 Y146.243
G1 F900 X60.611 Y129.059 E172.35178
G0 F3600 X60.611 Y128.493
G1 F900 X77.795 Y145.677 E173.68545
G0 F3600 X77.795 Y145.111
G1 F900 X60.611 Y127.927 E175.01911
G0 F3600 X60.611 Y127.361
G1 F900 X77.795 Y144.546 E176.35282
G0 F3600 X77.795 Y143.98
G1 F900 X60.611 Y126.796 E177.68649
G0 F3600 X60.611 Y126.23
G1 F900 X77.795 Y143.414 E179.02015
G0 F3600 X77.795 Y142.849
G1 F900 X60.611 Y125.664 E180.35386
G0 F3600 X60.611 Y125.099
G1 F900 X77.795 Y142.283 E181.68752
G0 F3600 X77.795 Y141.717
G1 F900 X60.611 Y124.533 E183.02119
G0 F3600 X60.611 Y123.967
G1 F900 X77.795 Y141.151 E184.35486
G0 F3600 X77.795 Y140.586
G1 F900 X60.611 Y123.402 E185.68852
G0 F3600 X60.611 Y122.836
G1 F900 X77.795 Y140.02 E187.02219
G0 F3600 X77.795 Y139.454
G1 F900 X60.611 Y122.27 E188.35586
G0 F3600 X60.611 Y121.705
G1 F900 X77.795 Y138.889 E189.68952
G0 F3600 X77.795 Y138.323
G1 F900 X60.611 Y121.139 E191.02319
G0 F3600 X60.611 Y120.573
G1 F900 X77.795 Y137.757 E192.35686
G0 F3600 X77.795 Y137.192
G1 F900 X60.611 Y120.008 E193.69052
G0 F3600 X60.611 Y119.442
G1 F900 X77.795 Y136.626 E195.02419
G0 F3600 X77.795 Y136.06
G1 F900 X60.611 Y118.876 E196.35785
G0 F3600 X60.611 Y118.31
G1 F900 X77.795 Y135.495 E197.69156
G0 F3600 X77.795 Y134.929
G1 F900 X60.611 Y117.745 E199.02523
G0 F3600 X60.611 Y117.179
G1 F900 X77.795 Y134.363 E200.35889
G0 F3600 X77.795 Y133.798
G1 F900 X60.611 Y116.613 E201.6926
G0 F3600 X60.611 Y116.048
G1 F900 X77.795 Y133.232 E203.02626
G0 F3600 X77.795 Y132.666
G1 F900 X60.611 Y115.482 E204.35993
G0 F3600 X60.611 Y114.916
G1 F900 X77.795 Y132.1 E205.6936
G0 F3600 X77.795 Y131.535
G1 F900 X60.611 Y114.351 E207.02726
G0 F3600 X60.611 Y113.785
G1 F900 X77.795 Y130.969 E208.36093
G0 F3600 X77.795 Y130.403
G1 F900 X60.611 Y113.219 E209.6946
G0 F3600 X60.611 Y112.654
G1 F900 X77.795 Y129.838 E211.02826
G0 F3600 X77.795 Y129.272
G1 F900 X60.611 Y112.088 E212.36193
G0 F3600 X60.611 Y111.522
G1 F900 X77.795 Y128.706 E213.6956
G0 F3600 X77.795 Y128.141
G1 F900 X60.611 Y110.957 E215.02926
G0 F3600 X60.611 Y110.391
G1 F900 X77.795 Y127.575 E216.36293
G0 F3600 X77.795 Y127.009
G1 F900 X60.611 Y109.825 E217.69659
G0 F3600 X60.611 Y109.26
G1 F900 X77.795 Y126.444 E219.03026
G0 F3600 X77.795 Y125.878
G1 F900 X60.611 Y108.694 E220.36393
G0 F3600 X60.611 Y108.128
G1 F900 X77.795 Y125.312 E221.69759
G0 F3600 X77.795 Y124.747
G1 F900 X60.611 Y107.562 E223.0313
G0 F3600 X60.611 Y106.997
G1 F900 X77.795 Y124.181 E224.36497
G0 F3600 X77.795 Y123.615
G1 F900 X60.611 Y106.431 E225.69863
G0 F3600 X60.611 Y105.865
G1 F900 X77.795 Y123.05 E227.03234
G0 F3600 X77.795 Y122.484
G1 F900 X60.611 Y105.3 E228.366
G0 F3600 X60.611 Y104.734
G1 F900 X77.795 Y121.918 E229.69967
G0 F3600 X77.795 Y121.352
G1 F900 X60.611 Y104.168 E231.03334
G0 F3600 X60.611 Y103.603
G1 F900 X77.795 Y120.787 E232.367
G0 F3600 X77.795 Y120.221
G1 F900 X60.611 Y103.037 E233.70067
G0 F3600 X60.611 Y102.471
G1 F900 X77.795 Y119.655 E235.03434
G0 F3600 X77.795 Y119.09
G1 F900 X60.611 Y101.906 E236.368
G0 F3600 X60.611 Y101.34
G1 F900 X77.795 Y118.524 E237.70167
G0 F3600 X77.795 Y117.958
G1 F900 X60.611 Y100.774 E239.03533
G0 F3600 X60.611 Y100.209
G1 F900 X77.795 Y117.393 E240.369
G0 F3600 X77.795 Y116.827
G1 F900 X60.611 Y99.643 E241.70267
G0 F3600 X60.611 Y99.077
G1 F900 X77.795 Y116.261 E243.03633
G0 F3600 X77.795 Y115.696
G1 F900 X60.611 Y98.511 E244.37004
G0 F3600 X60.611 Y97.946
G1 F900 X77.795 Y115.13 E245.70371
G0 F3600 X77.795 Y114.564
G1 F900 X60.611 Y97.38 E247.03737
G0 F3600 X60.611 Y96.814
G1 F900 X77.795 Y113.999 E248.37108
G0 F3600 X77.795 Y113.433
G1 F900 X60.611 Y96.249 E249.70474
G0 F3600 X60.611 Y95.683
G1 F900 X77.795 Y112.867 E251.03841
G0 F3600 X77.795 Y112.301
G1 F900 X60.611 Y95.117 E252.37208
G0 F3600 X60.611 Y94.552
G1 F900 X77.795 Y111.736 E253.70574
G0 F3600 X77.795 Y111.17
G1 F900 X60.611 Y93.986 E255.03941
G0 F3600 X60.611 Y93.42
G1 F900 X77.795 Y110.604 E256.37308
G0 F3600 X77.795 Y110.039
G1 F900 X60.611 Y92.855 E257.70674
G0 F3600 X60.611 Y92.289
G1 F900 X77.795 Y109.473 E259.04041
G0 F3600 X77.795 Y108.907
G1 F900 X60.611 Y91.723 E260.37408
G0 F3600 X60.611 Y91.158
G1 F900 X77.795 Y108.342 E261.70774
G0 F3600 X77.795 Y107.776
G1 F900 X60.611 Y90.592 E263.04141
G0 F3600 X60.611 Y90.026
G1 F900 X77.795 Y107.21 E264.37507
G0 F3600 X77.795 Y106.645
G1 F900 X60.611 Y89.461 E265.70874
G0 F3600 X60.611 Y88.895
G1 F900 X77.795 Y106.079 E267.04241
G0 F3600 X77.795 Y105.513
G1 F900 X60.611 Y88.329 E268.37607
G0 F3600 X60.611 Y87.763
G1 F900 X77.795 Y104.948 E269.70978
G0 F3600 X77.795 Y104.382
G1 F900 X60.611 Y87.198 E271.04345
G0 F3600 X60.611 Y86.632
G1 F900 X77.795 Y103.816 E272.37711
G0 F3600 X77.795 Y103.251
G1 F900 X60.611 Y86.066 E273.71082
G0 F3600 X60.611 Y85.501
G1 F900 X77.795 Y102.685 E275.04448
G0 F3600 X77.795 Y102.119
G1 F900 X60.611 Y84.935 E276.37815
G0 F3600 X60.611 Y84.369
G1 F900 X77.795 Y101.553 E277.71182
G0 F3600 X77.795 Y100.988
G1 F900 X60.611 Y83.804 E279.04548
G0 F3600 X60.611 Y83.238
G1 F900 X77.795 Y100.422 E280.37915
G0 F3600 X77.795 Y99.856
G1 F900 X60.611 Y82.672 E281.71282
G0 F3600 X60.611 Y82.107
G1 F900 X77.795 Y99.291 E283.04648
G0 F3600 X77.795 Y98.725
G1 F900 X60.611 Y81.541 E284.38015
G0 F3600 X60.611 Y80.975
G1 F900 X77.795 Y98.159 E285.71381
G0 F3600 X77.795 Y97.594
G1 F900 X60.611 Y80.41 E287.04748
G0 F3600 X60.611 Y79.844
G1 F900 X77.795 Y97.028 E288.38115
G0 F3600 X77.795 Y96.462
G1 F900 X60.611 Y79.278 E289.71481
G0 F3600 X60.611 Y78.713
G1 F900 X77.795 Y95.897 E291.04848
G0 F3600 X77.795 Y95.331
G1 F900 X61.135 Y78.671 E292.34148
G0 F3600 X61.7 Y78.671
G1 F900 X77.795 Y94.765 E293.59059
G0 F3600 X77.795 Y94.2
G1 F900 X62.266 Y78.671 E294.79581
G0 F3600 X62.832 Y78.671
G1 F900 X77.795 Y93.634 E295.9571
G0 F3600 X77.795 Y93.068
G1 F900 X63.397 Y78.671 E297.0745
G0 F3600 X63.963 Y78.671
G1 F900 X77.795 Y92.503 E298.14802
G0 F3600 X77.795 Y91.937
G1 F900 X64.529 Y78.671 E299.17761
G0 F3600 X65.094 Y78.671
G1 F900 X77.795 Y91.371 E300.1633
G0 F3600 X77.795 Y90.805
G1 F900 X65.66 Y78.671 E301.10507
G0 F3600 X66.226 Y78.671
G1 F900 X77.795 Y90.24 E302.00295
G0 F3600 X77.795 Y89.674
G1 F900 X66.791 Y78.671 E302.85695
G0 F3600 X67.357 Y78.671
G1 F900 X77.795 Y89.108 E303.66701
G0 F3600 X77.795 Y88.543
G1 F900 X67.923 Y78.671 E304.43319
G0 F3600 X68.488 Y78.671
G1 F900 X77.795 Y87.977 E305.15547
G0 F3600 X77.795 Y87.411
G1 F900 X69.054 Y78.671 E305.83383
G0 F3600 X69.62 Y78.671
G1 F900 X77.795 Y86.846 E306.4683
G0 F3600 X77.795 Y86.28
G1 F900 X70.186 Y78.671 E307.05884
G0 F3600 X70.751 Y78.671
G1 F900 X77.795 Y85.714 E307.60549
G0 F3600 X77.795 Y85.149
G1 F900 X71.317 Y78.671 E308.10826
G0 F3600 X71.883 Y78.671
G1 F900 X77.795 Y84.583 E308.56709
G0 F3600 X78.107 Y84.33
G1 F900 X72.448 Y78.671 E309.00629
G0 F3600 X73.014 Y78.671
G1 F900 X78.673 Y84.33 E309.44549
G0 F3600 X79.239 Y84.33
G1 F900 X73.58 Y78.671 E309.88469
G0 F3600 X74.145 Y78.671
G1 F900 X79.804 Y84.33 E310.32389
G0 F3600 X80.37 Y84.33
G1 F900 X74.711 Y78.671 E310.7631
G0 F3600 X75.277 Y78.671
G1 F900 X80.936 Y84.33 E311.2023
G0 F3600 X81.501 Y84.33
G1 F900 X75.842 Y78.671 E311.6415
G0 F3600 X76.408 Y78.671
G1 F900 X82.067 Y84.33 E312.0807
G0 F3600 X82.633 Y84.33
G1 F900 X76.974 Y78.671 E312.5199
G0 F3600 X77.539 Y78.671
G1 F900 X83.198 Y84.33 E312.9591
G0 F3600 X83.764 Y84.33
G1 F900 X78.105 Y78.671 E313.3983
G0 F3600 X78.671 Y78.671
G1 F900 X84.33 Y84.33 E313.8375
G0 F3600 X84.895 Y84.33
G1 F900 X79.236 Y78.671 E314.2767
G0 F3600 X79.802 Y78.671
G1 F900 X85.461 Y84.33 E314.7159
G0 F3600 X86.027 Y84.33
G1 F900 X80.368 Y78.671 E315.1551
G0 F3600 X80.934 Y78.671
G1 F900 X86.593 Y84.33 E315.5943
G0 F3600 X87.158 Y84.33
G1 F900 X81.499 Y78.671 E316.0335
G0 F3600 X82.065 Y78.671
G1 F900 X87.724 Y84.33 E316.4727
G0 F3600 X88.29 Y84.33
G1 F900 X82.631 Y78.671 E316.9119
G0 F3600 X83.196 Y78.671
G1 F900 X88.855 Y84.33 E317.3511
G0 F3600 X89.421 Y84.33
G1 F900 X83.762 Y78.671 E317.7903
G0 F3600 X84.328 Y78.671
G1 F900 X89.987 Y84.33 E318.2295
G0 F3600 X90.552 Y84.33
G1 F900 X84.893 Y78.671 E318.6687
G0 F3600 X85.459 Y78.671
G1 F900 X91.118 Y84.33 E319.1079
G0 F3600 X91.684 Y84.33
G1 F900 X86.025 Y78.671 E319.5471
G0 F3600 X86.59 Y78.671
G1 F900 X92.249 Y84.33 E319.9863
G0 F3600 X92.815 Y84.33
G1 F900 X87.156 Y78.671 E320.4255
G0 F3600 X87.722 Y78.671
G1 F900 X93.381 Y84.33 E320.8647
G0 F3600 X93.946 Y84.33
G1 F900 X88.287 Y78.671 E321.3039
G0 F3600 X88.853 Y78.671
G1 F900 X94.512 Y84.33 E321.7431
G0 F3600 X95.078 Y84.33
G1 F900 X89.419 Y78.671 E322.1823
G0 F3600 X89.984 Y78.671
G1 F900 X95.643 Y84.33 E322.6215
G0 F3600 X96.209 Y84.33
G1 F900 X90.55 Y78.671 E323.0607
G0 F3600 X91.116 Y78.671
G1 F900 X96.775 Y84.33 E323.4999
G0 F3600 X97.341 Y84.33
G1 F900 X91.682 Y78.671 E323.9391
G0 F3600 X92.247 Y78.671
G1 F900 X97.906 Y84.33 E324.37831
G0 F3600 X98.472 Y84.33
G1 F900 X92.813 Y78.671 E324.81751
G0 F3600 X93.379 Y78.671
G1 F900 X99.038 Y84.33 E325.25671
G0 F3600 X99.603 Y84.33
G1 F900 X93.944 Y78.671 E325.69591
G0 F3600 X94.51 Y78.671
G1 F900 X100.169 Y84.33 E326.13511
G0 F3600 X100.735 Y84.33
G1 F900 X95.076 Y78.671 E326.57431
G0 F3600 X95.641 Y78.671
G1 F900 X101.3 Y84.33 E327.01351
