;FLAVOR:Marlin
;TIME:7143
;Filament used: 4.71879m, 0m
;Layer height: 0.15
;MINX:60.2
;MINY:65.2
;MINZ:0.3
;MAXX:174.8
;MAXY:169.8
;MAXZ:2.25
;POSTPROCESSED
;Generated with Cura_SteamEngine 4.7.1
T0
M140 S60
M105
M190 S60
M104 S190
M105
M109 S190
M82 ;absolute extrusion mode
M201 X500.00 Y500.00 Z100.00 E5000.00 	;Setup machine max acceleration
M203 X500.00 Y500.00 Z10.00 E50.00 	;Setup machine max feedrate
M204 P500.00 R1000.00 T500.00 		;Setup Print/Retract/Travel acceleration
M205 X8.00 Y8.00 Z0.40 E5.00 		;Setup Jerk
M220 S100 				;Reset Feedrate
M221 S100 				;Reset Flowrate
G28				;Home the Machine
G29 				;Bed Level
G92 E0
M300 P150 S587
G92 E0
G1 F1500 E-6.5
;LAYER_COUNT:14
;LAYER:0
M107
G0 F3600 X62.12 Y66.7 Z0.3
;TYPE:SKIRT
G1 F1500 E0
G1 X62.542 Y66.345 E0.02751
G1 X63.171 Y65.946 E0.06467
G1 X63.661 Y65.694 E0.09216
G1 X64.378 Y65.441 E0.1301
G1 X65.167 Y65.268 E0.1704
G1 X66.001 Y65.2 E0.21214
G1 X112.533 Y65.201 E2.53363
G1 X112.874 Y65.216 E2.55066
G1 X113.451 Y65.268 E2.57957
G1 X114.092 Y65.382 E2.61205
G1 X114.679 Y65.539 E2.64236
G1 X115.309 Y65.769 E2.67582
G1 X115.864 Y66.029 E2.7064
G1 X116.432 Y66.357 E2.73912
G1 X116.929 Y66.705 E2.76939
G1 X117.029 Y66.789 E2.77591
G1 X117.12 Y66.7 E2.78226
G1 X117.542 Y66.345 E2.80977
G1 X118.171 Y65.946 E2.84693
G1 X118.661 Y65.694 E2.87442
G1 X119.378 Y65.441 E2.91235
G1 X120.167 Y65.268 E2.95265
G1 X121.001 Y65.2 E2.9944
G1 X167.533 Y65.201 E5.31589
G1 X167.874 Y65.216 E5.33292
G1 X168.451 Y65.268 E5.36182
G1 X169.092 Y65.382 E5.3943
G1 X169.679 Y65.539 E5.42462
G1 X170.309 Y65.769 E5.45808
G1 X170.864 Y66.029 E5.48866
G1 X171.432 Y66.357 E5.52138
G1 X171.929 Y66.705 E5.55165
G1 X172.436 Y67.131 E5.58469
G1 X172.869 Y67.564 E5.61524
G1 X173.295 Y68.071 E5.64827
G1 X173.643 Y68.568 E5.67854
G1 X173.971 Y69.136 E5.71127
G1 X174.23 Y69.689 E5.74173
G1 X174.46 Y70.318 E5.77515
G1 X174.618 Y70.908 E5.80562
G1 X174.733 Y71.561 E5.8387
G1 X174.786 Y72.169 E5.86915
G1 X174.8 Y72.499 E5.88562
G1 X174.799 Y112.533 E7.88293
G1 X174.784 Y112.875 E7.90001
G1 X174.732 Y113.451 E7.92886
G1 X174.618 Y114.091 E7.96129
G1 X174.461 Y114.678 E7.99161
G1 X174.232 Y115.306 E8.02496
G1 X173.972 Y115.862 E8.05558
G1 X173.643 Y116.432 E8.08841
G1 X173.295 Y116.929 E8.11868
G1 X172.869 Y117.436 E8.15172
G1 X172.805 Y117.5 E8.15624
G1 X172.869 Y117.564 E8.16075
G1 X173.295 Y118.071 E8.19379
G1 X173.643 Y118.568 E8.22406
G1 X173.971 Y119.136 E8.25678
G1 X174.23 Y119.689 E8.28725
G1 X174.46 Y120.318 E8.32066
G1 X174.618 Y120.908 E8.35113
G1 X174.733 Y121.561 E8.38421
G1 X174.786 Y122.169 E8.41466
G1 X174.8 Y122.499 E8.43114
G1 X174.799 Y162.533 E10.42844
G1 X174.784 Y162.875 E10.44552
G1 X174.732 Y163.451 E10.47438
G1 X174.618 Y164.091 E10.50681
G1 X174.461 Y164.678 E10.53712
G1 X174.232 Y165.306 E10.57047
G1 X173.972 Y165.862 E10.6011
G1 X173.643 Y166.432 E10.63393
G1 X173.295 Y166.929 E10.6642
G1 X172.869 Y167.436 E10.69724
G1 X172.436 Y167.869 E10.72779
G1 X171.929 Y168.295 E10.76083
G1 X171.432 Y168.643 E10.7911
G1 X170.864 Y168.971 E10.82382
G1 X170.309 Y169.231 E10.8544
G1 X169.677 Y169.461 E10.88795
G1 X169.089 Y169.618 E10.91831
G1 X168.438 Y169.733 E10.95129
G1 X167.828 Y169.786 E10.98184
G1 X167.499 Y169.8 E10.99827
G1 X122.467 Y169.799 E13.24493
G1 X122.126 Y169.784 E13.26195
G1 X121.549 Y169.732 E13.29086
G1 X120.908 Y169.618 E13.32334
G1 X120.321 Y169.461 E13.35365
G1 X119.691 Y169.231 E13.38711
G1 X119.136 Y168.971 E13.41769
G1 X118.568 Y168.643 E13.45041
G1 X118.071 Y168.295 E13.48068
G1 X117.564 Y167.869 E13.51372
G1 X117.5 Y167.805 E13.51824
G1 X117.436 Y167.869 E13.52275
G1 X116.929 Y168.295 E13.55579
G1 X116.432 Y168.643 E13.58606
G1 X115.864 Y168.971 E13.61878
G1 X115.309 Y169.231 E13.64936
G1 X114.677 Y169.461 E13.68291
G1 X114.089 Y169.618 E13.71328
G1 X113.438 Y169.733 E13.74626
G1 X112.828 Y169.786 E13.77681
G1 X112.499 Y169.8 E13.79323
G1 X67.467 Y169.799 E16.03989
G1 X67.126 Y169.784 E16.05692
G1 X66.549 Y169.732 E16.08582
G1 X65.908 Y169.618 E16.1183
G1 X65.321 Y169.461 E16.14862
G1 X64.691 Y169.231 E16.18208
G1 X64.136 Y168.971 E16.21266
G1 X63.568 Y168.643 E16.24538
G1 X63.071 Y168.295 E16.27565
G1 X62.564 Y167.869 E16.30869
G1 X62.131 Y167.436 E16.33924
G1 X61.705 Y166.929 E16.37227
G1 X61.357 Y166.432 E16.40254
G1 X61.028 Y165.862 E16.43538
G1 X60.768 Y165.306 E16.466
G1 X60.539 Y164.678 E16.49935
G1 X60.382 Y164.091 E16.52966
G1 X60.267 Y163.439 E16.5627
G1 X60.214 Y162.831 E16.59314
G1 X60.2 Y162.501 E16.60962
G1 X60.201 Y120.976 E18.68131
G1 X60.285 Y120.065 E18.72696
G1 X60.392 Y119.524 E18.75447
G1 X60.639 Y118.81 E18.79216
G1 X60.865 Y118.307 E18.81967
G1 X61.261 Y117.671 E18.85705
G1 X61.593 Y117.231 E18.88455
G1 X61.787 Y117.026 E18.89863
G1 X61.705 Y116.929 E18.90497
G1 X61.357 Y116.432 E18.93524
G1 X61.028 Y115.862 E18.96807
G1 X60.768 Y115.306 E18.9987
G1 X60.539 Y114.678 E19.03204
G1 X60.382 Y114.091 E19.06236
G1 X60.267 Y113.439 E19.09539
G1 X60.214 Y112.831 E19.12584
G1 X60.2 Y112.501 E19.14232
G1 X60.201 Y70.976 E21.21401
G1 X60.285 Y70.065 E21.25965
G1 X60.392 Y69.524 E21.28716
G1 X60.639 Y68.81 E21.32486
G1 X60.865 Y68.307 E21.35237
G1 X61.261 Y67.671 E21.38975
G1 X61.593 Y67.231 E21.41725
G1 X62.12 Y66.7 E21.45457
G0 F3600 X62.4 Y66.987
G1 F1500 X62.999 Y66.52 E21.49246
G1 X63.38 Y66.287 E21.51474
G1 X64.079 Y65.962 E21.5532
G1 X64.505 Y65.82 E21.5756
G1 X65.211 Y65.666 E21.61166
G1 X66.001 Y65.6 E21.65121
G1 X112.533 Y65.601 E23.9727
G1 X112.838 Y65.615 E23.98793
G1 X113.415 Y65.667 E24.01683
G1 X113.988 Y65.768 E24.04586
G1 X114.575 Y65.925 E24.07618
G1 X115.139 Y66.131 E24.10613
G1 X115.694 Y66.391 E24.13671
G1 X116.202 Y66.685 E24.16599
G1 X116.699 Y67.033 E24.19626
G1 X117.054 Y67.331 E24.21938
G1 X117.4 Y66.987 E24.24373
G1 X117.999 Y66.52 E24.28162
G1 X118.38 Y66.287 E24.3039
G1 X119.079 Y65.962 E24.34236
G1 X119.505 Y65.82 E24.36476
G1 X120.211 Y65.666 E24.40081
G1 X121.001 Y65.6 E24.44036
G1 X167.533 Y65.601 E26.76185
G1 X167.838 Y65.615 E26.77709
G1 X168.415 Y65.667 E26.80599
G1 X168.988 Y65.768 E26.83502
G1 X169.575 Y65.925 E26.86533
G1 X170.139 Y66.131 E26.89529
G1 X170.694 Y66.391 E26.92587
G1 X171.202 Y66.685 E26.95515
G1 X171.699 Y67.033 E26.98542
G1 X172.153 Y67.414 E27.01499
G1 X172.586 Y67.847 E27.04554
G1 X172.967 Y68.301 E27.07511
G1 X173.315 Y68.798 E27.10538
G1 X173.609 Y69.306 E27.13466
G1 X173.868 Y69.859 E27.16512
G1 X174.073 Y70.421 E27.19497
G1 X174.231 Y71.011 E27.22544
G1 X174.334 Y71.596 E27.25508
G1 X174.387 Y72.204 E27.28552
G1 X174.4 Y72.499 E27.30026
G1 X174.399 Y112.533 E29.29756
G1 X174.385 Y112.839 E29.31284
G1 X174.333 Y113.415 E29.3417
G1 X174.232 Y113.987 E29.37068
G1 X174.075 Y114.574 E29.40099
G1 X173.87 Y115.136 E29.43084
G1 X173.61 Y115.692 E29.46146
G1 X173.315 Y116.202 E29.49085
G1 X172.967 Y116.699 E29.52112
G1 X172.586 Y117.153 E29.55069
G1 X172.239 Y117.5 E29.57517
G1 X172.586 Y117.847 E29.59966
G1 X172.967 Y118.301 E29.62923
G1 X173.315 Y118.798 E29.6595
G1 X173.609 Y119.306 E29.68878
G1 X173.868 Y119.859 E29.71924
G1 X174.073 Y120.421 E29.74909
G1 X174.231 Y121.011 E29.77956
G1 X174.334 Y121.596 E29.8092
G1 X174.387 Y122.204 E29.83964
G1 X174.4 Y122.499 E29.85438
G1 X174.399 Y162.533 E31.85168
G1 X174.385 Y162.839 E31.86696
G1 X174.333 Y163.415 E31.89582
G1 X174.232 Y163.987 E31.92479
G1 X174.075 Y164.574 E31.95511
G1 X173.87 Y165.136 E31.98496
G1 X173.61 Y165.692 E32.01558
G1 X173.315 Y166.202 E32.04497
G1 X172.967 Y166.699 E32.07524
G1 X172.586 Y167.153 E32.10481
G1 X172.153 Y167.586 E32.13536
G1 X171.699 Y167.967 E32.16493
G1 X171.202 Y168.315 E32.1952
G1 X170.694 Y168.609 E32.22448
G1 X170.139 Y168.869 E32.25506
G1 X169.574 Y169.075 E32.28506
G1 X168.986 Y169.232 E32.31542
G1 X168.403 Y169.334 E32.34495
G1 X167.793 Y169.387 E32.3755
G1 X167.499 Y169.4 E32.39018
G1 X122.467 Y169.399 E34.63684
G1 X122.162 Y169.385 E34.65207
G1 X121.585 Y169.333 E34.68097
G1 X121.012 Y169.232 E34.71
G1 X120.425 Y169.075 E34.74032
G1 X119.861 Y168.869 E34.77027
G1 X119.306 Y168.609 E34.80085
G1 X118.798 Y168.315 E34.83013
G1 X118.301 Y167.967 E34.8604
G1 X117.847 Y167.586 E34.88997
G1 X117.5 Y167.239 E34.91445
G1 X117.153 Y167.586 E34.93894
G1 X116.699 Y167.967 E34.96851
G1 X116.202 Y168.315 E34.99878
G1 X115.694 Y168.609 E35.02806
G1 X115.139 Y168.869 E35.05863
G1 X114.574 Y169.075 E35.08864
G1 X113.986 Y169.232 E35.119
G1 X113.403 Y169.334 E35.14853
G1 X112.793 Y169.387 E35.17908
G1 X112.499 Y169.4 E35.19376
G1 X67.467 Y169.399 E37.44041
G1 X67.162 Y169.385 E37.45565
G1 X66.585 Y169.333 E37.48455
G1 X66.012 Y169.232 E37.51358
G1 X65.425 Y169.075 E37.54389
G1 X64.861 Y168.869 E37.57385
G1 X64.306 Y168.609 E37.60443
G1 X63.798 Y168.315 E37.63371
G1 X63.301 Y167.967 E37.66398
G1 X62.847 Y167.586 E37.69355
G1 X62.414 Y167.153 E37.7241
G1 X62.033 Y166.699 E37.75367
G1 X61.685 Y166.202 E37.78394
G1 X61.39 Y165.692 E37.81333
G1 X61.13 Y165.136 E37.84395
G1 X60.925 Y164.574 E37.8738
G1 X60.768 Y163.987 E37.90411
G1 X60.666 Y163.404 E37.93364
G1 X60.613 Y162.796 E37.96409
G1 X60.6 Y162.501 E37.97882
G1 X60.601 Y120.976 E40.05051
G1 X60.682 Y120.114 E40.09371
G1 X60.861 Y119.37 E40.13188
G1 X61.015 Y118.947 E40.15434
G1 X61.353 Y118.266 E40.19227
G1 X61.597 Y117.888 E40.21472
G1 X62.081 Y117.298 E40.25279
G1 X62.331 Y117.054 E40.27022
G1 X62.033 Y116.699 E40.29334
G1 X61.685 Y116.202 E40.32361
G1 X61.39 Y115.692 E40.35301
G1 X61.13 Y115.136 E40.38363
G1 X60.925 Y114.574 E40.41347
G1 X60.768 Y113.987 E40.44379
G1 X60.666 Y113.404 E40.47332
G1 X60.613 Y112.796 E40.50376
G1 X60.6 Y112.501 E40.5185
G1 X60.601 Y70.976 E42.59019
G1 X60.682 Y70.114 E42.63338
G1 X60.861 Y69.37 E42.67156
G1 X61.015 Y68.947 E42.69402
G1 X61.353 Y68.266 E42.73195
G1 X61.597 Y67.888 E42.75439
G1 X62.081 Y67.298 E42.79247
G1 X62.4 Y66.987 E42.81469
G0 F3600 X62.679 Y67.273
G1 F1500 X63.208 Y66.862 E42.84811
G1 X63.589 Y66.629 E42.8704
G1 X64.205 Y66.342 E42.9043
G1 X64.631 Y66.2 E42.9267
G1 X65.254 Y66.064 E42.95852
G1 X66.001 Y66 E42.99592
G1 X112.533 Y66.001 E45.31741
G1 X112.802 Y66.013 E45.33085
G1 X113.379 Y66.065 E45.35975
G1 X113.885 Y66.155 E45.38539
G1 X114.472 Y66.312 E45.4157
G1 X114.97 Y66.493 E45.44214
G1 X115.525 Y66.753 E45.47272
G1 X115.973 Y67.013 E45.49856
G1 X116.47 Y67.361 E45.52883
G1 X116.87 Y67.697 E45.55489
G1 X117.089 Y67.916 E45.57034
G1 X117.679 Y67.273 E45.61388
G1 X118.208 Y66.862 E45.6473
G1 X118.589 Y66.629 E45.66958
G1 X119.205 Y66.342 E45.70349
G1 X119.631 Y66.2 E45.72589
G1 X120.254 Y66.064 E45.7577
G1 X121.001 Y66 E45.79511
G1 X167.533 Y66.001 E48.1166
G1 X167.802 Y66.013 E48.13003
G1 X168.379 Y66.065 E48.15894
G1 X168.885 Y66.155 E48.18458
G1 X169.472 Y66.312 E48.21489
G1 X169.97 Y66.493 E48.24133
G1 X170.525 Y66.753 E48.2719
G1 X170.973 Y67.013 E48.29775
G1 X171.47 Y67.361 E48.32801
G1 X171.87 Y67.697 E48.35408
G1 X172.303 Y68.13 E48.38463
G1 X172.639 Y68.53 E48.41069
G1 X172.987 Y69.027 E48.44096
G1 X173.247 Y69.476 E48.46684
G1 X173.506 Y70.029 E48.49731
G1 X173.687 Y70.525 E48.52365
G1 X173.845 Y71.115 E48.55412
G1 X173.936 Y71.63 E48.58022
G1 X173.989 Y72.238 E48.61066
G1 X174 Y72.499 E48.6237
G1 X173.999 Y112.533 E50.621
G1 X173.987 Y112.803 E50.63449
G1 X173.935 Y113.379 E50.66334
G1 X173.845 Y113.884 E50.68893
G1 X173.688 Y114.471 E50.71925
G1 X173.508 Y114.967 E50.74557
G1 X173.248 Y115.523 E50.77619
G1 X172.987 Y115.973 E50.80215
G1 X172.639 Y116.47 E50.83241
G1 X172.303 Y116.87 E50.85848
G1 X171.87 Y117.303 E50.88903
G1 X171.635 Y117.5 E50.90433
G1 X171.87 Y117.697 E50.91963
G1 X172.303 Y118.13 E50.95018
G1 X172.639 Y118.53 E50.97624
G1 X172.987 Y119.027 E51.00651
G1 X173.247 Y119.476 E51.03239
G1 X173.506 Y120.029 E51.06286
G1 X173.687 Y120.525 E51.0892
G1 X173.845 Y121.115 E51.11967
G1 X173.936 Y121.63 E51.14576
G1 X173.989 Y122.238 E51.17621
G1 X174 Y122.499 E51.18925
G1 X173.999 Y162.533 E53.18655
G1 X173.987 Y162.803 E53.20003
G1 X173.935 Y163.379 E53.22889
G1 X173.845 Y163.884 E53.25448
G1 X173.688 Y164.471 E53.28479
G1 X173.508 Y164.967 E53.31112
G1 X173.248 Y165.523 E53.34174
G1 X172.987 Y165.973 E53.36769
G1 X172.639 Y166.47 E53.39796
G1 X172.303 Y166.87 E53.42403
G1 X171.87 Y167.303 E53.45458
G1 X171.47 Y167.639 E53.48064
G1 X170.973 Y167.987 E53.51091
G1 X170.525 Y168.247 E53.53675
G1 X169.97 Y168.507 E53.56733
G1 X169.471 Y168.688 E53.59381
G1 X168.883 Y168.845 E53.62417
G1 X168.369 Y168.936 E53.65021
G1 X167.759 Y168.989 E53.68076
G1 X167.499 Y169 E53.69375
G1 X122.467 Y168.999 E55.9404
G1 X122.198 Y168.987 E55.95383
G1 X121.621 Y168.935 E55.98274
G1 X121.115 Y168.845 E56.00838
G1 X120.528 Y168.688 E56.03869
G1 X120.03 Y168.507 E56.06513
G1 X119.475 Y168.247 E56.09571
G1 X119.027 Y167.987 E56.12155
G1 X118.53 Y167.639 E56.15182
G1 X118.13 Y167.303 E56.17788
G1 X117.697 Y166.87 E56.20843
G1 X117.5 Y166.635 E56.22373
G1 X117.303 Y166.87 E56.23903
G1 X116.87 Y167.303 E56.26958
G1 X116.47 Y167.639 E56.29564
G1 X115.973 Y167.987 E56.32591
G1 X115.525 Y168.247 E56.35175
G1 X114.97 Y168.507 E56.38233
G1 X114.471 Y168.688 E56.40881
G1 X113.883 Y168.845 E56.43917
G1 X113.369 Y168.936 E56.46522
G1 X112.759 Y168.989 E56.49577
G1 X112.499 Y169 E56.50875
G1 X67.467 Y168.999 E58.7554
G1 X67.198 Y168.987 E58.76884
G1 X66.621 Y168.935 E58.79774
G1 X66.115 Y168.845 E58.82338
G1 X65.528 Y168.688 E58.8537
G1 X65.03 Y168.507 E58.88013
G1 X64.475 Y168.247 E58.91071
G1 X64.027 Y167.987 E58.93655
G1 X63.53 Y167.639 E58.96682
G1 X63.13 Y167.303 E58.99288
G1 X62.697 Y166.87 E59.02343
G1 X62.361 Y166.47 E59.0495
G1 X62.013 Y165.973 E59.07977
G1 X61.752 Y165.523 E59.10572
G1 X61.492 Y164.967 E59.13634
G1 X61.312 Y164.471 E59.16267
G1 X61.155 Y163.884 E59.19298
G1 X61.064 Y163.37 E59.21902
G1 X61.011 Y162.762 E59.24947
G1 X61 Y162.501 E59.2625
G1 X61.001 Y120.976 E61.33419
G1 X61.079 Y120.163 E61.37494
G1 X61.237 Y119.507 E61.40861
G1 X61.391 Y119.084 E61.43106
G1 X61.69 Y118.483 E61.46455
G1 X61.934 Y118.105 E61.487
G1 X62.36 Y117.584 E61.52058
G1 X62.916 Y117.089 E61.55771
G1 X62.697 Y116.87 E61.57317
G1 X62.361 Y116.47 E61.59923
G1 X62.013 Y115.973 E61.6295
G1 X61.752 Y115.523 E61.65545
G1 X61.492 Y114.967 E61.68607
G1 X61.312 Y114.471 E61.7124
G1 X61.155 Y113.884 E61.74271
G1 X61.064 Y113.37 E61.76876
G1 X61.011 Y112.762 E61.7992
G1 X61 Y112.501 E61.81224
G1 X61.001 Y70.976 E63.88393
G1 X61.079 Y70.163 E63.92467
G1 X61.237 Y69.507 E63.95834
G1 X61.391 Y69.084 E63.9808
G1 X61.69 Y68.483 E64.01429
G1 X61.934 Y68.105 E64.03673
G1 X62.36 Y67.584 E64.07031
G1 X62.679 Y67.273 E64.09254
G0 F3600 X62.958 Y67.559
G1 F1500 X63.417 Y67.203 E64.12152
G1 X63.798 Y66.97 E64.1438
G1 X64.332 Y66.721 E64.17319
G1 X64.758 Y66.579 E64.19559
G1 X65.298 Y66.461 E64.22317
G1 X66.001 Y66.4 E64.25838
G1 X112.533 Y66.401 E66.57987
G1 X112.766 Y66.411 E66.5915
G1 X113.343 Y66.463 E66.6204
G1 X113.782 Y66.541 E66.64265
G1 X114.369 Y66.698 E66.67296
G1 X114.8 Y66.856 E66.69587
G1 X115.355 Y67.116 E66.72644
G1 X115.743 Y67.34 E66.7488
G1 X116.24 Y67.688 E66.77906
G1 X116.587 Y67.98 E66.80169
G1 X117.02 Y68.413 E66.83224
G1 X117.128 Y68.542 E66.84063
G1 X117.27 Y68.322 E66.8537
G1 X117.639 Y67.87 E66.88281
G1 X117.958 Y67.559 E66.90504
G1 X118.417 Y67.203 E66.93402
G1 X118.798 Y66.97 E66.9563
G1 X119.332 Y66.721 E66.98569
G1 X119.758 Y66.579 E67.00809
G1 X120.298 Y66.461 E67.03567
G1 X121.001 Y66.4 E67.07088
G1 X167.533 Y66.401 E69.39237
G1 X167.766 Y66.411 E69.404
G1 X168.343 Y66.463 E69.4329
G1 X168.782 Y66.541 E69.45515
G1 X169.369 Y66.698 E69.48546
G1 X169.8 Y66.856 E69.50837
G1 X170.355 Y67.116 E69.53894
G1 X170.743 Y67.34 E69.5613
G1 X171.24 Y67.688 E69.59156
