;FLAVOR:Marlin
;TIME:1384
;Filament used: 1.00644m, 0m
;Layer height: 0.15
;MINX:83.7
;MINY:85.3
;MINZ:0.3
;MAXX:151.3
;MAXY:147.9
;MAXZ:1.8
;POSTPROCESSED
;Generated with Cura_SteamEngine 4.7.1
T0
M140 S60
M105
M190 S60
M104 S190
M105
M109 S190
M82 ;absolute extrusion mode
M201 X500.00 Y500.00 Z100.00 E5000.00 	;Setup machine max acceleration
M203 X500.00 Y500.00 Z10.00 E50.00 	;Setup machine max feedrate
M204 P500.00 R1000.00 T500.00 		;Setup Print/Retract/Travel acceleration
M205 X8.00 Y8.00 Z0.40 E5.00 		;Setup Jerk
M220 S100 				;Reset Feedrate
M221 S100 				;Reset Flowrate
G28				;Home the Machine
G29 				;Bed Level
G92 E0
M300 P150 S587
G92 E0
G1 F1500 E-6.5
;LAYER_COUNT:11
;LAYER:0
M107
G0 F3600 X86.542 Y88.215 Z0.3
;TYPE:SKIRT
G1 F1500 E0
G1 X86.862 Y87.906 E0.02219
G1 X87.457 Y87.387 E0.06158
G1 X88.239 Y86.846 E0.10902
G1 X88.622 Y86.614 E0.13136
G1 X89.317 Y86.239 E0.17076
G1 X90.202 Y85.884 E0.21834
G1 X90.626 Y85.743 E0.24063
G1 X91.387 Y85.532 E0.28003
G1 X92.263 Y85.388 E0.32432
G1 X92.677 Y85.344 E0.34509
G1 X93.501 Y85.3 E0.38626
G1 X139.999 Y85.3 E2.70605
G1 X140.674 Y85.329 E2.73976
G1 X141.284 Y85.382 E2.77031
G1 X142.066 Y85.49 E2.80969
G1 X142.621 Y85.617 E2.8381
G1 X143.209 Y85.774 E2.86846
G1 X143.961 Y86.016 E2.90787
G1 X144.506 Y86.247 E2.9374
G1 X145.061 Y86.507 E2.96798
G1 X145.758 Y86.877 E3.00735
G1 X146.226 Y87.181 E3.03519
G1 X146.723 Y87.529 E3.06546
G1 X147.346 Y88.014 E3.10485
G1 X147.764 Y88.403 E3.13334
G1 X148.197 Y88.836 E3.16389
G1 X148.727 Y89.422 E3.20331
G1 X149.071 Y89.877 E3.23176
G1 X149.419 Y90.374 E3.26203
G1 X149.839 Y91.043 E3.30144
G1 X150.094 Y91.54 E3.32931
G1 X150.353 Y92.093 E3.35978
G1 X150.651 Y92.824 E3.39916
G1 X150.824 Y93.383 E3.42835
G1 X150.982 Y93.973 E3.45883
G1 X151.147 Y94.745 E3.49821
G1 X151.218 Y95.314 E3.52682
G1 X151.271 Y95.922 E3.55727
G1 X151.3 Y96.599 E3.59107
G1 X151.3 Y136.599 E5.58668
G1 X151.271 Y137.274 E5.62039
G1 X151.218 Y137.884 E5.65094
G1 X151.11 Y138.666 E5.69032
G1 X150.982 Y139.224 E5.71888
G1 X150.825 Y139.811 E5.7492
G1 X150.583 Y140.563 E5.78861
G1 X150.356 Y141.1 E5.8177
G1 X150.096 Y141.656 E5.84832
G1 X149.725 Y142.354 E5.88776
G1 X149.419 Y142.826 E5.91582
G1 X149.071 Y143.323 E5.94609
G1 X148.586 Y143.946 E5.98548
G1 X148.197 Y144.364 E6.01397
G1 X147.764 Y144.797 E6.04452
G1 X147.178 Y145.327 E6.08394
G1 X146.723 Y145.671 E6.11239
G1 X146.226 Y146.019 E6.14266
G1 X145.557 Y146.439 E6.18207
G1 X145.061 Y146.693 E6.20987
G1 X144.506 Y146.953 E6.24045
G1 X143.775 Y147.252 E6.27985
G1 X143.209 Y147.426 E6.3094
G1 X142.621 Y147.583 E6.33976
G1 X141.849 Y147.748 E6.37914
G1 X141.284 Y147.818 E6.40755
G1 X140.674 Y147.871 E6.43809
G1 X139.999 Y147.9 E6.4718
G1 X95.001 Y147.9 E8.71676
G1 X94.326 Y147.871 E8.75047
G1 X93.716 Y147.818 E8.78102
G1 X92.934 Y147.71 E8.8204
G1 X92.379 Y147.583 E8.8488
G1 X91.791 Y147.426 E8.87917
G1 X91.039 Y147.184 E8.91858
G1 X90.494 Y146.953 E8.94811
G1 X89.939 Y146.693 E8.97869
G1 X89.242 Y146.323 E9.01806
G1 X88.774 Y146.019 E9.0459
G1 X88.277 Y145.671 E9.07617
G1 X87.654 Y145.186 E9.11556
G1 X87.236 Y144.797 E9.14405
G1 X86.803 Y144.364 E9.1746
G1 X86.273 Y143.778 E9.21402
G1 X85.929 Y143.323 E9.24247
G1 X85.581 Y142.826 E9.27274
G1 X85.161 Y142.157 E9.31215
G1 X84.904 Y141.656 E9.34024
G1 X84.644 Y141.1 E9.37087
G1 X84.347 Y140.369 E9.41023
G1 X84.175 Y139.811 E9.43936
G1 X84.018 Y139.224 E9.46968
G1 X83.853 Y138.452 E9.50906
G1 X83.782 Y137.886 E9.53752
G1 X83.729 Y137.278 E9.56797
G1 X83.7 Y136.601 E9.60178
G1 X83.7 Y95.101 E11.67222
G1 X83.757 Y94.158 E11.71935
G1 X83.815 Y93.682 E11.74328
G1 X83.95 Y92.904 E11.78267
G1 X84.242 Y91.92 E11.83388
G1 X84.398 Y91.498 E11.85632
G1 X84.709 Y90.773 E11.89568
G1 X85.182 Y89.941 E11.94343
G1 X85.428 Y89.564 E11.96589
G1 X85.892 Y88.925 E12.00529
G1 X86.542 Y88.215 E12.05331
G0 F3600 X86.82 Y88.503
G1 F1500 X87.14 Y88.194 E12.0755
G1 X87.72 Y87.689 E12.11387
G1 X88.446 Y87.188 E12.15788
G1 X88.829 Y86.956 E12.18022
G1 X89.507 Y86.592 E12.21861
G1 X90.328 Y86.263 E12.26274
G1 X90.752 Y86.122 E12.28503
G1 X91.493 Y85.918 E12.32337
G1 X92.305 Y85.785 E12.36443
G1 X92.719 Y85.741 E12.3852
G1 X93.501 Y85.7 E12.42426
G1 X139.999 Y85.7 E14.74406
G1 X140.64 Y85.728 E14.77607
G1 X141.25 Y85.781 E14.80662
G1 X142.011 Y85.887 E14.84495
G1 X142.518 Y86.003 E14.8709
G1 X143.106 Y86.16 E14.90126
G1 X143.838 Y86.397 E14.93965
G1 X144.336 Y86.609 E14.96665
G1 X144.891 Y86.869 E14.99723
G1 X145.57 Y87.231 E15.03562
G1 X145.996 Y87.508 E15.06097
G1 X146.493 Y87.856 E15.09124
G1 X147.1 Y88.33 E15.12966
G1 X147.482 Y88.685 E15.15568
G1 X147.915 Y89.118 E15.18623
G1 X148.429 Y89.69 E15.22459
G1 X148.744 Y90.107 E15.25067
G1 X149.092 Y90.604 E15.28093
G1 X149.5 Y91.256 E15.31931
G1 X149.731 Y91.709 E15.34468
G1 X149.99 Y92.262 E15.37514
G1 X150.28 Y92.975 E15.41354
G1 X150.437 Y93.487 E15.44026
G1 X150.595 Y94.077 E15.47073
G1 X150.755 Y94.829 E15.50909
G1 X150.819 Y95.348 E15.53518
G1 X150.872 Y95.956 E15.56563
G1 X150.9 Y96.599 E15.59774
G1 X150.9 Y136.599 E17.59335
G1 X150.872 Y137.24 E17.62536
G1 X150.819 Y137.85 E17.6559
G1 X150.713 Y138.611 E17.69424
G1 X150.596 Y139.121 E17.72034
G1 X150.439 Y139.708 E17.75066
G1 X150.202 Y140.44 E17.78904
G1 X149.993 Y140.931 E17.81567
G1 X149.733 Y141.487 E17.84629
G1 X149.372 Y142.165 E17.88461
G1 X149.092 Y142.596 E17.91025
G1 X148.744 Y143.093 E17.94052
G1 X148.27 Y143.7 E17.97894
G1 X147.915 Y144.082 E18.00496
G1 X147.482 Y144.515 E18.03551
G1 X146.91 Y145.029 E18.07388
G1 X146.493 Y145.344 E18.09995
G1 X145.996 Y145.692 E18.13022
G1 X145.344 Y146.1 E18.16859
G1 X144.891 Y146.331 E18.19396
G1 X144.336 Y146.591 E18.22454
G1 X143.624 Y146.881 E18.26289
G1 X143.106 Y147.04 E18.28993
G1 X142.518 Y147.197 E18.32029
G1 X141.766 Y147.356 E18.35864
G1 X141.25 Y147.419 E18.38457
G1 X140.64 Y147.472 E18.41512
G1 X139.999 Y147.5 E18.44713
G1 X95.001 Y147.5 E20.69209
G1 X94.36 Y147.472 E20.7241
G1 X93.75 Y147.419 E20.75464
G1 X92.989 Y147.313 E20.79298
G1 X92.482 Y147.197 E20.81893
G1 X91.894 Y147.04 E20.84929
G1 X91.162 Y146.803 E20.88768
G1 X90.664 Y146.591 E20.91468
G1 X90.109 Y146.331 E20.94525
G1 X89.43 Y145.969 E20.98364
G1 X89.004 Y145.692 E21.009
G1 X88.507 Y145.344 E21.03926
G1 X87.9 Y144.87 E21.07769
G1 X87.518 Y144.515 E21.1037
G1 X87.085 Y144.082 E21.13425
G1 X86.571 Y143.51 E21.17262
G1 X86.256 Y143.093 E21.19869
G1 X85.908 Y142.596 E21.22896
G1 X85.5 Y141.944 E21.26734
G1 X85.267 Y141.487 E21.29293
G1 X85.007 Y140.931 E21.32355
G1 X84.718 Y140.218 E21.36193
G1 X84.561 Y139.708 E21.38855
G1 X84.404 Y139.121 E21.41887
G1 X84.244 Y138.369 E21.45723
G1 X84.181 Y137.852 E21.48321
G1 X84.128 Y137.244 E21.51366
G1 X84.1 Y136.601 E21.54577
G1 X84.1 Y95.101 E23.61621
G1 X84.154 Y94.206 E23.66095
G1 X84.212 Y93.73 E23.68487
G1 X84.345 Y92.972 E23.72326
G1 X84.617 Y92.059 E23.77079
G1 X84.773 Y91.637 E23.79324
G1 X85.077 Y90.931 E23.83159
G1 X85.517 Y90.159 E23.87592
G1 X85.763 Y89.782 E23.89838
G1 X86.216 Y89.161 E23.93673
G1 X86.82 Y88.503 E23.98129
G0 F3600 X87.098 Y88.79
G1 F1500 X87.418 Y88.481 E24.00348
G1 X87.983 Y87.991 E24.04079
G1 X88.653 Y87.53 E24.08137
G1 X89.036 Y87.298 E24.10371
G1 X89.696 Y86.945 E24.14105
G1 X90.454 Y86.643 E24.18176
G1 X90.878 Y86.502 E24.20405
G1 X91.6 Y86.304 E24.2414
G1 X92.347 Y86.183 E24.27915
G1 X92.761 Y86.139 E24.29992
G1 X93.501 Y86.1 E24.33689
G1 X139.999 Y86.1 E26.65669
G1 X140.605 Y86.126 E26.68695
G1 X141.215 Y86.179 E26.7175
G1 X141.956 Y86.284 E26.75484
G1 X142.415 Y86.39 E26.77834
G1 X143.003 Y86.547 E26.8087
G1 X143.714 Y86.778 E26.846
G1 X144.167 Y86.971 E26.87056
G1 X144.722 Y87.231 E26.90114
G1 X145.381 Y87.584 E26.93844
G1 X145.767 Y87.836 E26.96144
G1 X146.264 Y88.184 E26.99171
G1 X146.853 Y88.645 E27.02902
G1 X147.199 Y88.968 E27.05264
G1 X147.632 Y89.401 E27.08319
G1 X148.132 Y89.958 E27.12053
G1 X148.416 Y90.336 E27.14412
G1 X148.764 Y90.833 E27.17439
G1 X149.16 Y91.468 E27.21172
G1 X149.369 Y91.879 E27.23473
G1 X149.628 Y92.432 E27.26519
G1 X149.909 Y93.125 E27.3025
G1 X150.051 Y93.59 E27.32676
G1 X150.209 Y94.18 E27.35723
G1 X150.363 Y94.912 E27.39455
G1 X150.421 Y95.383 E27.41822
G1 X150.474 Y95.991 E27.44867
G1 X150.5 Y96.599 E27.47903
G1 X150.5 Y136.599 E29.47464
G1 X150.474 Y137.205 E29.5049
G1 X150.421 Y137.815 E29.53545
G1 X150.316 Y138.556 E29.57279
G1 X150.209 Y139.018 E29.59645
G1 X150.052 Y139.605 E29.62676
G1 X149.821 Y140.316 E29.66406
G1 X149.631 Y140.761 E29.6882
G1 X149.371 Y141.317 E29.71882
G1 X149.018 Y141.977 E29.75616
G1 X148.764 Y142.367 E29.77938
G1 X148.416 Y142.864 E29.80965
G1 X147.955 Y143.453 E29.84697
G1 X147.632 Y143.799 E29.87058
G1 X147.199 Y144.232 E29.90113
G1 X146.642 Y144.732 E29.93848
G1 X146.264 Y145.016 E29.96206
G1 X145.767 Y145.364 E29.99233
G1 X145.132 Y145.76 E30.02967
G1 X144.722 Y145.969 E30.05263
G1 X144.167 Y146.229 E30.08321
G1 X143.473 Y146.51 E30.12056
G1 X143.003 Y146.653 E30.14507
G1 X142.415 Y146.81 E30.17543
G1 X141.683 Y146.964 E30.21275
G1 X141.215 Y147.021 E30.23627
G1 X140.605 Y147.074 E30.26682
G1 X139.999 Y147.1 E30.29708
G1 X95.001 Y147.1 E32.54204
G1 X94.395 Y147.074 E32.5723
G1 X93.785 Y147.021 E32.60285
G1 X93.044 Y146.916 E32.64019
G1 X92.585 Y146.81 E32.66369
G1 X91.997 Y146.653 E32.69405
G1 X91.286 Y146.422 E32.73135
G1 X90.833 Y146.229 E32.75592
G1 X90.278 Y145.969 E32.78649
G1 X89.619 Y145.616 E32.82379
G1 X89.233 Y145.364 E32.84679
G1 X88.736 Y145.016 E32.87706
G1 X88.147 Y144.555 E32.91437
G1 X87.801 Y144.232 E32.93799
G1 X87.368 Y143.799 E32.96854
G1 X86.868 Y143.242 E33.00588
G1 X86.584 Y142.864 E33.02947
G1 X86.236 Y142.367 E33.05974
G1 X85.84 Y141.732 E33.09708
G1 X85.629 Y141.317 E33.1203
G1 X85.369 Y140.761 E33.15093
G1 X85.089 Y140.068 E33.18821
G1 X84.948 Y139.605 E33.21236
G1 X84.791 Y139.018 E33.24268
G1 X84.636 Y138.286 E33.28001
G1 X84.579 Y137.817 E33.30358
G1 X84.526 Y137.209 E33.33402
G1 X84.5 Y136.601 E33.36439
G1 X84.5 Y95.101 E35.43483
G1 X84.551 Y94.254 E35.47716
G1 X84.609 Y93.778 E35.50109
G1 X84.739 Y93.042 E35.53837
G1 X84.992 Y92.198 E35.58233
G1 X85.148 Y91.776 E35.60478
G1 X85.445 Y91.089 E35.64212
G1 X85.852 Y90.378 E35.68299
G1 X86.098 Y90.001 E35.70545
G1 X86.539 Y89.397 E35.74276
G1 X87.098 Y88.79 E35.78393
G0 F3600 X87.375 Y89.078
G1 F1500 X87.695 Y88.769 E35.80612
G1 X88.245 Y88.294 E35.84238
G1 X88.861 Y87.872 E35.87963
G1 X89.244 Y87.64 E35.90197
G1 X89.885 Y87.298 E35.93822
G1 X90.58 Y87.022 E35.97553
G1 X91.004 Y86.881 E35.99782
G1 X91.705 Y86.69 E36.03407
G1 X92.389 Y86.581 E36.06862
G1 X92.803 Y86.537 E36.08939
G1 X93.501 Y86.5 E36.12426
G1 X139.999 Y86.5 E38.44406
G1 X140.57 Y86.525 E38.47257
G1 X141.18 Y86.578 E38.50312
G1 X141.899 Y86.68 E38.53935
G1 X142.312 Y86.776 E38.56051
G1 X142.9 Y86.933 E38.59087
G1 X143.59 Y87.159 E38.62709
G1 X143.997 Y87.333 E38.64918
G1 X144.552 Y87.593 E38.67975
G1 X145.192 Y87.937 E38.716
G1 X145.538 Y88.164 E38.73665
G1 X146.035 Y88.512 E38.76692
G1 X146.606 Y88.96 E38.80313
G1 X146.916 Y89.251 E38.82434
G1 X147.349 Y89.684 E38.85489
G1 X147.833 Y90.225 E38.8911
G1 X148.088 Y90.565 E38.91231
G1 X148.436 Y91.062 E38.94258
G1 X148.82 Y91.679 E38.97883
G1 X149.007 Y92.049 E38.99952
G1 X149.266 Y92.602 E39.02998
G1 X149.537 Y93.275 E39.06618
G1 X149.664 Y93.694 E39.08802
G1 X149.822 Y94.284 E39.11849
G1 X149.971 Y94.995 E39.15474
G1 X150.022 Y95.418 E39.17599
G1 X150.075 Y96.026 E39.20644
G1 X150.1 Y96.599 E39.23506
G1 X150.1 Y136.599 E41.23066
G1 X150.075 Y137.17 E41.25918
G1 X150.022 Y137.78 E41.28973
G1 X149.92 Y138.499 E41.32596
G1 X149.823 Y138.914 E41.34722
G1 X149.666 Y139.501 E41.37753
G1 X149.44 Y140.192 E41.4138
G1 X149.269 Y140.592 E41.43551
G1 X149.009 Y141.148 E41.46613
G1 X148.665 Y141.788 E41.50238
G1 X148.436 Y142.138 E41.52325
G1 X148.088 Y142.635 E41.55352
G1 X147.64 Y143.206 E41.58973
G1 X147.349 Y143.516 E41.61094
G1 X146.916 Y143.949 E41.64149
G1 X146.375 Y144.433 E41.6777
G1 X146.035 Y144.688 E41.69891
G1 X145.538 Y145.036 E41.72918
G1 X144.921 Y145.42 E41.76543
G1 X144.552 Y145.607 E41.78607
G1 X143.997 Y145.867 E41.81665
G1 X143.323 Y146.138 E41.85289
G1 X142.9 Y146.267 E41.87495
G1 X142.312 Y146.424 E41.90532
G1 X141.601 Y146.572 E41.94155
G1 X141.18 Y146.622 E41.9627
G1 X140.57 Y146.675 E41.99325
G1 X139.999 Y146.7 E42.02176
G1 X95.001 Y146.7 E44.26672
G1 X94.43 Y146.675 E44.29524
G1 X93.82 Y146.622 E44.32578
G1 X93.101 Y146.52 E44.36202
G1 X92.688 Y146.424 E44.38317
G1 X92.1 Y146.267 E44.41353
G1 X91.41 Y146.041 E44.44976
G1 X91.003 Y145.867 E44.47184
G1 X90.448 Y145.607 E44.50242
G1 X89.808 Y145.263 E44.53867
G1 X89.462 Y145.036 E44.55931
G1 X88.965 Y144.688 E44.58958
G1 X88.394 Y144.24 E44.62579
G1 X88.084 Y143.949 E44.647
G1 X87.651 Y143.516 E44.67755
G1 X87.167 Y142.975 E44.71377
G1 X86.912 Y142.635 E44.73497
G1 X86.564 Y142.138 E44.76524
G1 X86.18 Y141.521 E44.8015
G1 X85.991 Y141.148 E44.82236
G1 X85.731 Y140.592 E44.85298
G1 X85.46 Y139.918 E44.88922
G1 X85.334 Y139.501 E44.91096
G1 X85.177 Y138.914 E44.94127
G1 X85.028 Y138.203 E44.97751
G1 X84.978 Y137.782 E44.99867
G1 X84.925 Y137.174 E45.02911
G1 X84.9 Y136.601 E45.05773
G1 X84.9 Y95.101 E47.12817
G1 X84.948 Y94.303 E47.16806
G1 X85.006 Y93.827 E47.19198
G1 X85.134 Y93.112 E47.22822
G1 X85.367 Y92.337 E47.26859
G1 X85.523 Y91.915 E47.29104
G1 X85.812 Y91.248 E47.32731
G1 X86.187 Y90.596 E47.36483
G1 X86.433 Y90.219 E47.38729
G1 X86.862 Y89.634 E47.42348
G1 X87.375 Y89.078 E47.46122
G0 F3600 X87.653 Y89.366
G1 F1500 X87.973 Y89.057 E47.48342
G1 X88.507 Y88.597 E47.51858
G1 X89.068 Y88.214 E47.55247
G1 X89.451 Y87.982 E47.57481
G1 X90.073 Y87.652 E47.60994
G1 X90.707 Y87.402 E47.64394
G1 X91.131 Y87.261 E47.66623
G1 X91.81 Y87.077 E47.70133
G1 X92.432 Y86.979 E47.73274
G1 X92.846 Y86.935 E47.75351
G1 X93.501 Y86.9 E47.78624
G1 X139.999 Y86.9 E50.10603
G1 X140.536 Y86.923 E50.13285
G1 X141.146 Y86.976 E50.1634
G1 X141.842 Y87.077 E50.19848
G1 X142.208 Y87.163 E50.21724
G1 X142.796 Y87.32 E50.2476
G1 X143.465 Y87.54 E50.28274
G1 X143.827 Y87.696 E50.3024
G1 X144.382 Y87.956 E50.33298
G1 X145.002 Y88.29 E50.36812
G1 X145.308 Y88.491 E50.38638
G1 X145.805 Y88.839 E50.41665
G1 X146.358 Y89.275 E50.45178
G1 X146.633 Y89.534 E50.47063
G1 X147.066 Y89.967 E50.50118
G1 X147.535 Y90.492 E50.5363
G1 X147.761 Y90.795 E50.55516
G1 X148.109 Y91.292 E50.58543
G1 X148.479 Y91.891 E50.62056
G1 X148.645 Y92.218 E50.63885
G1 X148.904 Y92.771 E50.66932
G1 X149.166 Y93.425 E50.70447
G1 X149.278 Y93.797 E50.72385
G1 X149.436 Y94.387 E50.75432
G1 X149.579 Y95.076 E50.78943
G1 X149.624 Y95.453 E50.80837
G1 X149.677 Y96.061 E50.83882
G1 X149.7 Y96.599 E50.86568
G1 X149.7 Y136.599 E52.86129
G1 X149.677 Y137.136 E52.88811
G1 X149.624 Y137.746 E52.91865
G1 X149.523 Y138.442 E52.95374
G1 X149.436 Y138.811 E52.97266
G1 X149.279 Y139.398 E53.00297
G1 X149.059 Y140.067 E53.03811
G1 X148.906 Y140.422 E53.05739
G1 X148.646 Y140.978 E53.08801
G1 X148.312 Y141.598 E53.12315
G1 X148.109 Y141.908 E53.14164
G1 X147.761 Y142.405 E53.17191
G1 X147.325 Y142.958 E53.20704
G1 X147.066 Y143.233 E53.22589
G1 X146.633 Y143.666 E53.25644
G1 X146.108 Y144.135 E53.29156
G1 X145.805 Y144.361 E53.31042
G1 X145.308 Y144.709 E53.34069
G1 X144.709 Y145.079 E53.37581
G1 X144.382 Y145.244 E53.39408
G1 X143.827 Y145.504 E53.42466
G1 X143.174 Y145.766 E53.45976
G1 X142.796 Y145.88 E53.47946
G1 X142.208 Y146.037 E53.50982
G1 X141.519 Y146.18 E53.54493
G1 X141.146 Y146.224 E53.56367
G1 X140.536 Y146.277 E53.59422
G1 X139.999 Y146.3 E53.62103
G1 X95.001 Y146.3 E55.86599
G1 X94.464 Y146.277 E55.89281
G1 X93.854 Y146.224 E55.92336
G1 X93.158 Y146.123 E55.95844
