;FLAVOR:Marlin
;TIME:16505
;Filament used: 9.31597m, 0m
;Layer height: 0.2
;MINX:27.949
;MINY:21.386
;MINZ:0.2
;MAXX:207.061
;MAXY:208.614
;MAXZ:5
;POSTPROCESSED
;Generated with Cura_SteamEngine 4.8.0
T0
M140 S60
M105
M190 S60
M104 S200
M105
M109 S200
M82 ;absolute extrusion mode
M201 X500.00 Y500.00 Z100.00 E5000.00 	;Setup machine max acceleration
M203 X500.00 Y500.00 Z10.00 E50.00 	;Setup machine max feedrate
M204 P500.00 R1000.00 T500.00 		;Setup Print/Retract/Travel acceleration
M205 X8.00 Y8.00 Z0.40 E5.00 		;Setup Jerk
M220 S100 				;Reset Feedrate
M221 S100 				;Reset Flowrate
G28				;Home the Machine
#G29 				;Bed Level
G92 E0
M300 P150 S587
G92 E0
G1 F1500 E-5.5
;LAYER_COUNT:25
;LAYER:0
M107
G0 F2160 X88.626 Y29.029 Z0.2
;TYPE:SKIRT
G1 F1500 E0
G1 F900 X88.85 Y28.352 E0.01779
G1 X89.041 Y27.888 E0.03031
G1 X89.335 Y27.251 E0.04781
G1 X89.582 Y26.798 E0.06068
G1 X89.945 Y26.204 E0.07804
G1 X90.265 Y25.75 E0.0919
G1 X90.679 Y25.217 E0.10873
G1 X91.054 Y24.8 E0.12272
G1 X91.539 Y24.306 E0.13999
G1 X92.222 Y23.715 E0.16252
G1 X92.852 Y23.256 E0.18197
G1 X93.48 Y22.853 E0.20058
G1 X93.944 Y22.603 E0.21373
G1 X94.549 Y22.306 E0.23054
G1 X95.078 Y22.091 E0.24478
G1 X95.719 Y21.866 E0.26173
G1 X96.254 Y21.72 E0.27556
G1 X96.9 Y21.573 E0.29209
G1 X97.448 Y21.487 E0.30593
G1 X98.102 Y21.415 E0.32234
G1 X98.696 Y21.391 E0.33717
G1 X99.051 Y21.386 E0.34603
G1 X99.792 Y21.427 E0.36454
G1 X100.565 Y21.516 E0.38395
G1 X101.074 Y21.612 E0.39687
G1 X101.754 Y21.773 E0.4143
G1 X102.287 Y21.939 E0.42823
G1 X102.916 Y22.167 E0.44492
G1 X103.402 Y22.382 E0.45817
G1 X104.041 Y22.699 E0.47597
G1 X104.478 Y22.956 E0.48861
G1 X105.06 Y23.333 E0.50591
G1 X106.224 Y24.205 E0.54219
G1 X106.629 Y24.56 E0.55563
G1 X108.606 Y26.592 E0.62635
G1 X110.595 Y28.522 E0.69548
G1 X112.56 Y30.326 E0.76202
G1 X114.65 Y32.136 E0.83099
G1 X116.76 Y33.863 E0.89901
G1 X118.912 Y35.524 E0.96682
G1 X121.13 Y37.14 E1.03528
G1 X123.382 Y38.683 E1.10337
G1 X125.674 Y40.161 E1.1714
G1 X128.011 Y41.574 E1.23953
G1 X130.363 Y42.91 E1.307
G1 X132.799 Y44.202 E1.37579
G1 X135.242 Y45.411 E1.44378
G1 X137.725 Y46.553 E1.51196
G1 X140.253 Y47.631 E1.58051
G1 X142.799 Y48.633 E1.64877
G1 X145.346 Y49.55 E1.71629
G1 X147.947 Y50.407 E1.78461
G1 X150.552 Y51.184 E1.85242
G1 X153.212 Y51.895 E1.9211
G1 X155.825 Y52.516 E1.9881
G1 X158.552 Y53.083 E2.05758
G1 X161.222 Y53.558 E2.12523
G1 X163.928 Y53.963 E2.19348
G1 X166.629 Y54.289 E2.26135
G1 X169.334 Y54.539 E2.32911
G1 X172.061 Y54.711 E2.39727
G1 X174.802 Y54.808 E2.46569
G1 X177.541 Y54.827 E2.53401
G1 X180.243 Y54.769 E2.60143
G1 X182.981 Y54.634 E2.66981
G1 X185.708 Y54.421 E2.73805
G1 X188.44 Y54.13 E2.80658
G1 X191.113 Y53.768 E2.87387
G1 X193.233 Y53.41 E2.9275
G1 X194.91 Y53.145 E2.96985
G1 X195.571 Y53.073 E2.98644
G1 X196.082 Y53.052 E2.9992
G1 X196.776 Y53.055 E3.01651
G1 X197.359 Y53.098 E3.03109
G1 X198.005 Y53.176 E3.04732
G1 X198.521 Y53.274 E3.06043
G1 X199.185 Y53.431 E3.07745
G1 X199.736 Y53.602 E3.09184
G1 X200.373 Y53.833 E3.10874
G1 X201.181 Y54.202 E3.1309
G1 X201.452 Y54.344 E3.13853
G1 X201.887 Y54.598 E3.15109
G1 X202.52 Y55.007 E3.16989
G1 X203.223 Y55.547 E3.19201
G1 X203.446 Y55.741 E3.19938
G1 X203.886 Y56.156 E3.21447
G1 X204.334 Y56.623 E3.23061
G1 X204.673 Y57.028 E3.24379
G1 X205.095 Y57.579 E3.2611
G1 X205.393 Y58.029 E3.27456
G1 X205.737 Y58.605 E3.2913
G1 X205.992 Y59.107 E3.30534
G1 X206.262 Y59.707 E3.32176
G1 X206.471 Y60.268 E3.33669
G1 X206.67 Y60.891 E3.353
G1 X206.876 Y61.773 E3.3756
G1 X206.988 Y62.538 E3.39488
G1 X207.054 Y63.299 E3.41394
G1 X207.061 Y63.852 E3.42773
G1 X207.038 Y64.517 E3.44433
G1 X206.983 Y65.064 E3.45805
G1 X206.883 Y65.737 E3.47502
G1 X206.766 Y66.265 E3.48851
G1 X206.594 Y66.915 E3.50528
G1 X206.476 Y67.268 E3.51457
G1 X206.119 Y68.306 E3.54195
G1 X205.867 Y68.876 E3.55749
G1 X204.715 Y71.057 E3.61902
G1 X203.508 Y73.505 E3.68711
G1 X202.369 Y75.989 E3.75527
G1 X201.297 Y78.511 E3.82363
G1 X200.289 Y81.083 E3.89254
G1 X199.389 Y83.591 E3.95901
G1 X198.522 Y86.237 E4.02847
G1 X197.752 Y88.83 E4.09594
G1 X197.049 Y91.474 E4.16419
G1 X196.421 Y94.13 E4.23227
G1 X195.869 Y96.796 E4.30019
G1 X195.394 Y99.492 E4.36847
G1 X194.993 Y102.191 E4.43654
G1 X194.669 Y104.912 E4.50489
G1 X194.422 Y107.634 E4.57307
G1 X194.254 Y110.338 E4.64066
G1 X194.161 Y113.075 E4.70897
G1 X194.145 Y115.814 E4.7773
G1 X194.206 Y118.521 E4.84484
G1 X194.346 Y121.285 E4.91388
G1 X194.561 Y123.98 E4.98132
G1 X194.856 Y126.716 E5.04996
G1 X195.22 Y129.387 E5.11721
G1 X195.673 Y132.12 E5.18631
G1 X196.192 Y134.786 E5.25406
G1 X196.786 Y137.432 E5.32171
G1 X197.459 Y140.084 E5.38996
G1 X198.208 Y142.713 E5.45815
G1 X199.033 Y145.335 E5.52672
G1 X199.922 Y147.895 E5.59432
G1 X200.884 Y150.434 E5.66205
G1 X201.938 Y152.999 E5.73123
G1 X203.04 Y155.475 E5.79883
G1 X204.216 Y157.928 E5.86669
G1 X205.7 Y160.796 E5.94724
G1 X205.943 Y161.248 E5.96004
G1 X206.174 Y161.783 E5.97458
G1 X206.418 Y162.511 E5.99373
G1 X206.617 Y163.154 E6.01052
G1 X206.771 Y163.755 E6.026
G1 X206.928 Y164.522 E6.04553
G1 X207 Y165.088 E6.05976
G1 X207.053 Y165.739 E6.07605
G1 X207.06 Y166.305 E6.09017
G1 X207.038 Y166.973 E6.10685
G1 X206.982 Y167.518 E6.12051
G1 X206.884 Y168.183 E6.13728
G1 X206.76 Y168.742 E6.15156
G1 X206.584 Y169.4 E6.16856
G1 X206.286 Y170.238 E6.19074
G1 X205.963 Y170.951 E6.21027
G1 X205.608 Y171.623 E6.22923
G1 X205.32 Y172.083 E6.24276
G1 X204.925 Y172.656 E6.26012
G1 X204.61 Y173.049 E6.27269
G1 X204.143 Y173.585 E6.29042
G1 X203.775 Y173.952 E6.30339
G1 X203.274 Y174.409 E6.3203
G1 X202.875 Y174.727 E6.33303
G1 X202.255 Y175.175 E6.35211
G1 X201.5 Y175.631 E6.37411
G1 X200.79 Y175.982 E6.39387
G1 X200.082 Y176.28 E6.41303
G1 X199.216 Y176.561 E6.43574
G1 X198.482 Y176.734 E6.45455
G1 X197.737 Y176.863 E6.47342
G1 X197.179 Y176.917 E6.4874
G1 X196.588 Y176.954 E6.50217
G1 X195.943 Y176.963 E6.51826
G1 X195.127 Y176.956 E6.53862
G1 X194.598 Y176.906 E6.55187
G1 X191.828 Y176.429 E6.62199
G1 X189.142 Y176.043 E6.68968
G1 X186.383 Y175.727 E6.75895
G1 X183.696 Y175.496 E6.82623
G1 X180.99 Y175.34 E6.89384
G1 X178.219 Y175.259 E6.96299
G1 X175.517 Y175.257 E7.03039
G1 X172.777 Y175.332 E7.09877
G1 X170.042 Y175.484 E7.1671
G1 X167.316 Y175.713 E7.23534
G1 X164.617 Y176.017 E7.30309
G1 X161.919 Y176.398 E7.37106
G1 X159.205 Y176.86 E7.43974
G1 X156.544 Y177.392 E7.50743
G1 X153.923 Y177.991 E7.5745
G1 X151.229 Y178.689 E7.64392
G1 X148.614 Y179.447 E7.71183
G1 X145.987 Y180.289 E7.78065
G1 X143.443 Y181.184 E7.84792
G1 X140.889 Y182.166 E7.91618
G1 X138.382 Y183.211 E7.98393
G1 X135.851 Y184.351 E8.05318
G1 X133.426 Y185.527 E8.12041
G1 X131.006 Y186.787 E8.18847
G1 X128.604 Y188.125 E8.25705
G1 X126.268 Y189.513 E8.32483
G1 X123.957 Y190.978 E8.39309
G1 X121.682 Y192.511 E8.46152
G1 X119.477 Y194.089 E8.52916
G1 X117.289 Y195.751 E8.5977
G1 X115.182 Y197.446 E8.66516
G1 X113.098 Y199.225 E8.73351
G1 X111.046 Y201.078 E8.80248
G1 X109.108 Y202.929 E8.86933
G1 X106.914 Y205.155 E8.94729
G1 X106.609 Y205.475 E8.95832
G1 X106.169 Y205.865 E8.97299
G1 X105.536 Y206.333 E8.99262
G1 X105.011 Y206.703 E9.00865
G1 X104.453 Y207.058 E9.02514
G1 X103.785 Y207.436 E9.04429
G1 X103.289 Y207.67 E9.05797
G1 X102.661 Y207.932 E9.07494
G1 X102.136 Y208.109 E9.08877
G1 X101.498 Y208.294 E9.10534
G1 X100.931 Y208.417 E9.11981
G1 X100.297 Y208.523 E9.13584
G1 X99.738 Y208.577 E9.14985
G1 X99.048 Y208.614 E9.16709
G1 X98.546 Y208.605 E9.17961
G1 X97.856 Y208.564 E9.19686
G1 X97.303 Y208.491 E9.21077
G1 X96.619 Y208.371 E9.22809
G1 X95.732 Y208.137 E9.25098
G1 X95.05 Y207.897 E9.26901
G1 X94.575 Y207.705 E9.28179
G1 X93.899 Y207.375 E9.30056
G1 X93.228 Y206.995 E9.31979
G1 X92.786 Y206.7 E9.33305
G1 X92.242 Y206.301 E9.34988
G1 X91.801 Y205.928 E9.36429
G1 X91.32 Y205.482 E9.38065
G1 X90.946 Y205.085 E9.39425
G1 X90.523 Y204.591 E9.41048
G1 X90.172 Y204.122 E9.42509
G1 X89.798 Y203.57 E9.44172
G1 X89.521 Y203.092 E9.4555
G1 X89.211 Y202.498 E9.47222
G1 X88.984 Y201.977 E9.48639
G1 X88.749 Y201.367 E9.5027
G1 X88.593 Y200.86 E9.51593
G1 X88.423 Y200.203 E9.53286
G1 X88.319 Y199.653 E9.54683
G1 X88.207 Y198.942 E9.56478
G1 X87.886 Y196.715 E9.62091
G1 X87.427 Y194.064 E9.68802
G1 X86.879 Y191.352 E9.75704
G1 X86.272 Y188.73 E9.82417
G1 X85.571 Y186.06 E9.89304
G1 X84.816 Y183.474 E9.96024
G1 X83.964 Y180.842 E10.02925
G1 X83.047 Y178.256 E10.09769
G1 X82.07 Y175.734 E10.16516
G1 X81.001 Y173.19 E10.23399
G1 X79.887 Y170.732 E10.30131
G1 X78.677 Y168.254 E10.3701
G1 X77.42 Y165.853 E10.4377
G1 X76.088 Y163.478 E10.50563
G1 X74.673 Y161.108 E10.57449
G1 X73.229 Y158.843 E10.64149
G1 X71.668 Y156.54 E10.71089
G1 X70.095 Y154.355 E10.77805
G1 X68.424 Y152.167 E10.84673
G1 X66.703 Y150.04 E10.91498
G1 X64.924 Y147.965 E10.98316
G1 X63.104 Y145.961 E11.05069
G1 X61.192 Y143.97 E11.11955
G1 X59.253 Y142.063 E11.18739
G1 X57.26 Y140.21 E11.25527
G1 X55.221 Y138.42 E11.32296
G1 X53.122 Y136.679 E11.39098
G1 X50.948 Y134.977 E11.45986
G1 X48.736 Y133.344 E11.52844
G1 X46.526 Y131.81 E11.59555
G1 X44.233 Y130.308 E11.66393
G1 X41.909 Y128.881 E11.73196
G1 X39.539 Y127.515 E11.80019
G1 X37.147 Y126.226 E11.86798
G1 X34.838 Y125.078 E11.9323
G1 X33.593 Y124.443 E11.96716
G1 X33.022 Y124.117 E11.98356
G1 X32.583 Y123.825 E11.99672
G1 X32.026 Y123.417 E12.01394
G1 X31.592 Y123.052 E12.02809
G1 X31.101 Y122.597 E12.04478
G1 X30.723 Y122.194 E12.05857
G1 X30.278 Y121.675 E12.07562
G1 X29.958 Y121.244 E12.08901
G1 X29.573 Y120.677 E12.10611
G1 X29.318 Y120.239 E12.11875
G1 X28.984 Y119.601 E12.13671
G1 X28.777 Y119.125 E12.14966
G1 X28.526 Y118.474 E12.16707
G1 X28.357 Y117.918 E12.18156
G1 X28.199 Y117.303 E12.1974
G1 X28.1 Y116.774 E12.21083
G1 X28.001 Y116.066 E12.22866
G1 X27.965 Y115.55 E12.24156
G1 X27.949 Y114.886 E12.25813
G1 X27.976 Y114.276 E12.27336
G1 X28.036 Y113.627 E12.28962
G1 X28.118 Y113.12 E12.30243
G1 X28.258 Y112.44 E12.31975
G1 X28.397 Y111.941 E12.33267
G1 X28.615 Y111.278 E12.35008
G1 X28.827 Y110.759 E12.36407
G1 X29.116 Y110.134 E12.38124
G1 X29.386 Y109.642 E12.39524
G1 X29.729 Y109.081 E12.41165
G1 X30.031 Y108.653 E12.42471
G1 X30.453 Y108.111 E12.44185
G1 X30.829 Y107.691 E12.45591
G1 X31.292 Y107.219 E12.4724
G1 X31.711 Y106.846 E12.4864
G1 X32.233 Y106.423 E12.50316
G1 X33.418 Y105.588 E12.53932
G1 X33.881 Y105.313 E12.55275
G1 X36.424 Y104.061 E12.62346
G1 X38.852 Y102.777 E12.69197
G1 X41.222 Y101.439 E12.75986
G1 X43.58 Y100.016 E12.82856
G1 X45.857 Y98.554 E12.89607
G1 X48.129 Y97.002 E12.9647
G1 X50.33 Y95.406 E13.03252
G1 X52.493 Y93.741 E13.10061
G1 X54.605 Y92.019 E13.16859
G1 X56.665 Y90.241 E13.23647
G1 X58.713 Y88.367 E13.30572
G1 X60.644 Y86.498 E13.37275
G1 X62.57 Y84.526 E13.44151
G1 X64.404 Y82.54 E13.50895
G1 X66.223 Y80.451 E13.57804
G1 X67.937 Y78.37 E13.6453
G1 X69.616 Y76.208 E13.71358
G1 X71.235 Y73.997 E13.78194
G1 X72.793 Y71.739 E13.85037
G1 X74.269 Y69.466 E13.91798
G1 X75.693 Y67.128 E13.98627
G1 X77.036 Y64.776 E14.05383
G1 X78.331 Y62.353 E14.12236
G1 X79.555 Y59.897 E14.19081
G1 X80.702 Y57.424 E14.25881
G1 X81.768 Y54.942 E14.3262
G1 X82.784 Y52.382 E14.3949
G1 X83.719 Y49.814 E14.46307
G1 X84.589 Y47.2 E14.5318
G1 X85.368 Y44.615 E14.59915
G1 X86.078 Y41.989 E14.667
G1 X86.732 Y39.278 E14.73657
G1 X87.285 Y36.648 E14.80361
G1 X87.77 Y33.98 E14.87125
G1 X88.135 Y31.512 E14.93349
G1 X88.34 Y30.23 E14.96587
G1 X88.484 Y29.536 E14.98355
G1 X88.626 Y29.029 E14.99669
G0 F2160 X88.887 Y29.207
G1 F900 X89.037 Y28.719 E15.00942
G1 X89.28 Y28.092 E15.0262
G1 X89.484 Y27.626 E15.03889
G1 X89.792 Y27.037 E15.05547
G1 X90.047 Y26.598 E15.06813
G1 X90.456 Y25.998 E15.08625
G1 X90.903 Y25.417 E15.10453
G1 X91.273 Y25.006 E15.11833
G1 X91.738 Y24.53 E15.13493
G1 X92.415 Y23.945 E15.15724
G1 X93.024 Y23.501 E15.17605
G1 X93.624 Y23.117 E15.19382
G1 X94.08 Y22.87 E15.20675
G1 X94.663 Y22.584 E15.22295
G1 X95.182 Y22.373 E15.23693
G1 X95.798 Y22.156 E15.25322
G1 X96.326 Y22.011 E15.26688
G1 X96.947 Y21.869 E15.28277
G1 X97.487 Y21.784 E15.2964
G1 X98.114 Y21.715 E15.31214
G1 X98.701 Y21.691 E15.32679
G1 X99.056 Y21.686 E15.33565
G1 X99.77 Y21.726 E15.35349
G1 X100.51 Y21.811 E15.37207
G1 X101.01 Y21.905 E15.38476
G1 X101.666 Y22.06 E15.40157
G1 X102.19 Y22.223 E15.41526
G1 X102.794 Y22.441 E15.43128
G1 X103.274 Y22.654 E15.44438
G1 X103.889 Y22.958 E15.46149
G1 X104.651 Y23.416 E15.48367
G1 X104.881 Y23.573 E15.49062
G1 X106.045 Y24.445 E15.5269
G1 X106.414 Y24.769 E15.53915
G1 X108.412 Y26.822 E15.61061
G1 X110.359 Y28.712 E15.6783
G1 X112.374 Y30.561 E15.74652
G1 X114.456 Y32.365 E15.81524
G1 X116.562 Y34.088 E15.88311
G1 X118.75 Y35.777 E15.95206
G1 X120.959 Y37.386 E16.02023
G1 X123.216 Y38.933 E16.08849
G1 X125.515 Y40.416 E16.15674
G1 X127.857 Y41.832 E16.22501
G1 X130.223 Y43.175 E16.29287
G1 X132.659 Y44.467 E16.36166
G1 X135.118 Y45.685 E16.43011
G1 X137.6 Y46.826 E16.49825
G1 X140.13 Y47.905 E16.56686
G1 X142.692 Y48.913 E16.63554
G1 X145.255 Y49.836 E16.70349
G1 X147.841 Y50.687 E16.7714
G1 X150.486 Y51.476 E16.84026
G1 X153.105 Y52.177 E16.90789
G1 X155.801 Y52.818 E16.97701
G1 X158.504 Y53.38 E17.04588
G1 X161.163 Y53.853 E17.11325
G1 X163.881 Y54.26 E17.18181
G1 X166.568 Y54.584 E17.24932
G1 X169.324 Y54.838 E17.31836
G1 X172.067 Y55.012 E17.38693
G1 X174.789 Y55.108 E17.45487
G1 X177.545 Y55.127 E17.52362
G1 X180.265 Y55.069 E17.59148
G1 X183.018 Y54.933 E17.66024
G1 X185.73 Y54.721 E17.7281
G1 X188.44 Y54.432 E17.79608
G1 X191.174 Y54.062 E17.86491
G1 X193.28 Y53.706 E17.91819
G1 X194.849 Y53.457 E17.95781
G1 X195.585 Y53.373 E17.97629
G1 X196.086 Y53.352 E17.9888
G1 X196.754 Y53.354 E18.00547
G1 X197.328 Y53.396 E18.01982
G1 X197.95 Y53.471 E18.03545
G1 X198.457 Y53.567 E18.04832
G1 X199.097 Y53.718 E18.06473
G1 X199.639 Y53.886 E18.07888
G1 X200.252 Y54.108 E18.09514
G1 X201.054 Y54.473 E18.11712
G1 X201.3 Y54.603 E18.12406
G1 X201.822 Y54.909 E18.13916
G1 X202.341 Y55.247 E18.15461
G1 X203.037 Y55.783 E18.17652
G1 X203.241 Y55.959 E18.18324
G1 X203.607 Y56.304 E18.19579
G1 X204.104 Y56.816 E18.21359
G1 X204.438 Y57.215 E18.22657
G1 X204.845 Y57.745 E18.24324
G1 X205.138 Y58.188 E18.25649
G1 X205.47 Y58.742 E18.2726
G1 X205.721 Y59.235 E18.2864
G1 X205.981 Y59.812 E18.30219
G1 X206.187 Y60.366 E18.31693
G1 X206.379 Y60.963 E18.33257
G1 X206.583 Y61.838 E18.35499
G1 X206.691 Y62.577 E18.37362
G1 X206.754 Y63.303 E18.39179
G1 X206.761 Y63.848 E18.40539
G1 X206.74 Y64.488 E18.42136
G1 X206.685 Y65.026 E18.43485
G1 X206.59 Y65.673 E18.45117
G1 X206.475 Y66.192 E18.46443
G1 X206.309 Y66.82 E18.48063
G1 X206.193 Y67.17 E18.48983
G1 X205.836 Y68.208 E18.51721
G1 X205.6 Y68.74 E18.53173
G1 X204.442 Y70.932 E18.59357
G1 X203.234 Y73.382 E18.66171
G1 X202.096 Y75.865 E18.72984
G1 X201.028 Y78.377 E18.79793
G1 X200.009 Y80.977 E18.86759
G1 X199.091 Y83.534 E18.93537
G1 X198.251 Y86.099 E19.00269
G1 X197.457 Y88.773 E19.07227
G1 X196.758 Y91.401 E19.14011
G1 X196.134 Y94.039 E19.20773
G1 X195.566 Y96.781 E19.27758
G1 X195.099 Y99.433 E19.34475
G1 X194.696 Y102.148 E19.41322
G1 X194.37 Y104.882 E19.48191
G1 X194.125 Y107.589 E19.54971
G1 X193.953 Y110.344 E19.61857
G1 X193.861 Y113.063 E19.68643
G1 X193.845 Y115.819 E19.75518
G1 X193.907 Y118.542 E19.82312
G1 X194.046 Y121.29 E19.89176
G1 X194.261 Y124 E19.95957
G1 X194.559 Y126.751 E20.0286
G1 X194.926 Y129.443 E20.09637
G1 X195.374 Y132.154 E20.16492
G1 X195.898 Y134.843 E20.23325
G1 X196.502 Y137.533 E20.30203
G1 X197.162 Y140.135 E20.36899
G1 X197.924 Y142.812 E20.43842
G1 X198.754 Y145.449 E20.50738
G1 X199.638 Y147.993 E20.57457
G1 X200.606 Y150.549 E20.64274
G1 X201.655 Y153.1 E20.71155
G1 X202.77 Y155.607 E20.77999
G1 X203.953 Y158.074 E20.84824
G1 X205.435 Y160.938 E20.92868
G1 X205.678 Y161.39 E20.94148
G1 X205.89 Y161.879 E20.95478
G1 X206.131 Y162.6 E20.97374
G1 X206.33 Y163.243 E20.99053
G1 X206.48 Y163.827 E21.00557
G1 X206.63 Y164.561 E21.02426
G1 X206.702 Y165.117 E21.03825
G1 X206.753 Y165.744 E21.05394
G1 X206.76 Y166.301 E21.06784
G1 X206.739 Y166.943 E21.08386
G1 X206.684 Y167.48 E21.09732
G1 X206.59 Y168.119 E21.11344
G1 X206.469 Y168.669 E21.12748
G1 X206.299 Y169.304 E21.14388
