;FLAVOR:Marlin
;TIME:12383
;Filament used: 14.5668m
;Layer height: 0.25
;MINX:103.124
;MINY:55.8
;MINZ:0.3
;MAXX:131.743
;MAXY:179.2
;MAXZ:64.8
;Generated with Cura_SteamEngine 4.12.1
M140 S60
M105
M190 S60
M104 S200
M105
M109 S200
M82 ;absolute extrusion mode
M201 X500.00 Y500.00 Z100.00 E5000.00 	;Setup machine max acceleration
M203 X500.00 Y500.00 Z10.00 E50.00 	;Setup machine max feedrate
M204 P500.00 R1000.00 T500.00 		;Setup Print/Retract/Travel acceleration
M205 X8.00 Y8.00 Z0.40 E5.00 		;Setup Jerk
M220 S100 				;Reset Feedrate
M221 S100 				;Reset Flowrate
G28					;Home the Machine
G92 E0
M300 P150 S587
G92 E0
G1 F1500 E-6.5
;LAYER_COUNT:259
;LAYER:0
M107
G0 F1980 X103.51 Y57.504 Z0.3
;TYPE:SKIRT
G1 F1500 E0
G1 F900 X103.782 Y57.078 E0.02522
G1 X104.118 Y56.701 E0.05041
G1 X104.509 Y56.38 E0.07565
G1 X104.946 Y56.126 E0.10087
G1 X105.417 Y55.943 E0.12608
G1 X105.912 Y55.837 E0.15133
G1 X106.564 Y55.801 E0.18391
G1 X122.828 Y55.8 E0.99532
G1 X124.579 Y55.802 E1.08268
G1 X124.748 Y55.8 E1.09111
G1 X127.764 Y55.8 E1.24158
G1 X128.466 Y55.81 E1.27661
G1 X128.969 Y55.857 E1.30181
G1 X129.459 Y55.983 E1.32705
G1 X129.922 Y56.185 E1.35226
G1 X130.349 Y56.456 E1.37749
G1 X130.795 Y56.859 E1.40748
G1 X131.123 Y57.244 E1.43271
G1 X131.386 Y57.675 E1.4579
G1 X131.579 Y58.143 E1.48316
G1 X131.695 Y58.635 E1.50838
G1 X131.737 Y59.208 E1.53704
G1 X131.742 Y59.654 E1.55929
G1 X131.743 Y73.217 E2.23595
G1 X131.733 Y73.925 E2.27128
G1 X131.686 Y74.429 E2.29653
G1 X131.564 Y74.905 E2.32105
G1 X131.129 Y76.193 E2.38887
G1 X130.332 Y78.658 E2.51812
G1 X129.568 Y81.258 E2.65332
G1 X128.869 Y83.918 E2.79053
G1 X128.241 Y86.606 E2.92825
G1 X127.707 Y89.241 E3.06238
G1 X127.233 Y91.968 E3.20047
G1 X126.842 Y94.662 E3.33628
G1 X126.523 Y97.397 E3.47366
G1 X126.283 Y100.14 E3.61103
G1 X126.123 Y102.852 E3.74657
G1 X126.038 Y105.56 E3.88174
G1 X126.024 Y107.24 E3.96556
G1 X126.024 Y129.763 E5.08923
G1 X126.064 Y132.561 E5.22884
G1 X126.179 Y135.277 E5.36446
G1 X126.374 Y138.023 E5.50181
G1 X126.642 Y140.729 E5.63747
G1 X126.99 Y143.452 E5.77443
G1 X127.415 Y146.153 E5.91084
G1 X127.918 Y148.861 E6.04825
G1 X128.49 Y151.518 E6.18385
G1 X129.138 Y154.165 E6.3198
G1 X129.865 Y156.805 E6.45642
G1 X130.67 Y159.434 E6.59359
G1 X131.168 Y160.896 E6.67064
G1 X131.571 Y162.118 E6.73484
G1 X131.691 Y162.609 E6.76006
G1 X131.735 Y163.162 E6.78773
G1 X131.742 Y163.682 E6.81368
G1 X131.743 Y175.183 E7.38747
G1 X131.733 Y175.921 E7.42429
G1 X131.686 Y176.425 E7.44954
G1 X131.56 Y176.915 E7.47478
G1 X131.359 Y177.378 E7.49997
G1 X131.088 Y177.805 E7.5252
G1 X130.684 Y178.253 E7.55529
G1 X130.299 Y178.581 E7.58053
G1 X129.868 Y178.844 E7.60572
G1 X129.4 Y179.037 E7.63097
G1 X128.908 Y179.153 E7.65619
G1 X128.381 Y179.193 E7.68256
G1 X127.903 Y179.2 E7.70641
G1 X124.222 Y179.2 E7.89006
G1 X123.015 Y179.196 E7.95027
G1 X122.494 Y179.2 E7.97627
G1 X106.985 Y179.2 E8.75001
G1 X106.287 Y179.19 E8.78484
G1 X105.784 Y179.143 E8.81005
G1 X105.294 Y179.017 E8.83529
G1 X104.83 Y178.815 E8.86053
G1 X104.404 Y178.543 E8.88575
G1 X104.026 Y178.208 E8.91095
G1 X103.706 Y177.817 E8.93616
G1 X103.451 Y177.38 E8.9614
G1 X103.268 Y176.909 E8.98661
G1 X103.161 Y176.415 E9.01183
G1 X103.125 Y175.745 E9.0453
G1 X103.124 Y59.626 E14.8385
G1 X103.134 Y58.961 E14.87168
G1 X103.182 Y58.458 E14.89689
G1 X103.308 Y57.968 E14.92213
G1 X103.51 Y57.504 E14.94738
G1 F1500 E8.44738
G0 F1980 X122.981 Y58.339
G0 X123.724 Y60.509
;TYPE:SUPPORT
G1 F1500 E14.94738
G1 F900 X123.87 Y60.41 E14.95618
G1 X124.365 Y59.2 E15.0214
G1 X128.342 Y59.2 E15.21982
G1 X128.343 Y73.8 E15.94821
G1 X123.724 Y73.8 E16.17866
G1 X123.724 Y60.509 E16.84175
G0 F1980 X123.884 Y61.341
G1 F900 X128.183 Y61.341 E17.05622
G0 F1980 X128.016 Y59.36
G1 F900 X128.016 Y73.64 E17.76866
G0 F1980 X128.183 Y72.009
G1 F900 X123.884 Y72.009 E17.98313
G0 F1980 X125.349 Y73.64
G1 F900 X125.349 Y59.36 E18.69557
G0 F1980 X123.884 Y64.008
G1 F900 X128.183 Y64.008 E18.91004
G0 F1980 X128.183 Y66.675
G1 F900 X123.884 Y66.675 E19.12452
G0 F1980 X123.884 Y69.342
G1 F900 X128.183 Y69.342 E19.339
G0 F1980 X128.342 Y163.2
G1 F900 X128.343 Y175.8 E19.96762
G1 X124.366 Y175.8 E20.16603
G1 X123.871 Y174.59 E20.23125
G1 X123.724 Y174.492 E20.24007
G1 X123.724 Y163.2 E20.80343
G1 X128.342 Y163.2 E21.03382
G0 F1980 X128.016 Y163.36
G1 F900 X128.016 Y175.64 E21.64647
G0 F1980 X128.182 Y173.355
G1 F900 X123.883 Y173.355 E21.86095
G0 F1980 X123.883 Y170.688
G1 F900 X128.182 Y170.688 E22.07543
G0 F1980 X128.182 Y168.021
G1 F900 X123.883 Y168.021 E22.28991
G0 F1980 X123.883 Y165.354
G1 F900 X128.182 Y165.354 E22.50438
G0 F1980 X125.349 Y163.36
G1 F900 X125.349 Y175.64 E23.11704
G1 F1500 E16.61704
;MESH:psu_front_mount_right.stl
G0 F1980 X123.489 Y175.386
G0 X122.21 Y175.386
G1 F1500 E23.11704
G0 F1980 X122.224 Y175.4
;TYPE:WALL-INNER
G1 F900 X106.924 Y175.4 E23.88036
G1 X106.924 Y59.6 E29.65764
G1 X122.224 Y59.6 E30.42096
G1 X122.224 Y175.4 E36.19825
G0 F1980 X122.624 Y175.8
;TYPE:WALL-OUTER
G1 F900 X106.524 Y175.8 E37.00148
G1 X106.524 Y59.2 E42.81868
G1 X122.624 Y59.2 E43.62191
G1 X122.624 Y175.8 E49.43911
G0 F1980 X122.424 Y175.8
G0 X121.834 Y175.01
;TYPE:SKIN
G1 F900 X107.314 Y175.01 E50.23595
G1 X107.314 Y59.99 E56.54816
G1 X121.834 Y59.99 E57.34501
G1 X121.834 Y175.01 E63.65722
G0 F1980 X108.078 Y174.829
G1 F900 X107.493 Y174.244 E63.70262
G0 F1980 X107.493 Y173.678
G1 F900 X108.644 Y174.829 E63.79195
G0 F1980 X109.209 Y174.829
G1 F900 X107.493 Y173.113 E63.92513
G0 F1980 X107.493 Y172.547
G1 F900 X109.775 Y174.829 E64.10224
G0 F1980 X110.341 Y174.829
G1 F900 X107.493 Y171.981 E64.32327
G0 F1980 X107.493 Y171.416
G1 F900 X110.906 Y174.829 E64.58816
G0 F1980 X111.472 Y174.829
G1 F900 X107.493 Y170.85 E64.89697
G0 F1980 X107.493 Y170.284
G1 F900 X112.038 Y174.829 E65.24972
G0 F1980 X112.603 Y174.829
G1 F900 X107.493 Y169.719 E65.64631
G0 F1980 X107.493 Y169.153
G1 F900 X113.169 Y174.829 E66.08683
G0 F1980 X113.735 Y174.829
G1 F900 X107.493 Y168.587 E66.57127
G0 F1980 X107.493 Y168.022
G1 F900 X114.3 Y174.829 E67.09957
G0 F1980 X114.866 Y174.829
G1 F900 X107.493 Y167.456 E67.6718
G0 F1980 X107.493 Y166.89
G1 F900 X115.432 Y174.829 E68.28795
G0 F1980 X115.998 Y174.829
G1 F900 X107.493 Y166.324 E68.94803
G0 F1980 X107.493 Y165.759
G1 F900 X116.563 Y174.829 E69.65196
G0 F1980 X117.129 Y174.829
G1 F900 X107.493 Y165.193 E70.39982
G0 F1980 X107.493 Y164.627
G1 F900 X117.695 Y174.829 E71.19161
G0 F1980 X118.26 Y174.829
G1 F900 X107.493 Y164.062 E72.02725
G0 F1980 X107.493 Y163.496
G1 F900 X118.826 Y174.829 E72.90681
G0 F1980 X119.392 Y174.829
G1 F900 X107.493 Y162.93 E73.8303
G0 F1980 X107.493 Y162.365
G1 F900 X119.957 Y174.829 E74.79765
G0 F1980 X120.523 Y174.829
G1 F900 X107.493 Y161.799 E75.80892
G0 F1980 X107.493 Y161.233
G1 F900 X121.089 Y174.829 E76.86412
G0 F1980 X121.653 Y174.827
G1 F900 X107.493 Y160.668 E77.96305
G0 F1980 X107.493 Y160.102
G1 F900 X121.653 Y174.262 E79.06202
G0 F1980 X121.653 Y173.696
G1 F900 X107.493 Y159.536 E80.16099
G0 F1980 X107.493 Y158.971
G1 F900 X121.653 Y173.13 E81.25992
G0 F1980 X121.653 Y172.565
G1 F900 X107.493 Y158.405 E82.35889
G0 F1980 X107.493 Y157.839
G1 F900 X121.653 Y171.999 E83.45786
G0 F1980 X121.653 Y171.433
G1 F900 X107.493 Y157.273 E84.55683
G0 F1980 X107.493 Y156.708
G1 F900 X121.653 Y170.868 E85.6558
G0 F1980 X121.653 Y170.302
G1 F900 X107.493 Y156.142 E86.75478
G0 F1980 X107.493 Y155.576
G1 F900 X121.653 Y169.736 E87.85375
G0 F1980 X121.653 Y169.171
G1 F900 X107.493 Y155.011 E88.95272
G0 F1980 X107.493 Y154.445
G1 F900 X121.653 Y168.605 E90.05169
G0 F1980 X121.653 Y168.039
G1 F900 X107.493 Y153.879 E91.15066
G0 F1980 X107.493 Y153.314
G1 F900 X121.653 Y167.473 E92.24959
G0 F1980 X121.653 Y166.908
G1 F900 X107.493 Y152.748 E93.34856
G0 F1980 X107.493 Y152.182
G1 F900 X121.653 Y166.342 E94.44753
G0 F1980 X121.653 Y165.776
G1 F900 X107.493 Y151.617 E95.54647
G0 F1980 X107.493 Y151.051
G1 F900 X121.653 Y165.211 E96.64544
G0 F1980 X121.653 Y164.645
G1 F900 X107.493 Y150.485 E97.74441
G0 F1980 X107.493 Y149.92
G1 F900 X121.653 Y164.079 E98.84334
G0 F1980 X121.653 Y163.514
G1 F900 X107.493 Y149.354 E99.94231
G0 F1980 X107.493 Y148.788
G1 F900 X121.653 Y162.948 E101.04128
G0 F1980 X121.653 Y162.382
G1 F900 X107.493 Y148.223 E102.14021
G0 F1980 X107.493 Y147.657
G1 F900 X121.653 Y161.817 E103.23918
G0 F1980 X121.653 Y161.251
G1 F900 X107.493 Y147.091 E104.33816
G0 F1980 X107.493 Y146.525
G1 F900 X121.653 Y160.685 E105.43713
G0 F1980 X121.653 Y160.12
G1 F900 X107.493 Y145.96 E106.5361
G0 F1980 X107.493 Y145.394
G1 F900 X121.653 Y159.554 E107.63507
G0 F1980 X121.653 Y158.988
G1 F900 X107.493 Y144.828 E108.73404
G0 F1980 X107.493 Y144.263
G1 F900 X121.653 Y158.423 E109.83301
G0 F1980 X121.653 Y157.857
G1 F900 X107.493 Y143.697 E110.93198
G0 F1980 X107.493 Y143.131
G1 F900 X121.653 Y157.291 E112.03095
G0 F1980 X121.653 Y156.725
G1 F900 X107.493 Y142.566 E113.12988
G0 F1980 X107.493 Y142
G1 F900 X121.653 Y156.16 E114.22886
G0 F1980 X121.653 Y155.594
G1 F900 X107.493 Y141.434 E115.32783
G0 F1980 X107.493 Y140.869
G1 F900 X121.653 Y155.028 E116.42676
G0 F1980 X121.653 Y154.463
G1 F900 X107.493 Y140.303 E117.52573
G0 F1980 X107.493 Y139.737
G1 F900 X121.653 Y153.897 E118.6247
G0 F1980 X121.653 Y153.331
G1 F900 X107.493 Y139.172 E119.72363
G0 F1980 X107.493 Y138.606
G1 F900 X121.653 Y152.766 E120.8226
G0 F1980 X121.653 Y152.2
G1 F900 X107.493 Y138.04 E121.92157
G0 F1980 X107.493 Y137.474
G1 F900 X121.653 Y151.634 E123.02054
G0 F1980 X121.653 Y151.069
G1 F900 X107.493 Y136.909 E124.11952
G0 F1980 X107.493 Y136.343
G1 F900 X121.653 Y150.503 E125.21849
G0 F1980 X121.653 Y149.937
G1 F900 X107.493 Y135.777 E126.31746
G0 F1980 X107.493 Y135.212
G1 F900 X121.653 Y149.372 E127.41643
G0 F1980 X121.653 Y148.806
G1 F900 X107.493 Y134.646 E128.5154
G0 F1980 X107.493 Y134.08
G1 F900 X121.653 Y148.24 E129.61437
G0 F1980 X121.653 Y147.675
G1 F900 X107.493 Y133.515 E130.71334
G0 F1980 X107.493 Y132.949
G1 F900 X121.653 Y147.109 E131.81231
G0 F1980 X121.653 Y146.543
G1 F900 X107.493 Y132.383 E132.91128
G0 F1980 X107.493 Y131.818
G1 F900 X121.653 Y145.977 E134.01022
G0 F1980 X121.653 Y145.412
G1 F900 X107.493 Y131.252 E135.10919
G0 F1980 X107.493 Y130.686
G1 F900 X121.653 Y144.846 E136.20816
G0 F1980 X121.653 Y144.28
G1 F900 X107.493 Y130.121 E137.30709
G0 F1980 X107.493 Y129.555
G1 F900 X121.653 Y143.715 E138.40606
G0 F1980 X121.653 Y143.149
G1 F900 X107.493 Y128.989 E139.50503
G0 F1980 X107.493 Y128.424
G1 F900 X121.653 Y142.583 E140.60396
G0 F1980 X121.653 Y142.018
G1 F900 X107.493 Y127.858 E141.70293
G0 F1980 X107.493 Y127.292
G1 F900 X121.653 Y141.452 E142.80191
G0 F1980 X121.653 Y140.886
G1 F900 X107.493 Y126.726 E143.90088
G0 F1980 X107.493 Y126.161
G1 F900 X121.653 Y140.321 E144.99985
G0 F1980 X121.653 Y139.755
G1 F900 X107.493 Y125.595 E146.09882
G0 F1980 X107.493 Y125.029
G1 F900 X121.653 Y139.189 E147.19779
G0 F1980 X121.653 Y138.624
G1 F900 X107.493 Y124.464 E148.29676
G0 F1980 X107.493 Y123.898
G1 F900 X121.653 Y138.058 E149.39573
G0 F1980 X121.653 Y137.492
G1 F900 X107.493 Y123.332 E150.4947
G0 F1980 X107.493 Y122.767
G1 F900 X121.653 Y136.926 E151.59363
G0 F1980 X121.653 Y136.361
G1 F900 X107.493 Y122.201 E152.6926
G0 F1980 X107.493 Y121.635
G1 F900 X121.653 Y135.795 E153.79158
G0 F1980 X121.653 Y135.229
G1 F900 X107.493 Y121.07 E154.89051
G0 F1980 X107.493 Y120.504
G1 F900 X121.653 Y134.664 E155.98948
G0 F1980 X121.653 Y134.098
G1 F900 X107.493 Y119.938 E157.08845
G0 F1980 X107.493 Y119.373
G1 F900 X121.653 Y133.532 E158.18738
G0 F1980 X121.653 Y132.967
G1 F900 X107.493 Y118.807 E159.28635
G0 F1980 X107.493 Y118.241
G1 F900 X121.653 Y132.401 E160.38532
G0 F1980 X121.653 Y131.835
G1 F900 X107.493 Y117.676 E161.48426
G0 F1980 X107.493 Y117.11
G1 F900 X121.653 Y131.27 E162.58323
G0 F1980 X121.653 Y130.704
G1 F900 X107.493 Y116.544 E163.6822
G0 F1980 X107.493 Y115.978
G1 F900 X121.653 Y130.138 E164.78117
G0 F1980 X121.653 Y129.573
G1 F900 X107.493 Y115.413 E165.88014
G0 F1980 X107.493 Y114.847
G1 F900 X121.653 Y129.007 E166.97911
G0 F1980 X121.653 Y128.441
G1 F900 X107.493 Y114.281 E168.07808
G0 F1980 X107.493 Y113.716
G1 F900 X121.653 Y127.876 E169.17705
G0 F1980 X121.653 Y127.31
G1 F900 X107.493 Y113.15 E170.27602
G0 F1980 X107.493 Y112.584
G1 F900 X121.653 Y126.744 E171.37499
G0 F1980 X121.653 Y126.178
G1 F900 X107.493 Y112.019 E172.47393
G0 F1980 X107.493 Y111.453
G1 F900 X121.653 Y125.613 E173.5729
G0 F1980 X121.653 Y125.047
G1 F900 X107.493 Y110.887 E174.67187
G0 F1980 X107.493 Y110.322
G1 F900 X121.653 Y124.481 E175.7708
G0 F1980 X121.653 Y123.916
G1 F900 X107.493 Y109.756 E176.86977
G0 F1980 X107.493 Y109.19
G1 F900 X121.653 Y123.35 E177.96874
G0 F1980 X121.653 Y122.784
G1 F900 X107.493 Y108.625 E179.06767
G0 F1980 X107.493 Y108.059
G1 F900 X121.653 Y122.219 E180.16665
G0 F1980 X121.653 Y121.653
G1 F900 X107.493 Y107.493 E181.26562
G0 F1980 X107.493 Y106.927
G1 F900 X121.653 Y121.087 E182.36459
G0 F1980 X121.653 Y120.522
G1 F900 X107.493 Y106.362 E183.46356
G0 F1980 X107.493 Y105.796
G1 F900 X121.653 Y119.956 E184.56253
G0 F1980 X121.653 Y119.39
G1 F900 X107.493 Y105.23 E185.6615
G0 F1980 X107.493 Y104.665
G1 F900 X121.653 Y118.825 E186.76047
G0 F1980 X121.653 Y118.259
G1 F900 X107.493 Y104.099 E187.85944
G0 F1980 X107.493 Y103.533
G1 F900 X121.653 Y117.693 E188.95841
G0 F1980 X121.653 Y117.127
G1 F900 X107.493 Y102.968 E190.05734
G0 F1980 X107.493 Y102.402
G1 F900 X121.653 Y116.562 E191.15632
G0 F1980 X121.653 Y115.996
G1 F900 X107.493 Y101.836 E192.25529
G0 F1980 X107.493 Y101.271
G1 F900 X121.653 Y115.43 E193.35422
G0 F1980 X121.653 Y114.865
G1 F900 X107.493 Y100.705 E194.45319
G0 F1980 X107.493 Y100.139
G1 F900 X121.653 Y114.299 E195.55216
G0 F1980 X121.653 Y113.733
G1 F900 X107.493 Y99.574 E196.65109
G0 F1980 X107.493 Y99.008
G1 F900 X121.653 Y113.168 E197.75006
G0 F1980 X121.653 Y112.602
G1 F900 X107.493 Y98.442 E198.84903
G0 F1980 X107.493 Y97.877
G1 F900 X121.653 Y112.036 E199.94797
G0 F1980 X121.653 Y111.471
G1 F900 X107.493 Y97.311 E201.04694
G0 F1980 X107.493 Y96.745
G1 F900 X121.653 Y110.905 E202.14591
G0 F1980 X121.653 Y110.339
G1 F900 X107.493 Y96.179 E203.24488
G0 F1980 X107.493 Y95.614
G1 F900 X121.653 Y109.774 E204.34385
G0 F1980 X121.653 Y109.208
G1 F900 X107.493 Y95.048 E205.44282
G0 F1980 X107.493 Y94.482
G1 F900 X121.653 Y108.642 E206.54179
G0 F1980 X121.653 Y108.077
G1 F900 X107.493 Y93.917 E207.64076
G0 F1980 X107.493 Y93.351
G1 F900 X121.653 Y107.511 E208.73973
G0 F1980 X121.653 Y106.945
G1 F900 X107.493 Y92.785 E209.8387
G0 F1980 X107.493 Y92.22
G1 F900 X121.653 Y106.379 E210.93764
G0 F1980 X121.653 Y105.814
G1 F900 X107.493 Y91.654 E212.03661
G0 F1980 X107.493 Y91.088
G1 F900 X121.653 Y105.248 E213.13558
G0 F1980 X121.653 Y104.682
G1 F900 X107.493 Y90.523 E214.23451
G0 F1980 X107.493 Y89.957
G1 F900 X121.653 Y104.117 E215.33348
G0 F1980 X121.653 Y103.551
G1 F900 X107.493 Y89.391 E216.43245
G0 F1980 X107.493 Y88.826
G1 F900 X121.653 Y102.985 E217.53138
G0 F1980 X121.653 Y102.42
G1 F900 X107.493 Y88.26 E218.63036
G0 F1980 X107.493 Y87.694
G1 F900 X121.653 Y101.854 E219.72933
G0 F1980 X121.653 Y101.288
G1 F900 X107.493 Y87.128 E220.8283
G0 F1980 X107.493 Y86.563
G1 F900 X121.653 Y100.723 E221.92727
G0 F1980 X121.653 Y100.157
G1 F900 X107.493 Y85.997 E223.02624
G0 F1980 X107.493 Y85.431
G1 F900 X121.653 Y99.591 E224.12521
G0 F1980 X121.653 Y99.026
G1 F900 X107.493 Y84.866 E225.22418
G0 F1980 X107.493 Y84.3
G1 F900 X121.653 Y98.46 E226.32315
G0 F1980 X121.653 Y97.894
G1 F900 X107.493 Y83.734 E227.42212
G0 F1980 X107.493 Y83.169
