;FLAVOR:Marlin
;TIME:11203
;Filament used: 11.7414m
;Layer height: 0.25
;MINX:56.077
;MINY:68.056
;MINZ:0.3
;MAXX:161.027
;MAXY:180.477
;MAXZ:20.05
;Generated with Cura_SteamEngine 4.12.1
M140 S60
M105
M190 S60
M104 S200
M105
M109 S200
M82 ;absolute extrusion mode
M201 X500.00 Y500.00 Z100.00 E5000.00 	;Setup machine max acceleration
M203 X500.00 Y500.00 Z10.00 E50.00 	;Setup machine max feedrate
M204 P500.00 R1000.00 T500.00 		;Setup Print/Retract/Travel acceleration
M205 X8.00 Y8.00 Z0.40 E5.00 		;Setup Jerk
M220 S100 				;Reset Feedrate
M221 S100 				;Reset Flowrate
G28					;Home the Machine
G92 E0
M300 P150 S587
G92 E0
G1 F1500 E-6.5
;LAYER_COUNT:80
;LAYER:0
M107
G0 F1980 X88.67 Y73.8 Z0.3
;TYPE:SKIRT
G1 F1500 E0
G1 F900 X89.118 Y73.318 E0.03283
G1 X90.6 Y71.782 E0.13932
G1 X91.07 Y71.309 E0.17258
G1 X91.556 Y70.909 E0.20399
G1 X92.465 Y70.299 E0.2586
G1 X92.963 Y69.975 E0.28824
G1 X93.896 Y69.327 E0.34491
G1 X94.967 Y68.603 E0.40941
G1 X95.407 Y68.354 E0.43463
G1 X95.88 Y68.177 E0.45983
G1 X96.376 Y68.077 E0.48507
G1 X96.881 Y68.056 E0.51029
G1 X97.423 Y68.122 E0.53753
G1 X98.058 Y68.247 E0.56982
G1 X131.75 Y75.358 E2.28775
G1 X132.455 Y75.517 E2.3238
G1 X132.938 Y75.667 E2.34904
G1 X133.391 Y75.891 E2.37425
G1 X133.803 Y76.184 E2.39947
G1 X134.164 Y76.538 E2.4247
G1 X134.465 Y76.944 E2.44991
G1 X134.801 Y77.576 E2.48562
G1 X136.113 Y80.059 E2.62573
G1 X137.44 Y82.407 E2.76028
G1 X138.878 Y84.793 E2.89927
G1 X140.334 Y87.06 E3.03369
G1 X141.879 Y89.321 E3.17031
G1 X143.5 Y91.558 E3.30814
G1 X145.155 Y93.708 E3.4435
G1 X146.898 Y95.848 E3.5812
G1 X148.67 Y97.899 E3.71642
G1 X150.526 Y99.929 E3.85365
G1 X151.866 Y101.3 E3.94929
G1 X152.751 Y102.224 E4.01313
G1 X153.071 Y102.615 E4.03833
G1 X153.325 Y103.052 E4.06355
G1 X153.559 Y103.722 E4.09896
G1 X153.755 Y104.579 E4.14282
G1 X160.843 Y138.17 E5.85558
G1 X160.97 Y138.822 E5.88872
G1 X161.027 Y139.325 E5.91398
G1 X161.004 Y139.83 E5.9392
G1 X160.903 Y140.325 E5.9644
G1 X160.724 Y140.798 E5.98963
G1 X160.475 Y141.234 E6.01468
G1 X159.856 Y142.142 E6.06951
G1 X159.511 Y142.632 E6.0994
G1 X158.492 Y144.157 E6.19091
G1 X158.225 Y144.563 E6.21515
G1 X157.818 Y145.063 E6.24732
G1 X157.015 Y145.868 E6.30404
G1 X155.864 Y146.98 E6.38389
G1 X155.336 Y147.476 E6.42003
G1 X154.91 Y147.839 E6.44795
G1 X152.831 Y149.63 E6.58486
G1 X150.783 Y151.499 E6.72318
G1 X148.844 Y153.372 E6.85768
G1 X146.912 Y155.347 E6.99552
G1 X145.059 Y157.35 E7.13165
G1 X143.261 Y159.41 E7.26807
G1 X141.517 Y161.523 E7.40475
G1 X139.831 Y163.689 E7.5417
G1 X138.22 Y165.884 E7.67753
G1 X136.668 Y168.131 E7.81378
G1 X134.583 Y171.373 E8.00608
G1 X134.464 Y171.566 E8.0174
G1 X134.167 Y171.975 E8.04261
G1 X133.808 Y172.331 E8.06784
G1 X133.398 Y172.627 E8.09307
G1 X132.946 Y172.854 E8.1183
G1 X132.447 Y173.011 E8.1444
G1 X131.598 Y173.204 E8.18784
G1 X98.012 Y180.291 E9.90035
G1 X97.361 Y180.419 E9.93345
G1 X96.859 Y180.477 E9.95866
G1 X96.354 Y180.455 E9.98388
G1 X95.859 Y180.354 E10.00908
G1 X95.385 Y180.176 E10.03434
G1 X94.944 Y179.925 E10.05966
G1 X94.011 Y179.29 E10.11596
G1 X93.428 Y178.881 E10.15149
G1 X92.018 Y177.94 E10.23606
G1 X91.614 Y177.675 E10.26017
G1 X91.112 Y177.267 E10.29244
G1 X90.339 Y176.496 E10.34691
G1 X89.227 Y175.346 E10.42672
G1 X88.712 Y174.799 E10.4642
G1 X88.326 Y174.297 E10.4958
G1 X87.796 Y173.446 E10.54581
G1 X86.326 Y171.155 E10.68162
G1 X84.769 Y168.872 E10.81948
G1 X83.162 Y166.654 E10.95613
G1 X81.502 Y164.494 E11.09204
G1 X79.765 Y162.361 E11.22928
G1 X77.99 Y160.305 E11.36479
G1 X76.135 Y158.274 E11.50202
G1 X74.226 Y156.299 E11.63906
G1 X72.267 Y154.385 E11.7757
G1 X70.261 Y152.532 E11.91194
G1 X68.205 Y150.738 E12.04808
G1 X66.073 Y148.98 E12.18594
G1 X63.916 Y147.303 E12.32225
G1 X62.412 Y146.2 E12.4153
G1 X61.808 Y145.729 E12.45351
G1 X61.324 Y145.278 E12.48652
G1 X59.812 Y143.819 E12.59134
G1 X59.326 Y143.336 E12.62553
G1 X58.922 Y142.845 E12.65725
G1 X58.335 Y141.967 E12.70994
G1 X58.01 Y141.467 E12.73969
G1 X57.369 Y140.543 E12.7958
G1 X56.625 Y139.444 E12.86201
G1 X56.376 Y139.004 E12.88723
G1 X56.199 Y138.531 E12.91243
G1 X56.098 Y138.035 E12.93768
G1 X56.077 Y137.53 E12.9629
G1 X56.145 Y136.967 E12.99119
G1 X56.261 Y136.387 E13.0207
G1 X63.392 Y102.596 E14.74367
G1 X63.54 Y101.946 E14.77693
G1 X63.691 Y101.463 E14.80218
G1 X63.916 Y101.01 E14.82741
G1 X64.209 Y100.599 E14.85259
G1 X64.674 Y100.147 E14.88495
G1 X65.304 Y99.649 E14.92501
G1 X66.31 Y98.876 E14.98831
G1 X68.443 Y97.138 E15.12558
G1 X70.502 Y95.361 E15.26127
G1 X72.527 Y93.509 E15.39817
G1 X74.486 Y91.615 E15.53412
G1 X76.423 Y89.632 E15.67242
G1 X78.269 Y87.633 E15.80817
G1 X80.076 Y85.561 E15.94533
G1 X81.804 Y83.463 E16.08093
G1 X83.48 Y81.305 E16.21725
G1 X85.112 Y79.079 E16.35495
G1 X86.653 Y76.845 E16.49035
G1 X88.163 Y74.52 E16.62866
G1 X88.35 Y74.224 E16.64613
G1 X88.67 Y73.8 E16.67263
G1 F1500 E10.17263
;MESH:Standoff.stl(2)
G0 F1980 X91.012 Y75.007
G0 X91.932 Y75.894
G0 X95.046 Y78.624
G1 F1500 E16.67263
G0 F1980 X94.946 Y78.624
;TYPE:WALL-INNER
G1 F900 X91.913 Y75.894 E16.87622
G1 X93.597 Y74.15 E16.99717
G1 X93.842 Y74.15 E17.00939
G1 X93.842 Y76.45 E17.12414
G1 X95.061 Y76.45 E17.18496
G1 X97.357 Y74.522 E17.33453
G1 X97.357 Y71.983 E17.46121
G1 X131.157 Y79.116 E19.18464
G1 X131.157 Y98.144 E20.13395
G1 X97.357 Y105.276 E21.85737
G1 X97.357 Y102.737 E21.98404
G1 X95.061 Y100.809 E22.13361
G1 X93.842 Y100.809 E22.19443
G1 X93.842 Y103.109 E22.30918
G1 X93.597 Y103.109 E22.3214
G1 X91.913 Y101.365 E22.44235
G1 X94.946 Y98.635 E22.64594
G1 X91.913 Y95.905 E22.84952
G1 X93.597 Y94.162 E22.97044
G1 X93.842 Y94.162 E22.98266
G1 X93.842 Y96.462 E23.09741
G1 X95.061 Y96.462 E23.15823
G1 X97.357 Y94.534 E23.3078
G1 X97.357 Y82.726 E23.89691
G1 X95.061 Y80.798 E24.04648
G1 X93.842 Y80.798 E24.1073
G1 X93.842 Y83.098 E24.22205
G1 X93.597 Y83.098 E24.23427
G1 X91.913 Y81.354 E24.35522
G1 X94.946 Y78.624 E24.55881
G0 F1980 X95.046 Y78.624
G0 X100.828 Y88.049
G0 X100.829 Y89.227
G0 X101.021 Y90.382
G0 X101.409 Y91.507
G0 X101.966 Y92.536
G0 X102.697 Y93.472
G0 X103.565 Y94.27
G0 X104.553 Y94.914
G0 X105.428 Y95.296
G0 X106.76 Y95.733
G0 X106.776 Y95.635
G1 F900 X107.953 Y95.732 E24.61773
G1 X109.123 Y95.633 E24.67631
G1 X110.258 Y95.344 E24.73474
G1 X111.332 Y94.871 E24.79329
G1 X112.313 Y94.229 E24.85178
G1 X113.176 Y93.434 E24.91032
G1 X113.894 Y92.507 E24.96882
G1 X114.449 Y91.482 E25.02697
G1 X114.831 Y90.364 E25.08591
G1 X115.022 Y89.207 E25.14442
G1 X115.021 Y88.035 E25.20289
G1 X114.828 Y86.879 E25.26136
G1 X114.448 Y85.776 E25.31956
G1 X113.885 Y84.739 E25.37843
G1 X113.17 Y83.819 E25.43656
G1 X112.3 Y83.02 E25.49549
G1 X111.316 Y82.38 E25.55406
G1 X110.242 Y81.91 E25.61254
G1 X109.113 Y81.624 E25.67065
G1 X107.937 Y81.528 E25.72952
G1 X106.767 Y81.626 E25.78809
G1 X105.631 Y81.916 E25.84658
G1 X104.558 Y82.388 E25.90507
G1 X103.576 Y83.03 E25.9636
G1 X102.713 Y83.826 E26.02217
G1 X101.995 Y84.753 E26.08067
G1 X101.44 Y85.777 E26.13878
G1 X101.059 Y86.887 E26.19733
G1 X100.867 Y88.052 E26.25624
G1 X100.868 Y89.224 E26.31471
G1 X101.059 Y90.373 E26.37282
G1 X101.445 Y91.491 E26.43183
G1 X101.999 Y92.515 E26.48991
G1 X102.726 Y93.445 E26.5488
G1 X103.589 Y94.239 E26.60731
G1 X104.572 Y94.879 E26.66583
G1 X105.647 Y95.35 E26.72438
G1 X106.776 Y95.635 E26.78248
G0 F1980 X106.76 Y95.733
G0 X107.953 Y95.772
G0 X108.905 Y95.691
G0 X122.874 Y92.727
G0 X122.896 Y92.63
G1 F900 X123.809 Y92.734 E26.82832
G1 X124.723 Y92.63 E26.87422
G1 X125.59 Y92.327 E26.92004
G1 X126.368 Y91.838 E26.96588
G1 X127.018 Y91.188 E27.01174
G1 X127.507 Y90.41 E27.05759
G1 X127.811 Y89.543 E27.10342
G1 X127.912 Y88.618 E27.14985
G1 X127.81 Y87.716 E27.19513
G1 X127.507 Y86.849 E27.24095
G1 X127.018 Y86.071 E27.2868
G1 X126.368 Y85.421 E27.33266
G1 X125.59 Y84.932 E27.3785
G1 X124.722 Y84.629 E27.42437
G1 X123.809 Y84.527 E27.4702
G1 X122.897 Y84.629 E27.51599
G1 X122.029 Y84.932 E27.56186
G1 X121.251 Y85.421 E27.6077
G1 X120.601 Y86.071 E27.65356
G1 X120.112 Y86.849 E27.69941
G1 X119.809 Y87.716 E27.74523
G1 X119.705 Y88.63 E27.79112
G1 X119.809 Y89.544 E27.83701
G1 X120.112 Y90.41 E27.88279
G1 X120.601 Y91.188 E27.92863
G1 X121.251 Y91.838 E27.97449
G1 X122.029 Y92.327 E28.02034
G1 X122.896 Y92.63 E28.06616
G0 F1980 X122.986 Y92.238
;TYPE:WALL-OUTER
G1 F900 X123.809 Y92.331 E28.10748
G1 X124.633 Y92.238 E28.14885
G1 X125.415 Y91.964 E28.19019
G1 X126.117 Y91.523 E28.23155
G1 X126.703 Y90.937 E28.2729
G1 X127.144 Y90.235 E28.31426
G1 X127.418 Y89.454 E28.35555
G1 X127.51 Y88.619 E28.39746
G1 X127.418 Y87.806 E28.43828
G1 X127.144 Y87.024 E28.47962
G1 X126.703 Y86.322 E28.52098
G1 X126.117 Y85.736 E28.56232
G1 X125.415 Y85.295 E28.60368
G1 X124.633 Y85.021 E28.64502
G1 X123.809 Y84.929 E28.68639
G1 X122.986 Y85.021 E28.7277
G1 X122.204 Y85.295 E28.76904
G1 X121.502 Y85.736 E28.8104
G1 X120.916 Y86.322 E28.85175
G1 X120.475 Y87.024 E28.89311
G1 X120.201 Y87.806 E28.93445
G1 X120.108 Y88.63 E28.97582
G1 X120.201 Y89.454 E29.01719
G1 X120.475 Y90.235 E29.05848
G1 X120.916 Y90.937 E29.09984
G1 X121.502 Y91.523 E29.14119
G1 X122.204 Y91.964 E29.18255
G1 X122.986 Y92.238 E29.22389
G0 F1980 X123.184 Y92.26
G0 X123.127 Y92.756
G0 X109.129 Y95.672
G0 X108.177 Y95.753
G0 X106.72 Y95.722
G0 X106.842 Y95.239
G1 F900 X107.953 Y95.331 E29.27951
G1 X109.056 Y95.237 E29.33473
G1 X110.127 Y94.965 E29.38986
G1 X111.14 Y94.518 E29.4451
G1 X112.066 Y93.912 E29.50032
G1 X112.88 Y93.162 E29.55554
G1 X113.558 Y92.288 E29.61072
G1 X114.081 Y91.321 E29.66557
G1 X114.442 Y90.266 E29.7212
G1 X114.622 Y89.174 E29.77642
G1 X114.621 Y88.068 E29.83159
G1 X114.439 Y86.978 E29.88673
G1 X114.081 Y85.938 E29.9416
G1 X113.549 Y84.959 E29.99719
G1 X112.875 Y84.091 E30.05202
G1 X112.054 Y83.337 E30.10763
G1 X111.126 Y82.733 E30.16287
G1 X110.112 Y82.29 E30.21808
G1 X109.047 Y82.02 E30.27289
G1 X107.937 Y81.929 E30.32845
G1 X106.834 Y82.022 E30.38368
G1 X105.762 Y82.295 E30.43887
G1 X104.749 Y82.741 E30.49409
G1 X103.823 Y83.347 E30.5493
G1 X103.009 Y84.097 E30.60452
G1 X102.331 Y84.972 E30.65975
G1 X101.808 Y85.938 E30.71455
G1 X101.448 Y86.985 E30.76979
G1 X101.267 Y88.085 E30.8254
G1 X101.268 Y89.191 E30.88058
G1 X101.448 Y90.274 E30.93535
G1 X101.812 Y91.329 E30.99103
G1 X102.335 Y92.295 E31.04584
G1 X103.021 Y93.173 E31.10143
G1 X103.835 Y93.922 E31.15661
G1 X104.763 Y94.526 E31.21185
G1 X105.777 Y94.97 E31.26708
G1 X106.842 Y95.239 E31.32188
G0 F1980 X107.041 Y95.255
G0 X107 Y95.753
G0 X105.635 Y95.387
G0 X104.553 Y94.914
G0 X103.565 Y94.27
G0 X102.697 Y93.472
G0 X101.966 Y92.536
G0 X101.409 Y91.507
G0 X101.021 Y90.382
G0 X100.829 Y89.227
G0 X100.828 Y88.049
G0 X94.986 Y78.624
G0 X94.348 Y78.624
G1 F900 X91.337 Y75.914 E31.52398
G1 X93.427 Y73.75 E31.67408
G1 X94.242 Y73.75 E31.71474
G1 X94.242 Y76.05 E31.82949
G1 X94.915 Y76.05 E31.86306
G1 X96.957 Y74.336 E31.99607
G1 X96.957 Y71.49 E32.13806
G1 X131.557 Y78.792 E33.90228
G1 X131.557 Y98.468 E34.88392
G1 X96.957 Y105.769 E36.64813
G1 X96.957 Y102.923 E36.79012
G1 X94.915 Y101.209 E36.92313
G1 X94.242 Y101.209 E36.9567
G1 X94.242 Y103.509 E37.07145
G1 X93.427 Y103.509 E37.11211
G1 X91.337 Y101.345 E37.2622
G1 X94.348 Y98.635 E37.46431
G1 X91.337 Y95.925 E37.66641
G1 X93.427 Y93.762 E37.81647
G1 X94.242 Y93.762 E37.85713
G1 X94.242 Y96.062 E37.97188
G1 X94.915 Y96.062 E38.00545
G1 X96.957 Y94.348 E38.13846
G1 X96.957 Y82.912 E38.709
G1 X94.915 Y81.198 E38.84201
G1 X94.242 Y81.198 E38.87559
G1 X94.242 Y83.498 E38.99034
G1 X93.427 Y83.498 E39.031
G1 X91.337 Y81.334 E39.18109
G1 X94.348 Y78.624 E39.38319
G0 F1980 X94.2 Y78.491
G0 X94.534 Y78.12
G0 X95.529 Y78.624
;TYPE:SKIN
G1 F900 X93.547 Y76.84 E39.52954
G1 X95.203 Y76.84 E39.62042
G1 X97.747 Y74.704 E39.80271
G1 X97.747 Y72.464 E39.92564
G1 X130.767 Y79.432 E41.77766
G1 X130.767 Y97.828 E42.78722
G1 X97.747 Y104.795 E44.63923
G1 X97.747 Y102.555 E44.76216
G1 X95.203 Y100.419 E44.94446
G1 X93.547 Y100.419 E45.03534
G1 X95.529 Y98.635 E45.18168
G1 X93.548 Y96.852 E45.32795
G1 X95.203 Y96.852 E45.41877
G1 X97.747 Y94.716 E45.60107
G1 X97.747 Y82.544 E46.26906
G1 X95.203 Y80.408 E46.45136
G1 X93.547 Y80.408 E46.54224
G1 X95.529 Y78.624 E46.68858
G0 F1980 X93.452 Y80.493
G1 F900 X93.452 Y82.385 E46.79241
G1 X92.474 Y81.373 E46.86965
G1 X93.452 Y80.493 E46.94185
G0 F1980 X94.986 Y78.624
G0 X93.452 Y76.755
G1 F900 X92.474 Y75.875 E47.01405
G1 X93.452 Y74.863 E47.09128
G1 X93.452 Y76.755 E47.19512
G0 F1980 X101.667 Y84.539
G1 F900 X101.081 Y85.619 E47.26255
G1 X100.679 Y86.791 E47.33054
G1 X100.477 Y88.021 E47.39895
G1 X100.478 Y89.257 E47.46678
G1 X100.679 Y90.469 E47.5342
G1 X101.086 Y91.649 E47.6027
G1 X101.672 Y92.729 E47.67014
G1 X102.439 Y93.71 E47.73847
G1 X103.349 Y94.548 E47.80636
G1 X104.386 Y95.224 E47.8743
G1 X105.52 Y95.72 E47.94222
G1 X106.712 Y96.021 E48.00969
G1 X107.953 Y96.124 E48.07803
G1 X109.188 Y96.019 E48.14605
G1 X110.385 Y95.714 E48.21384
G1 X111.519 Y95.215 E48.28183
G1 X112.553 Y94.537 E48.34969
G1 X113.464 Y93.699 E48.41762
G1 X114.222 Y92.721 E48.48553
G1 X114.808 Y91.64 E48.55301
G1 X115.211 Y90.459 E48.62149
G1 X115.412 Y89.238 E48.6894
G1 X115.411 Y88.002 E48.75723
G1 X115.208 Y86.783 E48.82505
G1 X114.806 Y85.618 E48.89268
G1 X114.213 Y84.525 E48.96092
G1 X113.458 Y83.554 E49.02842
G1 X112.54 Y82.71 E49.09686
G1 X111.501 Y82.035 E49.16485
G1 X110.369 Y81.54 E49.23266
G1 X109.177 Y81.238 E49.30014
G1 X107.937 Y81.136 E49.36842
G1 X106.702 Y81.24 E49.43644
G1 X105.504 Y81.546 E49.50429
G1 X104.371 Y82.044 E49.57221
G1 X103.336 Y82.722 E49.64011
G1 X102.425 Y83.561 E49.70808
G1 X101.667 Y84.539 E49.77599
G0 F1980 X97.393 Y94.55
G0 X95.074 Y96.499
G0 X93.814 Y96.49
G0 X93.452 Y94.874
G1 F900 X93.452 Y96.766 E49.87982
G1 X92.474 Y95.886 E49.95202
G1 X93.452 Y94.874 E50.02925
G0 F1980 X94.117 Y97.851
G0 X94.986 Y98.635
G0 X93.452 Y100.504
G1 F900 X93.452 Y102.396 E50.13308
G1 X92.474 Y101.384 E50.21032
G1 X93.452 Y100.504 E50.28252
G0 F1980 X110.271 Y95.381
G0 X111.351 Y94.906
G0 X112.238 Y94.325
G0 X119.427 Y87.628
G1 F900 X119.313 Y88.63 E50.33786
G1 X119.427 Y89.632 E50.39321
G1 X119.759 Y90.58 E50.44833
G1 X120.295 Y91.432 E50.50357
G1 X121.007 Y92.144 E50.55883
G1 X121.859 Y92.68 E50.61407
G1 X122.808 Y93.012 E50.66924
G1 X123.809 Y93.126 E50.72453
G1 X124.811 Y93.012 E50.77988
G1 X125.76 Y92.68 E50.83505
G1 X126.612 Y92.144 E50.89029
G1 X127.324 Y91.432 E50.94555
G1 X127.86 Y90.58 E51.00079
G1 X128.194 Y89.63 E51.05606
G1 X128.304 Y88.618 E51.11192
G1 X128.192 Y87.628 E51.1666
G1 X127.86 Y86.679 E51.22177
G1 X127.324 Y85.827 E51.27701
G1 X126.612 Y85.115 E51.33227
G1 X125.76 Y84.579 E51.38751
G1 X124.809 Y84.247 E51.44279
G1 X123.809 Y84.135 E51.49801
G1 X122.81 Y84.247 E51.55318
G1 X121.859 Y84.579 E51.60846
G1 X121.007 Y85.115 E51.6637
G1 X120.295 Y85.827 E51.71896
G1 X119.759 Y86.679 E51.7742
G1 X119.427 Y87.628 E51.82938
G0 F1980 X120.57 Y86.047
G0 X121.161 Y85.456
G0 X130.586 Y79.674
G1 F900 X130.464 Y79.553 E51.83881
G0 F1980 X130.586 Y80.24
G1 F900 X129.747 Y79.401 E51.90392
G0 F1980 X129.03 Y79.25
G1 F900 X130.586 Y80.806 E52.02468
G0 F1980 X130.586 Y81.371
G1 F900 X128.313 Y79.099 E52.20106
G0 F1980 X127.596 Y78.947
G1 F900 X130.586 Y81.937 E52.43311
G0 F1980 X130.586 Y82.503
G1 F900 X126.879 Y78.796 E52.72082
G0 F1980 X126.162 Y78.645
G1 F900 X130.586 Y83.068 E53.06413
G0 F1980 X130.586 Y83.634
G1 F900 X125.445 Y78.493 E53.46313
G0 F1980 X124.728 Y78.342
G1 F900 X130.586 Y84.2 E53.91777
G0 F1980 X130.586 Y84.765
G1 F900 X124.011 Y78.191 E54.42802
G0 F1980 X123.294 Y78.039
G1 F900 X130.586 Y85.331 E54.99396
G0 F1980 X130.586 Y85.897
