;FLAVOR:Marlin
;TIME:4401
;Filament used: 3.30908m, 0m
;Layer height: 0.15
;MINX:59.586
;MINY:57.892
;MINZ:0.3
;MAXX:179.749
;MAXY:173.48
;MAXZ:2.25
;POSTPROCESSED
;Generated with Cura_SteamEngine 4.7.1
T0
M140 S60
M105
M190 S60
M104 S190
M105
M109 S190
M82 ;absolute extrusion mode
M201 X500.00 Y500.00 Z100.00 E5000.00 	;Setup machine max acceleration
M203 X500.00 Y500.00 Z10.00 E50.00 	;Setup machine max feedrate
M204 P500.00 R1000.00 T500.00 		;Setup Print/Retract/Travel acceleration
M205 X8.00 Y8.00 Z0.40 E5.00 		;Setup Jerk
M220 S100 				;Reset Feedrate
M221 S100 				;Reset Flowrate
G28				;Home the Machine
G29 				;Bed Level
G92 E0
M300 P150 S587
G92 E0
G1 F1500 E-6.5
;LAYER_COUNT:14
;LAYER:0
M107
G0 F3600 X65.113 Y94.368 Z0.3
;TYPE:SKIRT
G1 F1500 E0
G1 X65.569 Y94.052 E0.02768
G1 X66.24 Y93.636 E0.06707
G1 X66.717 Y93.372 E0.09427
G1 X67.442 Y93.018 E0.13452
G1 X67.953 Y92.8 E0.16223
G1 X68.691 Y92.528 E0.20147
G1 X69.223 Y92.362 E0.22928
G1 X69.957 Y92.171 E0.26712
G1 X70.505 Y92.057 E0.29504
G1 X70.903 Y91.985 E0.31522
G1 X87.656 Y89.396 E1.16095
G1 X87.794 Y89.251 E1.17094
G1 X88.285 Y88.633 E1.21032
G1 X89.037 Y87.89 E1.26306
G1 X89.521 Y87.472 E1.29497
G1 X90.457 Y86.778 E1.3531
G1 X90.736 Y86.602 E1.36956
G1 X91.425 Y86.215 E1.40898
G1 X92.23 Y85.87 E1.45268
G1 X92.708 Y85.696 E1.47805
G1 X93.463 Y85.463 E1.51747
G1 X94.406 Y85.286 E1.56534
G1 X94.451 Y85.28 E1.56761
G1 X94.714 Y84.905 E1.59046
G1 X95.208 Y84.289 E1.62985
G1 X96.038 Y83.486 E1.68747
G1 X96.429 Y83.16 E1.71287
G1 X97.247 Y82.564 E1.76336
G1 X98.015 Y82.077 E1.80873
G1 X98.663 Y81.701 E1.84611
G1 X99.371 Y81.351 E1.88551
G1 X99.645 Y81.254 E1.90001
G1 X107.736 Y65.225 E2.79581
G1 X107.923 Y64.876 E2.81556
G1 X108.199 Y64.392 E2.84336
G1 X108.61 Y63.747 E2.88151
G1 X108.933 Y63.291 E2.90939
G1 X109.438 Y62.652 E2.95003
G1 X109.807 Y62.232 E2.97792
G1 X110.336 Y61.686 E3.01585
G1 X110.744 Y61.304 E3.04373
G1 X111.337 Y60.802 E3.08249
G1 X111.779 Y60.464 E3.11025
G1 X112.416 Y60.025 E3.14885
G1 X112.89 Y59.732 E3.17665
G1 X113.604 Y59.341 E3.21726
G1 X114.106 Y59.099 E3.24507
G1 X114.806 Y58.802 E3.283
G1 X115.332 Y58.609 E3.31096
G1 X116.084 Y58.376 E3.35023
G1 X116.623 Y58.238 E3.37799
G1 X117.387 Y58.082 E3.41689
G1 X117.94 Y57.998 E3.4448
G1 X118.719 Y57.92 E3.48386
G1 X119.275 Y57.892 E3.51163
G1 X120.059 Y57.892 E3.55075
G1 X120.615 Y57.92 E3.57852
G1 X121.392 Y57.998 E3.61748
G1 X121.946 Y58.082 E3.64543
G1 X122.715 Y58.239 E3.68459
G1 X123.253 Y58.377 E3.7123
G1 X124.002 Y58.609 E3.75142
G1 X124.528 Y58.802 E3.77937
G1 X125.228 Y59.099 E3.81731
G1 X125.728 Y59.34 E3.845
G1 X126.44 Y59.73 E3.8855
G1 X126.916 Y60.024 E3.91342
G1 X127.548 Y60.459 E3.95169
G1 X127.991 Y60.797 E3.97949
G1 X128.591 Y61.304 E4.01868
G1 X128.999 Y61.686 E4.04657
G1 X129.535 Y62.241 E4.08506
G1 X129.902 Y62.66 E4.11285
G1 X130.393 Y63.281 E4.15235
G1 X130.717 Y63.737 E4.18025
G1 X131.141 Y64.402 E4.2196
G1 X131.227 Y64.553 E4.22827
G1 X131.818 Y64.685 E4.25848
G1 X132.433 Y64.884 E4.29073
G1 X133.064 Y65.117 E4.32429
G1 X133.79 Y65.428 E4.36369
G1 X134.481 Y65.81 E4.40308
G1 X135.267 Y66.351 E4.45069
G1 X135.887 Y66.84 E4.49008
G1 X136.454 Y67.39 E4.52949
G1 X136.724 Y67.695 E4.54982
G1 X137.157 Y68.211 E4.58342
G1 X137.833 Y69.15 E4.64115
G1 X138.164 Y69.69 E4.67275
G1 X138.468 Y70.18 E4.70151
G1 X138.802 Y70.713 E4.7329
G1 X139.134 Y71.237 E4.76384
G1 X140.02 Y72.624 E4.84595
G1 X140.926 Y74.034 E4.92957
G1 X141.924 Y75.57 E5.02096
G1 X143.245 Y77.589 E5.14133
G1 X143.777 Y78.39 E5.1893
G1 X144.265 Y79.111 E5.23274
G1 X144.78 Y79.859 E5.27805
G1 X145.173 Y80.494 E5.3153
G1 X145.443 Y80.98 E5.34304
G1 X145.791 Y81.689 E5.38244
G1 X146.091 Y82.468 E5.42409
G1 X146.326 Y83.222 E5.46349
G1 X146.484 Y83.996 E5.5029
G1 X146.549 Y84.553 E5.53088
G1 X146.581 Y84.957 E5.5511
G1 X146.603 Y85.746 E5.59048
G1 X146.55 Y86.577 E5.63202
G1 X146.449 Y87.36 E5.67141
G1 X146.27 Y88.129 E5.7108
G1 X146.129 Y88.538 E5.73238
G1 X168.432 Y91.985 E6.8583
G1 X168.832 Y92.058 E6.87858
G1 X169.379 Y92.172 E6.90646
G1 X170.111 Y92.362 E6.94419
G1 X170.643 Y92.528 E6.97199
G1 X171.393 Y92.805 E7.01188
G1 X171.904 Y93.024 E7.03962
G1 X172.6 Y93.364 E7.07826
G1 X173.091 Y93.635 E7.10624
G1 X173.275 Y93.738 E7.11676
G1 X173.766 Y94.052 E7.14584
G1 X174.222 Y94.368 E7.17352
G1 X174.822 Y94.828 E7.21123
G1 X175.248 Y95.189 E7.23909
G1 X175.838 Y95.745 E7.27954
G1 X176.223 Y96.147 E7.30731
G1 X176.73 Y96.731 E7.34589
G1 X177.074 Y97.17 E7.37372
G1 X177.523 Y97.807 E7.4126
G1 X177.822 Y98.279 E7.44047
G1 X178.204 Y98.954 E7.47917
G1 X178.454 Y99.452 E7.50697
G1 X178.768 Y100.165 E7.54584
G1 X178.968 Y100.688 E7.57377
G1 X179.213 Y101.441 E7.61328
G1 X179.358 Y101.978 E7.64103
G1 X179.523 Y102.738 E7.67983
G1 X179.614 Y103.288 E7.70764
G1 X179.703 Y104.058 E7.74631
G1 X179.739 Y104.615 E7.77416
G1 X179.749 Y105.411 E7.81388
G1 X179.728 Y105.969 E7.84173
G1 X179.662 Y106.736 E7.88014
G1 X179.586 Y107.29 E7.90804
G1 X179.435 Y108.082 E7.94826
G1 X179.303 Y108.622 E7.976
G1 X179.094 Y109.329 E8.01278
G1 X178.911 Y109.856 E8.04061
G1 X178.601 Y110.617 E8.08161
G1 X178.363 Y111.123 E8.1095
G1 X178.005 Y111.798 E8.14762
G1 X177.72 Y112.276 E8.17539
G1 X177.278 Y112.936 E8.21502
G1 X176.944 Y113.385 E8.24294
G1 X176.454 Y113.98 E8.28139
G1 X176.079 Y114.392 E8.30919
G1 X175.805 Y114.679 E8.32898
G1 X165.371 Y125.033 E9.06234
G1 X165.379 Y125.286 E9.07497
G1 X165.323 Y126.074 E9.11438
G1 X165.198 Y126.809 E9.15158
G1 X165.071 Y127.387 E9.1811
G1 X164.863 Y128.149 E9.22051
G1 X164.579 Y128.885 E9.25987
G1 X164.244 Y129.55 E9.29702
G1 X164.057 Y129.881 E9.31598
G1 X163.634 Y130.548 E9.35539
G1 X163.146 Y131.169 E9.39479
G1 X162.576 Y131.758 E9.43568
G1 X162.166 Y132.139 E9.46361
G1 X161.561 Y132.646 E9.50299
G1 X160.908 Y133.09 E9.54238
G1 X160.009 Y133.559 E9.59297
G1 X159.518 Y133.776 E9.61975
G1 X158.781 Y134.059 E9.65914
G1 X158.018 Y134.265 E9.69857
G1 X157.892 Y134.288 E9.70496
G1 X161.735 Y157.98 E10.90241
G1 X161.787 Y158.358 E10.92144
G1 X161.849 Y158.91 E10.94915
G1 X161.898 Y159.697 E10.98849
G1 X161.904 Y160.256 E11.01638
G1 X161.873 Y161.039 E11.05548
G1 X161.823 Y161.595 E11.08333
G1 X161.71 Y162.388 E11.12329
G1 X161.603 Y162.937 E11.1512
G1 X161.425 Y163.662 E11.18844
G1 X161.267 Y164.195 E11.21618
G1 X161.001 Y164.949 E11.25607
G1 X160.788 Y165.466 E11.28396
G1 X160.452 Y166.178 E11.32324
G1 X160.189 Y166.669 E11.35103
G1 X159.79 Y167.332 E11.38964
G1 X159.478 Y167.797 E11.41757
G1 X159.012 Y168.422 E11.45647
G1 X158.658 Y168.85 E11.48418
G1 X158.113 Y169.443 E11.52436
G1 X157.715 Y169.834 E11.5522
G1 X157.147 Y170.34 E11.59015
G1 X156.712 Y170.691 E11.61803
G1 X156.076 Y171.154 E11.65728
G1 X155.61 Y171.458 E11.68504
G1 X154.942 Y171.848 E11.72363
G1 X154.447 Y172.105 E11.75146
G1 X153.726 Y172.434 E11.79099
G1 X153.206 Y172.64 E11.8189
G1 X152.478 Y172.887 E11.85725
G1 X151.943 Y173.04 E11.88501
G1 X151.164 Y173.22 E11.9249
G1 X150.613 Y173.318 E11.95282
G1 X149.848 Y173.416 E11.9913
G1 X149.292 Y173.459 E12.01912
G1 X148.509 Y173.48 E12.0582
G1 X147.953 Y173.467 E12.08595
G1 X147.188 Y173.411 E12.12422
G1 X146.632 Y173.343 E12.15216
G1 X145.823 Y173.201 E12.19314
G1 X145.282 Y173.076 E12.22084
G1 X144.559 Y172.872 E12.25832
G1 X144.028 Y172.694 E12.28626
G1 X143.285 Y172.401 E12.32611
G1 X142.778 Y172.171 E12.35388
G1 X142.433 Y172.005 E12.37298
G1 X119.666 Y160.297 E13.65022
G1 X96.902 Y172.004 E14.92731
G1 X96.551 Y172.174 E14.94677
G1 X96.045 Y172.403 E14.97448
G1 X95.316 Y172.69 E15.01356
G1 X94.784 Y172.869 E15.04157
G1 X94.037 Y173.08 E15.08029
G1 X93.495 Y173.204 E15.10803
G1 X92.717 Y173.34 E15.14744
G1 X92.162 Y173.409 E15.17534
G1 X91.382 Y173.467 E15.21436
G1 X90.826 Y173.48 E15.24211
G1 X90.043 Y173.459 E15.28118
G1 X89.487 Y173.416 E15.30901
G1 X88.722 Y173.318 E15.34748
G1 X88.171 Y173.22 E15.3754
G1 X87.392 Y173.04 E15.41529
G1 X86.857 Y172.887 E15.44305
G1 X86.129 Y172.64 E15.48141
G1 X85.609 Y172.434 E15.50931
G1 X84.894 Y172.108 E15.54852
G1 X84.398 Y171.851 E15.57639
G1 X83.718 Y171.454 E15.61567
G1 X83.253 Y171.15 E15.64339
G1 X82.631 Y170.698 E15.68175
G1 X82.196 Y170.348 E15.7096
G1 X81.613 Y169.828 E15.74858
G1 X81.215 Y169.436 E15.77645
G1 X80.677 Y168.85 E15.81614
G1 X80.323 Y168.422 E15.84385
G1 X79.857 Y167.797 E15.88274
G1 X79.545 Y167.332 E15.91068
G1 X79.146 Y166.669 E15.94928
G1 X78.883 Y166.178 E15.97707
G1 X78.552 Y165.478 E16.0157
G1 X78.338 Y164.961 E16.04362
G1 X78.067 Y164.195 E16.08416
G1 X77.909 Y163.662 E16.11189
G1 X77.728 Y162.924 E16.1498
G1 X77.622 Y162.375 E16.1777
G1 X77.513 Y161.597 E16.21689
G1 X77.463 Y161.043 E16.24464
G1 X77.431 Y160.258 E16.28384
G1 X77.437 Y159.7 E16.31168
G1 X77.484 Y158.932 E16.35007
G1 X77.545 Y158.377 E16.37792
G1 X77.599 Y157.98 E16.39791
G1 X81.525 Y133.778 E17.62114
G1 X80.86 Y133.491 E17.65727
G1 X80.17 Y133.107 E17.69667
G1 X79.756 Y132.829 E17.72155
G1 X79.191 Y132.423 E17.75626
G1 X78.574 Y131.931 E17.79563
G1 X78.019 Y131.387 E17.8344
G1 X77.584 Y130.917 E17.86635
G1 X77.004 Y130.213 E17.91186
G1 X76.628 Y129.697 E17.94371
G1 X76.297 Y129.203 E17.97338
G1 X75.421 Y127.845 E18.054
G1 X73.594 Y125.002 E18.2226
G1 X73.006 Y124.082 E18.27707
G1 X63.53 Y114.679 E18.94309
G1 X63.263 Y114.4 E18.96235
G1 X62.887 Y113.988 E18.99018
G1 X62.383 Y113.376 E19.02974
G1 X62.05 Y112.927 E19.05762
G1 X61.615 Y112.276 E19.09669
G1 X61.33 Y111.798 E19.12445
G1 X60.972 Y111.123 E19.16257
G1 X60.734 Y110.617 E19.19047
G1 X60.428 Y109.868 E19.23083
G1 X60.244 Y109.341 E19.25868
G1 X60.028 Y108.609 E19.29676
G1 X59.897 Y108.069 E19.32448
G1 X59.749 Y107.29 E19.36404
G1 X59.673 Y106.736 E19.39194
G1 X59.607 Y105.97 E19.4303
G1 X59.586 Y105.414 E19.45805
G1 X59.595 Y104.631 E19.49712
G1 X59.63 Y104.074 E19.52496
G1 X59.719 Y103.294 E19.56413
G1 X59.81 Y102.742 E19.59204
G1 X59.979 Y101.965 E19.63171
G1 X60.125 Y101.428 E19.65948
G1 X60.365 Y100.691 E19.69815
G1 X60.564 Y100.17 E19.72597
G1 X60.88 Y99.454 E19.76502
G1 X61.13 Y98.956 E19.79282
G1 X61.502 Y98.297 E19.83057
G1 X61.8 Y97.824 E19.85846
G1 X62.265 Y97.164 E19.89874
G1 X62.609 Y96.726 E19.92653
G1 X63.11 Y96.149 E19.96465
G1 X63.496 Y95.746 E19.99249
G1 X64.085 Y95.191 E20.03287
G1 X64.512 Y94.829 E20.0608
G1 X65.113 Y94.368 E20.09858
G0 F3600 X65.341 Y94.697
G1 F1500 X65.797 Y94.381 E20.12626
G1 X66.451 Y93.976 E20.16464
G1 X66.47 Y93.967 E20.16569
G1 X66.911 Y93.722 E20.19086
G1 X67.599 Y93.386 E20.22906
G1 X68.11 Y93.168 E20.25677
G1 X68.81 Y92.91 E20.29399
G1 X69.342 Y92.744 E20.3218
G1 X70.039 Y92.563 E20.35772
G1 X70.587 Y92.449 E20.38565
G1 X70.964 Y92.381 E20.40476
G1 X87.731 Y89.79 E21.2512
G1 X87.941 Y89.733 E21.26206
G1 X88.119 Y89.484 E21.27733
G1 X88.599 Y88.883 E21.3157
G1 X89.298 Y88.193 E21.3647
G1 X89.782 Y87.775 E21.39661
G1 X90.671 Y87.116 E21.45182
G1 X90.95 Y86.94 E21.46827
G1 X91.621 Y86.564 E21.50665
G1 X92.367 Y86.245 E21.54713
G1 X92.845 Y86.071 E21.5725
G1 X93.58 Y85.846 E21.61085
G1 X94.456 Y85.682 E21.65532
G1 X94.69 Y85.653 E21.66708
G1 X95.038 Y85.139 E21.69805
G1 X95.52 Y84.54 E21.73641
G1 X96.294 Y83.793 E21.79007
G1 X96.685 Y83.467 E21.81547
G1 X97.461 Y82.902 E21.86336
G1 X98.229 Y82.415 E21.90873
G1 X98.858 Y82.05 E21.94501
G1 X99.548 Y81.71 E21.98339
G1 X99.93 Y81.576 E22.00358
G1 X108.093 Y65.405 E22.90732
G1 X108.271 Y65.074 E22.92607
G1 X108.547 Y64.59 E22.95387
G1 X108.936 Y63.979 E22.99
G1 X109.259 Y63.523 E23.01788
G1 X109.739 Y62.916 E23.05649
G1 X110.108 Y62.496 E23.08438
G1 X110.609 Y61.978 E23.12034
G1 X111.017 Y61.596 E23.14822
G1 X111.58 Y61.12 E23.185
G1 X112.022 Y60.782 E23.21276
G1 X112.626 Y60.365 E23.24938
G1 X113.1 Y60.072 E23.27718
G1 X113.778 Y59.701 E23.31574
G1 X114.28 Y59.459 E23.34354
G1 X114.944 Y59.178 E23.37951
G1 X115.47 Y58.985 E23.40747
G1 X116.184 Y58.763 E23.44477
G1 X116.723 Y58.625 E23.47253
G1 X117.447 Y58.478 E23.50939
G1 X118 Y58.394 E23.53729
G1 X118.739 Y58.319 E23.57435
G1 X119.295 Y58.291 E23.60213
G1 X120.039 Y58.291 E23.63924
G1 X120.595 Y58.319 E23.66702
G1 X121.332 Y58.394 E23.70398
G1 X121.886 Y58.478 E23.73193
G1 X122.616 Y58.626 E23.76909
G1 X123.154 Y58.764 E23.7968
G1 X123.864 Y58.985 E23.8339
G1 X124.39 Y59.178 E23.86185
G1 X125.054 Y59.459 E23.89782
G1 X125.554 Y59.7 E23.92552
G1 X126.23 Y60.07 E23.96396
G1 X126.706 Y60.364 E23.99188
G1 X127.306 Y60.777 E24.02822
G1 X127.749 Y61.115 E24.05602
G1 X128.318 Y61.596 E24.09319
G1 X128.726 Y61.978 E24.12107
G1 X129.235 Y62.504 E24.15759
G1 X129.602 Y62.923 E24.18538
G1 X130.067 Y63.513 E24.22286
G1 X130.391 Y63.969 E24.25076
G1 X130.793 Y64.599 E24.28805
G1 X131 Y64.911 E24.30673
G1 X131.75 Y65.082 E24.34511
G1 X132.294 Y65.259 E24.37365
G1 X132.925 Y65.492 E24.40721
G1 X133.632 Y65.796 E24.4456
G1 X134.303 Y66.171 E24.48395
G1 X135.035 Y66.677 E24.52835
G1 X135.638 Y67.154 E24.5667
G1 X136.418 Y67.952 E24.62238
G1 X136.851 Y68.468 E24.65598
G1 X137.492 Y69.359 E24.71074
G1 X137.824 Y69.901 E24.74245
G1 X138.099 Y70.346 E24.76855
G1 X138.484 Y70.958 E24.80462
G1 X138.797 Y71.452 E24.8338
G1 X139.683 Y72.84 E24.91595
G1 X140.59 Y74.252 E24.99968
G1 X141.579 Y75.772 E25.09015
G1 X142.912 Y77.81 E25.21164
G1 X143.446 Y78.614 E25.2598
G1 X143.968 Y79.385 E25.30625
G1 X144.45 Y80.086 E25.34869
G1 X144.824 Y80.688 E25.38405
G1 X145.094 Y81.174 E25.41179
G1 X145.567 Y82.206 E25.46842
G1 X145.715 Y82.607 E25.48975
G1 X145.944 Y83.341 E25.52811
G1 X146.095 Y84.095 E25.56647
G1 X146.182 Y84.989 E25.61129
G1 X146.203 Y85.758 E25.64967
G1 X146.152 Y86.546 E25.68906
G1 X146.052 Y87.308 E25.7274
G1 X145.874 Y88.057 E25.76581
G1 X145.637 Y88.738 E25.80179
G1 X145.588 Y88.86 E25.80835
G1 X168.371 Y92.381 E26.95849
G1 X168.751 Y92.45 E26.97776
G1 X169.298 Y92.564 E27.00563
G1 X169.992 Y92.744 E27.0414
G1 X170.524 Y92.91 E27.06921
G1 X171.235 Y93.172 E27.10701
G1 X171.746 Y93.391 E27.13475
G1 X172.407 Y93.714 E27.17145
G1 X172.898 Y93.985 E27.19943
G1 X172.891 Y93.998 E27.20017
G1 X173.538 Y94.381 E27.23768
G1 X173.994 Y94.697 E27.26536
G1 X174.563 Y95.133 E27.30112
G1 X174.989 Y95.494 E27.32898
G1 X175.549 Y96.022 E27.36738
G1 X175.934 Y96.424 E27.39515
G1 X176.415 Y96.978 E27.43175
G1 X176.759 Y97.417 E27.45957
G1 X177.185 Y98.021 E27.49645
G1 X177.484 Y98.493 E27.52432
G1 X177.846 Y99.133 E27.56101
G1 X178.096 Y99.631 E27.58881
G1 X178.395 Y100.308 E27.62573
G1 X178.595 Y100.831 E27.65367
G1 X178.827 Y101.545 E27.69112
G1 X178.972 Y102.082 E27.71887
G1 X179.129 Y102.803 E27.75569
G1 X179.22 Y103.353 E27.7835
G1 X179.304 Y104.084 E27.82021
G1 X179.34 Y104.641 E27.84805
G1 X179.35 Y105.396 E27.88573
G1 X179.329 Y105.954 E27.91358
G1 X179.265 Y106.682 E27.95004
G1 X179.189 Y107.236 E27.97794
G1 X179.046 Y107.987 E28.01608
G1 X178.914 Y108.527 E28.04382
G1 X178.717 Y109.197 E28.07866
G1 X178.534 Y109.724 E28.10649
G1 X178.239 Y110.447 E28.14545
G1 X178.001 Y110.953 E28.17335
G1 X177.661 Y111.593 E28.2095
G1 X177.376 Y112.071 E28.23727
G1 X176.957 Y112.698 E28.27489
G1 X176.623 Y113.147 E28.30281
G1 X176.159 Y113.711 E28.33924
G1 X175.784 Y114.123 E28.36704
G1 X175.524 Y114.395 E28.38581
G1 X164.965 Y124.873 E29.12795
G1 X164.978 Y125.299 E29.14922
G1 X164.921 Y126.066 E29.18759
G1 X164.808 Y126.723 E29.22085
G1 X164.681 Y127.301 E29.25037
G1 X164.477 Y128.043 E29.28876
G1 X164.197 Y128.759 E29.32712
G1 X163.896 Y129.353 E29.36034
G1 X163.709 Y129.684 E29.37931
G1 X163.296 Y130.333 E29.41769
G1 X162.818 Y130.936 E29.45608
G1 X162.303 Y131.465 E29.49291
G1 X161.893 Y131.846 E29.52083
G1 X161.303 Y132.339 E29.55919
G1 X160.666 Y132.769 E29.59753
G1 X159.847 Y133.193 E29.64355
G1 X159.356 Y133.41 E29.67033
