;FLAVOR:Marlin
;TIME:3154
;Filament used: 2.48994m, 0m
;Layer height: 0.15
;MINX:62.688
;MINY:57.832
;MINZ:0.3
;MAXX:180.407
;MAXY:171.081
;MAXZ:1.8
;POSTPROCESSED
;Generated with Cura_SteamEngine 4.7.1
T0
M140 S60
M105
M190 S60
M104 S190
M105
M109 S190
M82 ;absolute extrusion mode
M201 X500.00 Y500.00 Z100.00 E5000.00 	;Setup machine max acceleration
M203 X500.00 Y500.00 Z10.00 E50.00 	;Setup machine max feedrate
M204 P500.00 R1000.00 T500.00 		;Setup Print/Retract/Travel acceleration
M205 X8.00 Y8.00 Z0.40 E5.00 		;Setup Jerk
M220 S100 				;Reset Feedrate
M221 S100 				;Reset Flowrate
G28				;Home the Machine
G29 				;Bed Level
G92 E0
M300 P150 S587
G92 E0
G1 F1500 E-6.5
;LAYER_COUNT:11
;LAYER:0
M107
G0 F3600 X68.159 Y93.491 Z0.3
;TYPE:SKIRT
G1 F1500 E0
G1 X68.604 Y93.182 E0.02703
G1 X69.275 Y92.765 E0.06644
G1 X69.301 Y92.752 E0.06789
G1 X69.757 Y92.5 E0.09389
G1 X70.459 Y92.156 E0.13289
G1 X70.958 Y91.942 E0.15998
G1 X71.712 Y91.664 E0.20007
G1 X72.232 Y91.502 E0.22724
G1 X72.965 Y91.312 E0.26502
G1 X73.499 Y91.201 E0.29223
G1 X73.895 Y91.129 E0.31231
G1 X98.51 Y87.326 E1.55493
G1 X109.732 Y65.093 E2.79742
G1 X109.917 Y64.747 E2.817
G1 X110.187 Y64.273 E2.84421
G1 X110.61 Y63.611 E2.88341
G1 X110.926 Y63.167 E2.9106
G1 X111.413 Y62.552 E2.94973
G1 X111.772 Y62.142 E2.97692
G1 X112.313 Y61.582 E3.01577
G1 X112.712 Y61.209 E3.04302
G1 X113.293 Y60.717 E3.081
G1 X113.726 Y60.385 E3.10822
G1 X114.387 Y59.93 E3.14826
G1 X114.849 Y59.646 E3.17531
G1 X115.538 Y59.269 E3.2145
G1 X116.028 Y59.032 E3.24165
G1 X116.745 Y58.729 E3.28049
G1 X117.259 Y58.541 E3.30779
G1 X117.995 Y58.312 E3.34625
G1 X118.52 Y58.177 E3.37329
G1 X119.294 Y58.019 E3.4127
G1 X119.835 Y57.937 E3.44
G1 X120.617 Y57.859 E3.47921
G1 X121.16 Y57.832 E3.50633
G1 X121.934 Y57.832 E3.54495
G1 X122.477 Y57.859 E3.57207
G1 X123.259 Y57.937 E3.61128
G1 X123.8 Y58.019 E3.63858
G1 X124.57 Y58.176 E3.67779
G1 X125.096 Y58.311 E3.70488
G1 X125.841 Y58.542 E3.74379
G1 X126.354 Y58.73 E3.77105
G1 X127.061 Y59.03 E3.80937
G1 X127.552 Y59.267 E3.83657
G1 X128.246 Y59.646 E3.87602
G1 X128.708 Y59.93 E3.90307
G1 X129.369 Y60.385 E3.94311
G1 X129.802 Y60.717 E3.97033
G1 X130.39 Y61.216 E4.00881
G1 X130.788 Y61.589 E4.03602
G1 X131.316 Y62.135 E4.07391
G1 X131.675 Y62.544 E4.10106
G1 X132.163 Y63.159 E4.14023
G1 X132.479 Y63.602 E4.16738
G1 X132.916 Y64.288 E4.20796
G1 X133.185 Y64.763 E4.23519
G1 X133.361 Y65.092 E4.25381
G1 X144.585 Y87.324 E5.4963
G1 X165.464 Y90.551 E6.55033
G1 X169.202 Y91.13 E6.73904
G1 X169.576 Y91.197 E6.758
G1 X170.112 Y91.307 E6.7853
G1 X170.881 Y91.506 E6.82493
G1 X171.4 Y91.669 E6.85207
G1 X172.149 Y91.948 E6.89194
G1 X172.648 Y92.163 E6.91905
G1 X173.333 Y92.498 E6.95709
G1 X173.811 Y92.762 E6.98434
G1 X173.993 Y92.864 E6.99475
G1 X174.483 Y93.177 E7.02375
G1 X174.929 Y93.486 E7.05082
G1 X175.534 Y93.951 E7.08889
G1 X175.95 Y94.304 E7.11611
G1 X176.532 Y94.852 E7.15599
G1 X176.908 Y95.244 E7.18309
G1 X177.42 Y95.833 E7.22203
G1 X177.756 Y96.262 E7.24921
G1 X178.2 Y96.892 E7.28767
G1 X178.492 Y97.352 E7.31485
G1 X178.881 Y98.038 E7.35419
G1 X179.125 Y98.525 E7.38137
G1 X179.438 Y99.238 E7.42022
G1 X179.633 Y99.749 E7.4475
G1 X179.874 Y100.49 E7.48638
G1 X180.016 Y101.014 E7.51346
G1 X180.183 Y101.781 E7.55263
G1 X180.272 Y102.319 E7.57983
G1 X180.361 Y103.09 E7.61855
G1 X180.396 Y103.633 E7.6457
G1 X180.407 Y104.421 E7.68502
G1 X180.387 Y104.966 E7.71223
G1 X180.318 Y105.749 E7.75144
G1 X180.243 Y106.291 E7.77874
G1 X180.097 Y107.063 E7.81794
G1 X179.969 Y107.59 E7.84499
G1 X179.751 Y108.327 E7.88334
G1 X179.571 Y108.841 E7.91051
G1 X179.269 Y109.579 E7.95029
G1 X179.037 Y110.073 E7.97752
G1 X178.679 Y110.747 E8.01559
G1 X178.401 Y111.214 E8.04271
G1 X177.961 Y111.874 E8.08228
G1 X177.635 Y112.313 E8.10956
G1 X177.133 Y112.922 E8.14894
G1 X176.766 Y113.324 E8.17609
G1 X176.501 Y113.601 E8.19522
G1 X166.367 Y123.659 E8.90755
G1 X166.372 Y123.813 E8.91524
G1 X166.318 Y124.601 E8.95464
G1 X166.192 Y125.349 E8.99249
G1 X166.068 Y125.915 E9.0214
G1 X165.86 Y126.677 E9.0608
G1 X165.577 Y127.414 E9.10019
G1 X165.26 Y128.048 E9.13555
G1 X165.078 Y128.374 E9.15418
G1 X164.658 Y129.043 E9.19359
G1 X164.173 Y129.667 E9.23302
G1 X163.57 Y130.292 E9.27635
G1 X163.173 Y130.66 E9.30335
G1 X162.567 Y131.167 E9.34277
G1 X161.913 Y131.61 E9.38218
G1 X161.065 Y132.055 E9.42996
G1 X160.584 Y132.271 E9.45627
G1 X159.848 Y132.558 E9.49568
G1 X159.086 Y132.769 E9.53512
G1 X162.205 Y151.995 E10.50685
G1 X162.812 Y155.728 E10.69554
G1 X162.865 Y156.12 E10.71527
G1 X162.925 Y156.661 E10.74243
G1 X162.973 Y157.449 E10.78182
G1 X162.978 Y157.994 E10.80901
G1 X162.948 Y158.753 E10.8469
G1 X162.9 Y159.296 E10.8741
G1 X162.788 Y160.092 E10.9142
G1 X162.684 Y160.629 E10.94149
G1 X162.501 Y161.374 E10.97977
G1 X162.346 Y161.894 E11.00684
G1 X162.081 Y162.642 E11.04643
G1 X161.873 Y163.146 E11.07363
G1 X161.539 Y163.852 E11.11259
G1 X161.282 Y164.332 E11.13976
G1 X160.881 Y165 E11.17863
G1 X160.576 Y165.454 E11.20592
G1 X160.122 Y166.062 E11.24377
G1 X159.777 Y166.481 E11.27085
G1 X159.214 Y167.095 E11.31241
G1 X158.825 Y167.476 E11.33958
G1 X158.266 Y167.974 E11.37693
G1 X157.841 Y168.317 E11.40417
G1 X157.212 Y168.774 E11.44296
G1 X156.758 Y169.071 E11.47003
G1 X156.068 Y169.474 E11.5099
G1 X155.584 Y169.724 E11.53707
G1 X154.893 Y170.039 E11.57496
G1 X154.384 Y170.242 E11.6023
G1 X153.623 Y170.501 E11.64241
G1 X153.101 Y170.649 E11.66947
G1 X152.343 Y170.824 E11.70829
G1 X151.805 Y170.92 E11.73555
G1 X151.037 Y171.018 E11.77418
G1 X150.494 Y171.06 E11.80135
G1 X149.705 Y171.081 E11.84073
G1 X149.162 Y171.068 E11.86782
G1 X148.406 Y171.013 E11.90564
G1 X147.864 Y170.947 E11.93288
G1 X147.057 Y170.805 E11.97376
G1 X146.527 Y170.683 E12.00089
G1 X145.793 Y170.476 E12.03894
G1 X145.275 Y170.302 E12.0662
G1 X144.531 Y170.009 E12.1061
G1 X144.036 Y169.784 E12.13322
G1 X143.697 Y169.62 E12.15201
G1 X121.546 Y158.229 E13.39469
G1 X99.398 Y169.619 E14.63721
G1 X99.048 Y169.789 E14.65663
G1 X98.551 Y170.014 E14.68384
G1 X97.822 Y170.301 E14.72293
G1 X97.305 Y170.475 E14.75015
G1 X96.556 Y170.686 E14.78897
G1 X96.027 Y170.807 E14.81604
G1 X95.243 Y170.944 E14.85575
G1 X94.7 Y171.011 E14.88304
G1 X93.932 Y171.068 E14.92146
G1 X93.39 Y171.081 E14.94851
G1 X92.601 Y171.06 E14.98789
G1 X92.058 Y171.018 E15.01506
G1 X91.306 Y170.923 E15.05288
G1 X90.767 Y170.828 E15.08018
G1 X89.967 Y170.643 E15.12115
G1 X89.445 Y170.493 E15.14824
G1 X88.717 Y170.244 E15.18663
G1 X88.209 Y170.042 E15.2139
G1 X87.511 Y169.724 E15.25217
G1 X87.027 Y169.474 E15.27935
G1 X86.337 Y169.071 E15.31921
G1 X85.883 Y168.774 E15.34628
G1 X85.263 Y168.324 E15.3845
G1 X84.838 Y167.982 E15.41172
G1 X84.263 Y167.47 E15.45013
G1 X83.874 Y167.088 E15.47733
G1 X83.325 Y166.49 E15.51783
G1 X82.979 Y166.071 E15.54494
G1 X82.512 Y165.444 E15.58394
G1 X82.208 Y164.99 E15.6112
G1 X81.813 Y164.332 E15.64949
G1 X81.556 Y163.852 E15.67666
G1 X81.227 Y163.158 E15.71497
G1 X81.018 Y162.654 E15.74219
G1 X80.744 Y161.881 E15.78311
G1 X80.59 Y161.361 E15.81017
G1 X80.411 Y160.629 E15.84776
G1 X80.307 Y160.092 E15.87505
G1 X80.197 Y159.313 E15.9143
G1 X80.148 Y158.772 E15.9414
G1 X80.116 Y157.982 E15.98085
G1 X80.122 Y157.437 E16.00804
G1 X80.169 Y156.665 E16.04663
G1 X80.229 Y156.123 E16.07383
G1 X80.283 Y155.732 E16.09352
G1 X84.271 Y131.147 E17.33611
G1 X66.593 Y113.601 E18.57874
G1 X66.328 Y113.324 E18.59786
G1 X65.961 Y112.922 E18.62502
G1 X65.452 Y112.304 E18.66496
G1 X65.127 Y111.865 E18.69221
G1 X64.7 Y111.224 E18.73064
G1 X64.421 Y110.757 E18.75778
G1 X64.057 Y110.073 E18.79643
G1 X63.825 Y109.579 E18.82366
G1 X63.519 Y108.828 E18.86412
G1 X63.34 Y108.314 E18.89128
G1 X63.13 Y107.604 E18.92821
G1 X63.001 Y107.077 E18.95528
G1 X62.849 Y106.277 E18.99591
G1 X62.775 Y105.735 E19.0232
G1 X62.708 Y104.967 E19.06166
G1 X62.688 Y104.424 E19.08877
G1 X62.698 Y103.65 E19.12739
G1 X62.732 Y103.107 E19.15453
G1 X62.821 Y102.326 E19.19375
G1 X62.91 Y101.786 E19.22105
G1 X63.078 Y101.014 E19.26047
G1 X63.22 Y100.49 E19.28755
G1 X63.459 Y99.752 E19.32626
G1 X63.653 Y99.243 E19.35343
G1 X63.968 Y98.527 E19.39246
G1 X64.212 Y98.04 E19.41963
G1 X64.597 Y97.36 E19.45862
G1 X64.889 Y96.899 E19.48584
G1 X65.336 Y96.265 E19.52455
G1 X65.671 Y95.837 E19.55166
G1 X66.191 Y95.238 E19.59124
G1 X66.569 Y94.845 E19.61844
G1 X67.143 Y94.306 E19.65772
G1 X67.56 Y93.952 E19.68501
G1 X68.159 Y93.491 E19.72272
G0 F3600 X68.387 Y93.82
G1 F1500 X68.832 Y93.511 E19.74975
G1 X69.486 Y93.105 E19.78816
G1 X69.951 Y92.85 E19.81461
G1 X70.616 Y92.524 E19.85156
G1 X71.115 Y92.31 E19.87865
G1 X71.831 Y92.046 E19.91672
G1 X72.351 Y91.884 E19.9439
G1 X73.046 Y91.704 E19.97971
G1 X73.58 Y91.593 E20.00692
G1 X73.956 Y91.525 E20.02599
G1 X98.774 Y87.69 E21.27886
G1 X110.089 Y65.273 E22.53164
G1 X110.265 Y64.945 E22.55021
G1 X110.535 Y64.471 E22.57743
G1 X110.936 Y63.843 E22.6146
G1 X111.252 Y63.399 E22.64179
G1 X111.714 Y62.815 E22.67894
G1 X112.073 Y62.405 E22.70613
G1 X112.587 Y61.874 E22.743
G1 X112.986 Y61.501 E22.77025
G1 X113.536 Y61.035 E22.80621
G1 X113.969 Y60.703 E22.83343
G1 X114.597 Y60.271 E22.87146
G1 X115.059 Y59.987 E22.89852
G1 X115.712 Y59.629 E22.93567
G1 X116.202 Y59.392 E22.96283
G1 X116.882 Y59.104 E22.99967
G1 X117.396 Y58.916 E23.02697
G1 X118.095 Y58.699 E23.06349
G1 X118.62 Y58.564 E23.09053
G1 X119.354 Y58.415 E23.1279
G1 X119.895 Y58.333 E23.1552
G1 X120.636 Y58.258 E23.19236
G1 X121.179 Y58.231 E23.21948
G1 X121.915 Y58.231 E23.2562
G1 X122.458 Y58.258 E23.28332
G1 X123.199 Y58.333 E23.32048
G1 X123.74 Y58.415 E23.34778
G1 X124.471 Y58.563 E23.38499
G1 X124.997 Y58.698 E23.41208
G1 X125.703 Y58.918 E23.44897
G1 X126.216 Y59.106 E23.47623
G1 X126.887 Y59.39 E23.51258
G1 X127.378 Y59.627 E23.53978
G1 X128.036 Y59.987 E23.5772
G1 X128.498 Y60.271 E23.60426
G1 X129.126 Y60.703 E23.64229
G1 X129.559 Y61.035 E23.66951
G1 X130.116 Y61.508 E23.70597
G1 X130.514 Y61.881 E23.73318
G1 X131.015 Y62.398 E23.7691
G1 X131.374 Y62.807 E23.79625
G1 X131.837 Y63.392 E23.83347
G1 X132.153 Y63.835 E23.86062
G1 X132.568 Y64.485 E23.89909
G1 X132.837 Y64.96 E23.92633
G1 X133.004 Y65.272 E23.94398
G1 X144.321 Y87.689 E25.19681
G1 X165.403 Y90.946 E26.26107
G1 X169.141 Y91.525 E26.44978
G1 X169.496 Y91.589 E26.46778
G1 X170.032 Y91.699 E26.49508
G1 X170.761 Y91.888 E26.53265
G1 X171.28 Y92.051 E26.55979
G1 X171.991 Y92.315 E26.59763
G1 X172.49 Y92.53 E26.62474
G1 X173.14 Y92.848 E26.66084
G1 X173.618 Y93.112 E26.68808
G1 X173.611 Y93.125 E26.68882
G1 X174.255 Y93.506 E26.72615
G1 X174.701 Y93.815 E26.75322
G1 X175.275 Y94.256 E26.78933
G1 X175.691 Y94.609 E26.81655
G1 X176.243 Y95.129 E26.85439
G1 X176.619 Y95.521 E26.88149
G1 X177.105 Y96.08 E26.91844
G1 X177.441 Y96.509 E26.94563
G1 X177.863 Y97.106 E26.9821
G1 X178.155 Y97.566 E27.00928
G1 X178.523 Y98.217 E27.04659
G1 X178.767 Y98.704 E27.07377
G1 X179.065 Y99.381 E27.11067
G1 X179.26 Y99.892 E27.13796
G1 X179.488 Y100.594 E27.17478
G1 X179.63 Y101.118 E27.20187
G1 X179.789 Y101.846 E27.23904
G1 X179.878 Y102.384 E27.26625
G1 X179.962 Y103.116 E27.30301
G1 X179.997 Y103.659 E27.33015
G1 X180.007 Y104.406 E27.36743
G1 X179.987 Y104.951 E27.39463
G1 X179.922 Y105.694 E27.43184
G1 X179.847 Y106.236 E27.45914
G1 X179.708 Y106.969 E27.49636
G1 X179.58 Y107.496 E27.52342
G1 X179.373 Y108.195 E27.55979
G1 X179.193 Y108.709 E27.58696
G1 X178.907 Y109.409 E27.62469
G1 X178.675 Y109.903 E27.65191
G1 X178.336 Y110.542 E27.688
G1 X178.058 Y111.009 E27.71512
G1 X177.64 Y111.636 E27.75271
G1 X177.314 Y112.075 E27.77999
G1 X176.838 Y112.652 E27.81731
G1 X176.471 Y113.054 E27.84447
G1 X176.219 Y113.317 E27.86264
G1 X165.961 Y123.497 E28.58365
G1 X165.972 Y123.826 E28.60007
G1 X165.916 Y124.593 E28.63844
G1 X165.802 Y125.264 E28.6724
G1 X165.678 Y125.83 E28.70131
G1 X165.474 Y126.571 E28.73965
G1 X165.195 Y127.288 E28.77803
G1 X164.91 Y127.853 E28.8096
G1 X164.728 Y128.179 E28.82823
G1 X164.319 Y128.83 E28.86659
G1 X163.844 Y129.436 E28.905
G1 X163.298 Y129.999 E28.94413
G1 X162.901 Y130.367 E28.97114
G1 X162.31 Y130.86 E29.00953
G1 X161.672 Y131.289 E29.04789
G1 X160.901 Y131.691 E29.09127
G1 X160.42 Y131.907 E29.11758
G1 X159.703 Y132.185 E29.15594
G1 X158.961 Y132.387 E29.19431
G1 X158.63 Y132.446 E29.21108
G1 X162.417 Y155.792 E30.39104
G1 X162.468 Y156.164 E30.40978
G1 X162.528 Y156.705 E30.43693
G1 X162.573 Y157.453 E30.47432
G1 X162.578 Y157.998 E30.50151
G1 X162.549 Y158.718 E30.53746
G1 X162.501 Y159.261 E30.56465
G1 X162.395 Y160.016 E30.60269
G1 X162.291 Y160.553 E30.62998
G1 X162.118 Y161.26 E30.66629
G1 X161.963 Y161.78 E30.69336
G1 X161.711 Y162.489 E30.7309
G1 X161.503 Y162.993 E30.7581
G1 X161.187 Y163.663 E30.79506
G1 X160.93 Y164.143 E30.82223
G1 X160.549 Y164.777 E30.85913
G1 X160.244 Y165.231 E30.88642
G1 X159.814 Y165.808 E30.92232
G1 X159.469 Y166.227 E30.9494
G1 X158.934 Y166.81 E30.98887
G1 X158.545 Y167.191 E31.01604
G1 X158.014 Y167.663 E31.05148
G1 X157.589 Y168.006 E31.07873
G1 X156.993 Y168.44 E31.11551
G1 X156.539 Y168.737 E31.14258
G1 X155.884 Y169.119 E31.18041
G1 X155.4 Y169.369 E31.20759
G1 X154.745 Y169.668 E31.24351
G1 X154.236 Y169.871 E31.27085
G1 X153.514 Y170.116 E31.30888
G1 X152.992 Y170.264 E31.33595
G1 X152.273 Y170.43 E31.37277
G1 X151.735 Y170.526 E31.40003
G1 X151.006 Y170.619 E31.4367
G1 X150.463 Y170.661 E31.46387
G1 X149.715 Y170.681 E31.5012
G1 X149.172 Y170.668 E31.5283
G1 X148.455 Y170.616 E31.56416
G1 X147.913 Y170.55 E31.5914
G1 X147.147 Y170.415 E31.63021
G1 X146.617 Y170.293 E31.65734
G1 X145.921 Y170.097 E31.69342
G1 X145.403 Y169.923 E31.72068
G1 X144.697 Y169.645 E31.75853
G1 X144.202 Y169.42 E31.78566
G1 X143.88 Y169.264 E31.80351
G1 X121.547 Y157.779 E33.05641
G1 X99.215 Y169.264 E34.30926
G1 X98.883 Y169.424 E34.32765
G1 X98.386 Y169.649 E34.35487
G1 X97.694 Y169.921 E34.39196
G1 X97.177 Y170.095 E34.41918
G1 X96.467 Y170.296 E34.45599
G1 X95.938 Y170.417 E34.48307
G1 X95.194 Y170.547 E34.52075
G1 X94.651 Y170.614 E34.54804
G1 X93.922 Y170.668 E34.58451
G1 X93.38 Y170.681 E34.61156
G1 X92.632 Y170.661 E34.64889
G1 X92.089 Y170.619 E34.67606
G1 X91.376 Y170.529 E34.71192
G1 X90.837 Y170.434 E34.73922
G1 X90.077 Y170.258 E34.77814
G1 X89.555 Y170.108 E34.80524
G1 X88.865 Y169.872 E34.84162
G1 X88.357 Y169.67 E34.86889
G1 X87.695 Y169.369 E34.90518
G1 X87.211 Y169.119 E34.93235
G1 X86.556 Y168.737 E34.97018
G1 X86.102 Y168.44 E34.99725
G1 X85.514 Y168.012 E35.03353
G1 X85.089 Y167.67 E35.06075
G1 X84.543 Y167.185 E35.09718
G1 X84.154 Y166.803 E35.12438
G1 X83.633 Y166.235 E35.16284
G1 X83.287 Y165.816 E35.18995
G1 X82.844 Y165.221 E35.22696
G1 X82.54 Y164.767 E35.25422
G1 X82.165 Y164.143 E35.29054
G1 X81.908 Y163.663 E35.3177
G1 X81.596 Y163.005 E35.35403
G1 X81.387 Y162.501 E35.38125
G1 X81.128 Y161.767 E35.42008
G1 X80.974 Y161.247 E35.44714
G1 X80.804 Y160.553 E35.48279
G1 X80.7 Y160.016 E35.51008
G1 X80.595 Y159.277 E35.54732
G1 X80.546 Y158.736 E35.57442
G1 X80.516 Y157.987 E35.61181
G1 X80.522 Y157.442 E35.63901
G1 X80.567 Y156.709 E35.67565
G1 X80.627 Y156.167 E35.70285
G1 X80.677 Y155.796 E35.72153
G1 X84.698 Y131.007 E36.97442
G1 X66.875 Y113.317 E38.22725
G1 X66.623 Y113.054 E38.24542
G1 X66.256 Y112.652 E38.27257
G1 X65.773 Y112.066 E38.31046
G1 X65.448 Y111.627 E38.33771
G1 X65.043 Y111.019 E38.37416
G1 X64.764 Y110.552 E38.4013
G1 X64.419 Y109.903 E38.43797
G1 X64.187 Y109.409 E38.4652
G1 X63.897 Y108.697 E38.50355
G1 X63.718 Y108.183 E38.53071
G1 X63.518 Y107.508 E38.56583
G1 X63.389 Y106.981 E38.5929
G1 X63.245 Y106.223 E38.63139
G1 X63.171 Y105.681 E38.65868
G1 X63.108 Y104.952 E38.69519
