;FLAVOR:Marlin
;TIME:3512
;Filament used: 2.00979m, 0m
;Layer height: 0.2
;MINX:53.905
;MINY:31.251
;MINZ:0.3
;MAXX:181.081
;MAXY:202.415
;MAXZ:1.5
;Generated with Cura_SteamEngine 4.8.0
T0
M140 S60
M105
M190 S60
M104 S200
M105
M109 S200
M82 ;absolute extrusion mode
M201 X500.00 Y500.00 Z100.00 E5000.00 	;Setup machine max acceleration
M203 X500.00 Y500.00 Z10.00 E50.00 	;Setup machine max feedrate
M204 P500.00 R1000.00 T500.00 		;Setup Print/Retract/Travel acceleration
M205 X8.00 Y8.00 Z0.40 E5.00 		;Setup Jerk
M220 S100 				;Reset Feedrate
M221 S100 				;Reset Flowrate
G28				;Home the Machine
#G29 				;Bed Level
G92 E0
M300 P150 S587
G92 E0
G1 F1500 E-5.5
;LAYER_COUNT:7
;LAYER:0
M107
G0 F2618.2 X107.897 Y33.868 Z0.3
;TYPE:SKIRT
G1 F1500 E0
G1 F1200 X108.08 Y33.364 E0.02675
G1 X108.337 Y32.894 E0.05348
G1 X108.661 Y32.466 E0.08026
G1 X109.044 Y32.091 E0.107
G1 X109.48 Y31.778 E0.13378
G1 X109.956 Y31.532 E0.16051
G1 X110.464 Y31.36 E0.18727
G1 X110.992 Y31.266 E0.21402
G1 X111.528 Y31.251 E0.24077
G1 X112.061 Y31.316 E0.26756
G1 X112.578 Y31.459 E0.29432
G1 X113.067 Y31.677 E0.32103
G1 X113.519 Y31.966 E0.3478
G1 X113.923 Y32.318 E0.37453
G1 X114.271 Y32.727 E0.40132
G1 X114.553 Y33.183 E0.42807
G1 X114.765 Y33.675 E0.4548
G1 X114.916 Y34.28 E0.48591
G1 X115.055 Y35.155 E0.53011
G1 X115.178 Y35.998 E0.57261
G1 X115.645 Y38.675 E0.70819
G1 X116.183 Y41.326 E0.84314
G1 X116.813 Y44.025 E0.98142
G1 X117.503 Y46.647 E1.11668
G1 X118.266 Y49.245 E1.25177
G1 X119.121 Y51.877 E1.38984
G1 X120.021 Y54.403 E1.52362
G1 X121.016 Y56.966 E1.66079
G1 X122.068 Y59.464 E1.79601
G1 X123.211 Y61.978 E1.93379
G1 X124.4 Y64.406 E2.06867
G1 X125.671 Y66.826 E2.20504
G1 X127.004 Y69.198 E2.34079
G1 X128.4 Y71.523 E2.47609
G1 X129.888 Y73.855 E2.6141
G1 X131.405 Y76.088 E2.74878
G1 X133.005 Y78.304 E2.88514
G1 X134.671 Y80.479 E3.02183
G1 X136.364 Y82.568 E3.15598
G1 X138.147 Y84.643 E3.29247
G1 X140.004 Y86.684 E3.43013
G1 X141.878 Y88.629 E3.56488
G1 X143.84 Y90.556 E3.70208
G1 X145.817 Y92.39 E3.83662
G1 X147.872 Y94.191 E3.97295
G1 X149.801 Y95.77 E4.09731
G1 X149.923 Y95.886 E4.10571
G1 X151.343 Y97.04 E4.197
G1 X152.438 Y97.986 E4.26919
G1 X153.393 Y98.863 E4.33388
G1 X153.475 Y98.941 E4.33953
G1 X154.374 Y99.82 E4.40226
G1 X155.316 Y100.793 E4.46982
G1 X155.388 Y100.869 E4.47504
G1 X156.249 Y101.813 E4.53879
G1 X157.159 Y102.867 E4.60826
G1 X157.22 Y102.939 E4.61297
G1 X158.085 Y104 E4.68126
G1 X158.899 Y105.056 E4.74778
G1 X159.694 Y106.141 E4.81489
G1 X160.445 Y107.22 E4.88048
G1 X161.271 Y108.475 E4.95543
G1 X161.961 Y109.583 E5.02055
G1 X162.672 Y110.785 E5.09023
G1 X163.263 Y111.835 E5.15034
G1 X163.908 Y113.042 E5.21862
G1 X164.514 Y114.237 E5.28546
G1 X164.622 Y114.455 E5.2976
G1 X165.001 Y115.243 E5.34122
G1 X165.123 Y115.503 E5.35555
G1 X165.727 Y116.833 E5.42843
G1 X166.221 Y117.995 E5.49142
G1 X166.773 Y119.38 E5.56581
G1 X167.221 Y120.583 E5.62985
G1 X167.646 Y121.809 E5.69459
G1 X167.827 Y122.365 E5.72376
G1 X168.715 Y125.002 E5.86258
G1 X169.655 Y127.551 E5.99812
G1 X170.67 Y130.083 E6.13421
G1 X171.764 Y132.6 E6.27114
G1 X172.911 Y135.053 E6.40623
G1 X174.14 Y137.495 E6.54263
G1 X175.421 Y139.871 E6.6773
G1 X176.81 Y142.281 E6.81607
G1 X178.213 Y144.566 E6.94984
G1 X179.953 Y147.207 E7.10763
G1 X180.331 Y147.846 E7.14467
G1 X180.472 Y148.125 E7.16027
G1 X180.68 Y148.629 E7.18747
G1 X180.842 Y149.124 E7.21345
G1 X181.001 Y149.869 E7.25146
G1 X181.054 Y150.375 E7.27684
G1 X181.074 Y150.711 E7.29363
G1 X181.081 Y151.359 E7.32596
G1 X181.053 Y152.025 E7.35922
G1 X181.007 Y152.419 E7.37901
G1 X180.932 Y152.916 E7.40409
G1 X180.82 Y153.415 E7.4296
G1 X180.671 Y153.902 E7.45501
G1 X180.594 Y154.131 E7.46706
G1 X180.343 Y154.707 E7.49841
G1 X180.052 Y155.241 E7.52875
G1 X179.677 Y155.809 E7.56271
G1 X179.333 Y156.235 E7.59002
G1 X179.12 Y156.478 E7.60615
G1 X177.235 Y158.508 E7.74435
G1 X175.433 Y160.561 E7.88064
G1 X173.68 Y162.674 E8.01761
G1 X172.002 Y164.817 E8.1534
G1 X170.386 Y167.009 E8.28927
G1 X168.84 Y169.233 E8.4244
G1 X167.34 Y171.527 E8.56114
G1 X165.922 Y173.837 E8.69637
G1 X164.545 Y176.226 E8.83394
G1 X163.467 Y178.216 E8.94685
G1 X163.318 Y178.496 E8.96267
G1 X162.717 Y179.573 E9.0242
G1 X162.209 Y180.434 E9.07408
G1 X162.11 Y180.592 E9.08338
G1 X161.137 Y182.062 E9.17133
G1 X161.057 Y182.178 E9.17836
G1 X160.265 Y183.278 E9.24598
G1 X160.189 Y183.379 E9.25229
G1 X159.392 Y184.406 E9.31715
G1 X158.69 Y185.257 E9.37218
G1 X158.606 Y185.356 E9.37866
G1 X157.604 Y186.485 E9.45397
G1 X157.506 Y186.59 E9.46114
G1 X156.635 Y187.496 E9.52384
G1 X156.543 Y187.589 E9.53036
G1 X155.6 Y188.501 E9.59581
G1 X155.05 Y189.001 E9.6329
G1 X154.591 Y189.396 E9.66311
G1 X153.775 Y190.063 E9.71569
G1 X153.481 Y190.291 E9.73425
G1 X152.16 Y191.265 E9.81613
G1 X151.157 Y191.964 E9.87713
G1 X150.293 Y192.547 E9.92913
G1 X148.767 Y193.519 E10.01939
G1 X148.667 Y193.58 E10.02524
G1 X147.893 Y194.036 E10.07005
G1 X147.653 Y194.169 E10.08374
G1 X146.835 Y194.606 E10.13001
G1 X144.358 Y195.896 E10.26934
G1 X141.861 Y197.288 E10.41197
G1 X140.681 Y197.917 E10.47868
G1 X139.539 Y198.485 E10.54231
G1 X138.691 Y198.881 E10.58901
G1 X138.178 Y199.104 E10.61691
G1 X136.882 Y199.634 E10.68677
G1 X135.555 Y200.135 E10.75754
G1 X135.443 Y200.175 E10.76347
G1 X134.139 Y200.619 E10.83219
G1 X133.302 Y200.878 E10.8759
G1 X132.663 Y201.055 E10.90898
G1 X131.619 Y201.319 E10.96271
G1 X131.341 Y201.382 E10.97693
G1 X129.706 Y201.71 E11.06013
G1 X128.321 Y201.941 E11.13018
G1 X128.211 Y201.958 E11.13573
G1 X127.034 Y202.116 E11.19498
G1 X126.914 Y202.13 E11.20101
G1 X125.676 Y202.254 E11.26308
G1 X125.547 Y202.265 E11.26954
G1 X124.344 Y202.342 E11.32968
G1 X122.862 Y202.39 E11.40366
G1 X121.682 Y202.415 E11.46254
G1 X121.165 Y202.409 E11.48833
G1 X119.447 Y202.32 E11.57416
G1 X119.324 Y202.312 E11.58031
G1 X118.032 Y202.2 E11.64501
G1 X116.592 Y202.028 E11.71736
G1 X115.125 Y201.807 E11.79138
G1 X115.01 Y201.788 E11.79719
G1 X113.739 Y201.553 E11.86168
G1 X112.329 Y201.252 E11.93361
G1 X112.228 Y201.229 E11.93878
G1 X110.737 Y200.863 E12.01537
G1 X109.488 Y200.521 E12.07998
G1 X108.16 Y200.125 E12.14911
G1 X106.733 Y199.657 E12.22404
G1 X105.377 Y199.172 E12.29589
G1 X104.276 Y198.751 E12.35469
G1 X104.036 Y198.655 E12.36759
G1 X103.029 Y198.245 E12.42183
G1 X102.657 Y198.088 E12.44198
G1 X101.797 Y197.714 E12.48877
G1 X101.422 Y197.547 E12.50925
G1 X100.482 Y197.117 E12.56082
G1 X100.228 Y196.998 E12.57481
G1 X99.006 Y196.408 E12.64251
G1 X97.771 Y195.78 E12.71163
G1 X96.783 Y195.25 E12.76757
G1 X96.536 Y195.114 E12.78164
G1 X95.502 Y194.528 E12.84093
G1 X94.439 Y193.899 E12.90255
G1 X94.161 Y193.731 E12.91876
G1 X93.229 Y193.152 E12.9735
G1 X92.135 Y192.449 E13.03838
G1 X91.79 Y192.223 E13.05895
G1 X91.102 Y191.762 E13.10027
G1 X90.558 Y191.392 E13.13309
G1 X90.081 Y191.064 E13.16197
G1 X89.569 Y190.706 E13.19314
G1 X88.834 Y190.182 E13.23818
G1 X88.432 Y189.891 E13.26294
G1 X87.735 Y189.375 E13.3062
G1 X87.252 Y189.011 E13.33638
G1 X86.722 Y188.605 E13.36968
G1 X86.221 Y188.214 E13.40139
G1 X85.604 Y187.724 E13.4407
G1 X85.159 Y187.363 E13.46929
G1 X84.547 Y186.86 E13.50881
G1 X84.149 Y186.527 E13.5347
G1 X83.476 Y185.956 E13.57873
G1 X83.063 Y185.598 E13.606
G1 X82.475 Y185.083 E13.645
G1 X82.075 Y184.725 E13.67178
G1 X81.436 Y184.144 E13.71486
G1 X81.032 Y183.769 E13.74237
G1 X80.047 Y182.834 E13.81012
G1 X79.872 Y182.663 E13.82233
G1 X78.878 Y181.668 E13.8925
G1 X78.651 Y181.435 E13.90872
G1 X76.705 Y179.495 E14.04581
G1 X75.342 Y178.203 E14.13951
G1 X74.796 Y177.679 E14.17726
G1 X73.715 Y176.611 E14.25308
G1 X73.242 Y176.13 E14.28673
G1 X72.309 Y175.155 E14.35406
G1 X71.572 Y174.363 E14.40803
G1 X71.111 Y173.862 E14.442
G1 X70.651 Y173.352 E14.47627
G1 X70.176 Y172.816 E14.512
G1 X69.803 Y172.389 E14.54028
G1 X69.144 Y171.619 E14.59085
G1 X68.91 Y171.343 E14.6089
G1 X68.369 Y170.691 E14.65117
G1 X67.972 Y170.205 E14.68248
G1 X67.539 Y169.665 E14.71701
G1 X67.158 Y169.183 E14.74766
G1 X66.637 Y168.512 E14.79004
G1 X66.294 Y168.065 E14.81815
G1 X65.836 Y167.457 E14.85613
G1 X65.481 Y166.979 E14.88583
G1 X65 Y166.318 E14.92662
G1 X64.647 Y165.824 E14.95691
G1 X64.212 Y165.208 E14.99453
G1 X63.983 Y164.876 E15.01465
G1 X63.358 Y163.954 E15.07023
G1 X63.178 Y163.683 E15.08646
G1 X62.613 Y162.805 E15.13855
G1 X62.444 Y162.535 E15.15444
G1 X61.884 Y161.625 E15.20775
G1 X61.779 Y161.449 E15.21797
G1 X61.128 Y160.332 E15.28247
G1 X60.464 Y159.133 E15.35085
G1 X59.834 Y157.932 E15.41851
G1 X59.217 Y156.688 E15.48779
G1 X59.052 Y156.343 E15.50687
G1 X58.736 Y155.67 E15.54396
G1 X58.588 Y155.348 E15.56164
G1 X58.009 Y154.04 E15.63301
G1 X57.524 Y152.867 E15.69633
G1 X57.008 Y151.521 E15.76825
G1 X56.975 Y151.433 E15.77294
G1 X56.528 Y150.167 E15.83992
G1 X56.059 Y148.717 E15.91595
G1 X55.68 Y147.429 E15.98293
G1 X55.357 Y146.217 E16.04551
G1 X55.006 Y144.728 E16.12183
G1 X54.983 Y144.623 E16.1272
G1 X54.695 Y143.203 E16.19948
G1 X54.454 Y141.789 E16.27105
G1 X54.267 Y140.458 E16.3381
G1 X54.253 Y140.345 E16.34378
G1 X54.107 Y138.997 E16.41143
G1 X53.996 Y137.573 E16.48269
G1 X53.989 Y137.464 E16.48814
G1 X53.923 Y136.013 E16.5606
G1 X53.905 Y134.804 E16.62093
G1 X53.906 Y134.673 E16.62746
G1 X53.942 Y132.999 E16.711
G1 X53.947 Y132.872 E16.71734
G1 X53.996 Y132.009 E16.76046
G1 X54.01 Y131.833 E16.76927
G1 X54.191 Y130.13 E16.85471
G1 X54.206 Y130.006 E16.86094
G1 X54.391 Y128.697 E16.9269
G1 X54.605 Y127.445 E16.99027
G1 X54.822 Y126.339 E17.0465
G1 X54.861 Y126.163 E17.05549
G1 X55.253 Y124.595 E17.13613
G1 X55.29 Y124.46 E17.14311
G1 X55.69 Y123.088 E17.21441
G1 X55.727 Y122.968 E17.22067
G1 X56.069 Y121.931 E17.27515
G1 X56.603 Y120.463 E17.35309
G1 X56.642 Y120.361 E17.35853
G1 X57.147 Y119.1 E17.4263
G1 X57.657 Y117.924 E17.49025
G1 X58.338 Y116.471 E17.57031
G1 X58.896 Y115.376 E17.63162
G1 X59.551 Y114.177 E17.69979
G1 X59.606 Y114.079 E17.70539
G1 X60.222 Y113.032 E17.766
G1 X61.022 Y111.754 E17.84122
G1 X61.702 Y110.739 E17.90217
G1 X62.457 Y109.674 E17.9673
G1 X63.154 Y108.744 E18.02528
G1 X63.947 Y107.741 E18.08908
G1 X64.731 Y106.802 E18.1501
G1 X64.796 Y106.726 E18.15509
G1 X65.647 Y105.767 E18.21906
G1 X66.444 Y104.912 E18.27737
G1 X67.104 Y104.198 E18.32588
G1 X68.193 Y103.007 E18.4064
G1 X68.289 Y102.907 E18.41331
G1 X69.21 Y101.975 E18.47868
G1 X69.297 Y101.89 E18.48475
G1 X70.262 Y100.977 E18.55103
G1 X70.355 Y100.892 E18.55731
G1 X71.382 Y99.988 E18.62557
G1 X74.276 Y97.596 E18.81289
G1 X76.367 Y95.77 E18.95139
G1 X78.36 Y93.93 E19.08672
G1 X80.263 Y92.07 E19.21947
G1 X82.2 Y90.066 E19.35852
G1 X84.039 Y88.052 E19.49459
G1 X85.801 Y86.011 E19.62911
G1 X87.535 Y83.883 E19.76606
G1 X89.202 Y81.713 E19.90258
G1 X90.789 Y79.522 E20.03755
G1 X92.341 Y77.249 E20.17486
G1 X93.785 Y74.998 E20.30829
G1 X95.215 Y72.624 E20.44656
G1 X96.553 Y70.255 E20.58229
G1 X97.822 Y67.85 E20.71796
G1 X99.029 Y65.396 E20.8544
G1 X100.154 Y62.935 E20.9894
G1 X101.228 Y60.402 E21.12666
G1 X102.217 Y57.872 E21.26218
G1 X103.14 Y55.297 E21.39865
G1 X103.983 Y52.717 E21.53407
G1 X104.756 Y50.106 E21.66992
G1 X105.46 Y47.452 E21.80691
G1 X106.088 Y44.789 E21.94341
G1 X106.633 Y42.123 E22.07917
G1 X107.099 Y39.48 E22.21306
G1 X107.502 Y36.748 E22.35083
G1 X107.624 Y35.702 E22.40337
G1 X107.79 Y34.394 E22.46915
G1 X107.897 Y33.868 E22.49593
G0 F2618.2 X108.29 Y33.949
G1 F1200 X108.469 Y33.477 E22.52112
G1 X108.721 Y33.038 E22.54637
G1 X109.039 Y32.645 E22.57159
G1 X109.415 Y32.307 E22.59682
G1 X109.839 Y32.032 E22.62203
G1 X110.301 Y31.827 E22.64725
G1 X110.79 Y31.698 E22.67248
G1 X111.293 Y31.648 E22.6977
G1 X111.798 Y31.677 E22.72293
G1 X112.292 Y31.785 E22.74816
G1 X112.762 Y31.97 E22.77336
G1 X113.198 Y32.227 E22.79861
G1 X113.588 Y32.549 E22.82384
G1 X113.922 Y32.928 E22.84904
G1 X114.192 Y33.355 E22.87425
G1 X114.392 Y33.82 E22.8995
G1 X114.521 Y34.343 E22.92638
G1 X114.66 Y35.213 E22.97033
G1 X114.787 Y36.088 E23.01444
G1 X115.251 Y38.745 E23.14901
G1 X115.796 Y41.431 E23.28574
G1 X116.422 Y44.113 E23.42315
G1 X117.118 Y46.757 E23.55955
G1 X117.887 Y49.376 E23.69573
G1 X118.729 Y51.966 E23.8316
G1 X119.654 Y54.565 E23.96923
G1 X120.646 Y57.117 E24.10583
G1 X121.699 Y59.619 E24.24126
G1 X122.846 Y62.141 E24.37949
G1 X124.045 Y64.59 E24.51553
G1 X125.312 Y67.001 E24.65141
G1 X126.671 Y69.42 E24.78983
G1 X128.063 Y71.739 E24.92477
G1 X129.537 Y74.05 E25.06152
G1 X131.095 Y76.342 E25.19979
G1 X132.683 Y78.542 E25.33515
G1 X134.341 Y80.707 E25.4712
G1 X136.083 Y82.856 E25.60922
G1 X137.831 Y84.89 E25.74302
G1 X139.703 Y86.947 E25.88178
G1 X141.61 Y88.927 E26.01893
G1 X143.552 Y90.835 E26.15475
G1 X145.564 Y92.701 E26.29165
G1 X147.605 Y94.489 E26.42703
G1 X149.547 Y96.079 E26.55225
G1 X149.658 Y96.186 E26.55994
G1 X151.008 Y97.281 E26.64666
G1 X152.093 Y98.215 E26.71808
G1 X153.122 Y99.158 E26.78772
G1 X153.195 Y99.227 E26.79273
G1 X154.158 Y100.17 E26.85997
G1 X155.029 Y101.071 E26.92249
G1 X155.953 Y102.083 E26.99086
G1 X156.013 Y102.15 E26.99535
G1 X156.91 Y103.192 E27.06394
G1 X157.769 Y104.245 E27.13174
G1 X158.576 Y105.292 E27.19769
G1 X159.365 Y106.37 E27.26434
G1 X160.163 Y107.518 E27.33409
G1 X160.931 Y108.687 E27.40387
G1 X161.617 Y109.787 E27.46855
G1 X162.288 Y110.919 E27.5342
G1 X162.91 Y112.024 E27.59746
G1 X163.554 Y113.229 E27.66563
G1 X164.155 Y114.414 E27.73192
G1 X164.261 Y114.629 E27.74388
G1 X164.639 Y115.413 E27.7873
G1 X164.758 Y115.668 E27.80134
G1 X165.359 Y116.99 E27.87379
G1 X165.849 Y118.143 E27.93629
G1 X166.399 Y119.52 E28.01027
G1 X166.843 Y120.714 E28.07382
G1 X167.267 Y121.936 E28.13835
G1 X167.448 Y122.493 E28.16757
G1 X168.344 Y125.152 E28.30756
G1 X169.284 Y127.702 E28.44315
G1 X170.29 Y130.213 E28.5781
G1 X171.392 Y132.749 E28.71605
G1 X172.556 Y135.237 E28.85309
G1 X173.788 Y137.686 E28.98986
G1 X175.08 Y140.082 E29.12567
G1 X176.456 Y142.468 E29.26308
G1 X177.875 Y144.78 E29.39842
G1 X179.619 Y147.427 E29.55657
G1 X179.974 Y148.027 E29.59135
G1 X180.3 Y148.754 E29.6311
G1 X180.462 Y149.249 E29.65708
G1 X180.604 Y149.911 E29.69086
G1 X180.657 Y150.417 E29.71625
G1 X180.674 Y150.715 E29.73114
G1 X180.681 Y151.363 E29.76347
G1 X180.656 Y151.981 E29.79433
G1 X180.611 Y152.359 E29.81332
G1 X180.536 Y152.856 E29.83839
G1 X180.324 Y153.676 E29.88065
G1 X180.215 Y154.004 E29.89789
G1 X179.992 Y154.515 E29.92571
G1 X179.701 Y155.049 E29.95605
G1 X179.365 Y155.559 E29.98652
G1 X179.03 Y155.973 E30.01309
G1 X178.827 Y156.205 E30.02847
G1 X176.949 Y158.227 E30.16614
G1 X175.125 Y160.305 E30.30409
G1 X173.373 Y162.417 E30.44099
G1 X171.681 Y164.578 E30.57792
G1 X170.077 Y166.753 E30.71275
G1 X168.493 Y169.033 E30.85126
G1 X167.007 Y171.305 E30.9867
G1 X165.584 Y173.623 E31.1224
G1 X164.182 Y176.056 E31.26249
G1 X163.099 Y178.055 E31.37592
G1 X162.968 Y178.301 E31.38982
G1 X162.372 Y179.37 E31.45088
G1 X161.864 Y180.231 E31.50076
G1 X161.776 Y180.371 E31.50901
G1 X160.803 Y181.841 E31.59696
G1 X160.732 Y181.945 E31.60324
G1 X159.94 Y183.045 E31.67086
G1 X159.145 Y184.074 E31.73574
G1 X159.084 Y184.151 E31.74064
G1 X158.382 Y185.002 E31.79567
G1 X158.306 Y185.09 E31.80148
G1 X157.304 Y186.219 E31.87679
G1 X157.218 Y186.313 E31.88314
G1 X156.347 Y187.219 E31.94584
G1 X156.265 Y187.301 E31.95163
G1 X155.322 Y188.213 E32.01708
G1 X155.244 Y188.286 E32.02241
G1 X154.717 Y188.761 E32.0578
G1 X154.27 Y189.143 E32.08714
G1 X153.459 Y189.803 E32.1393
G1 X153.244 Y189.969 E32.15286
G1 X151.923 Y190.943 E32.23474
G1 X150.932 Y191.633 E32.29498
G1 X150.07 Y192.215 E32.34687
G1 X148.552 Y193.181 E32.43664
G1 X148.463 Y193.236 E32.44186
G1 X147.698 Y193.687 E32.48616
G1 X147.464 Y193.816 E32.4995
G1 X146.65 Y194.251 E32.54554
G1 X144.185 Y195.535 E32.6842
G1 X141.672 Y196.935 E32.82772
G1 X140.503 Y197.559 E32.89383
G1 X139.444 Y198.087 E32.95287
G1 X138.438 Y198.556 E33.00824
G1 X138.026 Y198.734 E33.03064
G1 X136.74 Y199.26 E33.09995
G1 X135.413 Y199.761 E33.17072
G1 X134.01 Y200.24 E33.24468
G1 X133.919 Y200.27 E33.24946
G1 X133.092 Y200.523 E33.29261
G1 X132.491 Y200.687 E33.32369
G1 X131.528 Y200.929 E33.37323
G1 X131.262 Y200.989 E33.38683
G1 X129.522 Y201.337 E33.47536
G1 X128.158 Y201.562 E33.54433
