;FLAVOR:Marlin
;TIME:3319
;Filament used: 3.58856m, 0m
;Layer height: 0.2
;MINX:33.497
;MINY:15.302
;MINZ:0.3
;MAXX:201.497
;MAXY:217.829
;MAXZ:1.9
;Generated with Cura_SteamEngine 4.8.0
T0
M140 S60
M105
M190 S60
M104 S200
M105
M109 S200
M82 ;absolute extrusion mode
M201 X500.00 Y500.00 Z100.00 E5000.00 	;Setup machine max acceleration
M203 X500.00 Y500.00 Z10.00 E50.00 	;Setup machine max feedrate
M204 P500.00 R1000.00 T500.00 		;Setup Print/Retract/Travel acceleration
M205 X8.00 Y8.00 Z0.40 E5.00 		;Setup Jerk
M220 S100 				;Reset Feedrate
M221 S100 				;Reset Flowrate
G28				;Home the Machine
#G29 				;Bed Level
G92 E0
M300 P150 S587
G92 E0
G1 F1500 E-5.5
;LAYER_COUNT:9
;LAYER:0
M107
G0 F2618.2 X109.077 Y18.129 Z0.3
;TYPE:SKIRT
G1 F1500 E0
G1 F1200 X109.231 Y17.616 E0.02672
G1 X109.459 Y17.13 E0.0535
G1 X109.757 Y16.685 E0.08022
G1 X110.118 Y16.288 E0.10699
G1 X110.534 Y15.949 E0.13377
G1 X110.995 Y15.676 E0.1605
G1 X111.492 Y15.474 E0.18726
G1 X112.014 Y15.349 E0.21404
G1 X112.548 Y15.302 E0.24079
G1 X113.083 Y15.336 E0.26753
G1 X113.607 Y15.448 E0.29426
G1 X114.109 Y15.637 E0.32102
G1 X114.578 Y15.898 E0.3478
G1 X115.002 Y16.227 E0.37458
G1 X115.372 Y16.614 E0.40129
G1 X115.681 Y17.052 E0.42803
G1 X115.922 Y17.532 E0.45483
G1 X116.089 Y18.041 E0.48155
G1 X116.186 Y18.676 E0.5136
G1 X116.206 Y19.002 E0.5299
G1 X116.542 Y26.849 E0.92174
G1 X116.697 Y29.562 E1.05732
G1 X116.93 Y32.289 E1.19386
G1 X117.238 Y34.993 E1.32964
G1 X117.624 Y37.699 E1.46601
G1 X118.083 Y40.366 E1.60102
G1 X118.631 Y43.096 E1.73994
G1 X119.223 Y45.672 E1.87181
G1 X119.921 Y48.343 E2.00954
G1 X120.681 Y50.959 E2.14545
G1 X121.53 Y53.594 E2.28356
G1 X122.419 Y56.11 E2.41669
G1 X123.407 Y58.672 E2.55368
G1 X124.469 Y61.207 E2.69081
G1 X125.584 Y63.676 E2.82596
G1 X126.78 Y66.134 E2.96234
G1 X128.047 Y68.56 E3.09889
G1 X129.364 Y70.918 E3.23363
G1 X130.768 Y73.271 E3.37033
G1 X132.223 Y75.562 E3.50573
G1 X133.763 Y77.841 E3.64296
G1 X135.347 Y80.046 E3.77841
G1 X136.975 Y82.185 E3.91252
G1 X138.716 Y84.343 E4.05085
G1 X140.484 Y86.41 E4.18655
G1 X142.31 Y88.426 E4.32225
G1 X144.199 Y90.399 E4.45853
G1 X146.148 Y92.321 E4.59509
G1 X148.13 Y94.167 E4.73022
G1 X150.186 Y95.976 E4.86685
G1 X152.265 Y97.706 E5.00178
G1 X154.445 Y99.415 E5.13998
G1 X156.598 Y101.01 E5.27366
G1 X158.853 Y102.581 E5.41077
G1 X161.137 Y104.079 E5.54704
G1 X164.369 Y106.046 E5.7358
G1 X165.348 Y106.617 E5.79234
G1 X165.785 Y106.879 E5.81776
G1 X166.783 Y107.491 E5.87617
G1 X167.155 Y107.726 E5.89812
G1 X168.323 Y108.486 E5.96764
G1 X168.496 Y108.602 E5.97804
G1 X169.695 Y109.428 E6.05067
G1 X171.109 Y110.464 E6.13813
G1 X171.268 Y110.584 E6.14807
G1 X172.358 Y111.435 E6.21706
G1 X172.534 Y111.576 E6.22831
G1 X173.759 Y112.59 E6.30765
G1 X174.901 Y113.59 E6.38338
G1 X175.037 Y113.713 E6.39252
G1 X176.03 Y114.631 E6.45999
G1 X176.234 Y114.824 E6.474
G1 X177.321 Y115.89 E6.54996
G1 X178.351 Y116.954 E6.62384
G1 X179.482 Y118.183 E6.70717
G1 X180.496 Y119.345 E6.78411
G1 X181.389 Y120.42 E6.85383
G1 X181.556 Y120.627 E6.8671
G1 X182.494 Y121.822 E6.94289
G1 X183.293 Y122.891 E7.00948
G1 X183.465 Y123.128 E7.02409
G1 X184.167 Y124.116 E7.08455
G1 X184.302 Y124.311 E7.09639
G1 X185.075 Y125.46 E7.16547
G1 X185.887 Y126.731 E7.24072
G1 X186.72 Y128.118 E7.32144
G1 X187.477 Y129.462 E7.3984
G1 X188.164 Y130.762 E7.47175
G1 X188.796 Y132.037 E7.54275
G1 X188.839 Y132.126 E7.54768
G1 X189.51 Y133.583 E7.62771
G1 X190.05 Y134.838 E7.69587
G1 X190.661 Y136.368 E7.77806
G1 X191.122 Y137.612 E7.84425
G1 X191.191 Y137.806 E7.85452
G1 X192.166 Y140.423 E7.99385
G1 X193.188 Y142.948 E8.12975
G1 X194.267 Y145.409 E8.26382
G1 X195.456 Y147.923 E8.40256
G1 X196.673 Y150.322 E8.53677
G1 X197.984 Y152.735 E8.67377
G1 X198.791 Y154.139 E8.75456
G1 X198.85 Y154.245 E8.76062
G1 X199.253 Y155.004 E8.80349
G1 X199.316 Y155.129 E8.81047
G1 X199.719 Y155.965 E8.85678
G1 X199.781 Y156.101 E8.86423
G1 X200.145 Y156.944 E8.91004
G1 X200.197 Y157.071 E8.91689
G1 X200.508 Y157.874 E8.95985
G1 X200.558 Y158.01 E8.96708
G1 X200.845 Y158.85 E9.01137
G1 X200.887 Y158.981 E9.01823
G1 X201.21 Y160.059 E9.07437
G1 X201.308 Y160.427 E9.09337
G1 X201.412 Y161.03 E9.1239
G1 X201.438 Y161.349 E9.13987
G1 X201.476 Y162.04 E9.1744
G1 X201.497 Y163.087 E9.22664
G1 X201.494 Y163.327 E9.23862
G1 X201.46 Y164.034 E9.27393
G1 X201.419 Y164.48 E9.29627
G1 X201.307 Y165.262 E9.33569
G1 X201.126 Y166.064 E9.3767
G1 X200.843 Y166.889 E9.42022
G1 X200.515 Y167.601 E9.45933
G1 X200.449 Y167.724 E9.46629
G1 X200.175 Y168.218 E9.49447
G1 X199.83 Y168.759 E9.52649
G1 X199.713 Y168.925 E9.53662
G1 X199.372 Y169.381 E9.56503
G1 X199.133 Y169.682 E9.5842
G1 X198.8 Y170.076 E9.60994
G1 X197.077 Y172.174 E9.74538
G1 X195.39 Y174.349 E9.88271
G1 X193.806 Y176.519 E10.01674
G1 X192.243 Y178.79 E10.15429
G1 X190.76 Y181.08 E10.2904
G1 X189.348 Y183.403 E10.42602
G1 X187.492 Y186.7 E10.61478
G1 X186.656 Y188.253 E10.70278
G1 X185.973 Y189.453 E10.77166
G1 X185.238 Y190.675 E10.84281
G1 X184.674 Y191.562 E10.89525
G1 X184.485 Y191.843 E10.91214
G1 X183.452 Y193.303 E11.00137
G1 X183.382 Y193.399 E11.0073
G1 X182.671 Y194.337 E11.06602
G1 X182.598 Y194.43 E11.07192
G1 X181.584 Y195.68 E11.15222
G1 X181.491 Y195.79 E11.15941
G1 X180.384 Y197.048 E11.24301
G1 X180.296 Y197.144 E11.2495
G1 X179.285 Y198.213 E11.32291
G1 X179.144 Y198.357 E11.33297
G1 X178.195 Y199.301 E11.39975
G1 X178.014 Y199.475 E11.41227
G1 X177.242 Y200.203 E11.46521
G1 X176.953 Y200.46 E11.48451
G1 X175.646 Y201.574 E11.57018
G1 X175.539 Y201.662 E11.5771
G1 X174.29 Y202.646 E11.65642
G1 X174.181 Y202.728 E11.66323
G1 X172.883 Y203.673 E11.74333
G1 X172.786 Y203.741 E11.74924
G1 X171.957 Y204.303 E11.79921
G1 X171.512 Y204.588 E11.82557
G1 X169.862 Y205.59 E11.92188
G1 X169.754 Y205.653 E11.92812
G1 X168.404 Y206.41 E12.00534
G1 X168.09 Y206.578 E12.0231
G1 X166.987 Y207.158 E12.08528
G1 X166.35 Y207.484 E12.12098
G1 X165.725 Y207.798 E12.15587
G1 X165.046 Y208.133 E12.19365
G1 X163.933 Y208.667 E12.25523
G1 X162.252 Y209.413 E12.34699
G1 X162.127 Y209.466 E12.35376
G1 X160.337 Y210.179 E12.44989
G1 X158.61 Y210.827 E12.54191
G1 X155.282 Y212.199 E12.7215
G1 X154.417 Y212.574 E12.76854
G1 X154.138 Y212.69 E12.78361
G1 X152.798 Y213.226 E12.85562
G1 X152.489 Y213.344 E12.87212
G1 X151.076 Y213.861 E12.94719
G1 X150.606 Y214.025 E12.97202
G1 X149.601 Y214.365 E13.02495
G1 X148.861 Y214.607 E13.06379
G1 X147.775 Y214.947 E13.12057
G1 X147.175 Y215.127 E13.15182
G1 X145.818 Y215.515 E13.22223
G1 X145.416 Y215.624 E13.24301
G1 X143.864 Y216.02 E13.32292
G1 X143.676 Y216.064 E13.33256
G1 X141.849 Y216.465 E13.42588
G1 X141.724 Y216.49 E13.43224
G1 X139.922 Y216.819 E13.52362
G1 X139.509 Y216.887 E13.54451
G1 X138.123 Y217.096 E13.61444
G1 X137.434 Y217.19 E13.64913
G1 X136.326 Y217.329 E13.70484
G1 X135.794 Y217.39 E13.73156
G1 X133.995 Y217.564 E13.82173
G1 X133.746 Y217.584 E13.83419
G1 X132.673 Y217.659 E13.88785
G1 X132.127 Y217.693 E13.91515
G1 X130.962 Y217.75 E13.97334
G1 X130.432 Y217.769 E13.9998
G1 X128.635 Y217.814 E14.08948
G1 X127.836 Y217.829 E14.12935
G1 X127.637 Y217.828 E14.13927
G1 X127.078 Y217.808 E14.16718
G1 X125.899 Y217.774 E14.22603
G1 X124.548 Y217.717 E14.29349
G1 X123.9 Y217.682 E14.32586
G1 X122.66 Y217.598 E14.38787
G1 X121.998 Y217.545 E14.421
G1 X120.741 Y217.43 E14.48398
G1 X120.018 Y217.356 E14.52023
G1 X118.857 Y217.224 E14.57853
G1 X118.11 Y217.129 E14.6161
G1 X116.973 Y216.973 E14.67336
G1 X116.186 Y216.856 E14.71305
G1 X115.039 Y216.674 E14.77099
G1 X114.292 Y216.547 E14.80879
G1 X113.222 Y216.356 E14.86302
G1 X112.459 Y216.21 E14.90178
G1 X111.29 Y215.974 E14.96127
G1 X110.678 Y215.843 E14.9925
G1 X109.407 Y215.557 E15.0575
G1 X108.788 Y215.411 E15.08922
G1 X107.69 Y215.14 E15.14565
G1 X106.891 Y214.933 E15.18683
G1 X105.921 Y214.672 E15.23694
G1 X105.064 Y214.432 E15.28134
G1 X104.206 Y214.184 E15.3259
G1 X103.331 Y213.921 E15.37148
G1 X102.368 Y213.624 E15.42176
G1 X101.563 Y213.368 E15.4639
G1 X100.701 Y213.086 E15.50915
G1 X99.745 Y212.764 E15.55948
G1 X98.99 Y212.502 E15.59935
G1 X98.109 Y212.19 E15.64598
G1 X97.239 Y211.874 E15.69216
G1 X96.481 Y211.591 E15.73252
G1 X95.536 Y211.227 E15.78305
G1 X94.773 Y210.926 E15.82397
G1 X93.908 Y210.575 E15.87054
G1 X93.191 Y210.277 E15.90928
G1 X92.228 Y209.867 E15.9615
G1 X91.508 Y209.552 E16.0007
G1 X90.74 Y209.21 E16.04265
G1 X89.912 Y208.833 E16.08804
G1 X89.182 Y208.495 E16.12817
G1 X88.426 Y208.135 E16.16995
G1 X87.448 Y207.658 E16.22423
G1 X85.301 Y206.58 E16.34409
G1 X84.487 Y206.162 E16.38974
G1 X83.662 Y205.73 E16.4362
G1 X82.991 Y205.369 E16.47422
G1 X82.189 Y204.931 E16.51981
G1 X81.449 Y204.518 E16.56209
G1 X80.655 Y204.068 E16.60762
G1 X79.972 Y203.672 E16.64701
G1 X79.237 Y203.239 E16.68957
G1 X78.485 Y202.789 E16.73329
G1 X77.758 Y202.344 E16.77581
G1 X77.022 Y201.888 E16.81901
G1 X76.411 Y201.504 E16.85501
G1 X75.487 Y200.907 E16.9099
G1 X73.694 Y199.721 E17.01715
G1 X72.602 Y198.978 E17.08304
G1 X71.947 Y198.521 E17.12289
G1 X71.011 Y197.85 E17.18035
G1 X70.421 Y197.418 E17.21683
G1 X69.275 Y196.558 E17.28831
G1 X68.424 Y195.902 E17.34192
G1 X68.308 Y195.823 E17.34892
G1 X67.041 Y194.85 E17.42862
G1 X64.566 Y193.065 E17.58086
G1 X64.202 Y192.81 E17.60303
G1 X63.369 Y192.208 E17.65431
G1 X62.122 Y191.277 E17.73195
G1 X61.256 Y190.61 E17.78648
G1 X60.122 Y189.713 E17.85862
G1 X59.018 Y188.816 E17.92958
G1 X58.52 Y188.407 E17.96174
G1 X57.873 Y187.869 E18.00372
G1 X57.032 Y187.157 E18.05869
G1 X56.606 Y186.788 E18.08681
G1 X55.849 Y186.124 E18.13705
G1 X55.292 Y185.626 E18.17432
G1 X54.704 Y185.093 E18.21392
G1 X54.122 Y184.553 E18.25352
G1 X53.408 Y183.881 E18.30244
G1 X52.977 Y183.469 E18.33219
G1 X52.279 Y182.79 E18.38077
G1 X51.884 Y182.399 E18.4085
G1 X50.994 Y181.497 E18.47172
G1 X49.683 Y180.14 E18.56585
G1 X48.79 Y179.196 E18.63068
G1 X48.607 Y178.997 E18.64417
G1 X47.692 Y177.981 E18.71239
G1 X47.531 Y177.797 E18.72458
G1 X46.687 Y176.811 E18.78934
G1 X46.498 Y176.586 E18.804
G1 X45.666 Y175.566 E18.86967
G1 X45.515 Y175.374 E18.88185
G1 X44.696 Y174.317 E18.94856
G1 X44.531 Y174.1 E18.96216
G1 X43.778 Y173.077 E19.02554
G1 X43.616 Y172.85 E19.03945
G1 X42.881 Y171.8 E19.10339
G1 X42.75 Y171.607 E19.11503
G1 X41.908 Y170.332 E19.19126
G1 X41.135 Y169.094 E19.26408
G1 X40.354 Y167.765 E19.34098
G1 X39.621 Y166.437 E19.41666
G1 X39.571 Y166.343 E19.42197
G1 X38.895 Y165.025 E19.49587
G1 X38.847 Y164.928 E19.50127
G1 X38.236 Y163.643 E19.57226
G1 X38.187 Y163.536 E19.57813
G1 X37.626 Y162.25 E19.64813
G1 X37.581 Y162.142 E19.65396
G1 X37.039 Y160.78 E19.7271
G1 X36.995 Y160.663 E19.73333
G1 X36.555 Y159.435 E19.79841
G1 X36.513 Y159.311 E19.80494
G1 X36.044 Y157.835 E19.88221
G1 X36.007 Y157.71 E19.88871
G1 X35.706 Y156.628 E19.94474
G1 X35.045 Y154.077 E20.07622
G1 X34.419 Y151.936 E20.1875
G1 X34.403 Y151.861 E20.19133
G1 X34.002 Y150.5 E20.26212
G1 X33.859 Y149.934 E20.29124
G1 X33.833 Y149.817 E20.29722
G1 X33.71 Y149.214 E20.32792
G1 X33.673 Y149 E20.33876
G1 X33.589 Y148.398 E20.36908
G1 X33.527 Y147.715 E20.4033
G1 X33.51 Y147.398 E20.41914
G1 X33.497 Y146.735 E20.45222
G1 X33.513 Y146.161 E20.48087
G1 X33.546 Y145.656 E20.50612
G1 X33.625 Y144.944 E20.54186
G1 X33.702 Y144.444 E20.5671
G1 X33.789 Y144.001 E20.58962
G1 X33.951 Y143.33 E20.62406
G1 X34.104 Y142.768 E20.65312
G1 X34.288 Y142.19 E20.68338
G1 X34.518 Y141.546 E20.7175
G1 X35.356 Y139.346 E20.83495
G1 X35.931 Y137.729 E20.92057
G1 X36.351 Y136.513 E20.98475
G1 X37.031 Y134.713 E21.08075
G1 X37.08 Y134.591 E21.08731
G1 X37.406 Y133.818 E21.12916
G1 X37.558 Y133.483 E21.14751
G1 X38.297 Y131.952 E21.23233
G1 X38.358 Y131.832 E21.23905
G1 X39.017 Y130.588 E21.30928
G1 X39.083 Y130.468 E21.31611
G1 X39.817 Y129.201 E21.38916
G1 X39.883 Y129.092 E21.39552
G1 X40.606 Y127.94 E21.46338
G1 X40.678 Y127.829 E21.46998
G1 X41.578 Y126.506 E21.54981
G1 X41.655 Y126.398 E21.55642
G1 X42.498 Y125.252 E21.6274
G1 X42.565 Y125.164 E21.63292
G1 X43.462 Y124.022 E21.70537
G1 X44.412 Y122.881 E21.77944
G1 X44.485 Y122.796 E21.78503
G1 X45.437 Y121.724 E21.85656
G1 X46.471 Y120.626 E21.9318
G1 X47.419 Y119.675 E21.9988
G1 X48.497 Y118.647 E22.07311
G1 X49.659 Y117.601 E22.15111
G1 X50.718 Y116.693 E22.22071
G1 X51.968 Y115.674 E22.30117
G1 X52.323 Y115.378 E22.32423
G1 X54.365 Y113.71 E22.45577
G1 X54.457 Y113.637 E22.46163
G1 X55.753 Y112.647 E22.54299
G1 X55.848 Y112.577 E22.54888
G1 X57.182 Y111.626 E22.63061
G1 X57.278 Y111.56 E22.63643
G1 X58.572 Y110.699 E22.71397
G1 X58.665 Y110.639 E22.71949
G1 X59.975 Y109.825 E22.79644
G1 X60.775 Y109.356 E22.8427
G1 X63.101 Y107.95 E22.9783
G1 X65.406 Y106.464 E23.11512
G1 X67.661 Y104.92 E23.25147
G1 X69.829 Y103.343 E23.38522
G1 X72.019 Y101.653 E23.52323
G1 X74.114 Y99.94 E23.65824
G1 X76.206 Y98.127 E23.79635
G1 X78.201 Y96.299 E23.93135
G1 X80.128 Y94.43 E24.06528
G1 X82.058 Y92.448 E24.2033
G1 X83.914 Y90.433 E24.33997
G1 X85.687 Y88.391 E24.47489
G1 X87.417 Y86.284 E24.6109
G1 X89.101 Y84.109 E24.74814
G1 X90.695 Y81.927 E24.88295
G1 X92.244 Y79.675 E25.01931
G1 X93.718 Y77.398 E25.15464
G1 X95.136 Y75.064 E25.29089
G1 X96.496 Y72.675 E25.42804
G1 X97.776 Y70.272 E25.56387
G1 X98.984 Y67.838 E25.69943
G1 X100.118 Y65.384 E25.83431
G1 X101.202 Y62.851 E25.97176
G1 X102.201 Y60.321 E26.10747
G1 X103.124 Y57.78 E26.24234
G1 X103.997 Y55.141 E26.38102
G1 X104.768 Y52.571 E26.51488
G1 X105.48 Y49.927 E26.65149
G1 X106.124 Y47.241 E26.7893
G1 X106.671 Y44.619 E26.92293
G1 X107.156 Y41.927 E27.05939
G1 X107.566 Y39.208 E27.19658
G1 X107.896 Y36.514 E27.33199
G1 X108.148 Y33.815 E27.46722
G1 X108.314 Y31.327 E27.59163
G1 X108.965 Y19.195 E28.19777
G1 X109.001 Y18.66 E28.22452
G1 X109.077 Y18.129 E28.25128
G0 F2618.2 X109.474 Y18.187
G1 F1200 X109.625 Y17.705 E28.27648
G1 X109.851 Y17.252 E28.30174
G1 X110.145 Y16.841 E28.32695
G1 X110.5 Y16.481 E28.35217
G1 X110.908 Y16.182 E28.37741
G1 X111.357 Y15.95 E28.40262
G1 X111.837 Y15.792 E28.42783
G1 X112.337 Y15.712 E28.45309
G1 X112.842 Y15.712 E28.47829
G1 X113.342 Y15.791 E28.50354
G1 X113.822 Y15.947 E28.52872
G1 X114.272 Y16.178 E28.55396
G1 X114.68 Y16.476 E28.57917
G1 X115.036 Y16.835 E28.60439
G1 X115.331 Y17.246 E28.62963
G1 X115.558 Y17.698 E28.65486
G1 X115.71 Y18.18 E28.68008
G1 X115.787 Y18.701 E28.70635
G1 X115.806 Y19.019 E28.72225
G1 X116.14 Y26.821 E29.11185
G1 X116.299 Y29.618 E29.25162
G1 X116.532 Y32.332 E29.38752
G1 X116.839 Y35.028 E29.52289
G1 X117.228 Y37.752 E29.66017
G1 X117.696 Y40.476 E29.79806
G1 X118.226 Y43.116 E29.9324
G1 X118.842 Y45.797 E30.06964
G1 X119.533 Y48.441 E30.20598
G1 X120.305 Y51.097 E30.34397
G1 X121.144 Y53.702 E30.48051
G1 X122.044 Y56.25 E30.61533
G1 X123.041 Y58.834 E30.75351
G1 X124.101 Y61.364 E30.89036
G1 X125.224 Y63.85 E31.02645
G1 X126.423 Y66.315 E31.16321
G1 X127.686 Y68.734 E31.29935
G1 X129.029 Y71.138 E31.43674
G1 X130.42 Y73.469 E31.57216
G1 X131.897 Y75.795 E31.70963
G1 X133.422 Y78.052 E31.84552
G1 X135.032 Y80.293 E31.98319
G1 X136.688 Y82.469 E32.11961
G1 X138.385 Y84.571 E32.25439
G1 X140.184 Y86.675 E32.3925
G1 X142.01 Y88.691 E32.5282
G1 X143.93 Y90.695 E32.66666
G1 X145.877 Y92.616 E32.80312
G1 X147.858 Y94.461 E32.93818
G1 X149.908 Y96.265 E33.07442
G1 X152.029 Y98.029 E33.21205
G1 X154.182 Y99.718 E33.34857
G1 X156.377 Y101.343 E33.48482
G1 X158.635 Y102.916 E33.62211
G1 X160.904 Y104.405 E33.75751
G1 X164.193 Y106.406 E33.94958
G1 X165.142 Y106.96 E34.00441
G1 X165.576 Y107.219 E34.02962
G1 X166.569 Y107.83 E34.08779
G1 X166.937 Y108.062 E34.10949
G1 X168.101 Y108.819 E34.17877
G1 X168.269 Y108.932 E34.18887
G1 X169.545 Y109.812 E34.2662
G1 X170.868 Y110.782 E34.34804
G1 X171.022 Y110.9 E34.35772
G1 X172.238 Y111.85 E34.43471
G1 X173.427 Y112.832 E34.51164
G1 X174.602 Y113.859 E34.5895
G1 X174.766 Y114.006 E34.60049
G1 X175.756 Y114.922 E34.66778
G1 X175.954 Y115.11 E34.6814
G1 X177.038 Y116.173 E34.75714
G1 X177.999 Y117.163 E34.82598
G1 X179.181 Y118.446 E34.91301
G1 X180.137 Y119.54 E34.98549
G1 X181.078 Y120.672 E35.05893
G1 X181.242 Y120.875 E35.07195
G1 X182.173 Y122.061 E35.14718
G1 X182.97 Y123.126 E35.21354
