;FLAVOR:Marlin
;TIME:3611
;Filament used: 3.75949m, 0m
;Layer height: 0.2
;MINX:44.118
;MINY:18.917
;MINZ:0.3
;MAXX:190.862
;MAXY:214.13
;MAXZ:1.9
;Generated with Cura_SteamEngine 4.8.0
T0
M140 S60
M105
M190 S60
M104 S200
M105
M109 S200
M82 ;absolute extrusion mode
M201 X500.00 Y500.00 Z100.00 E5000.00 	;Setup machine max acceleration
M203 X500.00 Y500.00 Z10.00 E50.00 	;Setup machine max feedrate
M204 P500.00 R1000.00 T500.00 		;Setup Print/Retract/Travel acceleration
M205 X8.00 Y8.00 Z0.40 E5.00 		;Setup Jerk
M220 S100 				;Reset Feedrate
M221 S100 				;Reset Flowrate
G28				;Home the Machine
#G29 				;Bed Level
G92 E0
M300 P150 S587
G92 E0
G1 F1500 E-5.5
;LAYER_COUNT:9
;LAYER:0
M107
G0 F2618.2 X67.365 Y88.789 Z0.3
;TYPE:SKIRT
G1 F1500 E0
G1 F1200 X68.588 Y87.892 E0.07567
G1 X69.791 Y87.06 E0.14864
G1 X69.863 Y87.011 E0.15299
G1 X71.157 Y86.164 E0.23014
G1 X72.113 Y85.57 E0.2863
G1 X74.391 Y84.108 E0.42134
G1 X76.655 Y82.562 E0.55811
G1 X78.873 Y80.954 E0.69479
G1 X81.026 Y79.301 E0.83021
G1 X83.154 Y77.567 E0.96716
G1 X85.196 Y75.804 E1.10175
G1 X87.209 Y73.966 E1.23775
G1 X89.184 Y72.056 E1.37482
G1 X91.081 Y70.114 E1.51026
G1 X92.937 Y68.104 E1.64675
G1 X94.747 Y66.03 E1.78409
G1 X96.447 Y63.966 E1.91749
G1 X98.133 Y61.799 E2.05447
G1 X99.745 Y59.598 E2.19058
G1 X101.305 Y57.338 E2.32759
G1 X102.771 Y55.082 E2.46181
G1 X104.205 Y52.73 E2.59925
G1 X105.556 Y50.367 E2.73504
G1 X106.832 Y47.982 E2.86999
G1 X108.053 Y45.537 E3.00634
G1 X109.206 Y43.052 E3.14301
G1 X110.281 Y40.555 E3.27864
G1 X111.302 Y37.983 E3.4167
G1 X112.214 Y35.477 E3.54974
G1 X113.099 Y32.82 E3.68946
G1 X113.869 Y30.266 E3.82255
G1 X114.58 Y27.647 E3.95794
G1 X115.227 Y24.967 E4.09549
G1 X115.891 Y21.781 E4.25785
G1 X116.039 Y21.266 E4.28458
G1 X116.262 Y20.778 E4.31135
G1 X116.555 Y20.329 E4.3381
G1 X116.912 Y19.928 E4.36489
G1 X117.324 Y19.585 E4.39163
G1 X117.783 Y19.307 E4.4184
G1 X118.278 Y19.1 E4.44517
G1 X118.798 Y18.969 E4.47193
G1 X119.331 Y18.917 E4.49864
G1 X119.867 Y18.944 E4.52542
G1 X120.392 Y19.051 E4.55215
G1 X120.896 Y19.235 E4.57892
G1 X121.367 Y19.491 E4.60566
G1 X121.795 Y19.815 E4.63244
G1 X122.17 Y20.198 E4.65919
G1 X122.484 Y20.633 E4.68595
G1 X122.729 Y21.11 E4.7127
G1 X122.901 Y21.618 E4.73946
G1 X122.973 Y21.97 E4.75739
G1 X123.125 Y22.964 E4.80755
G1 X123.211 Y23.582 E4.83868
G1 X123.665 Y26.283 E4.97533
G1 X124.19 Y28.945 E5.11069
G1 X124.799 Y31.629 E5.248
G1 X125.471 Y34.247 E5.38285
G1 X126.227 Y36.883 E5.51966
G1 X127.052 Y39.477 E5.65546
G1 X127.951 Y42.051 E5.79149
G1 X128.921 Y44.593 E5.92723
G1 X129.968 Y47.121 E6.06374
G1 X131.084 Y49.612 E6.19992
G1 X132.266 Y52.066 E6.33581
G1 X133.507 Y54.464 E6.47052
G1 X134.834 Y56.859 E6.60712
G1 X136.241 Y59.237 E6.74497
G1 X137.678 Y61.517 E6.87943
G1 X139.199 Y63.785 E7.01567
G1 X140.779 Y66.004 E7.15157
G1 X142.422 Y68.177 E7.28748
G1 X144.142 Y70.324 E7.42473
G1 X145.889 Y72.384 E7.55949
G1 X147.726 Y74.426 E7.69652
G1 X149.589 Y76.385 E7.83139
G1 X151.524 Y78.308 E7.9675
G1 X153.524 Y80.186 E8.10437
G1 X155.549 Y81.98 E8.23934
G1 X157.667 Y83.754 E8.37718
G1 X159.891 Y85.511 E8.51858
G1 X160.407 Y85.906 E8.551
G1 X161.637 Y86.903 E8.62999
G1 X161.721 Y86.973 E8.63545
G1 X163.032 Y88.106 E8.7219
G1 X164.213 Y89.192 E8.80194
G1 X165.292 Y90.242 E8.87705
G1 X165.368 Y90.318 E8.88242
G1 X166.505 Y91.496 E8.9641
G1 X166.622 Y91.621 E8.97264
G1 X167.702 Y92.81 E9.05278
G1 X168.685 Y93.95 E9.12788
G1 X168.822 Y94.114 E9.13854
G1 X169.703 Y95.194 E9.20807
G1 X169.826 Y95.349 E9.21794
G1 X170.717 Y96.502 E9.29064
G1 X170.889 Y96.73 E9.30489
G1 X171.647 Y97.765 E9.36889
G1 X171.849 Y98.049 E9.38628
G1 X172.614 Y99.152 E9.45325
G1 X172.79 Y99.411 E9.46887
G1 X173.47 Y100.442 E9.53049
G1 X173.72 Y100.831 E9.55356
G1 X174.34 Y101.821 E9.61184
G1 X174.593 Y102.238 E9.63617
G1 X175.174 Y103.216 E9.69292
G1 X175.425 Y103.652 E9.71802
G1 X175.971 Y104.622 E9.77356
G1 X176.166 Y104.98 E9.79389
G1 X176.775 Y106.117 E9.85824
G1 X176.966 Y106.486 E9.87897
G1 X177.474 Y107.489 E9.93507
G1 X177.711 Y107.97 E9.96182
G1 X178.152 Y108.883 E10.0124
G1 X178.375 Y109.357 E10.03854
G1 X178.917 Y110.547 E10.10377
G1 X179.065 Y110.885 E10.12218
G1 X179.568 Y112.062 E10.18604
G1 X179.727 Y112.448 E10.20687
G1 X180.191 Y113.611 E10.26934
G1 X180.367 Y114.068 E10.29377
G1 X180.766 Y115.142 E10.35093
G1 X180.929 Y115.594 E10.3749
G1 X181.33 Y116.753 E10.43609
G1 X181.483 Y117.216 E10.46042
G1 X181.828 Y118.297 E10.51703
G1 X181.992 Y118.831 E10.5449
G1 X182.304 Y119.889 E10.59993
G1 X182.478 Y120.502 E10.63172
G1 X182.725 Y121.407 E10.67852
G1 X182.898 Y122.069 E10.71266
G1 X183.173 Y123.162 E10.76889
G1 X183.299 Y123.69 E10.79597
G1 X183.547 Y124.767 E10.85111
G1 X183.678 Y125.365 E10.88165
G1 X183.904 Y126.455 E10.93719
G1 X184.007 Y126.977 E10.96373
G1 X184.218 Y128.12 E11.02172
G1 X184.328 Y128.743 E11.05328
G1 X184.482 Y129.68 E11.10065
G1 X184.593 Y130.405 E11.13725
G1 X184.737 Y131.406 E11.1877
G1 X184.814 Y131.978 E11.2165
G1 X184.958 Y133.146 E11.27521
G1 X185.015 Y133.652 E11.30061
G1 X185.364 Y136.39 E11.43832
G1 X185.79 Y139.1 E11.57518
G1 X186.288 Y141.788 E11.71157
G1 X186.853 Y144.415 E11.84563
G1 X187.513 Y147.111 E11.9841
G1 X188.23 Y149.717 E12.11895
G1 X189.034 Y152.347 E12.25615
G1 X189.89 Y154.887 E12.38988
G1 X190.141 Y155.582 E12.42674
G1 X190.252 Y155.906 E12.44383
G1 X190.431 Y156.467 E12.47321
G1 X190.576 Y157.002 E12.50086
G1 X190.695 Y157.513 E12.52704
G1 X190.786 Y158.062 E12.5548
G1 X190.847 Y158.658 E12.58469
G1 X190.862 Y159.088 E12.60616
G1 X190.845 Y159.782 E12.64079
G1 X190.752 Y160.638 E12.68375
G1 X190.588 Y161.378 E12.72156
G1 X190.312 Y162.204 E12.76501
G1 X190.13 Y162.648 E12.78895
G1 X189.855 Y163.181 E12.81887
G1 X189.578 Y163.622 E12.84485
G1 X189.283 Y164.059 E12.87116
G1 X189.132 Y164.265 E12.8839
G1 X187.819 Y165.928 E12.98961
G1 X186.168 Y168.146 E13.12756
G1 X184.623 Y170.351 E13.26188
G1 X183.096 Y172.664 E13.40016
G1 X181.693 Y174.926 E13.53296
G1 X180.298 Y177.326 E13.67145
G1 X178.996 Y179.718 E13.80732
G1 X177.768 Y182.134 E13.94253
G1 X176.955 Y183.789 E14.03452
G1 X176.851 Y183.991 E14.04586
G1 X176.264 Y185.106 E14.10872
G1 X176.049 Y185.5 E14.13112
G1 X175.356 Y186.739 E14.20194
G1 X174.772 Y187.727 E14.2592
G1 X174.432 Y188.268 E14.29108
G1 X173.855 Y189.156 E14.34391
G1 X173.564 Y189.578 E14.36949
G1 X172.501 Y191.053 E14.4602
G1 X171.486 Y192.366 E14.54299
G1 X171.417 Y192.453 E14.54853
G1 X170.521 Y193.539 E14.61877
G1 X170.436 Y193.638 E14.62528
G1 X169.274 Y194.947 E14.71261
G1 X169.178 Y195.051 E14.71967
G1 X168.108 Y196.165 E14.79673
G1 X168.014 Y196.26 E14.8034
G1 X166.884 Y197.352 E14.8818
G1 X166.802 Y197.429 E14.88741
G1 X166.164 Y198.006 E14.93033
G1 X165.733 Y198.375 E14.95863
G1 X165.484 Y198.584 E14.97485
G1 X164.717 Y199.209 E15.02421
G1 X164.218 Y199.592 E15.0556
G1 X162.813 Y200.63 E15.14275
G1 X162.636 Y200.755 E15.15356
G1 X161.628 Y201.455 E15.21478
G1 X160.619 Y202.136 E15.27551
G1 X160.214 Y202.403 E15.29972
G1 X158.607 Y203.425 E15.39473
G1 X157.766 Y203.923 E15.44349
G1 X157.266 Y204.2 E15.47201
G1 X156.3 Y204.715 E15.52662
G1 X155.741 Y204.997 E15.55786
G1 X153.304 Y206.269 E15.69501
G1 X150.989 Y207.559 E15.82722
G1 X150.395 Y207.901 E15.86142
G1 X149.037 Y208.627 E15.93825
G1 X148.775 Y208.762 E15.95295
G1 X147.615 Y209.341 E16.01763
G1 X147.37 Y209.46 E16.03122
G1 X146.478 Y209.876 E16.08032
G1 X145.784 Y210.176 E16.11804
G1 X144.173 Y210.836 E16.2049
G1 X142.686 Y211.396 E16.28417
G1 X142.575 Y211.436 E16.29006
G1 X140.962 Y211.984 E16.37505
G1 X140.013 Y212.277 E16.4246
G1 X139.526 Y212.415 E16.44985
G1 X138.999 Y212.555 E16.47706
G1 X138.006 Y212.804 E16.52813
G1 X137.519 Y212.912 E16.55302
G1 X135.643 Y213.29 E16.64849
G1 X135.519 Y213.313 E16.65479
G1 X133.962 Y213.569 E16.73351
G1 X132.438 Y213.775 E16.81023
G1 X132.314 Y213.789 E16.81646
G1 X130.805 Y213.94 E16.89212
G1 X130.678 Y213.951 E16.89848
G1 X129.246 Y214.043 E16.97007
G1 X127.147 Y214.11 E17.07484
G1 X126.487 Y214.13 E17.10778
G1 X125.808 Y214.13 E17.14166
G1 X125.71 Y214.129 E17.14655
G1 X125.105 Y214.11 E17.17675
G1 X123.372 Y214.019 E17.26333
G1 X123.25 Y214.011 E17.26943
G1 X121.636 Y213.871 E17.35025
G1 X119.87 Y213.66 E17.43898
G1 X119.755 Y213.645 E17.44477
G1 X118.168 Y213.402 E17.52487
G1 X116.496 Y213.096 E17.60967
G1 X116.272 Y213.051 E17.62107
G1 X114.852 Y212.745 E17.69354
G1 X114.566 Y212.68 E17.70817
G1 X113.16 Y212.335 E17.7804
G1 X112.73 Y212.223 E17.80257
G1 X111.645 Y211.928 E17.85866
G1 X111.248 Y211.815 E17.87926
G1 X109.902 Y211.414 E17.94933
G1 X109.578 Y211.313 E17.96626
G1 X108.282 Y210.888 E18.0343
G1 X107.967 Y210.78 E18.05092
G1 X106.701 Y210.331 E18.11793
G1 X106.276 Y210.173 E18.14055
G1 X105.219 Y209.769 E18.19701
G1 X104.679 Y209.555 E18.22599
G1 X103.646 Y209.133 E18.28166
G1 X103.146 Y208.922 E18.30873
G1 X102.088 Y208.464 E18.36625
G1 X101.557 Y208.226 E18.39528
G1 X100.613 Y207.794 E18.44707
G1 X99.965 Y207.49 E18.48278
G1 X99.151 Y207.099 E18.52784
G1 X98.617 Y206.837 E18.55751
G1 X97.556 Y206.3 E18.61684
G1 X97.122 Y206.073 E18.64127
G1 X96.086 Y205.517 E18.69993
G1 X95.638 Y205.27 E18.72546
G1 X94.655 Y204.714 E18.7818
G1 X94.149 Y204.42 E18.811
G1 X93.337 Y203.939 E18.85808
G1 X92.725 Y203.568 E18.89379
G1 X91.917 Y203.068 E18.94119
G1 X91.295 Y202.674 E18.97793
G1 X90.553 Y202.195 E19.02199
G1 X89.896 Y201.762 E19.06124
G1 X89.255 Y201.333 E19.09972
G1 X88.404 Y200.755 E19.15105
G1 X88.025 Y200.493 E19.17403
G1 X87.213 Y199.926 E19.22344
G1 X86.475 Y199.401 E19.26863
G1 X85.904 Y198.987 E19.30382
G1 X85.116 Y198.403 E19.35275
G1 X84.599 Y198.014 E19.38503
G1 X83.791 Y197.395 E19.43581
G1 X83.195 Y196.93 E19.47352
G1 X82.551 Y196.417 E19.5146
G1 X81.95 Y195.93 E19.55319
G1 X81.266 Y195.369 E19.59733
G1 X80.693 Y194.89 E19.63459
G1 X79.924 Y194.236 E19.68495
G1 X79.448 Y193.824 E19.71636
G1 X78.753 Y193.214 E19.76249
G1 X78.216 Y192.736 E19.79836
G1 X77.49 Y192.076 E19.84731
G1 X76.816 Y191.453 E19.8931
G1 X75.948 Y190.627 E19.95288
G1 X75.428 Y190.12 E19.98911
G1 X74.434 Y189.125 E20.05928
G1 X73.698 Y188.37 E20.11188
G1 X71.781 Y186.459 E20.24693
G1 X70.169 Y184.932 E20.3577
G1 X69.964 Y184.741 E20.37168
G1 X69.25 Y184.056 E20.42105
G1 X68.2 Y183.02 E20.49464
G1 X67.331 Y182.135 E20.55652
G1 X66.505 Y181.272 E20.61612
G1 X65.493 Y180.186 E20.69018
G1 X64.827 Y179.459 E20.73936
G1 X64.359 Y178.94 E20.77423
G1 X63.813 Y178.325 E20.81526
G1 X63.297 Y177.733 E20.85444
G1 X62.588 Y176.907 E20.90875
G1 X62.177 Y176.419 E20.94058
G1 X61.611 Y175.738 E20.98476
G1 X61.108 Y175.121 E21.02447
G1 X60.623 Y174.519 E21.06304
G1 X60.041 Y173.783 E21.10985
G1 X59.581 Y173.194 E21.14714
G1 X59.009 Y172.444 E21.19419
G1 X58.581 Y171.875 E21.22972
G1 X58.062 Y171.174 E21.27323
G1 X57.525 Y170.437 E21.31873
G1 X57.047 Y169.77 E21.35967
G1 X56.637 Y169.189 E21.39514
G1 X56.215 Y168.581 E21.43207
G1 X55.555 Y167.606 E21.49081
G1 X55.286 Y167.198 E21.51519
G1 X54.626 Y166.173 E21.57601
G1 X54.427 Y165.857 E21.59464
G1 X53.753 Y164.759 E21.65892
G1 X53.517 Y164.363 E21.68192
G1 X52.947 Y163.385 E21.73839
G1 X52.711 Y162.969 E21.76225
G1 X52.126 Y161.913 E21.82248
G1 X51.9 Y161.494 E21.84623
G1 X51.338 Y160.42 E21.90671
G1 X51.151 Y160.053 E21.92725
G1 X50.607 Y158.956 E21.98834
G1 X50.323 Y158.364 E22.0211
G1 X49.968 Y157.609 E22.06273
G1 X49.726 Y157.082 E22.09166
G1 X49.172 Y155.836 E22.15969
G1 X49.055 Y155.562 E22.17455
G1 X48.505 Y154.232 E22.24636
G1 X48.385 Y153.929 E22.26261
G1 X47.908 Y152.686 E22.32904
G1 X47.784 Y152.349 E22.34695
G1 X47.334 Y151.075 E22.41436
G1 X47.219 Y150.737 E22.43217
G1 X46.797 Y149.436 E22.50041
G1 X46.711 Y149.155 E22.51507
G1 X46.302 Y147.77 E22.58712
G1 X46.229 Y147.515 E22.60035
G1 X45.873 Y146.183 E22.66914
G1 X45.448 Y144.392 E22.76097
G1 X45.423 Y144.281 E22.76665
G1 X45.095 Y142.667 E22.84882
G1 X45.064 Y142.501 E22.85724
G1 X44.798 Y140.938 E22.93634
G1 X44.773 Y140.772 E22.94472
G1 X44.541 Y139.103 E23.02878
G1 X44.362 Y137.455 E23.11149
G1 X44.229 Y135.761 E23.19626
G1 X44.222 Y135.651 E23.20176
G1 X44.142 Y133.924 E23.28801
G1 X44.118 Y132.365 E23.3658
G1 X44.119 Y132.231 E23.37249
G1 X44.165 Y130.199 E23.47389
G1 X44.219 Y129.217 E23.52296
G1 X44.261 Y128.719 E23.54789
G1 X44.464 Y126.812 E23.64357
G1 X44.48 Y126.685 E23.64995
G1 X44.701 Y125.14 E23.72782
G1 X44.736 Y124.919 E23.73898
G1 X44.993 Y123.426 E23.81456
G1 X45.222 Y122.272 E23.87326
G1 X45.301 Y121.92 E23.89126
G1 X45.74 Y120.164 E23.98156
G1 X45.777 Y120.03 E23.9885
G1 X46.249 Y118.41 E24.07268
G1 X46.288 Y118.285 E24.07921
G1 X46.749 Y116.893 E24.15237
G1 X47.344 Y115.255 E24.23931
G1 X47.411 Y115.08 E24.24866
G1 X47.96 Y113.708 E24.32239
G1 X48.059 Y113.473 E24.33511
G1 X48.648 Y112.113 E24.40905
G1 X49.37 Y110.57 E24.49404
G1 X49.423 Y110.462 E24.50004
G1 X50.141 Y109.052 E24.57898
G1 X50.193 Y108.954 E24.58452
G1 X50.938 Y107.596 E24.6618
G1 X51.741 Y106.228 E24.74093
G1 X51.794 Y106.14 E24.74606
G1 X52.642 Y104.788 E24.82568
G1 X52.701 Y104.697 E24.83109
G1 X53.43 Y103.609 E24.89643
G1 X54.386 Y102.258 E24.979
G1 X55.209 Y101.159 E25.0475
G1 X56.221 Y99.879 E25.12891
G1 X57.149 Y98.768 E25.20113
G1 X58.245 Y97.53 E25.28362
G1 X59.184 Y96.522 E25.35235
G1 X59.88 Y95.769 E25.4035
G1 X61.344 Y94.168 E25.51174
G1 X61.44 Y94.068 E25.51865
G1 X62.555 Y92.939 E25.59782
G1 X62.642 Y92.854 E25.60389
G1 X63.886 Y91.679 E25.68926
G1 X65.093 Y90.615 E25.76953
G1 X66.209 Y89.69 E25.84185
G1 X67.365 Y88.789 E25.91497
G0 F2618.2 X67.61 Y89.105
G1 F1200 X68.824 Y88.214 E25.9901
G1 X70.082 Y87.345 E26.06638
G1 X71.368 Y86.504 E26.14304
G1 X72.291 Y85.93 E26.19727
G1 X74.635 Y84.426 E26.33621
G1 X76.886 Y82.889 E26.4722
G1 X79.106 Y81.28 E26.60898
G1 X81.277 Y79.612 E26.74557
G1 X83.405 Y77.879 E26.88249
G1 X85.461 Y76.104 E27.018
G1 X87.493 Y74.248 E27.1553
G1 X89.465 Y72.341 E27.29216
G1 X91.378 Y70.383 E27.42873
G1 X93.234 Y68.373 E27.56523
G1 X95.023 Y66.322 E27.70101
G1 X96.787 Y64.182 E27.83937
G1 X98.443 Y62.052 E27.97397
G1 X100.077 Y59.823 E28.11186
G1 X101.625 Y57.579 E28.24786
G1 X103.13 Y55.263 E28.38566
G1 X104.526 Y52.973 E28.51947
G1 X105.906 Y50.56 E28.65815
G1 X107.199 Y48.143 E28.7949
G1 X108.409 Y45.718 E28.93011
G1 X109.578 Y43.199 E29.06866
G1 X110.649 Y40.712 E29.20375
G1 X111.674 Y38.131 E29.3423
G1 X112.598 Y35.592 E29.4771
G1 X113.457 Y33.012 E29.61276
G1 X114.268 Y30.326 E29.75274
G1 X114.967 Y27.749 E29.88596
G1 X115.613 Y25.069 E30.02349
G1 X116.282 Y21.863 E30.18688
G1 X116.424 Y21.378 E30.2121
G1 X116.641 Y20.921 E30.23734
G1 X116.927 Y20.504 E30.26256
G1 X117.275 Y20.137 E30.2878
G1 X117.676 Y19.83 E30.31299
G1 X118.121 Y19.589 E30.33824
G1 X118.598 Y19.422 E30.36345
G1 X119.096 Y19.332 E30.3887
G1 X119.601 Y19.321 E30.4139
G1 X120.102 Y19.391 E30.43914
G1 X120.586 Y19.538 E30.46438
G1 X121.04 Y19.759 E30.48957
G1 X121.454 Y20.05 E30.51481
G1 X121.817 Y20.402 E30.54004
G1 X122.12 Y20.806 E30.56524
G1 X122.355 Y21.254 E30.59047
G1 X122.518 Y21.732 E30.61567
G1 X122.578 Y22.031 E30.63088
G1 X122.729 Y23.019 E30.68075
G1 X122.815 Y23.637 E30.71188
G1 X123.271 Y26.349 E30.84908
G1 X123.803 Y29.047 E30.98628
G1 X124.413 Y31.737 E31.12389
G1 X125.085 Y34.352 E31.25859
G1 X125.847 Y37.009 E31.39649
G1 X126.669 Y39.593 E31.53177
G1 X127.571 Y42.177 E31.66832
G1 X128.542 Y44.721 E31.80417
G1 X129.61 Y47.301 E31.94348
G1 X130.71 Y49.756 E32.07769
G1 X131.916 Y52.259 E32.21631
G1 X133.159 Y54.663 E32.35133
G1 X134.498 Y57.077 E32.48905
G1 X135.886 Y59.424 E32.62508
G1 X137.34 Y61.731 E32.76113
G1 X138.873 Y64.018 E32.89849
G1 X140.45 Y66.232 E33.03411
G1 X142.123 Y68.444 E33.17247
G1 X143.823 Y70.566 E33.30812
G1 X145.585 Y72.645 E33.44409
G1 X147.422 Y74.687 E33.58112
G1 X149.319 Y76.68 E33.71839
G1 X151.251 Y78.6 E33.85428
G1 X153.248 Y80.476 E33.99098
G1 X155.292 Y82.288 E34.12725
G1 X157.407 Y84.059 E34.26488
G1 X159.648 Y85.829 E34.40735
G1 X160.159 Y86.22 E34.43945
G1 X161.385 Y87.213 E34.51816
G1 X161.46 Y87.275 E34.52302
G1 X162.686 Y88.333 E34.60381
G1 X163.942 Y89.487 E34.68891
G1 X164.01 Y89.551 E34.69356
G1 X165.08 Y90.596 E34.76818
G1 X166.213 Y91.769 E34.84954
