;FLAVOR:Marlin
;TIME:856
;Filament used: 1.12456m, 0m
;Layer height: 0.2
;MINX:104.794
;MINY:99.942
;MINZ:0.3
;MAXX:142.553
;MAXY:120.912
;MAXZ:12.9
;Generated with Cura_SteamEngine 4.7.1
T0
M140 S60
M105
M190 S60
M104 S190
M105
M109 S190
M82 ;absolute extrusion mode
M201 X500.00 Y500.00 Z100.00 E5000.00 	;Setup machine max acceleration
M203 X500.00 Y500.00 Z10.00 E50.00 	;Setup machine max feedrate
M204 P500.00 R1000.00 T500.00 		;Setup Print/Retract/Travel acceleration
M205 X8.00 Y8.00 Z0.40 E5.00 		;Setup Jerk
M220 S100 				;Reset Feedrate
M221 S100 				;Reset Flowrate
G28				;Home the Machine
G29 				;Bed Level
G92 E0
M300 P150 S587
G92 E0
G1 F1500 E-6.5
;LAYER_COUNT:64
;LAYER:0
M107
G0 F3600 X107.643 Y103.198 Z0.3
;TYPE:SKIRT
G1 F1500 E0
G1 X108.033 Y102.796 E0.02794
G1 X108.59 Y102.309 E0.06486
G1 X109.154 Y101.874 E0.10039
G1 X109.463 Y101.658 E0.1192
G1 X109.983 Y101.33 E0.14987
G1 X110.336 Y101.132 E0.17007
G1 X110.915 Y100.844 E0.20233
G1 X111.264 Y100.69 E0.22136
G1 X111.942 Y100.43 E0.25759
G1 X112.553 Y100.238 E0.28954
G1 X113.117 Y100.102 E0.31848
G1 X113.816 Y99.995 E0.35376
G1 X114.323 Y99.96 E0.37912
G1 X115.015 Y99.942 E0.41365
G1 X132.385 Y99.942 E1.28025
G1 X133.035 Y99.951 E1.31268
G1 X133.705 Y100.011 E1.34624
G1 X134.104 Y100.082 E1.36646
G1 X134.699 Y100.22 E1.39693
G1 X135.062 Y100.323 E1.41575
G1 X135.742 Y100.55 E1.45152
G1 X136.344 Y100.794 E1.48393
G1 X136.947 Y101.095 E1.51755
G1 X137.633 Y101.49 E1.55704
G1 X138.114 Y101.807 E1.58578
G1 X138.688 Y102.25 E1.62196
G1 X139.163 Y102.666 E1.65346
G1 X139.433 Y102.925 E1.67212
G1 X139.895 Y103.413 E1.70565
G1 X140.155 Y103.717 E1.72561
G1 X140.543 Y104.219 E1.75726
G1 X140.764 Y104.535 E1.7765
G1 X141.098 Y105.066 E1.8078
G1 X141.292 Y105.411 E1.82754
G1 X141.627 Y106.083 E1.865
G1 X141.857 Y106.625 E1.89438
G1 X142.083 Y107.297 E1.92975
G1 X142.255 Y107.928 E1.96238
G1 X142.34 Y108.312 E1.982
G1 X142.451 Y108.967 E2.01515
G1 X142.497 Y109.356 E2.03469
G1 X142.546 Y110.057 E2.06975
G1 X142.553 Y110.683 E2.10098
G1 X142.505 Y111.371 E2.13539
G1 X142.415 Y112.079 E2.17099
G1 X142.314 Y112.638 E2.19933
G1 X142.185 Y113.156 E2.22597
G1 X142.116 Y113.388 E2.23804
G1 X141.903 Y114.029 E2.27174
G1 X141.757 Y114.404 E2.29182
G1 X141.497 Y114.984 E2.32353
G1 X141.32 Y115.333 E2.34305
G1 X140.948 Y115.984 E2.38046
G1 X140.606 Y116.505 E2.41155
G1 X140.175 Y117.058 E2.44653
G1 X139.766 Y117.526 E2.47754
G1 X139.504 Y117.798 E2.49638
G1 X139.013 Y118.263 E2.53012
G1 X138.707 Y118.526 E2.55025
G1 X138.203 Y118.915 E2.58201
G1 X137.888 Y119.134 E2.60115
G1 X137.336 Y119.481 E2.63368
G1 X136.996 Y119.673 E2.65316
G1 X136.398 Y119.972 E2.68652
G1 X135.872 Y120.2 E2.71512
G1 X135.392 Y120.372 E2.74056
G1 X135.156 Y120.444 E2.75287
G1 X134.474 Y120.63 E2.78813
G1 X134.089 Y120.715 E2.80781
G1 X133.385 Y120.834 E2.84343
G1 X132.857 Y120.892 E2.86993
G1 X132.467 Y120.908 E2.8894
G1 X131.954 Y120.912 E2.91499
G1 X115.428 Y120.912 E3.73948
G1 X114.746 Y120.902 E3.77351
G1 X114.312 Y120.872 E3.79521
G1 X113.7 Y120.796 E3.82598
G1 X113.295 Y120.724 E3.8465
G1 X112.57 Y120.557 E3.88362
G1 X111.95 Y120.373 E3.91589
G1 X111.357 Y120.147 E3.94755
G1 X110.724 Y119.863 E3.98216
G1 X110.37 Y119.683 E4.00197
G1 X109.807 Y119.36 E4.03435
G1 X109.482 Y119.151 E4.05363
G1 X108.971 Y118.788 E4.0849
G1 X108.661 Y118.544 E4.10459
G1 X108.129 Y118.081 E4.13977
G1 X107.735 Y117.7 E4.16712
G1 X107.385 Y117.314 E4.19311
G1 X107.226 Y117.121 E4.20559
G1 X106.803 Y116.573 E4.24012
G1 X106.581 Y116.255 E4.25947
G1 X106.234 Y115.702 E4.29204
G1 X106.044 Y115.365 E4.31134
G1 X105.746 Y114.769 E4.34459
G1 X105.517 Y114.243 E4.37321
G1 X105.334 Y113.73 E4.40038
G1 X105.262 Y113.491 E4.41284
G1 X105.09 Y112.857 E4.44561
G1 X105.006 Y112.475 E4.46512
G1 X104.896 Y111.823 E4.49811
G1 X104.85 Y111.438 E4.51746
G1 X104.801 Y110.74 E4.55237
G1 X104.794 Y110.115 E4.58355
G1 X104.843 Y109.416 E4.61851
G1 X104.924 Y108.775 E4.65074
G1 X104.993 Y108.382 E4.67065
G1 X105.143 Y107.728 E4.70412
G1 X105.247 Y107.359 E4.72325
G1 X105.439 Y106.782 E4.75359
G1 X105.582 Y106.413 E4.77333
G1 X105.851 Y105.811 E4.80623
G1 X106.03 Y105.458 E4.82597
G1 X106.353 Y104.893 E4.85844
G1 X106.566 Y104.56 E4.87817
G1 X106.925 Y104.055 E4.90908
G1 X107.162 Y103.753 E4.92823
G1 X107.643 Y103.198 E4.96487
G0 F3600 X107.946 Y103.46
G1 F1500 X108.315 Y103.08 E4.9913
G1 X108.834 Y102.625 E5.02573
G1 X109.398 Y102.19 E5.06127
G1 X109.676 Y101.996 E5.07818
G1 X110.196 Y101.668 E5.10885
G1 X110.514 Y101.49 E5.12703
G1 X111.093 Y101.202 E5.1593
G1 X111.407 Y101.064 E5.17641
G1 X112.085 Y100.804 E5.21263
G1 X112.661 Y100.623 E5.24276
G1 X113.209 Y100.491 E5.27088
G1 X113.859 Y100.393 E5.30367
G1 X114.44 Y100.354 E5.33272
G1 X115.019 Y100.342 E5.36162
G1 X132.38 Y100.342 E6.22776
G1 X133.03 Y100.351 E6.26019
G1 X133.655 Y100.408 E6.2915
G1 X134.013 Y100.472 E6.30965
G1 X134.608 Y100.61 E6.34012
G1 X134.935 Y100.702 E6.35707
G1 X135.615 Y100.929 E6.39283
G1 X136.183 Y101.16 E6.42342
G1 X136.747 Y101.441 E6.45486
G1 X137.433 Y101.836 E6.49435
G1 X137.885 Y102.135 E6.52139
G1 X138.425 Y102.551 E6.5554
G1 X138.9 Y102.967 E6.5869
G1 X139.142 Y103.2 E6.60366
G1 X139.604 Y103.688 E6.63719
G1 X139.838 Y103.961 E6.65513
G1 X140.226 Y104.463 E6.68678
G1 X140.425 Y104.748 E6.70412
G1 X140.759 Y105.279 E6.73542
G1 X140.934 Y105.59 E6.75322
G1 X141.269 Y106.262 E6.79068
G1 X141.485 Y106.772 E6.81832
G1 X141.697 Y107.402 E6.85148
G1 X141.869 Y108.033 E6.88411
G1 X141.945 Y108.378 E6.90173
G1 X142.056 Y109.033 E6.93488
G1 X142.098 Y109.384 E6.95251
G1 X142.147 Y110.085 E6.98757
G1 X142.153 Y110.676 E7.01706
G1 X142.108 Y111.321 E7.04932
G1 X142.018 Y112.029 E7.08492
G1 X141.922 Y112.561 E7.11189
G1 X141.799 Y113.053 E7.13719
G1 X141.736 Y113.262 E7.14808
G1 X141.523 Y113.903 E7.18178
G1 X141.392 Y114.241 E7.19987
G1 X141.132 Y114.821 E7.23158
G1 X140.973 Y115.134 E7.24909
G1 X140.601 Y115.785 E7.2865
G1 X140.279 Y116.275 E7.31575
G1 X139.874 Y116.795 E7.34864
G1 X139.465 Y117.263 E7.37964
G1 X139.229 Y117.508 E7.39662
G1 X138.738 Y117.973 E7.43035
G1 X138.463 Y118.209 E7.44843
G1 X137.959 Y118.598 E7.4802
G1 X137.675 Y118.796 E7.49747
G1 X137.123 Y119.143 E7.53
G1 X136.817 Y119.315 E7.54751
G1 X136.219 Y119.614 E7.58087
G1 X135.719 Y119.831 E7.60806
G1 X135.051 Y120.058 E7.64326
G1 X134.369 Y120.244 E7.67853
G1 X134.022 Y120.321 E7.69626
G1 X133.318 Y120.44 E7.73188
G1 X132.61 Y120.504 E7.76735
G1 X132.464 Y120.508 E7.77463
G1 X131.951 Y120.512 E7.80023
G1 X115.434 Y120.512 E8.62426
G1 X114.752 Y120.502 E8.65829
G1 X114.361 Y120.475 E8.67785
G1 X113.749 Y120.399 E8.70861
G1 X113.385 Y120.334 E8.72706
G1 X112.66 Y120.167 E8.76418
G1 X112.075 Y119.994 E8.79461
G1 X111.52 Y119.782 E8.82425
G1 X110.887 Y119.498 E8.85887
G1 X110.57 Y119.336 E8.87663
G1 X110.007 Y119.013 E8.90901
G1 X109.713 Y118.825 E8.92642
G1 X109.202 Y118.462 E8.95769
G1 X108.924 Y118.243 E8.97535
G1 X108.392 Y117.78 E9.01053
G1 X108.017 Y117.418 E9.03654
G1 X107.542 Y116.877 E9.07245
G1 X107.119 Y116.329 E9.10699
G1 X106.92 Y116.042 E9.12442
G1 X106.573 Y115.489 E9.15699
G1 X106.402 Y115.186 E9.17434
G1 X106.104 Y114.59 E9.20759
G1 X105.887 Y114.09 E9.23478
G1 X105.713 Y113.601 E9.26068
G1 X105.648 Y113.387 E9.27184
G1 X105.476 Y112.753 E9.30461
G1 X105.4 Y112.409 E9.32218
G1 X105.29 Y111.757 E9.35517
G1 X105.249 Y111.41 E9.37261
G1 X105.2 Y110.712 E9.40751
G1 X105.194 Y110.122 E9.43695
G1 X105.239 Y109.466 E9.46976
G1 X105.32 Y108.825 E9.50199
G1 X105.383 Y108.471 E9.51993
G1 X105.533 Y107.817 E9.5534
G1 X105.626 Y107.485 E9.57061
G1 X105.818 Y106.908 E9.60094
G1 X105.947 Y106.576 E9.61871
G1 X106.216 Y105.974 E9.65161
G1 X106.378 Y105.656 E9.66941
G1 X106.701 Y105.091 E9.70188
G1 X106.892 Y104.792 E9.71958
G1 X107.251 Y104.287 E9.7505
G1 X107.465 Y104.015 E9.76776
G1 X107.946 Y103.46 E9.8044
G0 F3600 X108.248 Y103.722
G1 F1500 X108.736 Y103.234 E9.83884
G1 X109.079 Y102.942 E9.86131
G1 X109.643 Y102.507 E9.89684
G1 X109.89 Y102.334 E9.91189
G1 X110.41 Y102.006 E9.94256
G1 X110.692 Y101.848 E9.95869
G1 X111.271 Y101.56 E9.99095
G1 X111.55 Y101.437 E10.00616
G1 X112.228 Y101.177 E10.04239
G1 X112.769 Y101.009 E10.07065
G1 X113.301 Y100.88 E10.09796
G1 X113.902 Y100.791 E10.12827
G1 X114.455 Y100.754 E10.15592
G1 X115.023 Y100.742 E10.18427
G1 X132.374 Y100.742 E11.04991
G1 X133.024 Y100.751 E11.08235
G1 X133.604 Y100.805 E11.11141
G1 X133.923 Y100.862 E11.12757
G1 X134.518 Y101 E11.15805
G1 X134.808 Y101.082 E11.17308
G1 X135.488 Y101.309 E11.20885
G1 X136.022 Y101.526 E11.2376
G1 X136.548 Y101.788 E11.26692
G1 X137.234 Y102.183 E11.30642
G1 X137.656 Y102.463 E11.33168
G1 X138.161 Y102.852 E11.36348
G1 X138.636 Y103.268 E11.39499
G1 X138.852 Y103.475 E11.40991
G1 X139.314 Y103.963 E11.44344
G1 X139.522 Y104.206 E11.4594
G1 X139.91 Y104.708 E11.49105
G1 X140.087 Y104.961 E11.50645
G1 X140.421 Y105.492 E11.53775
G1 X140.576 Y105.768 E11.55354
G1 X140.911 Y106.44 E11.591
G1 X141.114 Y106.92 E11.61701
G1 X141.311 Y107.507 E11.6479
G1 X141.483 Y108.138 E11.68053
G1 X141.551 Y108.445 E11.69621
G1 X141.662 Y109.1 E11.72936
G1 X141.699 Y109.412 E11.74503
G1 X141.748 Y110.113 E11.78009
G1 X141.753 Y110.669 E11.80783
G1 X141.711 Y111.271 E11.83794
G1 X141.621 Y111.979 E11.87354
G1 X141.53 Y112.483 E11.89909
G1 X141.357 Y113.136 E11.9328
G1 X141.144 Y113.777 E11.9665
G1 X141.027 Y114.077 E11.98256
G1 X140.767 Y114.657 E12.01427
G1 X140.625 Y114.936 E12.02989
G1 X140.253 Y115.587 E12.0673
G1 X139.951 Y116.045 E12.09467
G1 X139.573 Y116.532 E12.12542
G1 X139.164 Y117 E12.15643
G1 X138.954 Y117.217 E12.1715
G1 X138.463 Y117.682 E12.20524
G1 X138.218 Y117.892 E12.22133
G1 X137.714 Y118.281 E12.2531
G1 X137.462 Y118.457 E12.26843
G1 X136.91 Y118.804 E12.30096
G1 X136.638 Y118.957 E12.31653
G1 X136.04 Y119.256 E12.34989
G1 X135.566 Y119.461 E12.37565
G1 X134.946 Y119.672 E12.40833
G1 X134.264 Y119.858 E12.44359
G1 X133.955 Y119.926 E12.45938
G1 X133.251 Y120.045 E12.495
G1 X132.591 Y120.104 E12.52806
G1 X132.461 Y120.108 E12.53455
G1 X131.948 Y120.112 E12.56014
G1 X115.44 Y120.112 E13.38373
G1 X114.758 Y120.102 E13.41776
G1 X114.411 Y120.078 E13.43511
G1 X113.799 Y120.002 E13.46588
G1 X113.475 Y119.944 E13.4823
G1 X112.75 Y119.777 E13.51942
G1 X112.201 Y119.614 E13.54799
G1 X111.684 Y119.417 E13.57559
G1 X111.051 Y119.133 E13.6102
G1 X110.769 Y118.989 E13.626
G1 X110.206 Y118.666 E13.65838
G1 X109.945 Y118.499 E13.67384
G1 X109.434 Y118.136 E13.70511
G1 X109.186 Y117.941 E13.72085
G1 X108.654 Y117.478 E13.75604
G1 X108.157 Y116.982 E13.79107
G1 X107.859 Y116.632 E13.814
G1 X107.436 Y116.084 E13.84854
G1 X107.258 Y115.83 E13.86402
G1 X106.911 Y115.277 E13.89659
G1 X106.76 Y115.007 E13.91202
G1 X106.462 Y114.411 E13.94526
G1 X106.257 Y113.937 E13.97103
G1 X106.034 Y113.282 E14.00555
G1 X105.862 Y112.648 E14.03832
G1 X105.795 Y112.342 E14.05395
G1 X105.685 Y111.69 E14.08694
G1 X105.648 Y111.382 E14.10242
G1 X105.599 Y110.684 E14.13732
G1 X105.594 Y110.13 E14.16497
G1 X105.636 Y109.516 E14.19567
G1 X105.717 Y108.875 E14.2279
G1 X105.773 Y108.561 E14.24382
G1 X105.923 Y107.907 E14.27729
G1 X106.006 Y107.612 E14.29258
G1 X106.198 Y107.035 E14.32292
G1 X106.312 Y106.74 E14.3387
G1 X106.581 Y106.138 E14.37159
G1 X106.725 Y105.855 E14.38743
G1 X107.048 Y105.29 E14.4199
G1 X107.218 Y105.024 E14.43565
G1 X107.577 Y104.519 E14.46657
G1 X107.767 Y104.277 E14.48192
G1 X108.248 Y103.722 E14.51856
G1 F1500 E8.01856
;MESH:Minimalist_E3D_Bracket.stl
G0 F3600 X110.7 Y104.871
G0 X111.563 Y105.821
G0 X114.046 Y105.836
;TYPE:WALL-INNER
G1 F1500 E14.51856
G1 X114.324 Y105.768 E14.53283
G1 X114.468 Y105.757 E14.54004
G1 X114.643 Y105.742 E14.5488
G1 X115.645 Y105.742 E14.59879
G1 X115.878 Y105.742 E14.61042
G1 X131.481 Y105.742 E15.38885
G1 X131.615 Y105.742 E15.39554
G1 X132.446 Y105.742 E15.437
G1 X132.901 Y105.742 E15.4597
G1 X132.945 Y105.749 E15.46192
G1 X133.244 Y105.823 E15.47729
G1 X132.949 Y105.835 E15.47872
G1 X132.906 Y105.836 E15.47959
G1 X132.446 Y105.858 E15.48573
G1 X131.615 Y106.084 E15.51087
G1 X131.493 Y106.138 E15.51706
G1 X130.966 Y106.371 E15.5458
G1 X130.439 Y106.712 E15.57712
G1 X129.723 Y107.377 E15.62587
G1 X129.591 Y107.544 E15.63649
G1 X129.137 Y108.19 E15.67588
G1 X128.905 Y108.76 E15.70659
G1 X128.809 Y108.927 E15.7162
G1 X128.604 Y109.893 E15.76546
G1 X128.595 Y109.932 E15.76746
G1 X128.583 Y110.662 E15.80388
G1 X128.685 Y111.436 E15.84283
G1 X128.892 Y112.096 E15.87734
G1 X129.181 Y112.699 E15.9107
G1 X129.736 Y113.482 E15.95858
G1 X130.286 Y113.994 E15.99607
G1 X131.012 Y114.476 E16.03955
G1 X131.582 Y114.716 E16.0704
G1 X131.709 Y114.769 E16.07727
G1 X132.156 Y114.902 E16.10054
G1 X132.289 Y114.919 E16.10723
G1 X132.534 Y114.951 E16.11955
G1 X132.963 Y115.008 E16.14114
G1 X133.111 Y115.006 E16.14853
G1 X132.969 Y115.041 E16.14883
G1 X132.514 Y115.107 E16.15494
G1 X132.265 Y115.112 E16.16046
G1 X132.156 Y115.112 E16.16292
G1 X131.709 Y115.112 E16.1783
G1 X131.571 Y115.112 E16.18472
G1 X115.783 Y115.112 E16.97238
G1 X115.661 Y115.112 E16.97847
G1 X114.959 Y115.112 E17.01349
G1 X114.857 Y115.111 E17.01858
G1 X114.376 Y115.04 E17.04284
G1 X114.234 Y115.005 E17.05013
G1 X114.372 Y114.995 E17.05041
G1 X114.845 Y114.958 E17.05669
G1 X114.959 Y114.949 E17.05913
G1 X115.661 Y114.767 E17.08248
G1 X115.771 Y114.716 E17.08813
G1 X116.462 Y114.397 E17.1261
G1 X116.692 Y114.271 E17.13918
G1 X117.455 Y113.646 E17.18839
G1 X117.895 Y113.125 E17.22241
G1 X118.272 Y112.505 E17.25862
G1 X118.59 Y111.721 E17.30082
G1 X118.749 Y110.929 E17.34113
G1 X118.78 Y110.352 E17.36995
G1 X118.67 Y109.417 E17.41692
G1 X118.459 Y108.719 E17.4533
G1 X117.992 Y107.829 E17.50345
G1 X117.53 Y107.267 E17.53974
G1 X117.014 Y106.783 E17.57504
G1 X116.314 Y106.339 E17.61639
G1 X115.858 Y106.136 E17.6413
G1 X115.645 Y106.042 E17.6515
G1 X114.624 Y105.838 E17.67796
G1 X114.473 Y105.807 E17.67901
G1 X114.328 Y105.816 E17.67996
G1 X114.046 Y105.836 E17.68076
G0 F3600 X113.95 Y105.449
G1 F1500 X114.227 Y105.381 E17.69499
G1 X114.265 Y105.371 E17.69695
G1 X114.623 Y105.342 E17.71487
G1 X132.931 Y105.342 E18.62826
G1 X133.026 Y105.357 E18.63306
G1 X133.516 Y105.479 E18.65825
G1 X134.008 Y105.655 E18.68432
G1 X134.444 Y105.862 E18.7084
G1 X134.873 Y106.119 E18.73335
G1 X134.986 Y106.203 E18.74038
G1 X135.297 Y106.434 E18.7597
G1 X135.557 Y106.667 E18.77712
G1 X135.662 Y106.762 E18.78419
G1 X135.919 Y107.048 E18.80337
G1 X136.003 Y107.141 E18.80962
G1 X136.303 Y107.545 E18.83473
G1 X136.352 Y107.627 E18.83949
G1 X136.503 Y107.879 E18.85415
G1 X136.333 Y107.639 E18.85458
G1 X136.271 Y107.58
G1 X135.911 Y107.238 E18.86047
G1 X135.813 Y107.145 E18.86297
G1 X135.533 Y106.941 E18.87037
G1 X135.399 Y106.844 E18.87535
G1 X135.156 Y106.727 E18.88428
G1 X134.807 Y106.559 E18.90182
G1 X134.654 Y106.485 E18.9103
G1 X134.631 Y106.473 E18.91159
G1 X134.445 Y106.411 E18.92137
G1 X134.421 Y106.407 E18.92259
G1 X133.624 Y106.246 E18.96315
G1 X133.418 Y106.216 E18.97354
G1 X132.508 Y106.256 E19.01898
G1 X131.749 Y106.462 E19.05822
G1 X131.157 Y106.724 E19.09052
G1 X130.686 Y107.029 E19.11851
G1 X130.018 Y107.649 E19.16398
G1 X129.912 Y107.783 E19.17251
G1 X129.517 Y108.346 E19.20682
G1 X129.49 Y108.383 E19.2091
G1 X129.264 Y108.938 E19.239
G1 X129.187 Y109.072 E19.24671
G1 X128.994 Y109.977 E19.29288
G1 X128.983 Y110.639 E19.32591
G1 X129.077 Y111.349 E19.36164
G1 X129.265 Y111.949 E19.39301
G1 X129.527 Y112.495 E19.42322
G1 X130.039 Y113.217 E19.46738
G1 X130.535 Y113.679 E19.5012
G1 X131.202 Y114.122 E19.54115
G1 X131.844 Y114.392 E19.57589
G1 X132.24 Y114.51 E19.59651
G1 X132.986 Y114.608 E19.63405
