;FLAVOR:Marlin
;TIME:22748
;Filament used: 21.5762m, 0m
;Layer height: 0.2
;MINX:39.805
;MINY:25.968
;MINZ:0.3
;MAXX:190.205
;MAXY:195.318
;MAXZ:43.7
;POSTPROCESSED
;Generated with Cura_SteamEngine 4.7.1
T0
M140 S60
M105
M190 S60
M104 S190
M105
M109 S190
M82 ;absolute extrusion mode
M201 X500.00 Y500.00 Z100.00 E5000.00 	;Setup machine max acceleration
M203 X500.00 Y500.00 Z10.00 E50.00 	;Setup machine max feedrate
M204 P500.00 R1000.00 T500.00 		;Setup Print/Retract/Travel acceleration
M205 X8.00 Y8.00 Z0.40 E5.00 		;Setup Jerk
M220 S100 				;Reset Feedrate
M221 S100 				;Reset Flowrate
G28				;Home the Machine
G29 				;Bed Level
G92 E0
M300 P150 S587
G92 E0
G1 F1500 E-6.5
;LAYER_COUNT:218
;LAYER:0
M107
G0 F3600 X40.428 Y27.801 Z0.3
;TYPE:SKIRT
G1 F1500 E0
G1 X40.918 Y27.198 E0.03876
G1 X41.035 Y27.081 E0.04702
G1 X41.452 Y26.721 E0.0745
G1 X41.916 Y26.424 E0.10199
G1 X42.419 Y26.198 E0.1295
G1 X42.949 Y26.047 E0.15699
G1 X43.722 Y25.968 E0.19576
G1 X45.288 Y25.968 E0.27389
G1 X45.838 Y26.008 E0.3014
G1 X46.376 Y26.127 E0.32889
G1 X46.891 Y26.323 E0.35638
G1 X47.372 Y26.591 E0.38385
G1 X47.975 Y27.081 E0.42262
G1 X48.092 Y27.198 E0.43087
G1 X48.452 Y27.615 E0.45836
G1 X48.749 Y28.079 E0.48584
G1 X48.975 Y28.582 E0.51335
G1 X49.126 Y29.112 E0.54085
G1 X49.205 Y29.885 E0.57961
G1 X49.205 Y44.843 E1.32587
G1 X181.605 Y44.843 E7.93133
G1 X181.605 Y29.885 E8.67759
G1 X181.645 Y29.335 E8.7051
G1 X181.764 Y28.797 E8.73259
G1 X181.96 Y28.282 E8.76008
G1 X182.228 Y27.801 E8.78755
G1 X182.718 Y27.198 E8.82632
G1 X182.835 Y27.081 E8.83457
G1 X183.252 Y26.721 E8.86206
G1 X183.716 Y26.424 E8.88954
G1 X184.219 Y26.198 E8.91705
G1 X184.749 Y26.047 E8.94455
G1 X185.522 Y25.968 E8.98331
G1 X186.288 Y25.968 E9.02153
G1 X186.838 Y26.008 E9.04904
G1 X187.376 Y26.127 E9.07653
G1 X187.891 Y26.323 E9.10402
G1 X188.372 Y26.591 E9.13149
G1 X188.975 Y27.081 E9.17026
G1 X189.092 Y27.198 E9.17851
G1 X189.452 Y27.615 E9.206
G1 X189.749 Y28.079 E9.23348
G1 X189.975 Y28.582 E9.26099
G1 X190.126 Y29.112 E9.28849
G1 X190.205 Y29.885 E9.32725
G1 X190.205 Y191.401 E17.38532
G1 X190.165 Y191.951 E17.41283
G1 X190.046 Y192.489 E17.44032
G1 X189.85 Y193.004 E17.46781
G1 X189.582 Y193.485 E17.49528
G1 X189.092 Y194.088 E17.53405
G1 X188.975 Y194.205 E17.5423
G1 X188.558 Y194.565 E17.56979
G1 X188.094 Y194.862 E17.59727
G1 X187.591 Y195.088 E17.62478
G1 X187.061 Y195.239 E17.65228
G1 X186.288 Y195.318 E17.69104
G1 X185.522 Y195.318 E17.72926
G1 X184.972 Y195.278 E17.75677
G1 X184.434 Y195.159 E17.78426
G1 X183.919 Y194.963 E17.81175
G1 X183.438 Y194.695 E17.83922
G1 X182.835 Y194.205 E17.87799
G1 X182.718 Y194.088 E17.88624
G1 X182.358 Y193.671 E17.91373
G1 X182.061 Y193.207 E17.94121
G1 X181.835 Y192.704 E17.96872
G1 X181.684 Y192.174 E17.99622
G1 X181.605 Y191.401 E18.03498
G1 X181.605 Y176.443 E18.78124
G1 X49.205 Y176.443 E25.3867
G1 X49.205 Y191.401 E26.13296
G1 X49.165 Y191.951 E26.16047
G1 X49.046 Y192.489 E26.18796
G1 X48.85 Y193.004 E26.21545
G1 X48.582 Y193.485 E26.24292
G1 X48.092 Y194.088 E26.28169
G1 X47.975 Y194.205 E26.28994
G1 X47.558 Y194.565 E26.31743
G1 X47.094 Y194.862 E26.34491
G1 X46.591 Y195.088 E26.37242
G1 X46.061 Y195.239 E26.39992
G1 X45.288 Y195.318 E26.43868
G1 X43.722 Y195.318 E26.51681
G1 X43.172 Y195.278 E26.54432
G1 X42.634 Y195.159 E26.57181
G1 X42.119 Y194.963 E26.59931
G1 X41.638 Y194.695 E26.62678
G1 X41.035 Y194.205 E26.66554
G1 X40.918 Y194.088 E26.6738
G1 X40.558 Y193.671 E26.70128
G1 X40.261 Y193.207 E26.72877
G1 X40.035 Y192.704 E26.75628
G1 X39.884 Y192.174 E26.78377
G1 X39.805 Y191.401 E26.82254
G1 X39.805 Y29.885 E34.8806
G1 X39.845 Y29.335 E34.90811
G1 X39.964 Y28.797 E34.9356
G1 X40.16 Y28.282 E34.9631
G1 X40.428 Y27.801 E34.99057
G0 F3600 X40.825 Y27.927
G1 F1500 X41.201 Y27.481 E35.01967
G1 X41.318 Y27.364 E35.02792
G1 X41.714 Y27.025 E35.05393
G1 X42.156 Y26.75 E35.0799
G1 X42.636 Y26.546 E35.10592
G1 X43.141 Y26.418 E35.13191
G1 X43.722 Y26.368 E35.16101
G1 X45.288 Y26.368 E35.23914
G1 X45.808 Y26.408 E35.26516
G1 X46.315 Y26.527 E35.29114
G1 X46.798 Y26.722 E35.31712
G1 X47.246 Y26.988 E35.34312
G1 X47.692 Y27.364 E35.37222
G1 X47.809 Y27.481 E35.38048
G1 X48.148 Y27.877 E35.40648
G1 X48.423 Y28.319 E35.43245
G1 X48.627 Y28.799 E35.45847
G1 X48.755 Y29.304 E35.48447
G1 X48.805 Y29.885 E35.51356
G1 X48.805 Y45.243 E36.27977
G1 X182.005 Y45.243 E42.92515
G1 X182.005 Y29.885 E43.69136
G1 X182.045 Y29.365 E43.71738
G1 X182.164 Y28.858 E43.74336
G1 X182.359 Y28.375 E43.76935
G1 X182.625 Y27.927 E43.79534
G1 X183.001 Y27.481 E43.82445
G1 X183.118 Y27.364 E43.8327
G1 X183.514 Y27.025 E43.85871
G1 X183.956 Y26.75 E43.88468
G1 X184.436 Y26.546 E43.9107
G1 X184.941 Y26.418 E43.93669
G1 X185.522 Y26.368 E43.96578
G1 X186.288 Y26.368 E44.004
G1 X186.808 Y26.408 E44.03002
G1 X187.315 Y26.527 E44.056
G1 X187.798 Y26.722 E44.08199
G1 X188.246 Y26.988 E44.10798
G1 X188.692 Y27.364 E44.13708
G1 X188.809 Y27.481 E44.14534
G1 X189.148 Y27.877 E44.17135
G1 X189.423 Y28.319 E44.19732
G1 X189.627 Y28.799 E44.22334
G1 X189.755 Y29.304 E44.24933
G1 X189.805 Y29.885 E44.27842
G1 X189.805 Y191.401 E52.33649
G1 X189.765 Y191.921 E52.36251
G1 X189.646 Y192.428 E52.38849
G1 X189.451 Y192.911 E52.41448
G1 X189.185 Y193.359 E52.44047
G1 X188.809 Y193.805 E52.46957
G1 X188.692 Y193.922 E52.47783
G1 X188.296 Y194.261 E52.50384
G1 X187.854 Y194.536 E52.52981
G1 X187.374 Y194.74 E52.55583
G1 X186.869 Y194.868 E52.58182
G1 X186.288 Y194.918 E52.61091
G1 X185.522 Y194.918 E52.64913
G1 X185.002 Y194.878 E52.67515
G1 X184.495 Y194.759 E52.70113
G1 X184.012 Y194.564 E52.72712
G1 X183.564 Y194.298 E52.75311
G1 X183.118 Y193.922 E52.78221
G1 X183.001 Y193.805 E52.79047
G1 X182.662 Y193.409 E52.81647
G1 X182.387 Y192.967 E52.84245
G1 X182.183 Y192.487 E52.86847
G1 X182.055 Y191.982 E52.89446
G1 X182.005 Y191.401 E52.92355
G1 X182.005 Y176.043 E53.68976
G1 X48.805 Y176.043 E60.33514
G1 X48.805 Y191.401 E61.10135
G1 X48.765 Y191.921 E61.12737
G1 X48.646 Y192.428 E61.15335
G1 X48.451 Y192.911 E61.17934
G1 X48.185 Y193.359 E61.20533
G1 X47.809 Y193.805 E61.23444
G1 X47.692 Y193.922 E61.24269
G1 X47.296 Y194.261 E61.2687
G1 X46.854 Y194.536 E61.29467
G1 X46.374 Y194.74 E61.32069
G1 X45.869 Y194.868 E61.34668
G1 X45.288 Y194.918 E61.37578
G1 X43.722 Y194.918 E61.4539
G1 X43.202 Y194.878 E61.47992
G1 X42.695 Y194.759 E61.50591
G1 X42.212 Y194.564 E61.53189
G1 X41.764 Y194.298 E61.55789
G1 X41.318 Y193.922 E61.58699
G1 X41.201 Y193.805 E61.59524
G1 X40.862 Y193.409 E61.62125
G1 X40.587 Y192.967 E61.64722
G1 X40.383 Y192.487 E61.67324
G1 X40.255 Y191.982 E61.69923
G1 X40.205 Y191.401 E61.72833
G1 X40.205 Y29.885 E69.78639
G1 X40.245 Y29.365 E69.81241
G1 X40.364 Y28.858 E69.83839
G1 X40.559 Y28.375 E69.86438
G1 X40.825 Y27.927 E69.89037
G0 F3600 X41.223 Y28.061
G1 F1500 X41.601 Y27.647 E69.91834
G1 X41.974 Y27.33 E69.94277
G1 X42.394 Y27.078 E69.9672
G1 X42.849 Y26.898 E69.99161
G1 X43.327 Y26.794 E70.01602
G1 X43.722 Y26.768 E70.03577
G1 X45.288 Y26.768 E70.1139
G1 X45.776 Y26.808 E70.13832
G1 X46.251 Y26.927 E70.16275
G1 X46.7 Y27.121 E70.18716
G1 X47.112 Y27.386 E70.2116
G1 X47.526 Y27.764 E70.23956
G1 X47.843 Y28.137 E70.26399
G1 X48.095 Y28.557 E70.28842
G1 X48.275 Y29.012 E70.31283
G1 X48.379 Y29.49 E70.33724
G1 X48.405 Y29.885 E70.35699
G1 X48.405 Y45.643 E71.14316
G1 X182.405 Y45.643 E77.82845
G1 X182.405 Y29.885 E78.61462
G1 X182.445 Y29.397 E78.63904
G1 X182.564 Y28.922 E78.66347
G1 X182.758 Y28.473 E78.68788
G1 X183.023 Y28.061 E78.71232
G1 X183.401 Y27.647 E78.74028
G1 X183.774 Y27.33 E78.76471
G1 X184.194 Y27.078 E78.78914
G1 X184.649 Y26.898 E78.81355
G1 X185.127 Y26.794 E78.83796
G1 X185.522 Y26.768 E78.85771
G1 X186.288 Y26.768 E78.89592
G1 X186.776 Y26.808 E78.92035
G1 X187.251 Y26.927 E78.94478
G1 X187.7 Y27.121 E78.96919
G1 X188.112 Y27.386 E78.99362
G1 X188.526 Y27.764 E79.02159
G1 X188.843 Y28.137 E79.04602
G1 X189.095 Y28.557 E79.07045
G1 X189.275 Y29.012 E79.09486
G1 X189.379 Y29.49 E79.11927
G1 X189.405 Y29.885 E79.13902
G1 X189.405 Y191.401 E87.19708
G1 X189.365 Y191.889 E87.22151
G1 X189.246 Y192.364 E87.24594
G1 X189.052 Y192.813 E87.27034
G1 X188.787 Y193.225 E87.29478
G1 X188.409 Y193.639 E87.32275
G1 X188.036 Y193.956 E87.34717
G1 X187.616 Y194.208 E87.37161
G1 X187.161 Y194.388 E87.39602
G1 X186.683 Y194.492 E87.42043
G1 X186.288 Y194.518 E87.44018
G1 X185.522 Y194.518 E87.47839
G1 X185.034 Y194.478 E87.50282
G1 X184.559 Y194.359 E87.52725
G1 X184.11 Y194.165 E87.55165
G1 X183.698 Y193.9 E87.57609
G1 X183.284 Y193.522 E87.60406
G1 X182.967 Y193.149 E87.62848
G1 X182.715 Y192.729 E87.65292
G1 X182.535 Y192.274 E87.67733
G1 X182.431 Y191.796 E87.70174
G1 X182.405 Y191.401 E87.72149
G1 X182.405 Y175.643 E88.50766
G1 X48.405 Y175.643 E95.19294
G1 X48.405 Y191.401 E95.97911
G1 X48.365 Y191.889 E96.00354
G1 X48.246 Y192.364 E96.02797
G1 X48.052 Y192.813 E96.05237
G1 X47.787 Y193.225 E96.07681
G1 X47.409 Y193.639 E96.10478
G1 X47.036 Y193.956 E96.1292
G1 X46.616 Y194.208 E96.15364
G1 X46.161 Y194.388 E96.17805
G1 X45.683 Y194.492 E96.20246
G1 X45.288 Y194.518 E96.22221
G1 X43.722 Y194.518 E96.30033
G1 X43.234 Y194.478 E96.32476
G1 X42.759 Y194.359 E96.34919
G1 X42.31 Y194.165 E96.37359
G1 X41.898 Y193.9 E96.39803
G1 X41.484 Y193.522 E96.426
G1 X41.167 Y193.149 E96.45042
G1 X40.915 Y192.729 E96.47486
G1 X40.735 Y192.274 E96.49927
G1 X40.631 Y191.796 E96.52368
G1 X40.605 Y191.401 E96.54343
G1 X40.605 Y29.885 E104.60149
G1 X40.645 Y29.397 E104.62592
G1 X40.764 Y28.922 E104.65035
G1 X40.958 Y28.473 E104.67475
G1 X41.223 Y28.061 E104.69919
G0 F3600 X41.357 Y28.579
G1 F1500 X41.767 Y28.047 E104.7327
G1 X42.233 Y27.637 E104.76367
G1 X42.628 Y27.41 E104.7864
G1 X43.056 Y27.255 E104.80911
G1 X43.722 Y27.168 E104.84262
G1 X45.288 Y27.168 E104.92075
G1 X45.742 Y27.208 E104.94348
G1 X46.182 Y27.326 E104.96621
G1 X46.594 Y27.52 E104.98893
G1 X47.126 Y27.93 E105.02244
G1 X47.536 Y28.396 E105.05341
G1 X47.763 Y28.791 E105.07613
G1 X47.918 Y29.219 E105.09884
G1 X48.005 Y29.885 E105.13235
G1 X48.005 Y46.043 E105.93848
G1 X182.805 Y46.043 E112.66368
G1 X182.805 Y29.885 E113.46981
G1 X182.845 Y29.431 E113.49254
G1 X182.963 Y28.991 E113.51527
G1 X183.157 Y28.579 E113.53799
G1 X183.567 Y28.047 E113.5715
G1 X184.033 Y27.637 E113.60247
G1 X184.428 Y27.41 E113.62519
G1 X184.856 Y27.255 E113.6479
G1 X185.522 Y27.168 E113.68141
G1 X186.288 Y27.168 E113.71963
G1 X186.742 Y27.208 E113.74237
G1 X187.182 Y27.326 E113.76509
G1 X187.594 Y27.52 E113.78781
G1 X188.126 Y27.93 E113.82132
G1 X188.536 Y28.396 E113.85229
G1 X188.763 Y28.791 E113.87502
G1 X188.918 Y29.219 E113.89773
G1 X189.005 Y29.885 E113.93124
G1 X189.005 Y191.401 E121.9893
G1 X188.965 Y191.855 E122.01204
G1 X188.847 Y192.295 E122.03477
G1 X188.653 Y192.707 E122.05749
G1 X188.243 Y193.239 E122.091
G1 X187.777 Y193.649 E122.12196
G1 X187.382 Y193.876 E122.14469
G1 X186.954 Y194.031 E122.1674
G1 X186.288 Y194.118 E122.20091
G1 X185.522 Y194.118 E122.23913
G1 X185.068 Y194.078 E122.26187
G1 X184.628 Y193.96 E122.28459
G1 X184.216 Y193.766 E122.30731
G1 X183.684 Y193.356 E122.34082
G1 X183.274 Y192.89 E122.37179
G1 X183.047 Y192.495 E122.39452
G1 X182.892 Y192.067 E122.41723
G1 X182.805 Y191.401 E122.45074
G1 X182.805 Y175.243 E123.25686
G1 X48.005 Y175.243 E129.98206
G1 X48.005 Y191.401 E130.78819
G1 X47.965 Y191.855 E130.81093
G1 X47.847 Y192.295 E130.83365
G1 X47.653 Y192.707 E130.85637
G1 X47.243 Y193.239 E130.88988
G1 X46.777 Y193.649 E130.92085
G1 X46.382 Y193.876 E130.94358
G1 X45.954 Y194.031 E130.96629
G1 X45.288 Y194.118 E130.9998
G1 X43.722 Y194.118 E131.07793
G1 X43.268 Y194.078 E131.10066
G1 X42.828 Y193.96 E131.12339
G1 X42.416 Y193.766 E131.14611
G1 X41.884 Y193.356 E131.17962
G1 X41.474 Y192.89 E131.21059
G1 X41.247 Y192.495 E131.23331
G1 X41.092 Y192.067 E131.25602
G1 X41.005 Y191.401 E131.28953
G1 X41.005 Y29.885 E139.3476
G1 X41.045 Y29.431 E139.37034
G1 X41.163 Y28.991 E139.39306
G1 X41.357 Y28.579 E139.41578
G0 F3600 X41.756 Y28.694
G1 F1500 X42.166 Y28.212 E139.44735
G1 X42.49 Y27.946 E139.46827
G1 X42.857 Y27.745 E139.48914
G1 X43.257 Y27.618 E139.51008
G1 X43.722 Y27.568 E139.53341
G1 X45.288 Y27.568 E139.61154
G1 X45.705 Y27.608 E139.63244
G1 X46.107 Y27.726 E139.65334
G1 X46.479 Y27.919 E139.67425
G1 X46.961 Y28.329 E139.70582
G1 X47.227 Y28.653 E139.72674
G1 X47.428 Y29.02 E139.74761
G1 X47.555 Y29.42 E139.76855
G1 X47.605 Y29.885 E139.79188
G1 X47.605 Y46.443 E140.61797
G1 X183.205 Y46.443 E147.38308
G1 X183.205 Y29.885 E148.20916
G1 X183.245 Y29.468 E148.23006
G1 X183.363 Y29.066 E148.25096
G1 X183.556 Y28.694 E148.27187
G1 X183.966 Y28.212 E148.30344
G1 X184.29 Y27.946 E148.32435
G1 X184.657 Y27.745 E148.34523
G1 X185.057 Y27.618 E148.36617
G1 X185.522 Y27.568 E148.3895
G1 X186.288 Y27.568 E148.42772
G1 X186.705 Y27.608 E148.44862
G1 X187.107 Y27.726 E148.46952
G1 X187.479 Y27.919 E148.49043
G1 X187.961 Y28.329 E148.522
G1 X188.227 Y28.653 E148.54291
G1 X188.428 Y29.02 E148.56379
G1 X188.555 Y29.42 E148.58472
G1 X188.605 Y29.885 E148.60806
G1 X188.605 Y191.401 E156.66612
G1 X188.565 Y191.818 E156.68702
G1 X188.447 Y192.22 E156.70792
G1 X188.254 Y192.592 E156.72883
G1 X187.844 Y193.074 E156.7604
G1 X187.52 Y193.34 E156.78132
G1 X187.153 Y193.541 E156.80219
G1 X186.753 Y193.668 E156.82313
G1 X186.288 Y193.718 E156.84646
G1 X185.522 Y193.718 E156.88468
G1 X185.105 Y193.678 E156.90558
G1 X184.703 Y193.56 E156.92648
G1 X184.331 Y193.367 E156.94739
G1 X183.849 Y192.957 E156.97896
G1 X183.583 Y192.633 E156.99987
G1 X183.382 Y192.266 E157.02075
G1 X183.255 Y191.866 E157.04169
G1 X183.205 Y191.401 E157.06502
G1 X183.205 Y174.843 E157.8911
G1 X47.605 Y174.843 E164.65621
G1 X47.605 Y191.401 E165.48229
G1 X47.565 Y191.818 E165.50319
G1 X47.447 Y192.22 E165.5241
G1 X47.254 Y192.592 E165.545
G1 X46.844 Y193.074 E165.57657
G1 X46.52 Y193.34 E165.59749
G1 X46.153 Y193.541 E165.61836
G1 X45.753 Y193.668 E165.6393
G1 X45.288 Y193.718 E165.66264
G1 X43.722 Y193.718 E165.74076
G1 X43.305 Y193.678 E165.76166
G1 X42.903 Y193.56 E165.78257
G1 X42.531 Y193.367 E165.80347
G1 X42.049 Y192.957 E165.83504
G1 X41.783 Y192.633 E165.85596
G1 X41.582 Y192.266 E165.87683
G1 X41.455 Y191.866 E165.89777
G1 X41.405 Y191.401 E165.9211
G1 X41.405 Y29.885 E173.97917
G1 X41.445 Y29.468 E174.00007
G1 X41.563 Y29.066 E174.02097
G1 X41.756 Y28.694 E174.04188
G0 F3600 X42.153 Y28.821
G1 F1500 X42.449 Y28.495 E174.06385
G1 X42.744 Y28.257 E174.08276
G1 X43.082 Y28.086 E174.10166
G1 X43.448 Y27.989 E174.12055
G1 X43.722 Y27.968 E174.13426
G1 X45.288 Y27.968 E174.21238
G1 X45.665 Y28.008 E174.2313
G1 X46.025 Y28.126 E174.2502
G1 X46.352 Y28.316 E174.26907
G1 X46.678 Y28.612 E174.29104
G1 X46.916 Y28.907 E174.30995
G1 X47.087 Y29.245 E174.32884
G1 X47.184 Y29.611 E174.34773
G1 X47.205 Y29.885 E174.36144
G1 X47.205 Y46.843 E175.20748
G1 X183.605 Y46.843 E182.01251
G1 X183.605 Y29.885 E182.85854
G1 X183.645 Y29.508 E182.87746
G1 X183.763 Y29.148 E182.89636
G1 X183.953 Y28.821 E182.91523
G1 X184.249 Y28.495 E182.9372
G1 X184.544 Y28.257 E182.95611
G1 X184.882 Y28.086 E182.975
G1 X185.248 Y27.989 E182.99389
G1 X185.522 Y27.968 E183.0076
G1 X186.288 Y27.968 E183.04582
G1 X186.665 Y28.008 E183.06473
G1 X187.025 Y28.126 E183.08363
G1 X187.352 Y28.316 E183.1025
G1 X187.678 Y28.612 E183.12447
G1 X187.916 Y28.907 E183.14338
G1 X188.087 Y29.245 E183.16228
G1 X188.184 Y29.611 E183.18117
G1 X188.205 Y29.885 E183.19488
G1 X188.205 Y191.401 E191.25295
G1 X188.165 Y191.778 E191.27186
G1 X188.047 Y192.138 E191.29076
G1 X187.857 Y192.465 E191.30963
G1 X187.561 Y192.791 E191.3316
