;FLAVOR:Marlin
;TIME:11582
;Filament used: 13.1664m, 0m
;Layer height: 0.2
;MINX:64.7
;MINY:89.975
;MINZ:0.3
;MAXX:170.3
;MAXY:142.025
;MAXZ:29.9
;Generated with Cura_SteamEngine 4.7.1
T0
M140 S60
M105
M190 S60
M104 S190
M105
M109 S190
M82 ;absolute extrusion mode
M201 X500.00 Y500.00 Z100.00 E5000.00 	;Setup machine max acceleration
M203 X500.00 Y500.00 Z10.00 E50.00 	;Setup machine max feedrate
M204 P500.00 R1000.00 T500.00 		;Setup Print/Retract/Travel acceleration
M205 X8.00 Y8.00 Z0.40 E5.00 		;Setup Jerk
M220 S100 				;Reset Feedrate
M221 S100 				;Reset Flowrate
G28				;Home the Machine
G29 				;Bed Level
G92 E0
M300 P150 S587
G92 E0
G1 F1500 E-6.5
;LAYER_COUNT:149
;LAYER:0
M107
G0 F3600 X66.052 Y90.869 Z0.3
;TYPE:SKIRT
G1 F1500 E0
G1 X66.498 Y90.545 E0.0275
G1 X66.986 Y90.29 E0.05497
G1 X67.506 Y90.107 E0.08248
G1 X68.047 Y90.002 E0.10997
G1 X68.5 Y89.975 E0.13261
G1 X98.5 Y89.975 E1.62932
G1 X99.05 Y90.015 E1.65683
G1 X99.588 Y90.134 E1.68432
G1 X100.103 Y90.33 E1.71181
G1 X100.498 Y90.545 E1.73425
G1 X100.986 Y90.29 E1.76172
G1 X101.506 Y90.107 E1.78922
G1 X102.047 Y90.002 E1.81671
G1 X102.5 Y89.975 E1.83935
G1 X132.5 Y89.975 E3.33606
G1 X133.05 Y90.015 E3.36357
G1 X133.588 Y90.134 E3.39106
G1 X134.103 Y90.33 E3.41855
G1 X134.498 Y90.545 E3.44099
G1 X134.986 Y90.29 E3.46846
G1 X135.506 Y90.107 E3.49596
G1 X136.047 Y90.002 E3.52346
G1 X136.5 Y89.975 E3.5461
G1 X166.5 Y89.975 E5.0428
G1 X167.05 Y90.015 E5.07031
G1 X167.588 Y90.134 E5.0978
G1 X168.103 Y90.33 E5.12529
G1 X168.584 Y90.598 E5.15277
G1 X169.022 Y90.932 E5.18025
G1 X169.406 Y91.327 E5.20773
G1 X169.73 Y91.773 E5.23523
G1 X169.985 Y92.261 E5.2627
G1 X170.168 Y92.781 E5.29021
G1 X170.273 Y93.322 E5.3177
G1 X170.3 Y93.775 E5.34034
G1 X170.3 Y138.225 E7.55796
G1 X170.26 Y138.775 E7.58547
G1 X170.141 Y139.313 E7.61296
G1 X169.945 Y139.828 E7.64045
G1 X169.677 Y140.309 E7.66792
G1 X169.343 Y140.747 E7.6954
G1 X168.948 Y141.131 E7.72289
G1 X168.502 Y141.455 E7.75039
G1 X168.014 Y141.71 E7.77786
G1 X167.494 Y141.893 E7.80536
G1 X166.953 Y141.998 E7.83286
G1 X166.5 Y142.025 E7.8555
G1 X136.5 Y142.025 E9.3522
G1 X135.95 Y141.985 E9.37972
G1 X135.412 Y141.866 E9.40721
G1 X134.897 Y141.67 E9.4347
G1 X134.502 Y141.455 E9.45713
G1 X134.014 Y141.71 E9.4846
G1 X133.494 Y141.893 E9.51211
G1 X132.953 Y141.998 E9.5396
G1 X132.5 Y142.025 E9.56224
G1 X102.5 Y142.025 E11.05895
G1 X101.95 Y141.985 E11.08646
G1 X101.412 Y141.866 E11.11395
G1 X100.897 Y141.67 E11.14144
G1 X100.502 Y141.455 E11.16388
G1 X100.014 Y141.71 E11.19135
G1 X99.494 Y141.893 E11.21885
G1 X98.953 Y141.998 E11.24634
G1 X98.5 Y142.025 E11.26898
G1 X68.5 Y142.025 E12.76569
G1 X67.95 Y141.985 E12.7932
G1 X67.412 Y141.866 E12.82069
G1 X66.897 Y141.67 E12.84818
G1 X66.416 Y141.402 E12.87565
G1 X65.978 Y141.068 E12.90313
G1 X65.594 Y140.673 E12.93062
G1 X65.27 Y140.227 E12.95812
G1 X65.015 Y139.739 E12.98559
G1 X64.832 Y139.219 E13.01309
G1 X64.727 Y138.678 E13.04059
G1 X64.7 Y138.225 E13.06323
G1 X64.7 Y93.775 E15.28085
G1 X64.74 Y93.225 E15.30836
G1 X64.859 Y92.687 E15.33585
G1 X65.055 Y92.172 E15.36334
G1 X65.323 Y91.691 E15.39081
G1 X65.657 Y91.253 E15.41829
G1 X66.052 Y90.869 E15.44578
G0 F3600 X66.442 Y91.069
G1 F1500 X66.88 Y90.786 E15.47179
G1 X67.355 Y90.573 E15.49776
G1 X67.858 Y90.436 E15.52377
G1 X68.5 Y90.375 E15.55595
G1 X98.5 Y90.375 E17.05265
G1 X99.02 Y90.415 E17.07867
G1 X99.527 Y90.534 E17.10465
G1 X100.01 Y90.729 E17.13064
G1 X100.458 Y90.995 E17.15663
G1 X100.501 Y91.031 E17.15943
G1 X100.88 Y90.786 E17.18195
G1 X101.355 Y90.573 E17.20792
G1 X101.858 Y90.436 E17.23393
G1 X102.5 Y90.375 E17.2661
G1 X132.5 Y90.375 E18.76281
G1 X133.02 Y90.415 E18.78883
G1 X133.527 Y90.534 E18.81481
G1 X134.01 Y90.729 E18.84079
G1 X134.458 Y90.995 E18.86679
G1 X134.501 Y91.031 E18.86959
G1 X134.88 Y90.786 E18.8921
G1 X135.355 Y90.573 E18.91807
G1 X135.858 Y90.436 E18.94408
G1 X136.5 Y90.375 E18.97626
G1 X166.5 Y90.375 E20.47296
G1 X167.02 Y90.415 E20.49898
G1 X167.527 Y90.534 E20.52496
G1 X168.01 Y90.729 E20.55095
G1 X168.458 Y90.995 E20.57694
G1 X168.86 Y91.327 E20.60295
G1 X169.206 Y91.717 E20.62896
G1 X169.489 Y92.155 E20.65498
G1 X169.702 Y92.63 E20.68095
G1 X169.839 Y93.133 E20.70696
G1 X169.9 Y93.775 E20.73914
G1 X169.9 Y138.225 E22.95675
G1 X169.86 Y138.745 E22.98277
G1 X169.741 Y139.252 E23.00876
G1 X169.546 Y139.735 E23.03474
G1 X169.28 Y140.183 E23.06074
G1 X168.948 Y140.585 E23.08675
G1 X168.558 Y140.931 E23.11276
G1 X168.12 Y141.214 E23.13877
G1 X167.645 Y141.427 E23.16475
G1 X167.142 Y141.564 E23.19076
G1 X166.5 Y141.625 E23.22293
G1 X136.5 Y141.625 E24.71964
G1 X135.98 Y141.585 E24.74565
G1 X135.473 Y141.466 E24.77164
G1 X134.99 Y141.271 E24.79762
G1 X134.542 Y141.005 E24.82362
G1 X134.499 Y140.969 E24.82641
G1 X134.12 Y141.214 E24.84893
G1 X133.645 Y141.427 E24.8749
G1 X133.142 Y141.564 E24.90091
G1 X132.5 Y141.625 E24.93308
G1 X102.5 Y141.625 E26.42979
G1 X101.98 Y141.585 E26.45581
G1 X101.473 Y141.466 E26.48179
G1 X100.99 Y141.271 E26.50778
G1 X100.542 Y141.005 E26.53377
G1 X100.499 Y140.969 E26.53657
G1 X100.12 Y141.214 E26.55908
G1 X99.645 Y141.427 E26.58506
G1 X99.142 Y141.564 E26.61106
G1 X98.5 Y141.625 E26.64324
G1 X68.5 Y141.625 E28.13994
G1 X67.98 Y141.585 E28.16596
G1 X67.473 Y141.466 E28.19195
G1 X66.99 Y141.271 E28.21793
G1 X66.542 Y141.005 E28.24393
G1 X66.14 Y140.673 E28.26994
G1 X65.794 Y140.283 E28.29595
G1 X65.511 Y139.845 E28.32196
G1 X65.298 Y139.37 E28.34794
G1 X65.161 Y138.867 E28.37395
G1 X65.1 Y138.225 E28.40612
G1 X65.1 Y93.775 E30.62374
G1 X65.14 Y93.255 E30.64976
G1 X65.259 Y92.748 E30.67574
G1 X65.454 Y92.265 E30.70173
G1 X65.72 Y91.817 E30.72772
G1 X66.052 Y91.415 E30.75373
G1 X66.442 Y91.069 E30.77974
G0 F3600 X66.446 Y91.588
G1 F1500 X66.829 Y91.283 E30.80417
G1 X67.257 Y91.045 E30.8286
G1 X67.717 Y90.879 E30.853
G1 X68.5 Y90.775 E30.89241
G1 X98.5 Y90.775 E32.38911
G1 X98.988 Y90.815 E32.41354
G1 X99.463 Y90.934 E32.43797
G1 X99.912 Y91.128 E32.46237
G1 X100.324 Y91.393 E32.48681
G1 X100.496 Y91.548 E32.49836
G1 X100.829 Y91.283 E32.5196
G1 X101.257 Y91.045 E32.54403
G1 X101.717 Y90.879 E32.56843
G1 X102.5 Y90.775 E32.60783
G1 X132.5 Y90.775 E34.10454
G1 X132.988 Y90.815 E34.12897
G1 X133.463 Y90.934 E34.1534
G1 X133.912 Y91.128 E34.1778
G1 X134.324 Y91.393 E34.20224
G1 X134.496 Y91.548 E34.21379
G1 X134.829 Y91.283 E34.23502
G1 X135.257 Y91.045 E34.25946
G1 X135.717 Y90.879 E34.28385
G1 X136.5 Y90.775 E34.32326
G1 X166.5 Y90.775 E35.81997
G1 X166.988 Y90.815 E35.84439
G1 X167.463 Y90.934 E35.86882
G1 X167.912 Y91.128 E35.89323
G1 X168.324 Y91.393 E35.91767
G1 X168.687 Y91.721 E35.94207
G1 X168.992 Y92.104 E35.9665
G1 X169.23 Y92.532 E35.99093
G1 X169.396 Y92.992 E36.01533
G1 X169.5 Y93.775 E36.05474
G1 X169.5 Y138.225 E38.27236
G1 X169.46 Y138.713 E38.29679
G1 X169.341 Y139.188 E38.32122
G1 X169.147 Y139.637 E38.34562
G1 X168.882 Y140.049 E38.37006
G1 X168.554 Y140.412 E38.39447
G1 X168.171 Y140.717 E38.41889
G1 X167.743 Y140.955 E38.44333
G1 X167.283 Y141.121 E38.46772
G1 X166.5 Y141.225 E38.50713
G1 X136.5 Y141.225 E40.00384
G1 X136.012 Y141.185 E40.02826
G1 X135.537 Y141.066 E40.05269
G1 X135.088 Y140.872 E40.0771
G1 X134.676 Y140.607 E40.10154
G1 X134.504 Y140.452 E40.11309
G1 X134.171 Y140.717 E40.13432
G1 X133.743 Y140.955 E40.15875
G1 X133.283 Y141.121 E40.18315
G1 X132.5 Y141.225 E40.22256
G1 X102.5 Y141.225 E41.71926
G1 X102.012 Y141.185 E41.74369
G1 X101.537 Y141.066 E41.76812
G1 X101.088 Y140.872 E41.79252
G1 X100.676 Y140.607 E41.81696
G1 X100.504 Y140.452 E41.82852
G1 X100.171 Y140.717 E41.84975
G1 X99.743 Y140.955 E41.87418
G1 X99.283 Y141.121 E41.89858
G1 X98.5 Y141.225 E41.93798
G1 X68.5 Y141.225 E43.43469
G1 X68.012 Y141.185 E43.45912
G1 X67.537 Y141.066 E43.48355
G1 X67.088 Y140.872 E43.50795
G1 X66.676 Y140.607 E43.53239
G1 X66.313 Y140.279 E43.5568
G1 X66.008 Y139.896 E43.58123
G1 X65.77 Y139.468 E43.60566
G1 X65.604 Y139.008 E43.63006
G1 X65.5 Y138.225 E43.66946
G1 X65.5 Y93.775 E45.88708
G1 X65.54 Y93.287 E45.91151
G1 X65.659 Y92.812 E45.93594
G1 X65.853 Y92.363 E45.96034
G1 X66.118 Y91.951 E45.98478
G1 X66.446 Y91.588 E46.00919
G0 F3600 X66.838 Y91.775
G1 F1500 X67.213 Y91.516 E46.03193
G1 X67.627 Y91.326 E46.05465
G1 X68.068 Y91.211 E46.07739
G1 X68.5 Y91.175 E46.09902
G1 X98.5 Y91.175 E47.59572
G1 X98.954 Y91.215 E47.61846
G1 X99.394 Y91.333 E47.64119
G1 X99.806 Y91.527 E47.66391
G1 X100.179 Y91.79 E47.68668
G1 X100.515 Y92.096 E47.70935
G1 X100.838 Y91.775 E47.73207
G1 X101.213 Y91.516 E47.75481
G1 X101.627 Y91.326 E47.77753
G1 X102.068 Y91.211 E47.80027
G1 X102.5 Y91.175 E47.8219
G1 X132.5 Y91.175 E49.3186
G1 X132.954 Y91.215 E49.34134
G1 X133.394 Y91.333 E49.36407
G1 X133.806 Y91.527 E49.38679
G1 X134.179 Y91.79 E49.40956
G1 X134.515 Y92.096 E49.43223
G1 X134.838 Y91.775 E49.45495
G1 X135.213 Y91.516 E49.47769
G1 X135.627 Y91.326 E49.50041
G1 X136.068 Y91.211 E49.52315
G1 X136.5 Y91.175 E49.54478
G1 X166.5 Y91.175 E51.04149
G1 X166.954 Y91.215 E51.06422
G1 X167.394 Y91.333 E51.08695
G1 X167.806 Y91.527 E51.10967
G1 X168.179 Y91.79 E51.13244
G1 X168.5 Y92.113 E51.15516
G1 X168.759 Y92.488 E51.1779
G1 X168.949 Y92.902 E51.20062
G1 X169.064 Y93.343 E51.22336
G1 X169.1 Y93.775 E51.24499
G1 X169.1 Y138.225 E53.46261
G1 X169.06 Y138.679 E53.48534
G1 X168.942 Y139.119 E53.50807
G1 X168.748 Y139.531 E53.53079
G1 X168.485 Y139.904 E53.55356
G1 X168.162 Y140.225 E53.57628
G1 X167.787 Y140.484 E53.59902
G1 X167.373 Y140.674 E53.62174
G1 X166.932 Y140.789 E53.64448
G1 X166.5 Y140.825 E53.66611
G1 X136.5 Y140.825 E55.16281
G1 X136.046 Y140.785 E55.18555
G1 X135.606 Y140.667 E55.20828
G1 X135.194 Y140.473 E55.231
G1 X134.821 Y140.21 E55.25377
G1 X134.485 Y139.904 E55.27644
G1 X134.162 Y140.225 E55.29916
G1 X133.787 Y140.484 E55.3219
G1 X133.373 Y140.674 E55.34462
G1 X132.932 Y140.789 E55.36736
G1 X132.5 Y140.825 E55.38899
G1 X102.5 Y140.825 E56.88569
G1 X102.046 Y140.785 E56.90843
G1 X101.606 Y140.667 E56.93116
G1 X101.194 Y140.473 E56.95388
G1 X100.821 Y140.21 E56.97665
G1 X100.485 Y139.904 E56.99932
G1 X100.162 Y140.225 E57.02204
G1 X99.787 Y140.484 E57.04478
G1 X99.373 Y140.674 E57.0675
G1 X98.932 Y140.789 E57.09024
G1 X98.5 Y140.825 E57.11187
G1 X68.5 Y140.825 E58.60857
G1 X68.046 Y140.785 E58.63131
G1 X67.606 Y140.667 E58.65404
G1 X67.194 Y140.473 E58.67676
G1 X66.821 Y140.21 E58.69953
G1 X66.5 Y139.887 E58.72225
G1 X66.241 Y139.512 E58.74498
G1 X66.051 Y139.098 E58.76771
G1 X65.936 Y138.657 E58.79045
G1 X65.9 Y138.225 E58.81208
G1 X65.9 Y93.775 E61.02969
G1 X65.94 Y93.321 E61.05243
G1 X66.058 Y92.881 E61.07516
G1 X66.252 Y92.469 E61.09788
G1 X66.515 Y92.096 E61.12065
G1 X66.838 Y91.775 E61.14337
G0 F3600 X67.227 Y91.981
G1 F1500 X67.59 Y91.772 E61.16427
G1 X67.987 Y91.636 E61.1852
G1 X68.5 Y91.575 E61.21098
G1 X98.5 Y91.575 E62.70768
G1 X98.917 Y91.615 E62.72858
G1 X99.319 Y91.733 E62.74948
G1 X99.691 Y91.926 E62.77039
G1 X100.02 Y92.185 E62.79128
G1 X100.294 Y92.502 E62.81219
G1 X100.504 Y92.868 E62.83324
G1 X100.651 Y92.584 E62.84919
G1 X100.91 Y92.255 E62.87008
G1 X101.227 Y91.981 E62.89099
G1 X101.59 Y91.772 E62.91188
G1 X101.987 Y91.636 E62.93282
G1 X102.5 Y91.575 E62.95859
G1 X132.5 Y91.575 E64.4553
G1 X132.917 Y91.615 E64.4762
G1 X133.319 Y91.733 E64.4971
G1 X133.691 Y91.926 E64.51801
G1 X134.02 Y92.185 E64.5389
G1 X134.294 Y92.502 E64.5598
G1 X134.504 Y92.868 E64.58086
G1 X134.651 Y92.584 E64.59681
G1 X134.91 Y92.255 E64.6177
G1 X135.227 Y91.981 E64.6386
G1 X135.59 Y91.772 E64.6595
G1 X135.987 Y91.636 E64.68044
G1 X136.5 Y91.575 E64.70621
G1 X166.5 Y91.575 E66.20292
G1 X166.917 Y91.615 E66.22382
G1 X167.319 Y91.733 E66.24472
G1 X167.691 Y91.926 E66.26563
G1 X168.02 Y92.185 E66.28652
G1 X168.294 Y92.502 E66.30742
G1 X168.503 Y92.865 E66.32832
G1 X168.639 Y93.262 E66.34926
G1 X168.7 Y93.775 E66.37503
G1 X168.7 Y138.225 E68.59265
G1 X168.66 Y138.642 E68.61355
G1 X168.542 Y139.044 E68.63445
G1 X168.349 Y139.416 E68.65536
G1 X168.09 Y139.745 E68.67625
G1 X167.773 Y140.019 E68.69715
G1 X167.41 Y140.228 E68.71805
G1 X167.013 Y140.364 E68.73899
G1 X166.5 Y140.425 E68.76476
G1 X136.5 Y140.425 E70.26147
G1 X136.083 Y140.385 E70.28237
G1 X135.681 Y140.267 E70.30327
G1 X135.309 Y140.074 E70.32418
G1 X134.98 Y139.815 E70.34507
G1 X134.706 Y139.498 E70.36597
G1 X134.496 Y139.132 E70.38702
G1 X134.349 Y139.416 E70.40298
G1 X134.09 Y139.745 E70.42387
G1 X133.773 Y140.019 E70.44477
G1 X133.41 Y140.228 E70.46567
G1 X133.013 Y140.364 E70.48661
G1 X132.5 Y140.425 E70.51238
G1 X102.5 Y140.425 E72.00909
G1 X102.083 Y140.385 E72.02999
G1 X101.681 Y140.267 E72.05089
G1 X101.309 Y140.074 E72.0718
G1 X100.98 Y139.815 E72.09269
G1 X100.706 Y139.498 E72.11359
G1 X100.496 Y139.132 E72.13464
G1 X100.349 Y139.416 E72.1506
G1 X100.09 Y139.745 E72.17149
G1 X99.773 Y140.019 E72.19239
G1 X99.41 Y140.228 E72.21329
G1 X99.013 Y140.364 E72.23422
G1 X98.5 Y140.425 E72.26
G1 X68.5 Y140.425 E73.7567
G1 X68.083 Y140.385 E73.7776
G1 X67.681 Y140.267 E73.79851
G1 X67.309 Y140.074 E73.81941
G1 X66.98 Y139.815 E73.8403
G1 X66.706 Y139.498 E73.86121
G1 X66.497 Y139.135 E73.88211
G1 X66.361 Y138.738 E73.90304
G1 X66.3 Y138.225 E73.92882
G1 X66.3 Y93.775 E76.14643
G1 X66.34 Y93.358 E76.16733
G1 X66.458 Y92.956 E76.18824
G1 X66.651 Y92.584 E76.20914
G1 X66.91 Y92.255 E76.23003
G1 X67.227 Y91.981 E76.25094
G0 F3600 X67.303 Y92.43
G1 F1500 X67.612 Y92.21 E76.26986
G1 X67.959 Y92.058 E76.28876
G1 X68.5 Y91.975 E76.31607
G1 X98.5 Y91.975 E77.81278
G1 X98.877 Y92.015 E77.83169
G1 X99.237 Y92.133 E77.85059
G1 X99.564 Y92.323 E77.86946
G1 X99.845 Y92.578 E77.88839
G1 X100.065 Y92.887 E77.90731
G1 X100.217 Y93.234 E77.92621
G1 X100.3 Y93.775 E77.95352
G1 X100.3 Y138.225 E80.17114
G1 X100.26 Y138.602 E80.19005
G1 X100.142 Y138.962 E80.20895
G1 X99.952 Y139.289 E80.22782
G1 X99.697 Y139.57 E80.24675
G1 X99.388 Y139.79 E80.26568
G1 X99.041 Y139.942 E80.28458
G1 X98.5 Y140.025 E80.31188
G1 X68.5 Y140.025 E81.80859
G1 X68.123 Y139.985 E81.8275
G1 X67.763 Y139.867 E81.84641
G1 X67.436 Y139.677 E81.86527
G1 X67.155 Y139.422 E81.8842
G1 X66.935 Y139.113 E81.90313
G1 X66.783 Y138.766 E81.92203
G1 X66.7 Y138.225 E81.94933
G1 X66.7 Y93.775 E84.16695
G1 X66.74 Y93.398 E84.18587
G1 X66.858 Y93.038 E84.20477
G1 X67.048 Y92.711 E84.22364
G1 X67.303 Y92.43 E84.24257
G0 F3600 X67.693 Y92.631
G1 F1500 X67.987 Y92.472 E84.25924
G1 X68.5 Y92.375 E84.28529
G1 X98.5 Y92.375 E85.782
G1 X98.832 Y92.415 E85.79868
G1 X99.144 Y92.532 E85.8153
G1 X99.421 Y92.72 E85.83201
G1 X99.644 Y92.968 E85.84865
G1 X99.803 Y93.262 E85.86532
G1 X99.9 Y93.775 E85.89137
G1 X99.9 Y138.225 E88.10899
G1 X99.86 Y138.557 E88.12567
G1 X99.743 Y138.869 E88.1423
G1 X99.555 Y139.146 E88.159
G1 X99.307 Y139.369 E88.17564
G1 X99.013 Y139.528 E88.19231
G1 X98.5 Y139.625 E88.21836
G1 X68.5 Y139.625 E89.71506
G1 X68.168 Y139.585 E89.73175
G1 X67.856 Y139.468 E89.74837
G1 X67.579 Y139.28 E89.76507
G1 X67.356 Y139.032 E89.78171
G1 X67.197 Y138.738 E89.79839
G1 X67.1 Y138.225 E89.82444
G1 X67.1 Y93.775 E92.04206
G1 X67.14 Y93.443 E92.05874
G1 X67.257 Y93.131 E92.07536
G1 X67.445 Y92.854 E92.09206
G1 X67.693 Y92.631 E92.1087
G0 F3600 X67.839 Y93.024
G1 F1500 X68.075 Y92.87 E92.12276
G1 X68.5 Y92.775 E92.14449
G1 X98.5 Y92.775 E93.6412
G1 X98.779 Y92.815 E93.65526
G1 X99.036 Y92.931 E93.66932
G1 X99.251 Y93.114 E93.68341
G1 X99.405 Y93.35 E93.69747
G1 X99.5 Y93.775 E93.7192
G1 X99.5 Y138.225 E95.93682
G1 X99.46 Y138.504 E95.95088
G1 X99.344 Y138.761 E95.96495
G1 X99.161 Y138.976 E95.97903
G1 X98.925 Y139.13 E95.99309
G1 X98.5 Y139.225 E96.01482
G1 X68.5 Y139.225 E97.51152
