;FLAVOR:Marlin
;TIME:7627
;Filament used: 8.67312m, 0m
;Layer height: 0.2
;MINX:39.86
;MINY:93.12
;MINZ:0.3
;MAXX:113.344
;MAXY:144.825
;MAXZ:29.9
;Generated with Cura_SteamEngine 4.7.1
T0
M140 S60
M105
M190 S60
M104 S190
M105
M109 S190
M82 ;absolute extrusion mode
M201 X500.00 Y500.00 Z100.00 E5000.00 	;Setup machine max acceleration
M203 X500.00 Y500.00 Z10.00 E50.00 	;Setup machine max feedrate
M204 P500.00 R1000.00 T500.00 		;Setup Print/Retract/Travel acceleration
M205 X8.00 Y8.00 Z0.40 E5.00 		;Setup Jerk
M220 S100 				;Reset Feedrate
M221 S100 				;Reset Flowrate
G28				;Home the Machine
G29 				;Bed Level
G92 E0
M300 P150 S587
G92 E0
G1 F1500 E-6.5
;LAYER_COUNT:149
;LAYER:0
M107
G0 F3600 X42.192 Y93.418 Z0.3
;TYPE:SKIRT
G1 F1500 E0
G1 X42.706 Y93.266 E0.02674
G1 X43.369 Y93.185 E0.06006
G1 X43.79 Y93.175 E0.08107
G1 X72.805 Y93.175 E1.52864
G1 X74.525 Y93.2 E1.61446
G1 X75.223 Y93.22 E1.6493
G1 X77.949 Y93.224 E1.7853
G1 X79.563 Y93.189 E1.86584
G1 X80.08 Y93.175 E1.89164
G1 X109.089 Y93.175 E3.33891
G1 X109.787 Y93.185 E3.37373
G1 X110.321 Y93.233 E3.40048
G1 X110.842 Y93.359 E3.42722
G1 X111.339 Y93.562 E3.45401
G1 X111.8 Y93.836 E3.48076
G1 X112.215 Y94.175 E3.5075
G1 X112.575 Y94.573 E3.53427
G1 X112.872 Y95.019 E3.561
G1 X113.1 Y95.505 E3.58779
G1 X113.252 Y96.019 E3.61453
G1 X113.334 Y96.684 E3.64796
G1 X113.344 Y97.105 E3.66897
G1 X113.344 Y140.539 E5.8359
G1 X113.334 Y141.266 E5.87217
G1 X113.286 Y141.8 E5.89892
G1 X113.16 Y142.321 E5.92566
G1 X112.958 Y142.818 E5.95243
G1 X112.684 Y143.279 E5.97918
G1 X112.345 Y143.694 E6.00592
G1 X111.948 Y144.055 E6.03269
G1 X111.502 Y144.352 E6.05942
G1 X111.016 Y144.58 E6.0862
G1 X110.502 Y144.733 E6.11296
G1 X109.835 Y144.815 E6.14649
G1 X109.414 Y144.825 E6.1675
G1 X80.4 Y144.825 E7.61501
G1 X78.681 Y144.8 E7.70078
G1 X77.982 Y144.78 E7.73567
G1 X75.256 Y144.776 E7.87167
G1 X73.642 Y144.811 E7.95221
G1 X73.125 Y144.825 E7.97801
G1 X44.115 Y144.825 E9.42533
G1 X43.417 Y144.815 E9.46015
G1 X42.883 Y144.767 E9.4869
G1 X42.362 Y144.641 E9.51365
G1 X41.865 Y144.438 E9.54043
G1 X41.404 Y144.164 E9.56718
G1 X40.989 Y143.825 E9.59392
G1 X40.629 Y143.427 E9.62069
G1 X40.332 Y142.981 E9.64743
G1 X40.104 Y142.495 E9.67421
G1 X39.952 Y141.981 E9.70095
G1 X39.87 Y141.313 E9.73453
G1 X39.86 Y140.883 E9.75598
G1 X39.86 Y97.395 E11.92561
G1 X39.87 Y96.73 E11.95879
G1 X39.918 Y96.196 E11.98554
G1 X40.045 Y95.675 E12.01229
G1 X40.248 Y95.178 E12.03908
G1 X40.522 Y94.717 E12.06583
G1 X40.862 Y94.302 E12.0926
G1 X41.26 Y93.943 E12.11934
G1 X41.706 Y93.646 E12.14607
G1 X42.192 Y93.418 E12.17285
G0 F3600 X42.553 Y93.718
G1 F1500 X43.048 Y93.612 E12.19811
G1 X43.7 Y93.576 E12.23069
G1 X72.799 Y93.575 E13.68244
G1 X74.513 Y93.6 E13.76796
G1 X75.21 Y93.62 E13.80275
G1 X77.958 Y93.624 E13.93985
G1 X79.546 Y93.589 E14.01909
G1 X80.08 Y93.575 E14.04575
G1 X109.083 Y93.575 E15.49271
G1 X109.781 Y93.585 E15.52754
G1 X110.284 Y93.632 E15.55274
G1 X110.774 Y93.758 E15.57798
G1 X111.238 Y93.96 E15.60323
G1 X111.664 Y94.232 E15.62845
G1 X112.042 Y94.567 E15.65365
G1 X112.362 Y94.958 E15.67885
G1 X112.617 Y95.395 E15.7041
G1 X112.8 Y95.866 E15.7293
G1 X112.907 Y96.36 E15.75452
G1 X112.943 Y97.015 E15.78725
G1 X112.944 Y140.533 E17.95837
G1 X112.934 Y141.26 E17.99464
G1 X112.887 Y141.763 E18.01985
G1 X112.761 Y142.253 E18.04509
G1 X112.56 Y142.717 E18.07032
G1 X112.288 Y143.143 E18.09553
G1 X111.953 Y143.522 E18.12077
G1 X111.562 Y143.842 E18.14598
G1 X111.126 Y144.097 E18.17118
G1 X110.655 Y144.281 E18.1964
G1 X110.16 Y144.387 E18.22166
G1 X109.504 Y144.424 E18.25444
G1 X80.406 Y144.425 E19.70615
G1 X78.693 Y144.4 E19.79162
G1 X77.995 Y144.38 E19.82645
G1 X75.247 Y144.376 E19.96355
G1 X73.659 Y144.411 E20.0428
G1 X73.125 Y144.425 E20.06945
G1 X44.121 Y144.425 E21.51646
G1 X43.423 Y144.415 E21.55129
G1 X42.92 Y144.368 E21.57649
G1 X42.43 Y144.242 E21.60174
G1 X41.966 Y144.04 E21.62698
G1 X41.54 Y143.768 E21.6522
G1 X41.162 Y143.433 E21.6774
G1 X40.842 Y143.042 E21.70261
G1 X40.587 Y142.605 E21.72785
G1 X40.404 Y142.134 E21.75306
G1 X40.297 Y141.64 E21.77827
G1 X40.261 Y140.97 E21.81175
G1 X40.26 Y97.401 E23.98542
G1 X40.27 Y96.736 E24.0186
G1 X40.318 Y96.233 E24.0438
G1 X40.444 Y95.743 E24.06905
G1 X40.646 Y95.279 E24.09429
G1 X40.918 Y94.853 E24.11951
G1 X41.254 Y94.476 E24.1447
G1 X41.645 Y94.155 E24.16994
G1 X42.082 Y93.901 E24.19516
G1 X42.553 Y93.718 E24.22037
G1 F1500 E17.72037
;MESH:Rack System.stl
G0 F3600 X44.074 Y96.11
G0 X44.074 Y97.389
G0 X59.593 Y101.345
G0 X60.643 Y102.014
G0 X61.35 Y103.041
G0 X61.651 Y104.56
G0 X61.552 Y104.554
;TYPE:WALL-INNER
G1 F1500 E24.22037
G1 X61.502 Y103.66 E24.26504
G1 X61.314 Y103.056 E24.2966
G1 X61.015 Y102.515 E24.32744
G1 X60.616 Y102.042 E24.35831
G1 X60.129 Y101.661 E24.38916
G1 X59.579 Y101.382 E24.41993
G1 X58.984 Y101.217 E24.45073
G1 X58.368 Y101.174 E24.48154
G1 X57.755 Y101.253 E24.51238
G1 X57.17 Y101.453 E24.54322
G1 X56.637 Y101.765 E24.57403
G1 X56.175 Y102.177 E24.60492
G1 X55.805 Y102.67 E24.63567
G1 X55.54 Y103.228 E24.66649
G1 X55.39 Y103.827 E24.69729
G1 X55.362 Y104.445 E24.72816
G1 X55.458 Y105.056 E24.75902
G1 X55.672 Y105.635 E24.78981
G1 X55.996 Y106.162 E24.82068
G1 X56.42 Y106.611 E24.85149
G1 X56.921 Y106.97 E24.88224
G1 X57.487 Y107.221 E24.91312
G1 X58.089 Y107.356 E24.9439
G1 X58.707 Y107.367 E24.97474
G1 X59.314 Y107.258 E25.00551
G1 X59.89 Y107.029 E25.03643
G1 X60.406 Y106.691 E25.06721
G1 X60.847 Y106.257 E25.09808
G1 X61.192 Y105.745 E25.12888
G1 X61.429 Y105.175 E25.15968
G1 X61.552 Y104.554 E25.19126
G0 F3600 X61.651 Y104.56
G0 X61.651 Y134.01
G0 X61.552 Y134.004
G1 F1500 X61.502 Y133.11 E25.23593
G1 X61.314 Y132.506 E25.26749
G1 X61.015 Y131.965 E25.29833
G1 X60.616 Y131.492 E25.3292
G1 X60.129 Y131.111 E25.36005
G1 X59.579 Y130.832 E25.39082
G1 X58.984 Y130.667 E25.42162
G1 X58.368 Y130.624 E25.45243
G1 X57.755 Y130.703 E25.48327
G1 X57.17 Y130.903 E25.51411
G1 X56.637 Y131.215 E25.54492
G1 X56.175 Y131.627 E25.57581
G1 X55.805 Y132.12 E25.60656
G1 X55.54 Y132.678 E25.63738
G1 X55.39 Y133.277 E25.66819
G1 X55.362 Y133.895 E25.69905
G1 X55.458 Y134.506 E25.72991
G1 X55.672 Y135.085 E25.7607
G1 X55.996 Y135.612 E25.79157
G1 X56.42 Y136.061 E25.82238
G1 X56.921 Y136.42 E25.85313
G1 X57.487 Y136.671 E25.88402
G1 X58.089 Y136.806 E25.9148
G1 X58.707 Y136.817 E25.94563
G1 X59.314 Y136.708 E25.9764
G1 X59.89 Y136.479 E26.00732
G1 X60.406 Y136.141 E26.0381
G1 X60.847 Y135.707 E26.06897
G1 X61.192 Y135.195 E26.09977
G1 X61.429 Y134.625 E26.13057
G1 X61.552 Y134.004 E26.16215
G0 F3600 X61.651 Y134.01
G0 X72.79 Y140.555
G0 X72.86 Y140.625
G1 F1500 X44.06 Y140.625 E27.59899
G1 X44.06 Y97.375 E29.75674
G1 X72.86 Y97.375 E31.19358
G1 X72.86 Y140.625 E33.35133
G0 F3600 X73.26 Y141.025
;TYPE:WALL-OUTER
G1 F1500 X43.66 Y141.025 E34.82808
G1 X43.66 Y96.975 E37.02574
G1 X73.26 Y96.975 E38.50249
G1 X73.26 Y141.025 E40.70016
G0 F3600 X73.06 Y141.025
G0 X72.79 Y140.555
G0 X61.64 Y134.073
G0 X61.15 Y133.976
G1 F1500 X61.105 Y133.182 E40.73983
G1 X60.944 Y132.664 E40.7669
G1 X60.684 Y132.193 E40.79374
G1 X60.337 Y131.782 E40.82057
G1 X59.913 Y131.45 E40.84744
G1 X59.434 Y131.207 E40.87423
G1 X58.916 Y131.063 E40.90106
G1 X58.38 Y131.026 E40.92786
G1 X57.846 Y131.095 E40.95473
G1 X57.337 Y131.269 E40.98156
G1 X56.873 Y131.54 E41.00837
G1 X56.471 Y131.899 E41.03526
G1 X56.149 Y132.328 E41.06202
G1 X55.918 Y132.814 E41.08887
G1 X55.788 Y133.335 E41.11566
G1 X55.763 Y133.873 E41.14253
G1 X55.847 Y134.405 E41.1694
G1 X56.033 Y134.909 E41.1962
G1 X56.315 Y135.367 E41.22303
G1 X56.684 Y135.758 E41.24986
G1 X57.121 Y136.071 E41.27667
G1 X57.613 Y136.289 E41.30352
G1 X58.137 Y136.407 E41.33032
G1 X58.675 Y136.416 E41.35716
G1 X59.204 Y136.321 E41.38398
G1 X59.705 Y136.122 E41.41087
G1 X60.154 Y135.828 E41.43765
G1 X60.538 Y135.45 E41.46453
G1 X60.838 Y135.005 E41.4913
G1 X61.044 Y134.508 E41.51815
G1 X61.15 Y133.976 E41.54521
G0 F3600 X61.139 Y133.777
G0 X61.638 Y133.75
G0 X61.64 Y104.623
G0 X61.15 Y104.526
G1 F1500 X61.105 Y103.732 E41.58488
G1 X60.944 Y103.214 E41.61195
G1 X60.684 Y102.743 E41.63879
G1 X60.337 Y102.332 E41.66562
G1 X59.913 Y102 E41.69249
G1 X59.434 Y101.757 E41.71929
G1 X58.916 Y101.613 E41.74611
G1 X58.38 Y101.576 E41.77292
G1 X57.846 Y101.645 E41.79978
G1 X57.337 Y101.819 E41.82661
G1 X56.873 Y102.09 E41.85342
G1 X56.471 Y102.449 E41.88031
G1 X56.149 Y102.878 E41.90707
G1 X55.918 Y103.364 E41.93392
G1 X55.788 Y103.885 E41.96071
G1 X55.763 Y104.423 E41.98758
G1 X55.847 Y104.955 E42.01445
G1 X56.033 Y105.459 E42.04125
G1 X56.315 Y105.917 E42.06809
G1 X56.684 Y106.308 E42.09491
G1 X57.121 Y106.621 E42.12173
G1 X57.613 Y106.839 E42.14857
G1 X58.137 Y106.957 E42.17537
G1 X58.675 Y106.966 E42.20221
G1 X59.204 Y106.871 E42.22903
G1 X59.705 Y106.672 E42.25592
G1 X60.154 Y106.378 E42.2827
G1 X60.538 Y106 E42.30958
G1 X60.838 Y105.555 E42.33636
G1 X61.044 Y105.058 E42.3632
G1 X61.15 Y104.526 E42.39026
G0 F3600 X61.139 Y104.327
G0 X61.944 Y104.581
;TYPE:SKIN
G1 F1500 X61.888 Y103.59 E42.43978
G1 X61.675 Y102.902 E42.47571
G1 X61.338 Y102.293 E42.51044
G1 X60.889 Y101.759 E42.54524
G1 X60.339 Y101.33 E42.58004
G1 X59.721 Y101.017 E42.61461
G1 X59.05 Y100.831 E42.64934
G1 X58.356 Y100.782 E42.68405
G1 X57.666 Y100.871 E42.71876
G1 X57.006 Y101.096 E42.75355
G1 X56.407 Y101.448 E42.78821
G1 X55.886 Y101.912 E42.82302
G1 X55.47 Y102.467 E42.85762
G1 X55.171 Y103.096 E42.89237
G1 X55.002 Y103.77 E42.92704
G1 X54.97 Y104.467 E42.96185
G1 X55.079 Y105.155 E42.9966
G1 X55.319 Y105.806 E43.03122
G1 X55.684 Y106.4 E43.066
G1 X56.162 Y106.906 E43.10073
G1 X56.726 Y107.311 E43.13537
G1 X57.364 Y107.593 E43.17017
G1 X58.042 Y107.746 E43.20484
G1 X58.738 Y107.757 E43.23957
G1 X59.421 Y107.635 E43.27419
G1 X60.071 Y107.376 E43.30909
G1 X60.652 Y106.996 E43.34373
G1 X61.149 Y106.507 E43.37851
G1 X61.537 Y105.93 E43.4132
G1 X61.804 Y105.288 E43.44789
G1 X61.944 Y104.581 E43.48385
G0 F3600 X72.47 Y97.765
G1 F1500 X72.47 Y140.235 E45.60269
G1 X44.45 Y140.235 E47.00061
G1 X44.45 Y97.765 E49.11945
G1 X72.47 Y97.765 E50.51737
G0 F3600 X59.05 Y130.281
G1 F1500 X58.356 Y130.232 E50.55208
G1 X57.666 Y130.321 E50.58679
G1 X57.006 Y130.546 E50.62158
G1 X56.407 Y130.898 E50.65624
G1 X55.886 Y131.362 E50.69105
G1 X55.47 Y131.917 E50.72565
G1 X55.171 Y132.546 E50.7604
G1 X55.002 Y133.22 E50.79506
G1 X54.97 Y133.917 E50.82987
G1 X55.079 Y134.605 E50.86463
G1 X55.319 Y135.256 E50.89924
G1 X55.684 Y135.85 E50.93403
G1 X56.162 Y136.356 E50.96875
G1 X56.726 Y136.761 E51.00339
G1 X57.364 Y137.043 E51.03819
G1 X58.042 Y137.196 E51.07287
G1 X58.738 Y137.207 E51.1076
G1 X59.421 Y137.085 E51.14221
G1 X60.071 Y136.826 E51.17712
G1 X60.652 Y136.446 E51.21176
G1 X61.149 Y135.957 E51.24654
G1 X61.537 Y135.38 E51.28123
G1 X61.804 Y134.738 E51.31592
G1 X61.944 Y134.031 E51.35188
G1 X61.888 Y133.04 E51.4014
G1 X61.675 Y132.352 E51.43733
G1 X61.338 Y131.743 E51.47205
G1 X60.889 Y131.209 E51.50686
G1 X60.339 Y130.78 E51.54166
G1 X59.721 Y130.467 E51.57622
G1 X59.05 Y130.281 E51.61096
G0 F3600 X57.154 Y130.867
G0 X45.019 Y140.054
G1 F1500 X44.629 Y139.664 E51.63848
G0 F3600 X44.629 Y139.099
G1 F1500 X45.585 Y140.054 E51.70589
G0 F3600 X46.15 Y140.054
G1 F1500 X44.629 Y138.533 E51.81321
G0 F3600 X44.629 Y137.967
G1 F1500 X46.716 Y140.054 E51.96046
G0 F3600 X47.282 Y140.054
G1 F1500 X44.629 Y137.402 E52.14761
G0 F3600 X44.629 Y136.836
G1 F1500 X47.847 Y140.054 E52.37465
G0 F3600 X48.413 Y140.054
G1 F1500 X44.629 Y136.27 E52.64163
G0 F3600 X44.629 Y135.705
G1 F1500 X48.979 Y140.054 E52.94851
G0 F3600 X49.544 Y140.054
G1 F1500 X44.629 Y135.139 E53.29529
G0 F3600 X44.629 Y134.573
G1 F1500 X50.11 Y140.054 E53.68201
G0 F3600 X50.676 Y140.054
G1 F1500 X44.629 Y134.008 E54.10862
G0 F3600 X44.629 Y133.442
G1 F1500 X51.241 Y140.054 E54.57513
G0 F3600 X51.807 Y140.054
G1 F1500 X44.629 Y132.876 E55.08158
G0 F3600 X44.629 Y132.31
G1 F1500 X52.373 Y140.054 E55.62796
G0 F3600 X52.938 Y140.054
G1 F1500 X44.629 Y131.745 E56.21421
G0 F3600 X44.629 Y131.179
G1 F1500 X53.504 Y140.054 E56.84039
G0 F3600 X54.07 Y140.054
G1 F1500 X44.629 Y130.613 E57.5065
G0 F3600 X44.629 Y130.048
G1 F1500 X54.636 Y140.054 E58.21251
G0 F3600 X55.201 Y140.054
G1 F1500 X44.629 Y129.482 E58.95842
G0 F3600 X44.629 Y128.916
G1 F1500 X55.767 Y140.054 E59.74427
G0 F3600 X56.333 Y140.054
G1 F1500 X44.629 Y128.351 E60.57002
G0 F3600 X44.629 Y127.785
G1 F1500 X56.898 Y140.054 E61.43566
G0 F3600 X57.464 Y140.054
G1 F1500 X44.629 Y127.219 E62.34124
G0 F3600 X44.629 Y126.654
G1 F1500 X58.03 Y140.054 E63.28672
G0 F3600 X58.595 Y140.054
G1 F1500 X44.629 Y126.088 E64.27209
G0 F3600 X44.629 Y125.522
G1 F1500 X59.161 Y140.054 E65.2974
G0 F3600 X59.727 Y140.054
G1 F1500 X56.471 Y136.798 E65.52713
G1 X56.401 Y136.728
G0 F3600 X57.494 Y137.256
G1 F1500 X60.292 Y140.054 E65.72455
G0 F3600 X60.858 Y140.054
G1 F1500 X58.182 Y137.378 E65.91335
G0 F3600 X58.754 Y137.385
G1 F1500 X61.424 Y140.054 E66.1017
G0 F3600 X61.989 Y140.054
G1 F1500 X59.235 Y137.3 E66.29601
G0 F3600 X59.677 Y137.176
G1 F1500 X62.555 Y140.054 E66.49907
G0 F3600 X63.121 Y140.054
G1 F1500 X60.081 Y137.014 E66.71356
G0 F3600 X60.435 Y136.802
G1 F1500 X63.686 Y140.054 E66.94297
G0 F3600 X64.252 Y140.054
G1 F1500 X60.775 Y136.577 E67.18829
G0 F3600 X61.06 Y136.296
G1 F1500 X64.818 Y140.054 E67.45344
G0 F3600 X65.384 Y140.054
G1 F1500 X61.333 Y136.003 E67.73926
G0 F3600 X61.56 Y135.665
G1 F1500 X65.949 Y140.054 E68.04892
G0 F3600 X66.515 Y140.054
G1 F1500 X61.762 Y135.302 E68.38424
G0 F3600 X61.929 Y134.902
G1 F1500 X67.081 Y140.054 E68.74774
G0 F3600 X67.646 Y140.054
G1 F1500 X62.042 Y134.45 E69.14313
G0 F3600 X62.12 Y133.962
G1 F1500 X68.212 Y140.054 E69.57295
G0 F3600 X68.778 Y140.054
G1 F1500 X62.086 Y133.362 E70.04511
G0 F3600 X61.963 Y132.673
G1 F1500 X69.343 Y140.054 E70.56585
G0 F3600 X69.909 Y140.054
G1 F1500 X61.448 Y131.593 E71.16281
G1 X61.378 Y131.523
G0 F3600 X60.639 Y130.784
G1 F1500 X44.629 Y114.774 E72.29241
G0 F3600 X44.629 Y114.209
G1 F1500 X70.475 Y140.054 E74.11595
G0 F3600 X71.04 Y140.054
G1 F1500 X44.629 Y113.643 E75.97939
G0 F3600 X44.629 Y113.077
G1 F1500 X71.606 Y140.054 E77.88276
G0 F3600 X72.172 Y140.054
G1 F1500 X44.629 Y112.512 E79.82603
G0 F3600 X44.629 Y111.946
G1 F1500 X72.29 Y139.606 E81.77763
G0 F3600 X72.29 Y139.041
G1 F1500 X44.629 Y111.38 E83.72926
G0 F3600 X44.629 Y110.814
G1 F1500 X72.29 Y138.475 E85.68089
G0 F3600 X72.29 Y137.909
G1 F1500 X44.629 Y110.249 E87.63249
G0 F3600 X44.629 Y109.683
G1 F1500 X72.29 Y137.344 E89.58412
G0 F3600 X72.29 Y136.778
G1 F1500 X44.629 Y109.117 E91.53576
G0 F3600 X44.629 Y108.552
G1 F1500 X72.29 Y136.212 E93.48736
G0 F3600 X72.29 Y135.647
G1 F1500 X44.629 Y107.986 E95.43899
G0 F3600 X44.629 Y107.42
G1 F1500 X72.29 Y135.081 E97.39062
G0 F3600 X72.29 Y134.515
G1 F1500 X44.629 Y106.855 E99.34222
G0 F3600 X44.629 Y106.289
G1 F1500 X72.29 Y133.95 E101.29385
G0 F3600 X72.29 Y133.384
G1 F1500 X44.629 Y105.723 E103.24548
G0 F3600 X44.629 Y105.158
G1 F1500 X72.29 Y132.818 E105.19708
G0 F3600 X72.29 Y132.253
G1 F1500 X44.629 Y104.592 E107.14872
G0 F3600 X44.629 Y104.026
G1 F1500 X72.29 Y131.687 E109.10035
G0 F3600 X72.29 Y131.121
G1 F1500 X44.629 Y103.461 E111.05195
G0 F3600 X44.629 Y102.895
G1 F1500 X72.29 Y130.555 E113.00354
G0 F3600 X72.29 Y129.99
G1 F1500 X44.629 Y102.329 E114.95518
G0 F3600 X44.629 Y101.763
G1 F1500 X72.29 Y129.424 E116.90681
G0 F3600 X72.29 Y128.858
G1 F1500 X44.629 Y101.198 E118.85841
G0 F3600 X44.629 Y100.632
G1 F1500 X72.29 Y128.293 E120.81004
G0 F3600 X72.29 Y127.727
G1 F1500 X44.629 Y100.066 E122.76167
G0 F3600 X44.629 Y99.501
