;FLAVOR:Marlin
;TIME:7992
;Filament used: 9.14635m, 0m
;Layer height: 0.2
;MINX:64.7
;MINY:98.7
;MINZ:0.3
;MAXX:136.3
;MAXY:136.3
;MAXZ:47.3
;Generated with Cura_SteamEngine 4.7.1
T0
M140 S60
M105
M190 S60
M104 S190
M105
M109 S190
M82 ;absolute extrusion mode
M201 X500.00 Y500.00 Z100.00 E5000.00 	;Setup machine max acceleration
M203 X500.00 Y500.00 Z10.00 E50.00 	;Setup machine max feedrate
M204 P500.00 R1000.00 T500.00 		;Setup Print/Retract/Travel acceleration
M205 X8.00 Y8.00 Z0.40 E5.00 		;Setup Jerk
M220 S100 				;Reset Feedrate
M221 S100 				;Reset Flowrate
G28				;Home the Machine
G29 				;Bed Level
G92 E0
M300 P150 S587
G92 E0
G1 F1500 E-6.5
;LAYER_COUNT:236
;LAYER:0
M107
G0 F3600 X67.847 Y99.453 Z0.3
;TYPE:SKIRT
G1 F1500 E0
G1 X68.311 Y99.156 E0.02749
G1 X68.814 Y98.93 E0.055
G1 X69.344 Y98.779 E0.08249
G1 X70.117 Y98.7 E0.12126
G1 X96.883 Y98.7 E1.45662
G1 X97.433 Y98.74 E1.48413
G1 X97.971 Y98.859 E1.51162
G1 X98.486 Y99.055 E1.53911
G1 X98.967 Y99.323 E1.56658
G1 X99.57 Y99.813 E1.60535
G1 X99.687 Y99.93 E1.6136
G1 X100.047 Y100.347 E1.64108
G1 X100.344 Y100.811 E1.66857
G1 X100.5 Y101.158 E1.68755
G1 X100.555 Y101.014 E1.69524
G1 X100.823 Y100.533 E1.72271
G1 X101.313 Y99.93 E1.76148
G1 X101.43 Y99.813 E1.76973
G1 X101.847 Y99.453 E1.79722
G1 X102.311 Y99.156 E1.8247
G1 X102.814 Y98.93 E1.85221
G1 X103.344 Y98.779 E1.87971
G1 X104.117 Y98.7 E1.91847
G1 X130.883 Y98.7 E3.25383
G1 X131.433 Y98.74 E3.28135
G1 X131.971 Y98.859 E3.30884
G1 X132.486 Y99.055 E3.33633
G1 X132.967 Y99.323 E3.3638
G1 X133.57 Y99.813 E3.40256
G1 X133.687 Y99.93 E3.41082
G1 X134.047 Y100.347 E3.4383
G1 X134.344 Y100.811 E3.46579
G1 X134.57 Y101.314 E3.4933
G1 X134.721 Y101.844 E3.52079
G1 X134.8 Y102.617 E3.55956
G1 X134.8 Y115.469 E4.20075
G1 X135.187 Y115.805 E4.22632
G1 X135.547 Y116.222 E4.2538
G1 X135.844 Y116.686 E4.28128
G1 X136.07 Y117.189 E4.3088
G1 X136.221 Y117.719 E4.33629
G1 X136.3 Y118.492 E4.37506
G1 X136.3 Y132.383 E5.06808
G1 X136.26 Y132.933 E5.09559
G1 X136.141 Y133.471 E5.12308
G1 X135.945 Y133.986 E5.15057
G1 X135.677 Y134.467 E5.17804
G1 X135.187 Y135.07 E5.21681
G1 X135.07 Y135.187 E5.22506
G1 X134.653 Y135.547 E5.25255
G1 X134.189 Y135.844 E5.28003
G1 X133.686 Y136.07 E5.30754
G1 X133.156 Y136.221 E5.33504
G1 X132.383 Y136.3 E5.3738
G1 X102.617 Y136.3 E6.85884
G1 X102.067 Y136.26 E6.88635
G1 X101.529 Y136.141 E6.91384
G1 X101.014 Y135.945 E6.94133
G1 X100.533 Y135.677 E6.9688
G1 X100.496 Y135.647 E6.97118
G1 X100.189 Y135.844 E6.98938
G1 X99.686 Y136.07 E7.01689
G1 X99.156 Y136.221 E7.04438
G1 X98.383 Y136.3 E7.08315
G1 X68.617 Y136.3 E8.56818
G1 X68.067 Y136.26 E8.59569
G1 X67.529 Y136.141 E8.62318
G1 X67.014 Y135.945 E8.65067
G1 X66.533 Y135.677 E8.67814
G1 X65.93 Y135.187 E8.71691
G1 X65.813 Y135.07 E8.72516
G1 X65.453 Y134.653 E8.75265
G1 X65.156 Y134.189 E8.78013
G1 X64.93 Y133.686 E8.80764
G1 X64.779 Y133.156 E8.83514
G1 X64.7 Y132.383 E8.8739
G1 X64.7 Y118.492 E9.56693
G1 X64.74 Y117.942 E9.59444
G1 X64.859 Y117.404 E9.62193
G1 X65.055 Y116.889 E9.64942
G1 X65.323 Y116.408 E9.67689
G1 X65.813 Y115.805 E9.71565
G1 X66.2 Y115.455 E9.74169
G1 X66.2 Y102.617 E10.38218
G1 X66.24 Y102.067 E10.40969
G1 X66.359 Y101.529 E10.43718
G1 X66.555 Y101.014 E10.46467
G1 X66.823 Y100.533 E10.49214
G1 X67.313 Y99.93 E10.53091
G1 X67.43 Y99.813 E10.53916
G1 X67.847 Y99.453 E10.56664
G0 F3600 X68.109 Y99.757
G1 F1500 X68.551 Y99.482 E10.59262
G1 X69.031 Y99.278 E10.61864
G1 X69.536 Y99.15 E10.64463
G1 X70.117 Y99.1 E10.67372
G1 X96.883 Y99.1 E12.00908
G1 X97.403 Y99.14 E12.0351
G1 X97.91 Y99.259 E12.06108
G1 X98.393 Y99.454 E12.08707
G1 X98.841 Y99.72 E12.11306
G1 X99.287 Y100.096 E12.14217
G1 X99.404 Y100.213 E12.15042
G1 X99.743 Y100.609 E12.17643
G1 X100.018 Y101.051 E12.2024
G1 X100.222 Y101.531 E12.22842
G1 X100.35 Y102.036 E12.25441
G1 X100.4 Y102.617 E12.2835
G1 X100.4 Y115.645 E12.93347
G1 X100.498 Y115.727 E12.93985
G1 X100.6 Y115.64 E12.94654
G1 X100.6 Y102.617 E13.59626
G1 X100.64 Y102.097 E13.62228
G1 X100.759 Y101.59 E13.64826
G1 X100.954 Y101.107 E13.67425
G1 X101.22 Y100.659 E13.70024
G1 X101.596 Y100.213 E13.72934
G1 X101.713 Y100.096 E13.7376
G1 X102.109 Y99.757 E13.7636
G1 X102.551 Y99.482 E13.78958
G1 X103.031 Y99.278 E13.8156
G1 X103.536 Y99.15 E13.84159
G1 X104.117 Y99.1 E13.87068
G1 X130.883 Y99.1 E15.20604
G1 X131.403 Y99.14 E15.23206
G1 X131.91 Y99.259 E15.25804
G1 X132.393 Y99.454 E15.28403
G1 X132.841 Y99.72 E15.31002
G1 X133.287 Y100.096 E15.33913
G1 X133.404 Y100.213 E15.34738
G1 X133.743 Y100.609 E15.37339
G1 X134.018 Y101.051 E15.39936
G1 X134.222 Y101.531 E15.42538
G1 X134.35 Y102.036 E15.45137
G1 X134.4 Y102.617 E15.48047
G1 X134.4 Y115.645 E16.13043
G1 X134.787 Y115.971 E16.15568
G1 X134.904 Y116.088 E16.16393
G1 X135.243 Y116.484 E16.18994
G1 X135.518 Y116.926 E16.21591
G1 X135.722 Y117.406 E16.24193
G1 X135.85 Y117.911 E16.26792
G1 X135.9 Y118.492 E16.29702
G1 X135.9 Y132.383 E16.99004
G1 X135.86 Y132.903 E17.01606
G1 X135.741 Y133.41 E17.04204
G1 X135.546 Y133.893 E17.06803
G1 X135.28 Y134.341 E17.09402
G1 X134.904 Y134.787 E17.12313
G1 X134.787 Y134.904 E17.13138
G1 X134.391 Y135.243 E17.15739
G1 X133.949 Y135.518 E17.18336
G1 X133.469 Y135.722 E17.20938
G1 X132.964 Y135.85 E17.23537
G1 X132.383 Y135.9 E17.26447
G1 X102.617 Y135.9 E18.7495
G1 X102.097 Y135.86 E18.77552
G1 X101.59 Y135.741 E18.8015
G1 X101.107 Y135.546 E18.82749
G1 X100.659 Y135.28 E18.85348
G1 X100.502 Y135.148 E18.86371
G1 X100.391 Y135.243 E18.871
G1 X99.949 Y135.518 E18.89697
G1 X99.469 Y135.722 E18.92299
G1 X98.964 Y135.85 E18.94898
G1 X98.383 Y135.9 E18.97808
G1 X68.617 Y135.9 E20.46311
G1 X68.097 Y135.86 E20.48913
G1 X67.59 Y135.741 E20.51511
G1 X67.107 Y135.546 E20.5411
G1 X66.659 Y135.28 E20.56709
G1 X66.213 Y134.904 E20.59619
G1 X66.096 Y134.787 E20.60445
G1 X65.757 Y134.391 E20.63046
G1 X65.482 Y133.949 E20.65643
G1 X65.278 Y133.469 E20.68245
G1 X65.15 Y132.964 E20.70844
G1 X65.1 Y132.383 E20.73753
G1 X65.1 Y118.492 E21.43056
G1 X65.14 Y117.972 E21.45658
G1 X65.259 Y117.465 E21.48256
G1 X65.454 Y116.982 E21.50854
G1 X65.72 Y116.534 E21.53454
G1 X66.096 Y116.088 E21.56364
G1 X66.213 Y115.971 E21.5719
G1 X66.6 Y115.64 E21.5973
G1 X66.6 Y102.617 E22.24702
G1 X66.64 Y102.097 E22.27304
G1 X66.759 Y101.59 E22.29902
G1 X66.954 Y101.107 E22.32501
G1 X67.22 Y100.659 E22.351
G1 X67.596 Y100.213 E22.38011
G1 X67.713 Y100.096 E22.38836
G1 X68.109 Y99.757 E22.41437
G0 F3600 X68.369 Y100.062
G1 F1500 X68.789 Y99.81 E22.43881
G1 X69.244 Y99.63 E22.46322
G1 X69.722 Y99.526 E22.48762
G1 X70.117 Y99.5 E22.50737
G1 X96.883 Y99.5 E23.84273
G1 X97.371 Y99.54 E23.86716
G1 X97.846 Y99.659 E23.89159
G1 X98.295 Y99.853 E23.91599
G1 X98.707 Y100.118 E23.94043
G1 X99.121 Y100.496 E23.9684
G1 X99.438 Y100.869 E23.99282
G1 X99.69 Y101.289 E24.01726
G1 X99.87 Y101.744 E24.04167
G1 X99.974 Y102.222 E24.06608
G1 X100 Y102.617 E24.08583
G1 X100 Y115.86 E24.74652
G1 X100.5 Y116.251 E24.77819
G1 X101 Y115.858 E24.80992
G1 X101 Y102.617 E25.47051
G1 X101.04 Y102.129 E25.49494
G1 X101.159 Y101.654 E25.51937
G1 X101.353 Y101.205 E25.54377
G1 X101.618 Y100.793 E25.56821
G1 X101.996 Y100.379 E25.59618
G1 X102.369 Y100.062 E25.6206
G1 X102.789 Y99.81 E25.64504
G1 X103.244 Y99.63 E25.66945
G1 X103.722 Y99.526 E25.69386
G1 X104.117 Y99.5 E25.71361
G1 X130.883 Y99.5 E27.04897
G1 X131.371 Y99.54 E27.0734
G1 X131.846 Y99.659 E27.09783
G1 X132.295 Y99.853 E27.12223
G1 X132.707 Y100.118 E27.14667
G1 X133.121 Y100.496 E27.17464
G1 X133.438 Y100.869 E27.19906
G1 X133.69 Y101.289 E27.2235
G1 X133.87 Y101.744 E27.24791
G1 X133.974 Y102.222 E27.27231
G1 X134 Y102.617 E27.29206
G1 X134 Y115.86 E27.95276
G1 X134.504 Y116.254 E27.98467
G1 X134.938 Y116.744 E28.01733
G1 X135.19 Y117.164 E28.04177
G1 X135.37 Y117.619 E28.06618
G1 X135.474 Y118.097 E28.09058
G1 X135.5 Y118.492 E28.11033
G1 X135.5 Y132.383 E28.80336
G1 X135.46 Y132.871 E28.82779
G1 X135.341 Y133.346 E28.85222
G1 X135.147 Y133.795 E28.87662
G1 X134.882 Y134.207 E28.90106
G1 X134.504 Y134.621 E28.92903
G1 X134.131 Y134.938 E28.95345
G1 X133.711 Y135.19 E28.97788
G1 X133.256 Y135.37 E29.0023
G1 X132.778 Y135.474 E29.0267
G1 X132.383 Y135.5 E29.04645
G1 X102.617 Y135.5 E30.53148
G1 X102.129 Y135.46 E30.55591
G1 X101.654 Y135.341 E30.58034
G1 X101.205 Y135.147 E30.60474
G1 X100.793 Y134.882 E30.62918
G1 X100.5 Y134.624 E30.64866
G1 X100.131 Y134.938 E30.67283
G1 X99.711 Y135.19 E30.69727
G1 X99.256 Y135.37 E30.72168
G1 X98.778 Y135.474 E30.74609
G1 X98.383 Y135.5 E30.76584
G1 X68.617 Y135.5 E32.25087
G1 X68.129 Y135.46 E32.2753
G1 X67.654 Y135.341 E32.29973
G1 X67.205 Y135.147 E32.32413
G1 X66.793 Y134.882 E32.34857
G1 X66.379 Y134.504 E32.37654
G1 X66.062 Y134.131 E32.40096
G1 X65.81 Y133.711 E32.42539
G1 X65.63 Y133.256 E32.44981
G1 X65.526 Y132.778 E32.47421
G1 X65.5 Y132.383 E32.49396
G1 X65.5 Y118.492 E33.18699
G1 X65.54 Y118.004 E33.21141
G1 X65.659 Y117.529 E33.23584
G1 X65.853 Y117.08 E33.26025
G1 X66.118 Y116.668 E33.28469
G1 X66.496 Y116.254 E33.31265
G1 X67 Y115.858 E33.34463
G1 X67 Y102.617 E34.00523
G1 X67.04 Y102.129 E34.02966
G1 X67.159 Y101.654 E34.05409
G1 X67.353 Y101.205 E34.07849
G1 X67.618 Y100.793 E34.10293
G1 X67.996 Y100.379 E34.1309
G1 X68.369 Y100.062 E34.15532
G0 F3600 X68.628 Y100.369
G1 F1500 X69.023 Y100.142 E34.17805
G1 X69.451 Y99.987 E34.20076
G1 X70.117 Y99.9 E34.23427
G1 X96.883 Y99.9 E35.56963
G1 X97.337 Y99.94 E35.59237
G1 X97.777 Y100.058 E35.61509
G1 X98.189 Y100.252 E35.63781
G1 X98.721 Y100.662 E35.67132
G1 X99.131 Y101.128 E35.70229
G1 X99.358 Y101.523 E35.72502
G1 X99.513 Y101.951 E35.74773
G1 X99.6 Y102.617 E35.78124
G1 X99.6 Y116.085 E36.45316
G1 X99.689 Y116.127 E36.45807
G1 X100.221 Y116.537 E36.49158
G1 X100.507 Y116.855 E36.51291
G1 X100.779 Y116.537 E36.53379
G1 X101.128 Y116.244 E36.55653
G1 X101.4 Y116.088 E36.57217
G1 X101.4 Y102.617 E37.24424
G1 X101.44 Y102.163 E37.26698
G1 X101.558 Y101.723 E37.28971
G1 X101.752 Y101.311 E37.31243
G1 X102.162 Y100.779 E37.34593
G1 X102.628 Y100.369 E37.3769
G1 X103.023 Y100.142 E37.39963
G1 X103.451 Y99.987 E37.42234
G1 X104.117 Y99.9 E37.45585
G1 X130.883 Y99.9 E38.79121
G1 X131.337 Y99.94 E38.81395
G1 X131.777 Y100.058 E38.83668
G1 X132.189 Y100.252 E38.85939
G1 X132.721 Y100.662 E38.8929
G1 X133.131 Y101.128 E38.92387
G1 X133.358 Y101.523 E38.9466
G1 X133.513 Y101.951 E38.96931
G1 X133.6 Y102.617 E39.00282
G1 X133.6 Y116.085 E39.67474
G1 X133.689 Y116.127 E39.67965
G1 X134.221 Y116.537 E39.71316
G1 X134.631 Y117.003 E39.74413
G1 X134.858 Y117.398 E39.76685
G1 X135.013 Y117.826 E39.78956
G1 X135.1 Y118.492 E39.82307
G1 X135.1 Y132.383 E40.5161
G1 X135.06 Y132.837 E40.53884
G1 X134.942 Y133.277 E40.56156
G1 X134.748 Y133.689 E40.58428
G1 X134.338 Y134.221 E40.61779
G1 X133.872 Y134.631 E40.64876
G1 X133.477 Y134.858 E40.67149
G1 X133.049 Y135.013 E40.6942
G1 X132.383 Y135.1 E40.72771
G1 X102.617 Y135.1 E42.21274
G1 X102.163 Y135.06 E42.23548
G1 X101.723 Y134.942 E42.2582
G1 X101.311 Y134.748 E42.28092
G1 X100.779 Y134.338 E42.31443
G1 X100.493 Y134.02 E42.33577
G1 X100.221 Y134.338 E42.35665
G1 X99.872 Y134.631 E42.37938
G1 X99.477 Y134.858 E42.40211
G1 X99.049 Y135.013 E42.42482
G1 X98.383 Y135.1 E42.45833
G1 X68.617 Y135.1 E43.94336
G1 X68.163 Y135.06 E43.9661
G1 X67.723 Y134.942 E43.98883
G1 X67.311 Y134.748 E44.01155
G1 X66.779 Y134.338 E44.04506
G1 X66.369 Y133.872 E44.07602
G1 X66.142 Y133.477 E44.09875
G1 X65.987 Y133.049 E44.12146
G1 X65.9 Y132.383 E44.15497
G1 X65.9 Y118.492 E44.84799
G1 X65.94 Y118.038 E44.87073
G1 X66.058 Y117.598 E44.89346
G1 X66.252 Y117.186 E44.91618
G1 X66.662 Y116.654 E44.94969
G1 X67.128 Y116.244 E44.98066
G1 X67.4 Y116.088 E44.9963
G1 X67.4 Y102.617 E45.66837
G1 X67.44 Y102.163 E45.69111
G1 X67.558 Y101.723 E45.71383
G1 X67.752 Y101.311 E45.73655
G1 X68.162 Y100.779 E45.77006
G1 X68.628 Y100.369 E45.80103
G0 F3600 X68.885 Y100.678
G1 F1500 X69.252 Y100.477 E45.82191
G1 X69.652 Y100.35 E45.84284
G1 X70.117 Y100.3 E45.86618
G1 X96.883 Y100.3 E47.20154
G1 X97.3 Y100.34 E47.22244
G1 X97.702 Y100.458 E47.24334
G1 X98.074 Y100.651 E47.26425
G1 X98.556 Y101.061 E47.29582
G1 X98.822 Y101.385 E47.31673
G1 X99.023 Y101.752 E47.33761
G1 X99.15 Y102.152 E47.35855
G1 X99.2 Y102.617 E47.38188
G1 X99.2 Y116.332 E48.06612
G1 X99.574 Y116.526 E48.08714
G1 X100.056 Y116.936 E48.11871
G1 X100.322 Y117.26 E48.13963
G1 X100.502 Y117.588 E48.15829
G1 X100.651 Y117.301 E48.17443
G1 X101.061 Y116.819 E48.206
G1 X101.385 Y116.553 E48.22691
G1 X101.8 Y116.337 E48.25025
G1 X101.8 Y102.617 E48.93474
G1 X101.84 Y102.2 E48.95564
G1 X101.958 Y101.798 E48.97655
G1 X102.151 Y101.426 E48.99745
G1 X102.561 Y100.944 E49.02902
G1 X102.885 Y100.678 E49.04994
G1 X103.252 Y100.477 E49.07081
G1 X103.652 Y100.35 E49.09175
G1 X104.117 Y100.3 E49.11509
G1 X130.883 Y100.3 E50.45045
G1 X131.3 Y100.34 E50.47135
G1 X131.702 Y100.458 E50.49225
G1 X132.074 Y100.651 E50.51316
G1 X132.556 Y101.061 E50.54473
G1 X132.822 Y101.385 E50.56564
G1 X133.023 Y101.752 E50.58652
G1 X133.15 Y102.152 E50.60745
G1 X133.2 Y102.617 E50.63079
G1 X133.2 Y116.332 E51.31503
G1 X133.574 Y116.526 E51.33605
G1 X134.056 Y116.936 E51.36762
G1 X134.322 Y117.26 E51.38854
G1 X134.523 Y117.627 E51.40941
G1 X134.65 Y118.027 E51.43035
G1 X134.7 Y118.492 E51.45368
G1 X134.7 Y132.383 E52.14671
G1 X134.66 Y132.8 E52.16761
G1 X134.542 Y133.202 E52.18851
G1 X134.349 Y133.574 E52.20942
G1 X133.939 Y134.056 E52.24099
G1 X133.615 Y134.322 E52.2619
G1 X133.248 Y134.523 E52.28278
G1 X132.848 Y134.65 E52.30371
G1 X132.383 Y134.7 E52.32705
G1 X102.617 Y134.7 E53.81208
G1 X102.2 Y134.66 E53.83298
G1 X101.798 Y134.542 E53.85388
G1 X101.426 Y134.349 E53.87479
G1 X100.944 Y133.939 E53.90636
G1 X100.678 Y133.615 E53.92727
G1 X100.498 Y133.287 E53.94594
G1 X100.349 Y133.574 E53.96207
G1 X99.939 Y134.056 E53.99364
G1 X99.615 Y134.322 E54.01456
G1 X99.248 Y134.523 E54.03543
G1 X98.848 Y134.65 E54.05637
G1 X98.383 Y134.7 E54.0797
G1 X68.617 Y134.7 E55.56473
G1 X68.2 Y134.66 E55.58563
G1 X67.798 Y134.542 E55.60654
G1 X67.426 Y134.349 E55.62744
G1 X66.944 Y133.939 E55.65901
G1 X66.678 Y133.615 E55.67993
G1 X66.477 Y133.248 E55.7008
G1 X66.35 Y132.848 E55.72174
G1 X66.3 Y132.383 E55.74508
G1 X66.3 Y118.492 E56.4381
G1 X66.34 Y118.075 E56.459
G1 X66.458 Y117.673 E56.4799
G1 X66.651 Y117.301 E56.50081
G1 X67.061 Y116.819 E56.53238
G1 X67.385 Y116.553 E56.55329
G1 X67.8 Y116.337 E56.57664
G1 X67.8 Y102.617 E57.26113
G1 X67.84 Y102.2 E57.28203
G1 X67.958 Y101.798 E57.30293
G1 X68.151 Y101.426 E57.32384
G1 X68.561 Y100.944 E57.35541
G1 X68.885 Y100.678 E57.37632
G0 F3600 X69.139 Y100.989
G1 F1500 X69.477 Y100.818 E57.39522
G1 X69.843 Y100.721 E57.41411
G1 X70.117 Y100.7 E57.42782
G1 X96.883 Y100.7 E58.76318
G1 X97.26 Y100.74 E58.7821
G1 X97.62 Y100.858 E58.801
G1 X97.947 Y101.048 E58.81987
G1 X98.273 Y101.344 E58.84183
G1 X98.511 Y101.639 E58.86074
G1 X98.682 Y101.977 E58.87964
G1 X98.779 Y102.343 E58.89853
G1 X98.8 Y102.617 E58.91224
G1 X98.8 Y116.628 E59.61125
G1 X99.12 Y116.733 E59.62806
G1 X99.447 Y116.923 E59.64692
G1 X99.773 Y117.219 E59.66889
G1 X100.011 Y117.514 E59.6878
G1 X100.182 Y117.852 E59.7067
G1 X100.279 Y118.218 E59.72559
G1 X100.3 Y118.492 E59.7393
G1 X100.3 Y132.383 E60.43233
G1 X100.26 Y132.76 E60.45124
G1 X100.142 Y133.12 E60.47014
G1 X99.952 Y133.447 E60.48901
G1 X99.656 Y133.773 E60.51098
G1 X99.361 Y134.011 E60.52989
G1 X99.023 Y134.182 E60.54879
G1 X98.657 Y134.279 E60.56768
G1 X98.383 Y134.3 E60.58139
G1 X68.617 Y134.3 E62.06642
G1 X68.24 Y134.26 E62.08533
G1 X67.88 Y134.142 E62.10423
