;FLAVOR:Marlin
;TIME:30756
;Filament used: 31.0858m, 0m
;Layer height: 0.2
;MINX:26.839
;MINY:14.967
;MINZ:0.36
;MAXX:202.042
;MAXY:206.318
;MAXZ:44.91
;POSTPROCESSED
;Generated with Cura_SteamEngine 4.7.1
T0
M140 S60
M105
M190 S60
M104 S190
M105
M109 S190
M82 ;absolute extrusion mode
M201 X500.00 Y500.00 Z100.00 E5000.00 	;Setup machine max acceleration
M203 X500.00 Y500.00 Z10.00 E50.00 	;Setup machine max feedrate
M204 P500.00 R1000.00 T500.00 		;Setup Print/Retract/Travel acceleration
M205 X8.00 Y8.00 Z0.40 E5.00 		;Setup Jerk
M220 S100 				;Reset Feedrate
M221 S100 				;Reset Flowrate
G28				;Home the Machine
G29 				;Bed Level
G92 E0
M300 P150 S587
G92 E0
G1 F1500 E-6.5
;LAYER_COUNT:218
;LAYER:-6
M107
G0 F7200 X31.481 Y21.756 Z0.36
;TYPE:SUPPORT-INTERFACE
G1 F1500 E0
G1 F1125 X31.997 Y21.035 E0.10616
G1 X32.105 Y20.894 E0.12743
G1 X32.682 Y20.202 E0.23531
G1 X32.778 Y20.094 E0.25261
G1 X33.261 Y19.583 E0.3368
G1 X33.26 Y19.582 E0.33697
G1 X33.417 Y19.426 E0.36347
G1 X34.113 Y18.78 E0.47717
G1 X34.252 Y18.661 E0.49908
G1 X34.943 Y18.107 E0.60513
G1 X35.082 Y18.003 E0.62592
G1 X35.797 Y17.511 E0.72984
G1 X35.981 Y17.394 E0.75595
G1 X36.737 Y16.951 E0.86086
G1 X36.879 Y16.874 E0.8802
G1 X37.711 Y16.465 E0.99121
G1 X37.824 Y16.415 E1.00601
G1 X38.674 Y16.072 E1.11576
G1 X38.847 Y16.01 E1.13776
G1 X39.685 Y15.741 E1.24314
G1 X39.849 Y15.695 E1.26354
G1 X40.721 Y15.483 E1.37099
G1 X40.883 Y15.45 E1.39079
G1 X41.776 Y15.302 E1.49917
G1 X41.953 Y15.279 E1.52054
G1 X42.847 Y15.196 E1.62805
G1 X42.989 Y15.189 E1.64507
G1 X43.73 Y15.168 E1.73383
G1 X45.291 Y15.169 E1.92074
G1 X46.292 Y15.205 E2.04067
G1 X46.415 Y15.214 E2.05544
G1 X47.332 Y15.316 E2.16591
G1 X47.507 Y15.341 E2.18708
G1 X48.396 Y15.505 E2.29532
G1 X48.519 Y15.533 E2.31043
G1 X49.413 Y15.767 E2.42108
G1 X49.576 Y15.816 E2.44146
G1 X50.418 Y16.102 E2.54793
G1 X50.584 Y16.166 E2.56923
G1 X51.387 Y16.507 E2.67369
G1 X51.576 Y16.595 E2.69866
G1 X52.37 Y17.003 E2.80554
G1 X52.487 Y17.07 E2.82169
G1 X53.266 Y17.544 E2.93087
G1 X53.417 Y17.644 E2.95256
G1 X54.131 Y18.155 E3.05769
G1 X54.279 Y18.268 E3.07998
G1 X54.971 Y18.845 E3.18787
G1 X55.079 Y18.941 E3.20517
G1 X55.59 Y19.424 E3.28936
G1 X55.591 Y19.423 E3.28953
G1 X55.747 Y19.58 E3.31603
G1 X56.393 Y20.276 E3.42973
G1 X56.512 Y20.415 E3.45164
G1 X57.066 Y21.106 E3.55769
G1 X57.17 Y21.245 E3.57847
G1 X57.662 Y21.96 E3.6824
G1 X57.779 Y22.144 E3.7085
G1 X58.219 Y22.893 E3.81252
G1 X58.292 Y23.027 E3.83079
G1 X58.697 Y23.85 E3.94062
G1 X58.758 Y23.987 E3.95857
G1 X59.1 Y24.832 E4.06772
G1 X59.159 Y24.998 E4.08882
G1 X59.43 Y25.84 E4.19473
G1 X59.477 Y26.006 E4.21539
G1 X59.688 Y26.875 E4.32246
G1 X59.722 Y27.038 E4.3424
G1 X59.87 Y27.93 E4.45066
G1 X59.894 Y28.116 E4.47312
G1 X60.023 Y29.525 E4.64253
G1 X60.039 Y29.522 E4.64448
G1 X60.048 Y29.598 E4.65365
G1 X60.211 Y30.261 E4.73539
G1 X60.456 Y30.898 E4.81711
G1 X60.78 Y31.499 E4.89887
G1 X61.176 Y32.055 E4.9806
G1 X61.641 Y32.556 E5.06244
G1 X62.164 Y32.994 E5.14413
G1 X62.738 Y33.363 E5.22583
G1 X63.355 Y33.657 E5.30767
G1 X64.003 Y33.87 E5.38934
G1 X64.674 Y34 E5.47118
G1 X65.35 Y34.043 E5.55228
G1 X165.46 Y34.043 E17.5391
G1 X166.128 Y34.001 E17.61924
G1 X166.799 Y33.872 E17.70106
G1 X167.448 Y33.659 E17.78285
G1 X168.065 Y33.367 E17.86458
G1 X168.64 Y32.999 E17.94632
G1 X169.164 Y32.561 E18.02809
G1 X169.628 Y32.061 E18.10977
G1 X170.027 Y31.505 E18.19171
G1 X170.351 Y30.905 E18.27336
G1 X170.597 Y30.269 E18.35501
G1 X170.762 Y29.603 E18.43716
G1 X170.781 Y29.417 E18.45955
G1 X170.803 Y29.419 E18.4622
G1 X170.851 Y28.758 E18.54155
G1 X170.952 Y27.843 E18.65178
G1 X170.978 Y27.668 E18.67296
G1 X171.14 Y26.788 E18.7801
G1 X171.17 Y26.654 E18.79654
G1 X171.401 Y25.768 E18.90617
G1 X171.453 Y25.597 E18.92757
G1 X171.739 Y24.755 E19.03405
G1 X171.803 Y24.589 E19.05535
G1 X172.144 Y23.786 E19.15981
G1 X172.225 Y23.611 E19.1829
G1 X172.64 Y22.803 E19.29166
G1 X172.707 Y22.686 E19.3078
G1 X173.181 Y21.907 E19.41699
G1 X173.281 Y21.756 E19.43867
G1 X173.797 Y21.035 E19.54484
G1 X173.905 Y20.894 E19.5661
G1 X174.482 Y20.202 E19.67398
G1 X174.578 Y20.094 E19.69129
G1 X175.061 Y19.583 E19.77548
G1 X175.06 Y19.582 E19.77565
G1 X175.217 Y19.426 E19.80215
G1 X175.913 Y18.78 E19.91585
G1 X176.052 Y18.661 E19.93776
G1 X176.743 Y18.107 E20.0438
G1 X176.882 Y18.003 E20.06459
G1 X177.597 Y17.511 E20.16851
G1 X177.781 Y17.394 E20.19462
G1 X178.537 Y16.951 E20.29954
G1 X178.679 Y16.874 E20.31888
G1 X179.511 Y16.465 E20.42989
G1 X179.624 Y16.415 E20.44468
G1 X180.474 Y16.072 E20.55443
G1 X180.647 Y16.01 E20.57644
G1 X181.485 Y15.741 E20.68182
G1 X181.649 Y15.695 E20.70221
G1 X182.521 Y15.483 E20.80967
G1 X182.683 Y15.45 E20.82946
G1 X183.576 Y15.302 E20.93784
G1 X183.753 Y15.279 E20.95922
G1 X184.647 Y15.196 E21.06672
G1 X184.789 Y15.189 E21.08374
G1 X185.53 Y15.168 E21.1725
G1 X186.291 Y15.169 E21.26362
G1 X187.292 Y15.205 E21.38356
G1 X187.415 Y15.214 E21.39832
G1 X188.332 Y15.316 E21.5088
G1 X188.507 Y15.341 E21.52997
G1 X189.396 Y15.505 E21.63821
G1 X189.519 Y15.533 E21.65331
G1 X190.413 Y15.767 E21.76396
G1 X190.576 Y15.816 E21.78434
G1 X191.418 Y16.102 E21.89082
G1 X191.584 Y16.166 E21.91212
G1 X192.387 Y16.507 E22.01658
G1 X192.576 Y16.595 E22.04154
G1 X193.37 Y17.003 E22.14843
G1 X193.487 Y17.07 E22.16457
G1 X194.266 Y17.544 E22.27376
G1 X194.417 Y17.644 E22.29544
G1 X195.131 Y18.155 E22.40057
G1 X195.279 Y18.268 E22.42287
G1 X195.971 Y18.845 E22.53075
G1 X196.079 Y18.941 E22.54805
G1 X196.59 Y19.424 E22.63225
G1 X196.591 Y19.423 E22.63242
G1 X196.747 Y19.58 E22.65892
G1 X197.393 Y20.276 E22.77262
G1 X197.512 Y20.415 E22.79453
G1 X198.066 Y21.106 E22.90057
G1 X198.17 Y21.245 E22.92136
G1 X198.662 Y21.96 E23.02528
G1 X198.779 Y22.144 E23.05139
G1 X199.219 Y22.893 E23.1554
G1 X199.292 Y23.027 E23.17367
G1 X199.697 Y23.85 E23.2835
G1 X199.758 Y23.987 E23.30146
G1 X200.1 Y24.832 E23.41061
G1 X200.159 Y24.998 E23.4317
G1 X200.43 Y25.84 E23.53761
G1 X200.477 Y26.006 E23.55827
G1 X200.688 Y26.875 E23.66535
G1 X200.722 Y27.038 E23.68528
G1 X200.87 Y27.93 E23.79355
G1 X200.894 Y28.116 E23.816
G1 X200.975 Y29 E23.92229
G1 X200.984 Y29.152 E23.94053
G1 X201.005 Y29.891 E24.02905
G1 X201.006 Y29.967 E24.03815
G1 X201.059 Y30.638 E24.11874
G1 X201.229 Y31.403 E24.21257
G1 X201.345 Y31.79 E24.26095
G1 X201.383 Y31.934 E24.27878
G1 X201.582 Y32.821 E24.38763
G1 X201.607 Y32.96 E24.40454
G1 X201.74 Y33.859 E24.51335
G1 X201.758 Y34.021 E24.53287
G1 X201.825 Y34.923 E24.64117
G1 X201.834 Y35.107 E24.66323
G1 X201.842 Y35.608 E24.72322
G1 X201.842 Y39.12 E25.14374
G1 X201.806 Y40.126 E25.26427
G1 X201.796 Y40.261 E25.28048
G1 X201.694 Y41.178 E25.39095
G1 X201.669 Y41.353 E25.41212
G1 X201.507 Y42.231 E25.51902
G1 X201.477 Y42.365 E25.53547
G1 X201.232 Y43.297 E25.65085
G1 X201.079 Y43.952 E25.73139
G1 X201.005 Y44.83 E25.83689
G1 X201.005 Y175.877 E41.528
G1 X201.048 Y176.549 E41.60863
G1 X201.229 Y177.406 E41.7135
G1 X201.349 Y177.802 E41.76305
G1 X201.383 Y177.933 E41.77925
G1 X201.582 Y178.821 E41.88822
G1 X201.607 Y178.96 E41.90513
G1 X201.74 Y179.859 E42.01394
G1 X201.758 Y180.021 E42.03346
G1 X201.825 Y180.923 E42.14176
G1 X201.834 Y181.107 E42.16382
G1 X201.842 Y181.608 E42.22381
G1 X201.842 Y185.12 E42.64433
G1 X201.806 Y186.126 E42.76486
G1 X201.796 Y186.261 E42.78107
G1 X201.694 Y187.178 E42.89154
G1 X201.669 Y187.353 E42.91271
G1 X201.507 Y188.231 E43.01961
G1 X201.477 Y188.365 E43.03605
G1 X201.232 Y189.297 E43.15144
G1 X201.079 Y189.952 E43.23198
G1 X201.005 Y190.83 E43.33748
G1 X201.005 Y191.387 E43.40417
G1 X200.969 Y192.393 E43.52471
G1 X200.959 Y192.528 E43.54091
G1 X200.857 Y193.445 E43.65139
G1 X200.832 Y193.62 E43.67256
G1 X200.67 Y194.498 E43.77946
G1 X200.64 Y194.632 E43.7959
G1 X200.409 Y195.517 E43.90542
G1 X200.357 Y195.689 E43.92693
G1 X200.071 Y196.531 E44.03341
G1 X200.007 Y196.697 E44.05471
G1 X199.666 Y197.5 E44.15917
G1 X199.585 Y197.675 E44.18226
G1 X199.181 Y198.461 E44.28808
G1 X199.103 Y198.6 E44.30716
G1 X198.629 Y199.379 E44.41635
G1 X198.529 Y199.53 E44.43803
G1 X198.018 Y200.244 E44.54316
G1 X197.905 Y200.392 E44.56546
G1 X197.328 Y201.084 E44.67334
G1 X197.232 Y201.192 E44.69064
G1 X196.749 Y201.703 E44.77483
G1 X196.75 Y201.704 E44.775
G1 X196.593 Y201.86 E44.8015
G1 X195.908 Y202.496 E44.91343
G1 X195.76 Y202.623 E44.93678
G1 X195.067 Y203.179 E45.04316
G1 X194.928 Y203.283 E45.06395
G1 X194.213 Y203.775 E45.16787
G1 X194.029 Y203.892 E45.19398
G1 X193.273 Y204.335 E45.29889
G1 X193.131 Y204.412 E45.31823
G1 X192.303 Y204.819 E45.42871
G1 X192.186 Y204.871 E45.44404
G1 X191.331 Y205.216 E45.55443
G1 X191.168 Y205.274 E45.57515
G1 X190.325 Y205.545 E45.68117
G1 X190.161 Y205.591 E45.70157
G1 X189.289 Y205.803 E45.80902
G1 X189.127 Y205.836 E45.82881
G1 X188.234 Y205.984 E45.9372
G1 X188.057 Y206.007 E45.95857
G1 X187.163 Y206.09 E46.06607
G1 X187.021 Y206.097 E46.0831
G1 X186.28 Y206.118 E46.17186
G1 X185.519 Y206.117 E46.26298
G1 X184.518 Y206.081 E46.38291
G1 X184.395 Y206.072 E46.39768
G1 X183.478 Y205.97 E46.50815
G1 X183.303 Y205.945 E46.52932
G1 X182.414 Y205.781 E46.63756
G1 X182.291 Y205.753 E46.65267
G1 X181.397 Y205.519 E46.76332
G1 X181.234 Y205.47 E46.7837
G1 X180.392 Y205.184 E46.89017
G1 X180.226 Y205.12 E46.91147
G1 X179.423 Y204.779 E47.01593
G1 X179.234 Y204.691 E47.0409
G1 X178.44 Y204.283 E47.14778
G1 X178.323 Y204.216 E47.16393
G1 X177.544 Y203.742 E47.27311
G1 X177.393 Y203.642 E47.2948
G1 X176.679 Y203.131 E47.39993
G1 X176.531 Y203.018 E47.42222
G1 X175.839 Y202.441 E47.53011
G1 X175.731 Y202.345 E47.54741
G1 X175.22 Y201.862 E47.6316
G1 X175.219 Y201.863 E47.63177
G1 X175.059 Y201.702 E47.65895
G1 X174.415 Y201.008 E47.77231
G1 X174.298 Y200.871 E47.79388
G1 X173.748 Y200.185 E47.89916
G1 X173.632 Y200.029 E47.92244
G1 X173.148 Y199.326 E48.02463
G1 X173.031 Y199.142 E48.05074
G1 X172.588 Y198.386 E48.15566
G1 X172.511 Y198.244 E48.175
G1 X172.102 Y197.412 E48.28601
G1 X172.052 Y197.299 E48.3008
G1 X171.703 Y196.435 E48.41238
G1 X171.647 Y196.277 E48.43245
G1 X171.375 Y195.429 E48.53908
G1 X171.333 Y195.279 E48.55773
G1 X171.117 Y194.391 E48.66716
G1 X171.088 Y194.248 E48.68463
G1 X170.938 Y193.342 E48.79459
G1 X170.916 Y193.17 E48.81535
G1 X170.787 Y191.761 E48.98476
G1 X170.771 Y191.764 E48.98671
G1 X170.762 Y191.688 E48.99588
G1 X170.599 Y191.025 E49.07762
G1 X170.354 Y190.388 E49.15934
G1 X170.03 Y189.787 E49.2411
G1 X169.634 Y189.231 E49.32283
G1 X169.169 Y188.73 E49.40467
G1 X168.646 Y188.292 E49.48636
G1 X168.072 Y187.923 E49.56806
G1 X167.455 Y187.629 E49.6499
G1 X166.807 Y187.416 E49.73157
G1 X166.136 Y187.286 E49.81341
G1 X165.46 Y187.243 E49.89451
G1 X65.35 Y187.243 E61.88133
G1 X64.682 Y187.285 E61.96147
G1 X64.011 Y187.414 E62.04329
G1 X63.362 Y187.627 E62.12508
G1 X62.745 Y187.919 E62.20681
G1 X62.17 Y188.287 E62.28855
G1 X61.646 Y188.725 E62.37032
G1 X61.182 Y189.225 E62.452
G1 X60.783 Y189.781 E62.53394
G1 X60.459 Y190.381 E62.61559
G1 X60.213 Y191.017 E62.69724
G1 X60.048 Y191.683 E62.77939
G1 X60.029 Y191.869 E62.80178
G1 X60.007 Y191.867 E62.80443
G1 X59.959 Y192.528 E62.88378
G1 X59.857 Y193.445 E62.99426
G1 X59.832 Y193.62 E63.01542
G1 X59.67 Y194.498 E63.12233
G1 X59.64 Y194.632 E63.13877
G1 X59.409 Y195.517 E63.24829
G1 X59.357 Y195.689 E63.2698
G1 X59.071 Y196.531 E63.37628
G1 X59.007 Y196.697 E63.39758
G1 X58.666 Y197.5 E63.50204
G1 X58.585 Y197.675 E63.52513
G1 X58.181 Y198.461 E63.63094
G1 X58.103 Y198.6 E63.65003
G1 X57.629 Y199.379 E63.75921
G1 X57.529 Y199.53 E63.7809
G1 X57.018 Y200.244 E63.88603
G1 X56.905 Y200.392 E63.90833
G1 X56.328 Y201.084 E64.01621
G1 X56.232 Y201.192 E64.03351
G1 X55.749 Y201.703 E64.1177
G1 X55.75 Y201.704 E64.11787
G1 X55.593 Y201.86 E64.14437
G1 X54.908 Y202.496 E64.25629
G1 X54.76 Y202.623 E64.27964
G1 X54.067 Y203.179 E64.38603
G1 X53.928 Y203.283 E64.40681
G1 X53.213 Y203.775 E64.51073
G1 X53.029 Y203.892 E64.53684
G1 X52.273 Y204.335 E64.64176
G1 X52.131 Y204.412 E64.6611
G1 X51.303 Y204.819 E64.77157
G1 X51.186 Y204.871 E64.7869
G1 X50.331 Y205.216 E64.8973
G1 X50.168 Y205.274 E64.91801
G1 X49.325 Y205.545 E65.02404
G1 X49.161 Y205.591 E65.04443
G1 X48.289 Y205.803 E65.15189
G1 X48.127 Y205.836 E65.17168
G1 X47.234 Y205.984 E65.28006
G1 X47.057 Y206.007 E65.30144
G1 X46.163 Y206.09 E65.40894
G1 X46.021 Y206.097 E65.42596
G1 X45.28 Y206.118 E65.51472
G1 X43.719 Y206.117 E65.70163
G1 X42.718 Y206.081 E65.82157
G1 X42.595 Y206.072 E65.83633
G1 X41.678 Y205.97 E65.94681
G1 X41.503 Y205.945 E65.96798
G1 X40.614 Y205.781 E66.07622
G1 X40.491 Y205.753 E66.09132
G1 X39.597 Y205.519 E66.20197
G1 X39.434 Y205.47 E66.22235
G1 X38.592 Y205.184 E66.32883
G1 X38.426 Y205.12 E66.35013
G1 X37.623 Y204.779 E66.45459
G1 X37.434 Y204.691 E66.47955
G1 X36.64 Y204.283 E66.58644
G1 X36.523 Y204.216 E66.60258
G1 X35.744 Y203.742 E66.71177
G1 X35.593 Y203.642 E66.73345
G1 X34.879 Y203.131 E66.83858
G1 X34.731 Y203.018 E66.86088
G1 X34.039 Y202.441 E66.96876
G1 X33.931 Y202.345 E66.98606
G1 X33.42 Y201.862 E67.07026
G1 X33.419 Y201.863 E67.07042
G1 X33.259 Y201.702 E67.0976
G1 X32.615 Y201.008 E67.21097
G1 X32.498 Y200.871 E67.23254
G1 X31.948 Y200.185 E67.33782
G1 X31.832 Y200.029 E67.36109
G1 X31.348 Y199.326 E67.46329
G1 X31.231 Y199.142 E67.4894
G1 X30.788 Y198.386 E67.59431
G1 X30.711 Y198.244 E67.61366
G1 X30.302 Y197.412 E67.72466
G1 X30.252 Y197.299 E67.73946
G1 X29.903 Y196.435 E67.85103
G1 X29.847 Y196.277 E67.8711
G1 X29.575 Y195.429 E67.97774
G1 X29.533 Y195.279 E67.99639
G1 X29.317 Y194.391 E68.10581
G1 X29.288 Y194.248 E68.12328
G1 X29.138 Y193.342 E68.23324
G1 X29.116 Y193.17 E68.254
G1 X29.033 Y192.271 E68.36211
G1 X29.026 Y192.134 E68.37853
G1 X29.005 Y191.401 E68.46633
G1 X29.005 Y190.407 E68.58535
G1 X28.962 Y189.734 E68.6661
G1 X28.78 Y188.876 E68.77112
G1 X28.761 Y188.817 E68.77854
G1 X28.72 Y188.66 E68.79797
G1 X28.522 Y187.773 E68.90679
G1 X28.493 Y187.613 E68.92626
G1 X28.361 Y186.719 E69.03446
G1 X28.344 Y186.559 E69.05373
G1 X28.278 Y185.667 E69.16083
G1 X28.269 Y185.486 E69.18253
G1 X28.261 Y184.985 E69.24252
G1 X28.261 Y181.659 E69.64077
G1 X28.297 Y180.653 E69.7613
G1 X28.307 Y180.518 E69.77751
G1 X28.409 Y179.601 E69.88798
G1 X28.434 Y179.426 E69.90915
G1 X28.596 Y178.548 E70.01605
G1 X28.63 Y178.396 E70.0347
G1 X28.832 Y177.622 E70.13048
G1 X28.96 Y176.963 E70.21086
G1 X29.005 Y176.281 E70.2927
G1 X29.005 Y156.219 E72.69485
G1 X28.963 Y155.551 E72.775
G1 X28.833 Y154.874 E72.85754
G1 X28.501 Y153.953 E72.97476
G1 X28.241 Y153.399 E73.04804
G1 X28.176 Y153.245 E73.06805
G1 X27.852 Y152.398 E73.17664
G1 X27.795 Y152.233 E73.19754
G1 X27.545 Y151.398 E73.3019
G1 X27.498 Y151.225 E73.32337
G1 X27.297 Y150.324 E73.4339
G1 X27.275 Y150.2 E73.44898
G1 X27.14 Y149.286 E73.55961
G1 X27.123 Y149.126 E73.57887
G1 X27.057 Y148.234 E73.68597
G1 X27.048 Y148.053 E73.70767
G1 X27.04 Y147.552 E73.76767
G1 X27.04 Y143.692 E74.22985
G1 X27.076 Y142.686 E74.35038
G1 X27.086 Y142.551 E74.36659
G1 X27.188 Y141.634 E74.47706
G1 X27.213 Y141.459 E74.49823
G1 X27.375 Y140.581 E74.60513
G1 X27.405 Y140.447 E74.62158
G1 X27.636 Y139.562 E74.73109
G1 X27.688 Y139.39 E74.75261
G1 X27.974 Y138.548 E74.85908
G1 X28.038 Y138.382 E74.88039
G1 X28.383 Y137.568 E74.98624
G1 X28.5 Y137.319 E75.01919
G1 X28.746 Y136.696 E75.09939
G1 X28.914 Y136.028 E75.18186
G1 X29.005 Y135.058 E75.29852
G1 X29.005 Y44.406 E86.15287
G1 X28.962 Y43.733 E86.23361
G1 X28.78 Y42.875 E86.33863
G1 X28.761 Y42.816 E86.34606
G1 X28.72 Y42.659 E86.36549
G1 X28.518 Y41.756 E86.47628
G1 X28.496 Y41.632 E86.49136
G1 X28.361 Y40.718 E86.60198
