;FLAVOR:Marlin
;TIME:3930
;Filament used: 4.5851m, 0m
;Layer height: 0.2
;MINX:98.7
;MINY:98.7
;MINZ:0.3
;MAXX:136.3
;MAXY:136.3
;MAXZ:47.3
;POSTPROCESSED
;Generated with Cura_SteamEngine 4.7.1
T0
M140 S60
M105
M190 S60
M104 S190
M105
M109 S190
M82 ;absolute extrusion mode
M201 X500.00 Y500.00 Z100.00 E5000.00 	;Setup machine max acceleration
M203 X500.00 Y500.00 Z10.00 E50.00 	;Setup machine max feedrate
M204 P500.00 R1000.00 T500.00 		;Setup Print/Retract/Travel acceleration
M205 X8.00 Y8.00 Z0.40 E5.00 		;Setup Jerk
M220 S100 				;Reset Feedrate
M221 S100 				;Reset Flowrate
G28				;Home the Machine
G29 				;Bed Level
G92 E0
M300 P150 S587
G92 E0
G1 F1500 E-6.5
;LAYER_COUNT:236
;LAYER:0
M107
G0 F3600 X101.313 Y99.93 Z0.3
;TYPE:SKIRT
G1 F1500 E0
G1 X101.43 Y99.813 E0.00825
G1 X101.847 Y99.453 E0.03574
G1 X102.311 Y99.156 E0.06322
G1 X102.814 Y98.93 E0.09074
G1 X103.344 Y98.779 E0.11823
G1 X104.117 Y98.7 E0.157
G1 X130.883 Y98.7 E1.49236
G1 X131.433 Y98.74 E1.51987
G1 X131.971 Y98.859 E1.54736
G1 X132.486 Y99.055 E1.57485
G1 X132.967 Y99.323 E1.60232
G1 X133.57 Y99.813 E1.64108
G1 X133.687 Y99.93 E1.64934
G1 X134.047 Y100.347 E1.67682
G1 X134.344 Y100.811 E1.70431
G1 X134.57 Y101.314 E1.73182
G1 X134.721 Y101.844 E1.75931
G1 X134.8 Y102.617 E1.79808
G1 X134.8 Y115.469 E2.43927
G1 X135.187 Y115.805 E2.46484
G1 X135.547 Y116.222 E2.49232
G1 X135.844 Y116.686 E2.51981
G1 X136.07 Y117.189 E2.54732
G1 X136.221 Y117.719 E2.57481
G1 X136.3 Y118.492 E2.61358
G1 X136.3 Y132.383 E3.3066
G1 X136.26 Y132.933 E3.33412
G1 X136.141 Y133.471 E3.36161
G1 X135.945 Y133.986 E3.3891
G1 X135.677 Y134.467 E3.41657
G1 X135.187 Y135.07 E3.45533
G1 X135.07 Y135.187 E3.46359
G1 X134.653 Y135.547 E3.49107
G1 X134.189 Y135.844 E3.51856
G1 X133.686 Y136.07 E3.54607
G1 X133.156 Y136.221 E3.57356
G1 X132.383 Y136.3 E3.61233
G1 X102.617 Y136.3 E5.09736
G1 X102.067 Y136.26 E5.12487
G1 X101.529 Y136.141 E5.15236
G1 X101.014 Y135.945 E5.17985
G1 X100.533 Y135.677 E5.20732
G1 X99.93 Y135.187 E5.24609
G1 X99.813 Y135.07 E5.25434
G1 X99.453 Y134.653 E5.28183
G1 X99.156 Y134.189 E5.30931
G1 X98.93 Y133.686 E5.33682
G1 X98.779 Y133.156 E5.36432
G1 X98.7 Y132.383 E5.40308
G1 X98.7 Y118.492 E6.09611
G1 X98.74 Y117.942 E6.12362
G1 X98.859 Y117.404 E6.15111
G1 X99.055 Y116.889 E6.1786
G1 X99.323 Y116.408 E6.20607
G1 X99.813 Y115.805 E6.24484
G1 X100.2 Y115.455 E6.27087
G1 X100.2 Y102.617 E6.91136
G1 X100.24 Y102.067 E6.93887
G1 X100.359 Y101.529 E6.96636
G1 X100.555 Y101.014 E6.99385
G1 X100.823 Y100.533 E7.02132
G1 X101.313 Y99.93 E7.06009
G0 F3600 X101.596 Y100.213
G1 F1500 X101.713 Y100.096 E7.06834
G1 X102.109 Y99.757 E7.09435
G1 X102.551 Y99.482 E7.12032
G1 X103.031 Y99.278 E7.14634
G1 X103.536 Y99.15 E7.17233
G1 X104.117 Y99.1 E7.20143
G1 X130.883 Y99.1 E8.53679
G1 X131.403 Y99.14 E8.56281
G1 X131.91 Y99.259 E8.58879
G1 X132.393 Y99.454 E8.61477
G1 X132.841 Y99.72 E8.64077
G1 X133.287 Y100.096 E8.66987
G1 X133.404 Y100.213 E8.67813
G1 X133.743 Y100.609 E8.70413
G1 X134.018 Y101.051 E8.7301
G1 X134.222 Y101.531 E8.75612
G1 X134.35 Y102.036 E8.78212
G1 X134.4 Y102.617 E8.81121
G1 X134.4 Y115.645 E9.46118
G1 X134.787 Y115.971 E9.48642
G1 X134.904 Y116.088 E9.49468
G1 X135.243 Y116.484 E9.52069
G1 X135.518 Y116.926 E9.54666
G1 X135.722 Y117.406 E9.57268
G1 X135.85 Y117.911 E9.59867
G1 X135.9 Y118.492 E9.62776
G1 X135.9 Y132.383 E10.32079
G1 X135.86 Y132.903 E10.34681
G1 X135.741 Y133.41 E10.37279
G1 X135.546 Y133.893 E10.39877
G1 X135.28 Y134.341 E10.42477
G1 X134.904 Y134.787 E10.45387
G1 X134.787 Y134.904 E10.46213
G1 X134.391 Y135.243 E10.48813
G1 X133.949 Y135.518 E10.5141
G1 X133.469 Y135.722 E10.54013
G1 X132.964 Y135.85 E10.56612
G1 X132.383 Y135.9 E10.59521
G1 X102.617 Y135.9 E12.08024
G1 X102.097 Y135.86 E12.10626
G1 X101.59 Y135.741 E12.13224
G1 X101.107 Y135.546 E12.15823
G1 X100.659 Y135.28 E12.18422
G1 X100.213 Y134.904 E12.21333
G1 X100.096 Y134.787 E12.22158
G1 X99.757 Y134.391 E12.24759
G1 X99.482 Y133.949 E12.27356
G1 X99.278 Y133.469 E12.29958
G1 X99.15 Y132.964 E12.32557
G1 X99.1 Y132.383 E12.35466
G1 X99.1 Y118.492 E13.04769
G1 X99.14 Y117.972 E13.07371
G1 X99.259 Y117.465 E13.09969
G1 X99.454 Y116.982 E13.12568
G1 X99.72 Y116.534 E13.15167
G1 X100.096 Y116.088 E13.18077
G1 X100.213 Y115.971 E13.18903
G1 X100.6 Y115.64 E13.21444
G1 X100.6 Y102.617 E13.86416
G1 X100.64 Y102.097 E13.89018
G1 X100.759 Y101.59 E13.91616
G1 X100.954 Y101.107 E13.94214
G1 X101.22 Y100.659 E13.96814
G1 X101.596 Y100.213 E13.99724
G0 F3600 X101.996 Y100.379
G1 F1500 X102.369 Y100.062 E14.02166
G1 X102.789 Y99.81 E14.0461
G1 X103.244 Y99.63 E14.07051
G1 X103.722 Y99.526 E14.09492
G1 X104.117 Y99.5 E14.11466
G1 X130.883 Y99.5 E15.45003
G1 X131.371 Y99.54 E15.47445
G1 X131.846 Y99.659 E15.49888
G1 X132.295 Y99.853 E15.52329
G1 X132.707 Y100.118 E15.54773
G1 X133.121 Y100.496 E15.57569
G1 X133.438 Y100.869 E15.60012
G1 X133.69 Y101.289 E15.62455
G1 X133.87 Y101.744 E15.64896
G1 X133.974 Y102.222 E15.67337
G1 X134 Y102.617 E15.69312
G1 X134 Y115.86 E16.35382
G1 X134.504 Y116.254 E16.38573
G1 X134.938 Y116.744 E16.41839
G1 X135.19 Y117.164 E16.44282
G1 X135.37 Y117.619 E16.46724
G1 X135.474 Y118.097 E16.49164
G1 X135.5 Y118.492 E16.51139
G1 X135.5 Y132.383 E17.20442
G1 X135.46 Y132.871 E17.22884
G1 X135.341 Y133.346 E17.25327
G1 X135.147 Y133.795 E17.27768
G1 X134.882 Y134.207 E17.30212
G1 X134.504 Y134.621 E17.33008
G1 X134.131 Y134.938 E17.35451
G1 X133.711 Y135.19 E17.37894
G1 X133.256 Y135.37 E17.40335
G1 X132.778 Y135.474 E17.42776
G1 X132.383 Y135.5 E17.44751
G1 X102.617 Y135.5 E18.93254
G1 X102.129 Y135.46 E18.95697
G1 X101.654 Y135.341 E18.9814
G1 X101.205 Y135.147 E19.0058
G1 X100.793 Y134.882 E19.03024
G1 X100.379 Y134.504 E19.05821
G1 X100.062 Y134.131 E19.08263
G1 X99.81 Y133.711 E19.10707
G1 X99.63 Y133.256 E19.13148
G1 X99.526 Y132.778 E19.15588
G1 X99.5 Y132.383 E19.17563
G1 X99.5 Y118.492 E19.86866
G1 X99.54 Y118.004 E19.89309
G1 X99.659 Y117.529 E19.91752
G1 X99.853 Y117.08 E19.94192
G1 X100.118 Y116.668 E19.96636
G1 X100.496 Y116.254 E19.99433
G1 X101 Y115.858 E20.0263
G1 X101 Y102.617 E20.6869
G1 X101.04 Y102.129 E20.71133
G1 X101.159 Y101.654 E20.73576
G1 X101.353 Y101.205 E20.76016
G1 X101.618 Y100.793 E20.7846
G1 X101.996 Y100.379 E20.81257
G0 F3600 X102.162 Y100.779
G1 F1500 X102.628 Y100.369 E20.84354
G1 X103.023 Y100.142 E20.86627
G1 X103.451 Y99.987 E20.88898
G1 X104.117 Y99.9 E20.92248
G1 X130.883 Y99.9 E22.25785
G1 X131.337 Y99.94 E22.28058
G1 X131.777 Y100.058 E22.30331
G1 X132.189 Y100.252 E22.32603
G1 X132.721 Y100.662 E22.35954
G1 X133.131 Y101.128 E22.39051
G1 X133.358 Y101.523 E22.41323
G1 X133.513 Y101.951 E22.43595
G1 X133.6 Y102.617 E22.46945
G1 X133.6 Y116.085 E23.14138
G1 X133.689 Y116.127 E23.14629
G1 X134.221 Y116.537 E23.17979
G1 X134.631 Y117.003 E23.21076
G1 X134.858 Y117.398 E23.23349
G1 X135.013 Y117.826 E23.2562
G1 X135.1 Y118.492 E23.28971
G1 X135.1 Y132.383 E23.98273
G1 X135.06 Y132.837 E24.00547
G1 X134.942 Y133.277 E24.0282
G1 X134.748 Y133.689 E24.05092
G1 X134.338 Y134.221 E24.08443
G1 X133.872 Y134.631 E24.11539
G1 X133.477 Y134.858 E24.13812
G1 X133.049 Y135.013 E24.16083
G1 X132.383 Y135.1 E24.19434
G1 X102.617 Y135.1 E25.67937
G1 X102.163 Y135.06 E25.70211
G1 X101.723 Y134.942 E25.72484
G1 X101.311 Y134.748 E25.74756
G1 X100.779 Y134.338 E25.78107
G1 X100.369 Y133.872 E25.81203
G1 X100.142 Y133.477 E25.83476
G1 X99.987 Y133.049 E25.85747
G1 X99.9 Y132.383 E25.89098
G1 X99.9 Y118.492 E26.58401
G1 X99.94 Y118.038 E26.60675
G1 X100.058 Y117.598 E26.62947
G1 X100.252 Y117.186 E26.65219
G1 X100.662 Y116.654 E26.6857
G1 X101.128 Y116.244 E26.71667
G1 X101.4 Y116.088 E26.73231
G1 X101.4 Y102.617 E27.40438
G1 X101.44 Y102.163 E27.42712
G1 X101.558 Y101.723 E27.44985
G1 X101.752 Y101.311 E27.47257
G1 X102.162 Y100.779 E27.50608
G0 F3600 X102.561 Y100.944
G1 F1500 X102.885 Y100.678 E27.52699
G1 X103.252 Y100.477 E27.54787
G1 X103.652 Y100.35 E27.5688
G1 X104.117 Y100.3 E27.59214
G1 X130.883 Y100.3 E28.9275
G1 X131.3 Y100.34 E28.9484
G1 X131.702 Y100.458 E28.9693
G1 X132.074 Y100.651 E28.99021
G1 X132.556 Y101.061 E29.02178
G1 X132.822 Y101.385 E29.04269
G1 X133.023 Y101.752 E29.06357
G1 X133.15 Y102.152 E29.08451
G1 X133.2 Y102.617 E29.10784
G1 X133.2 Y116.332 E29.79208
G1 X133.574 Y116.526 E29.8131
G1 X134.056 Y116.936 E29.84467
G1 X134.322 Y117.26 E29.86559
G1 X134.523 Y117.627 E29.88646
G1 X134.65 Y118.027 E29.9074
G1 X134.7 Y118.492 E29.93073
G1 X134.7 Y132.383 E30.62376
G1 X134.66 Y132.8 E30.64466
G1 X134.542 Y133.202 E30.66556
G1 X134.349 Y133.574 E30.68647
G1 X133.939 Y134.056 E30.71804
G1 X133.615 Y134.322 E30.73895
G1 X133.248 Y134.523 E30.75983
G1 X132.848 Y134.65 E30.78077
G1 X132.383 Y134.7 E30.8041
G1 X102.617 Y134.7 E32.28913
G1 X102.2 Y134.66 E32.31003
G1 X101.798 Y134.542 E32.33093
G1 X101.426 Y134.349 E32.35184
G1 X100.944 Y133.939 E32.38341
G1 X100.678 Y133.615 E32.40432
G1 X100.477 Y133.248 E32.4252
G1 X100.35 Y132.848 E32.44614
G1 X100.3 Y132.383 E32.46947
G1 X100.3 Y118.492 E33.1625
G1 X100.34 Y118.075 E33.1834
G1 X100.458 Y117.673 E33.2043
G1 X100.651 Y117.301 E33.22521
G1 X101.061 Y116.819 E33.25678
G1 X101.385 Y116.553 E33.27769
G1 X101.8 Y116.337 E33.30103
G1 X101.8 Y102.617 E33.98552
G1 X101.84 Y102.2 E34.00642
G1 X101.958 Y101.798 E34.02733
G1 X102.151 Y101.426 E34.04823
G1 X102.561 Y100.944 E34.0798
G0 F3600 X102.844 Y101.227
G1 F1500 X103.139 Y100.989 E34.09872
G1 X103.477 Y100.818 E34.11761
G1 X103.843 Y100.721 E34.1365
G1 X104.117 Y100.7 E34.15021
G1 X130.883 Y100.7 E35.48557
G1 X131.26 Y100.74 E35.50449
G1 X131.62 Y100.858 E35.52339
G1 X131.947 Y101.048 E35.54226
G1 X132.273 Y101.344 E35.56423
G1 X132.511 Y101.639 E35.58314
G1 X132.682 Y101.977 E35.60203
G1 X132.779 Y102.343 E35.62092
G1 X132.8 Y102.617 E35.63463
G1 X132.8 Y116.628 E36.33365
G1 X133.12 Y116.733 E36.35045
G1 X133.447 Y116.923 E36.36932
G1 X133.773 Y117.219 E36.39128
G1 X134.011 Y117.514 E36.41019
G1 X134.182 Y117.852 E36.42909
G1 X134.279 Y118.218 E36.44798
G1 X134.3 Y118.492 E36.46169
G1 X134.3 Y132.383 E37.15472
G1 X134.26 Y132.76 E37.17363
G1 X134.142 Y133.12 E37.19253
G1 X133.952 Y133.447 E37.2114
G1 X133.656 Y133.773 E37.23337
G1 X133.361 Y134.011 E37.25228
G1 X133.023 Y134.182 E37.27118
G1 X132.657 Y134.279 E37.29007
G1 X132.383 Y134.3 E37.30378
G1 X102.617 Y134.3 E38.78881
G1 X102.24 Y134.26 E38.80772
G1 X101.88 Y134.142 E38.82662
G1 X101.553 Y133.952 E38.84549
G1 X101.227 Y133.656 E38.86746
G1 X100.989 Y133.361 E38.88637
G1 X100.818 Y133.023 E38.90527
G1 X100.721 Y132.657 E38.92416
G1 X100.7 Y132.383 E38.93787
G1 X100.7 Y118.492 E39.63089
G1 X100.74 Y118.115 E39.64981
G1 X100.858 Y117.755 E39.66871
G1 X101.048 Y117.428 E39.68758
G1 X101.344 Y117.102 E39.70955
G1 X101.639 Y116.864 E39.72846
G1 X101.977 Y116.693 E39.74735
G1 X102.2 Y116.634 E39.75886
G1 X102.2 Y102.617 E40.45817
G1 X102.24 Y102.24 E40.47709
G1 X102.358 Y101.88 E40.49599
G1 X102.548 Y101.553 E40.51486
G1 X102.844 Y101.227 E40.53682
G0 F3600 X103.127 Y101.51
G1 F1500 X103.39 Y101.304 E40.55349
G1 X103.694 Y101.165 E40.57017
G1 X104.117 Y101.1 E40.59152
G1 X130.883 Y101.1 E41.92688
G1 X131.215 Y101.14 E41.94356
G1 X131.527 Y101.257 E41.96019
G1 X131.99 Y101.627 E41.98976
G1 X132.196 Y101.89 E42.00642
G1 X132.335 Y102.194 E42.0231
G1 X132.4 Y102.617 E42.04445
G1 X132.4 Y116.977 E42.76087
G1 X132.715 Y117.015 E42.7767
G1 X133.027 Y117.132 E42.79333
G1 X133.49 Y117.502 E42.8229
G1 X133.696 Y117.765 E42.83956
G1 X133.835 Y118.069 E42.85624
G1 X133.9 Y118.492 E42.87759
G1 X133.9 Y132.383 E43.57062
G1 X133.86 Y132.715 E43.5873
G1 X133.743 Y133.027 E43.60392
G1 X133.373 Y133.49 E43.63349
G1 X133.11 Y133.696 E43.65016
G1 X132.806 Y133.835 E43.66684
G1 X132.383 Y133.9 E43.68819
G1 X102.617 Y133.9 E45.17322
G1 X102.285 Y133.86 E45.1899
G1 X101.973 Y133.743 E45.20653
G1 X101.51 Y133.373 E45.2361
G1 X101.304 Y133.11 E45.25276
G1 X101.165 Y132.806 E45.26944
G1 X101.1 Y132.383 E45.29079
G1 X101.1 Y118.492 E45.98382
G1 X101.14 Y118.16 E46.0005
G1 X101.257 Y117.848 E46.01712
G1 X101.627 Y117.385 E46.04669
G1 X101.89 Y117.179 E46.06336
G1 X102.194 Y117.04 E46.08004
G1 X102.6 Y116.978 E46.10053
G1 X102.6 Y102.617 E46.817
G1 X102.64 Y102.285 E46.83368
G1 X102.757 Y101.973 E46.85031
G1 X103.127 Y101.51 E46.87988
G0 F3600 X103.41 Y101.793
G1 F1500 X103.636 Y101.624 E46.89396
G1 X103.9 Y101.524 E46.90804
G1 X104.117 Y101.5 E46.91893
G1 X130.883 Y101.5 E48.25429
G1 X131.162 Y101.54 E48.26836
G1 X131.419 Y101.656 E48.28242
G1 X131.707 Y101.91 E48.30158
G1 X131.876 Y102.136 E48.31566
G1 X131.976 Y102.4 E48.32974
G1 X132 Y102.617 E48.34064
G1 X132 Y117.375 E49.07692
G1 X132.662 Y117.415 E49.11
G1 X132.919 Y117.531 E49.12407
G1 X133.207 Y117.785 E49.14323
G1 X133.376 Y118.011 E49.15731
G1 X133.476 Y118.275 E49.17139
G1 X133.5 Y118.492 E49.18228
G1 X133.5 Y132.383 E49.87531
G1 X133.46 Y132.662 E49.88937
G1 X133.344 Y132.919 E49.90344
G1 X133.09 Y133.207 E49.9226
G1 X132.864 Y133.376 E49.93668
G1 X132.6 Y133.476 E49.95076
G1 X132.383 Y133.5 E49.96165
G1 X102.617 Y133.5 E51.44668
G1 X102.338 Y133.46 E51.46075
G1 X102.081 Y133.344 E51.47481
G1 X101.793 Y133.09 E51.49397
G1 X101.624 Y132.864 E51.50805
G1 X101.524 Y132.6 E51.52213
G1 X101.5 Y132.383 E51.53303
G1 X101.5 Y118.492 E52.22605
G1 X101.54 Y118.213 E52.24011
G1 X101.656 Y117.956 E52.25418
G1 X101.91 Y117.668 E52.27334
G1 X102.136 Y117.499 E52.28742
G1 X102.4 Y117.399 E52.3015
G1 X103 Y117.375 E52.33146
G1 X103 Y102.617 E53.06774
G1 X103.04 Y102.338 E53.0818
G1 X103.156 Y102.081 E53.09587
G1 X103.41 Y101.793 E53.11503
G0 F3600 X103.693 Y102.076
G1 F1500 X103.872 Y101.952 E53.12589
G1 X104.117 Y101.9 E53.13839
G1 X130.883 Y101.9 E54.47375
G1 X131.098 Y101.94 E54.48466
G1 X131.424 Y102.193 E54.50524
G1 X131.548 Y102.372 E54.51611
G1 X131.6 Y102.617 E54.5286
G1 X131.6 Y117.775 E55.28484
G1 X132.383 Y117.775 E55.3239
G1 X132.598 Y117.815 E55.33481
G1 X132.924 Y118.068 E55.3554
G1 X133.048 Y118.247 E55.36627
G1 X133.1 Y118.492 E55.37876
G1 X133.1 Y132.383 E56.07179
G1 X133.06 Y132.598 E56.0827
G1 X132.807 Y132.924 E56.10328
G1 X132.628 Y133.048 E56.11415
G1 X132.383 Y133.1 E56.12664
G1 X102.617 Y133.1 E57.61167
G1 X102.402 Y133.06 E57.62258
G1 X102.076 Y132.807 E57.64317
G1 X101.952 Y132.628 E57.65404
G1 X101.9 Y132.383 E57.66653
G1 X101.9 Y118.492 E58.35956
G1 X101.94 Y118.277 E58.37047
G1 X102.193 Y117.951 E58.39105
G1 X102.372 Y117.827 E58.40192
G1 X102.617 Y117.775 E58.41441
G1 X103.4 Y117.775 E58.45348
G1 X103.4 Y102.617 E59.20971
G1 X103.44 Y102.402 E59.22062
G1 X103.693 Y102.076 E59.24121
G0 F3600 X103.859 Y102.476
G1 F1500 X103.976 Y102.359 E59.24947
G1 X104.117 Y102.3 E59.25709
G1 X130.883 Y102.3 E60.59245
G1 X131.024 Y102.359 E60.60008
G1 X131.141 Y102.476 E60.60833
G1 X131.2 Y102.617 E60.61596
G1 X131.2 Y118.175 E61.39215
G1 X132.383 Y118.175 E61.45117
G1 X132.524 Y118.234 E61.4588
G1 X132.641 Y118.351 E61.46705
G1 X132.7 Y118.492 E61.47468
G1 X132.7 Y132.383 E62.1677
G1 X132.641 Y132.524 E62.17533
G1 X132.524 Y132.641 E62.18358
G1 X132.383 Y132.7 E62.19121
G1 X102.617 Y132.7 E63.67624
G1 X102.476 Y132.641 E63.68386
G1 X102.359 Y132.524 E63.69212
G1 X102.3 Y132.383 E63.69975
G1 X102.3 Y118.492 E64.39277
G1 X102.359 Y118.351 E64.4004
G1 X102.476 Y118.234 E64.40865
G1 X102.617 Y118.175 E64.41628
G1 X103.8 Y118.175 E64.4753
G1 X103.8 Y102.617 E65.25149
G1 X103.859 Y102.476 E65.25911
G1 F1500 E58.75911
G0 F3600 X103.335 Y102.476
G0 X108.194 Y108.194
;TYPE:SUPPORT
G1 F1500 E65.25911
G1 X126.806 Y108.194 E66.18767
G1 X126.806 Y126.806 E67.11623
G1 X108.194 Y126.806 E68.04478
