;FLAVOR:Marlin
;TIME:2990
;Filament used: 2.97343m, 0m
;Layer height: 0.2
;MINX:89.28
;MINY:18.545
;MINZ:0.3
;MAXX:140.73
;MAXY:187.895
;MAXZ:1.7
;POSTPROCESSED
;Generated with Cura_SteamEngine 4.7.1
T0
M140 S60
M105
M190 S60
M104 S190
M105
M109 S190
M82 ;absolute extrusion mode
M201 X500.00 Y500.00 Z100.00 E5000.00 	;Setup machine max acceleration
M203 X500.00 Y500.00 Z10.00 E50.00 	;Setup machine max feedrate
M204 P500.00 R1000.00 T500.00 		;Setup Print/Retract/Travel acceleration
M205 X8.00 Y8.00 Z0.40 E5.00 		;Setup Jerk
M220 S100 				;Reset Feedrate
M221 S100 				;Reset Flowrate
G28				;Home the Machine
G29 				;Bed Level
G92 E0
M300 P150 S587
G92 E0
G1 F1500 E-6.5
;LAYER_COUNT:8
;LAYER:0
M107
G0 F3600 X89.439 Y21.257 Z0.3
;TYPE:SKIRT
G1 F1500 E0
G1 X89.635 Y20.742 E0.02749
G1 X89.903 Y20.261 E0.05496
G1 X90.237 Y19.823 E0.08244
G1 X90.632 Y19.439 E0.10993
G1 X91.078 Y19.115 E0.13743
G1 X91.566 Y18.86 E0.1649
G1 X92.086 Y18.677 E0.1924
G1 X92.627 Y18.572 E0.2199
G1 X93.08 Y18.545 E0.24254
G1 X136.93 Y18.545 E2.43022
G1 X137.48 Y18.585 E2.45773
G1 X138.018 Y18.704 E2.48522
G1 X138.533 Y18.9 E2.51271
G1 X139.014 Y19.168 E2.54019
G1 X139.452 Y19.502 E2.56767
G1 X139.836 Y19.897 E2.59515
G1 X140.16 Y20.343 E2.62265
G1 X140.415 Y20.831 E2.65012
G1 X140.598 Y21.351 E2.67762
G1 X140.703 Y21.892 E2.70512
G1 X140.73 Y22.345 E2.72776
G1 X140.73 Y184.095 E10.7975
G1 X140.69 Y184.645 E10.82501
G1 X140.571 Y185.183 E10.8525
G1 X140.375 Y185.698 E10.87999
G1 X140.107 Y186.179 E10.90746
G1 X139.773 Y186.617 E10.93494
G1 X139.378 Y187.001 E10.96243
G1 X138.932 Y187.325 E10.98993
G1 X138.444 Y187.58 E11.0174
G1 X137.924 Y187.763 E11.0449
G1 X137.383 Y187.868 E11.0724
G1 X136.93 Y187.895 E11.09504
G1 X93.08 Y187.895 E13.28272
G1 X92.53 Y187.855 E13.31024
G1 X91.992 Y187.736 E13.33772
G1 X91.477 Y187.54 E13.36522
G1 X90.996 Y187.272 E13.39269
G1 X90.558 Y186.938 E13.42017
G1 X90.174 Y186.543 E13.44765
G1 X89.85 Y186.097 E13.47515
G1 X89.595 Y185.609 E13.50262
G1 X89.412 Y185.089 E13.53013
G1 X89.307 Y184.548 E13.55762
G1 X89.28 Y184.095 E13.58026
G1 X89.28 Y22.345 E21.65
G1 X89.32 Y21.795 E21.67751
G1 X89.439 Y21.257 E21.705
G0 F3600 X89.839 Y21.318
G1 F1500 X90.034 Y20.835 E21.73099
G1 X90.3 Y20.387 E21.75698
G1 X90.632 Y19.985 E21.78299
G1 X91.022 Y19.639 E21.80901
G1 X91.46 Y19.356 E21.83502
G1 X91.935 Y19.143 E21.86099
G1 X92.438 Y19.006 E21.887
G1 X93.08 Y18.945 E21.91918
G1 X136.93 Y18.945 E24.10686
G1 X137.45 Y18.985 E24.13288
G1 X137.957 Y19.104 E24.15886
G1 X138.44 Y19.299 E24.18485
G1 X138.888 Y19.565 E24.21084
G1 X139.29 Y19.897 E24.23685
G1 X139.636 Y20.287 E24.26287
G1 X139.919 Y20.725 E24.28888
G1 X140.132 Y21.2 E24.31485
G1 X140.269 Y21.703 E24.34086
G1 X140.33 Y22.345 E24.37304
G1 X140.33 Y184.095 E32.44278
G1 X140.29 Y184.615 E32.4688
G1 X140.171 Y185.122 E32.49478
G1 X139.976 Y185.605 E32.52076
G1 X139.71 Y186.053 E32.54676
G1 X139.378 Y186.455 E32.57277
G1 X138.988 Y186.801 E32.59878
G1 X138.55 Y187.084 E32.6248
G1 X138.075 Y187.297 E32.65077
G1 X137.572 Y187.434 E32.67678
G1 X136.93 Y187.495 E32.70895
G1 X93.08 Y187.495 E34.89664
G1 X92.56 Y187.455 E34.92266
G1 X92.053 Y187.336 E34.94864
G1 X91.57 Y187.141 E34.97462
G1 X91.122 Y186.875 E35.00062
G1 X90.72 Y186.543 E35.02663
G1 X90.374 Y186.153 E35.05264
G1 X90.091 Y185.715 E35.07866
G1 X89.878 Y185.24 E35.10463
G1 X89.741 Y184.737 E35.13064
G1 X89.68 Y184.095 E35.16281
G1 X89.68 Y22.345 E43.23255
G1 X89.72 Y21.825 E43.25857
G1 X89.839 Y21.318 E43.28455
G0 F3600 X90.239 Y21.382
G1 F1500 X90.433 Y20.933 E43.30895
G1 X90.698 Y20.521 E43.33339
G1 X91.026 Y20.158 E43.3578
G1 X91.409 Y19.853 E43.38223
G1 X91.837 Y19.615 E43.40666
G1 X92.297 Y19.449 E43.43106
G1 X93.08 Y19.345 E43.47047
G1 X136.93 Y19.345 E45.65815
G1 X137.418 Y19.385 E45.68258
G1 X137.893 Y19.504 E45.70701
G1 X138.342 Y19.698 E45.73141
G1 X138.754 Y19.963 E45.75585
G1 X139.117 Y20.291 E45.78026
G1 X139.422 Y20.674 E45.80469
G1 X139.66 Y21.102 E45.82912
G1 X139.826 Y21.562 E45.85352
G1 X139.93 Y22.345 E45.89292
G1 X139.93 Y184.095 E53.96266
G1 X139.89 Y184.583 E53.98709
G1 X139.771 Y185.058 E54.01152
G1 X139.577 Y185.507 E54.03592
G1 X139.312 Y185.919 E54.06036
G1 X138.984 Y186.282 E54.08477
G1 X138.601 Y186.587 E54.1092
G1 X138.173 Y186.825 E54.13363
G1 X137.713 Y186.991 E54.15803
G1 X136.93 Y187.095 E54.19744
G1 X93.08 Y187.095 E56.38512
G1 X92.592 Y187.055 E56.40955
G1 X92.117 Y186.936 E56.43398
G1 X91.668 Y186.742 E56.45838
G1 X91.256 Y186.477 E56.48282
G1 X90.893 Y186.149 E56.50723
G1 X90.588 Y185.766 E56.53166
G1 X90.35 Y185.338 E56.55609
G1 X90.184 Y184.878 E56.58049
G1 X90.08 Y184.095 E56.61989
G1 X90.08 Y22.345 E64.68963
G1 X90.12 Y21.857 E64.71406
G1 X90.239 Y21.382 E64.73849
G0 F3600 X90.638 Y21.451
G1 F1500 X90.832 Y21.039 E64.76121
G1 X91.095 Y20.666 E64.78398
G1 X91.418 Y20.345 E64.8067
G1 X91.793 Y20.086 E64.82944
G1 X92.207 Y19.896 E64.85216
G1 X92.648 Y19.781 E64.8749
G1 X93.08 Y19.745 E64.89653
G1 X136.93 Y19.745 E67.08421
G1 X137.384 Y19.785 E67.10695
G1 X137.824 Y19.903 E67.12968
G1 X138.236 Y20.097 E67.1524
G1 X138.609 Y20.36 E67.17517
G1 X138.93 Y20.683 E67.19789
G1 X139.189 Y21.058 E67.22062
G1 X139.379 Y21.472 E67.24335
G1 X139.494 Y21.913 E67.26609
G1 X139.53 Y22.345 E67.28771
G1 X139.53 Y184.095 E75.35745
G1 X139.49 Y184.549 E75.38019
G1 X139.372 Y184.989 E75.40292
G1 X139.178 Y185.401 E75.42564
G1 X138.915 Y185.774 E75.44841
G1 X138.592 Y186.095 E75.47113
G1 X138.217 Y186.354 E75.49387
G1 X137.803 Y186.544 E75.51659
G1 X137.362 Y186.659 E75.53933
G1 X136.93 Y186.695 E75.56096
G1 X93.08 Y186.695 E77.74864
G1 X92.626 Y186.655 E77.77138
G1 X92.186 Y186.537 E77.79411
G1 X91.774 Y186.343 E77.81683
G1 X91.401 Y186.08 E77.8396
G1 X91.08 Y185.757 E77.86231
G1 X90.821 Y185.382 E77.88505
G1 X90.631 Y184.968 E77.90778
G1 X90.516 Y184.527 E77.93052
G1 X90.48 Y184.095 E77.95214
G1 X90.48 Y22.345 E86.02188
G1 X90.52 Y21.891 E86.04462
G1 X90.638 Y21.451 E86.06735
G0 F3600 X91.038 Y21.526
G1 F1500 X91.231 Y21.154 E86.08826
G1 X91.49 Y20.825 E86.10915
G1 X91.807 Y20.551 E86.13005
G1 X92.17 Y20.342 E86.15095
G1 X92.567 Y20.206 E86.17188
G1 X93.08 Y20.145 E86.19766
G1 X136.93 Y20.145 E88.38534
G1 X137.347 Y20.185 E88.40624
G1 X137.749 Y20.303 E88.42715
G1 X138.121 Y20.496 E88.44805
G1 X138.45 Y20.755 E88.46894
G1 X138.724 Y21.072 E88.48985
G1 X138.933 Y21.435 E88.51074
G1 X139.069 Y21.832 E88.53168
G1 X139.13 Y22.345 E88.55746
G1 X139.13 Y184.095 E96.6272
G1 X139.09 Y184.512 E96.6481
G1 X138.972 Y184.914 E96.669
G1 X138.779 Y185.286 E96.68991
G1 X138.52 Y185.615 E96.7108
G1 X138.203 Y185.889 E96.7317
G1 X137.84 Y186.098 E96.7526
G1 X137.443 Y186.234 E96.77353
G1 X136.93 Y186.295 E96.79931
G1 X93.08 Y186.295 E98.98699
G1 X92.663 Y186.255 E99.00789
G1 X92.261 Y186.137 E99.02879
G1 X91.889 Y185.944 E99.0497
G1 X91.56 Y185.685 E99.07059
G1 X91.286 Y185.368 E99.0915
G1 X91.077 Y185.005 E99.11239
G1 X90.941 Y184.608 E99.13333
G1 X90.88 Y184.095 E99.1591
G1 X90.88 Y22.345 E107.22884
G1 X90.92 Y21.928 E107.24974
G1 X91.038 Y21.526 E107.27065
G0 F3600 X91.32 Y21.968
G1 F1500 X91.438 Y21.608 E107.28955
G1 X91.628 Y21.281 E107.30841
G1 X91.883 Y21 E107.32735
G1 X92.192 Y20.78 E107.34627
G1 X92.539 Y20.628 E107.36517
G1 X93.08 Y20.545 E107.39248
G1 X136.93 Y20.545 E109.58016
G1 X137.307 Y20.585 E109.59908
G1 X137.667 Y20.703 E109.61798
G1 X137.994 Y20.893 E109.63684
G1 X138.275 Y21.148 E109.65578
G1 X138.495 Y21.457 E109.6747
G1 X138.647 Y21.804 E109.6936
G1 X138.73 Y22.345 E109.72091
G1 X138.73 Y184.095 E117.79065
G1 X138.69 Y184.472 E117.80956
G1 X138.572 Y184.832 E117.82846
G1 X138.382 Y185.159 E117.84733
G1 X138.127 Y185.44 E117.86626
G1 X137.818 Y185.66 E117.88518
G1 X137.471 Y185.812 E117.90408
G1 X136.93 Y185.895 E117.93139
G1 X93.08 Y185.895 E120.11908
G1 X92.703 Y185.855 E120.13799
G1 X92.343 Y185.737 E120.15689
G1 X92.016 Y185.547 E120.17576
G1 X91.735 Y185.292 E120.19469
G1 X91.515 Y184.983 E120.21361
G1 X91.363 Y184.636 E120.23251
G1 X91.28 Y184.095 E120.25982
G1 X91.28 Y22.345 E128.32956
G1 X91.32 Y21.968 E128.34848
G0 F3600 X91.72 Y22.013
G1 F1500 X91.837 Y21.701 E128.3651
G1 X92.025 Y21.424 E128.3818
G1 X92.273 Y21.201 E128.39844
G1 X92.567 Y21.042 E128.41512
G1 X93.08 Y20.945 E128.44116
G1 X136.93 Y20.945 E130.62885
G1 X137.262 Y20.985 E130.64553
G1 X137.574 Y21.102 E130.66216
G1 X137.851 Y21.29 E130.67886
G1 X138.074 Y21.538 E130.6955
G1 X138.233 Y21.832 E130.71217
G1 X138.33 Y22.345 E130.73822
G1 X138.33 Y184.095 E138.80796
G1 X138.29 Y184.427 E138.82464
G1 X138.173 Y184.739 E138.84127
G1 X137.985 Y185.016 E138.85797
G1 X137.737 Y185.239 E138.87461
G1 X137.443 Y185.398 E138.89128
G1 X136.93 Y185.495 E138.91733
G1 X93.08 Y185.495 E141.10502
G1 X92.748 Y185.455 E141.1217
G1 X92.436 Y185.338 E141.13832
G1 X92.159 Y185.15 E141.15503
G1 X91.936 Y184.902 E141.17167
G1 X91.777 Y184.608 E141.18834
G1 X91.68 Y184.095 E141.21439
G1 X91.68 Y22.345 E149.28413
G1 X91.72 Y22.013 E149.30081
G0 F3600 X92.12 Y22.066
G1 F1500 X92.236 Y21.809 E149.31488
G1 X92.419 Y21.594 E149.32896
G1 X92.655 Y21.44 E149.34302
G1 X93.08 Y21.345 E149.36475
G1 X136.93 Y21.345 E151.55244
G1 X137.209 Y21.385 E151.5665
G1 X137.466 Y21.501 E151.58056
G1 X137.681 Y21.684 E151.59465
G1 X137.835 Y21.92 E151.60871
G1 X137.93 Y22.345 E151.63044
G1 X137.93 Y184.095 E159.70018
G1 X137.89 Y184.374 E159.71424
G1 X137.774 Y184.631 E159.72831
G1 X137.591 Y184.846 E159.74239
G1 X137.355 Y185 E159.75645
G1 X136.93 Y185.095 E159.77818
G1 X93.08 Y185.095 E161.96586
G1 X92.801 Y185.055 E161.97992
G1 X92.544 Y184.939 E161.99399
G1 X92.329 Y184.756 E162.00808
G1 X92.175 Y184.52 E162.02214
G1 X92.08 Y184.095 E162.04386
G1 X92.08 Y22.345 E170.1136
G1 X92.12 Y22.066 E170.12767
G0 F3600 X92.52 Y22.13
G1 F1500 X92.633 Y21.944 E170.13852
G1 X92.806 Y21.811 E170.14941
G1 X93.08 Y21.745 E170.16347
G1 X136.93 Y21.745 E172.35116
G1 X137.145 Y21.785 E172.36207
G1 X137.331 Y21.898 E172.37292
G1 X137.464 Y22.071 E172.38381
G1 X137.53 Y22.345 E172.39787
G1 X137.53 Y184.095 E180.46761
G1 X137.49 Y184.31 E180.47852
G1 X137.377 Y184.496 E180.48938
G1 X137.204 Y184.629 E180.50027
G1 X136.93 Y184.695 E180.51433
G1 X93.08 Y184.695 E182.70201
G1 X92.865 Y184.655 E182.71292
G1 X92.679 Y184.542 E182.72378
G1 X92.546 Y184.369 E182.73467
G1 X92.48 Y184.095 E182.74873
G1 X92.48 Y22.345 E190.81847
G1 X92.52 Y22.13 E190.82938
G0 F3600 X92.88 Y22.345
G1 F1500 X92.919 Y22.226 E190.83563
G1 X93.08 Y22.145 E190.84462
G1 X136.93 Y22.145 E193.03231
G1 X137.049 Y22.184 E193.03855
G1 X137.13 Y22.345 E193.04754
G1 X137.13 Y184.095 E201.11728
G1 X137.091 Y184.214 E201.12353
G1 X136.93 Y184.295 E201.13252
G1 X93.08 Y184.295 E203.32021
G1 X92.961 Y184.256 E203.32646
G1 X92.88 Y184.095 E203.33545
G1 X92.88 Y22.345 E211.40519
G1 F1500 E204.90519
;MESH:Z83Shelf.stl
G0 F3600 X92.415 Y22.345
G0 X95.733 Y43.873
G0 X94.48 Y42.62
G0 X120.708 Y42.592
G0 X136.26 Y183.425
G0 X136.73 Y183.895
;TYPE:WALL-OUTER
G1 F1500 E211.40519
G1 X93.28 Y183.895 E213.57292
G1 X93.28 Y22.545 E221.6227
G1 X136.73 Y22.545 E223.79043
G1 X136.73 Y183.895 E231.84022
G0 F3600 X136.53 Y183.895
G0 X136.29 Y183.455
G0 X136.23 Y183.455
G0 X128.583 Y31.334
G0 X128.989 Y31.043
G1 F1500 X129.213 Y31.353 E231.8593
G1 X129.487 Y31.621 E231.87842
G1 X129.804 Y31.837 E231.89756
G1 X130.154 Y31.994 E231.91669
G1 X130.524 Y32.09 E231.93576
G1 X130.906 Y32.119 E231.95488
G1 X131.288 Y32.081 E231.97403
G1 X131.657 Y31.977 E231.99316
G1 X132.002 Y31.811 E232.01226
G1 X132.314 Y31.587 E232.03142
G1 X132.581 Y31.312 E232.05054
G1 X132.797 Y30.996 E232.06964
G1 X132.954 Y30.646 E232.08878
G1 X133.05 Y30.276 E232.10785
G1 X133.079 Y29.894 E232.12696
G1 X133.041 Y29.512 E232.14611
G1 X132.937 Y29.143 E232.16524
G1 X132.771 Y28.798 E232.18434
G1 X132.547 Y28.486 E232.2035
G1 X132.273 Y28.219 E232.22259
G1 X131.956 Y28.003 E232.24173
G1 X131.606 Y27.846 E232.26086
G1 X131.236 Y27.75 E232.27993
G1 X130.854 Y27.721 E232.29905
G1 X130.472 Y27.759 E232.3182
G1 X130.103 Y27.863 E232.33733
G1 X129.758 Y28.029 E232.35643
G1 X129.446 Y28.253 E232.37559
G1 X129.179 Y28.527 E232.39468
G1 X128.963 Y28.844 E232.41381
G1 X128.806 Y29.194 E232.43295
G1 X128.71 Y29.564 E232.45202
G1 X128.681 Y29.946 E232.47113
G1 X128.719 Y30.328 E232.49029
G1 X128.823 Y30.697 E232.50941
G1 X128.989 Y31.043 E232.52856
G0 F3600 X129.106 Y31.205
G0 X128.909 Y31.615
;TYPE:WALL-INNER
G1 F1500 X129.233 Y31.932 E232.55117
G1 X129.608 Y32.187 E232.5738
G1 X130.021 Y32.373 E232.5964
G1 X130.458 Y32.486 E232.61892
G1 X130.911 Y32.521 E232.64158
G1 X131.363 Y32.476 E232.66424
G1 X131.799 Y32.353 E232.68685
G1 X132.207 Y32.156 E232.70945
G1 X132.576 Y31.891 E232.73211
G1 X132.892 Y31.566 E232.75473
G1 X133.147 Y31.192 E232.77731
G1 X133.333 Y30.779 E232.79991
G1 X133.446 Y30.342 E232.82243
G1 X133.481 Y29.889 E232.8451
G1 X133.436 Y29.437 E232.86776
G1 X133.313 Y29.001 E232.89036
G1 X133.116 Y28.593 E232.91296
G1 X132.851 Y28.224 E232.93563
G1 X132.527 Y27.908 E232.95821
G1 X132.152 Y27.653 E232.98083
G1 X131.739 Y27.467 E233.00343
G1 X131.302 Y27.354 E233.02595
G1 X130.849 Y27.319 E233.04862
G1 X130.397 Y27.364 E233.07128
G1 X129.961 Y27.487 E233.09388
G1 X129.553 Y27.684 E233.11648
G1 X129.184 Y27.949 E233.13915
G1 X128.868 Y28.273 E233.16173
G1 X128.613 Y28.648 E233.18435
G1 X128.427 Y29.061 E233.20695
G1 X128.314 Y29.498 E233.22947
G1 X128.279 Y29.951 E233.25214
G1 X128.324 Y30.403 E233.2748
G1 X128.447 Y30.839 E233.2974
G1 X128.644 Y31.248 E233.32005
G1 X128.909 Y31.615 E233.34263
G0 F3600 X128.605 Y31.877
G1 F1500 X128.979 Y32.243 E233.36874
G1 X129.412 Y32.537 E233.39485
G1 X129.888 Y32.752 E233.42091
G1 X130.392 Y32.882 E233.44688
G1 X130.915 Y32.923 E233.47305
G1 X131.438 Y32.871 E233.49927
G1 X131.941 Y32.728 E233.52536
G1 X132.412 Y32.501 E233.55145
G1 X132.838 Y32.195 E233.57761
G1 X133.203 Y31.82 E233.60372
G1 X133.497 Y31.388 E233.62979
G1 X133.712 Y30.912 E233.65585
G1 X133.842 Y30.408 E233.68182
G1 X133.883 Y29.885 E233.70799
G1 X133.831 Y29.362 E233.73421
G1 X133.688 Y28.859 E233.7603
G1 X133.461 Y28.388 E233.78639
G1 X133.155 Y27.962 E233.81255
G1 X132.781 Y27.597 E233.83863
G1 X132.348 Y27.303 E233.86474
G1 X131.872 Y27.088 E233.8908
G1 X131.368 Y26.958 E233.91676
G1 X130.845 Y26.917 E233.94294
G1 X130.322 Y26.969 E233.96916
G1 X129.819 Y27.112 E233.99525
G1 X129.348 Y27.339 E234.02133
G1 X128.922 Y27.645 E234.0475
G1 X128.557 Y28.019 E234.07357
G1 X128.263 Y28.452 E234.09968
G1 X128.048 Y28.928 E234.12574
G1 X127.918 Y29.432 E234.15171
G1 X127.877 Y29.955 E234.17788
G1 X127.929 Y30.478 E234.2041
G1 X128.071 Y30.981 E234.23018
G1 X128.299 Y31.453 E234.25633
G1 X128.605 Y31.877 E234.28242
G0 F3600 X128.301 Y32.139
G1 F1500 X128.725 Y32.554 E234.31202
G1 X129.216 Y32.887 E234.34161
G1 X129.755 Y33.131 E234.37113
G1 X130.326 Y33.278 E234.40055
G1 X130.919 Y33.325 E234.43023
G1 X131.513 Y33.266 E234.46001
G1 X132.084 Y33.103 E234.48963
G1 X132.617 Y32.846 E234.51915
G1 X133.1 Y32.499 E234.54882
G1 X133.514 Y32.074 E234.57842
G1 X133.847 Y31.584 E234.60798
G1 X134.091 Y31.045 E234.6375
G1 X134.238 Y30.474 E234.66692
G1 X134.285 Y29.881 E234.69659
G1 X134.226 Y29.287 E234.72637
G1 X134.063 Y28.716 E234.756
G1 X133.806 Y28.183 E234.78552
G1 X133.459 Y27.7 E234.81519
G1 X133.035 Y27.286 E234.84476
G1 X132.544 Y26.953 E234.87435
G1 X132.005 Y26.709 E234.90387
G1 X131.434 Y26.562 E234.93329
G1 X130.841 Y26.515 E234.96297
G1 X130.247 Y26.574 E234.99275
G1 X129.676 Y26.737 E235.02237
G1 X129.143 Y26.994 E235.05189
G1 X128.66 Y27.341 E235.08156
G1 X128.246 Y27.765 E235.11113
G1 X127.913 Y28.256 E235.14073
