;FLAVOR:Marlin
;TIME:2563
;Filament used: 1.02174m, 0m
;Layer height: 0.25
;MINX:43.267
;MINY:67.842
;MINZ:0.3
;MAXX:191.732
;MAXY:167.141
;MAXZ:2.05
;POSTPROCESSED
;Generated with Cura_SteamEngine 4.7.1
T0
M140 S60
M105
M190 S60
M104 S200
M105
M109 S200
M82 ;absolute extrusion mode
M201 X500.00 Y500.00 Z100.00 E5000.00 	;Setup machine max acceleration
M203 X500.00 Y500.00 Z10.00 E50.00 	;Setup machine max feedrate
M204 P500.00 R1000.00 T500.00 		;Setup Print/Retract/Travel acceleration
M205 X8.00 Y8.00 Z0.40 E5.00 		;Setup Jerk
M220 S100 				;Reset Feedrate
M221 S100 				;Reset Flowrate
G28				;Home the Machine
G29 				;Bed Level
G92 E0
M300 P150 S587
G92 E0
G1 F1500 E-6.5
;LAYER_COUNT:8
;LAYER:0
M107
G0 F2400 X55.28 Y69.365 Z0.3
;TYPE:SKIRT
G1 F1500 E0
G1 F1350 X55.921 Y68.909 E0.03925
G1 X56.457 Y68.61 E0.06987
G1 X57.068 Y68.335 E0.10329
G1 X57.58 Y68.149 E0.13047
G1 X58.14 Y68.008 E0.15928
G1 X58.51 Y67.945 E0.17801
G1 X59.091 Y67.881 E0.20717
G1 X59.455 Y67.857 E0.22537
G1 X60.345 Y67.842 E0.26978
G1 X174.771 Y67.842 E5.97851
G1 X175.477 Y67.852 E6.01374
G1 X176.116 Y67.891 E6.04568
G1 X176.494 Y67.946 E6.06474
G1 X177.142 Y68.08 E6.09775
G1 X177.712 Y68.246 E6.12737
G1 X178.209 Y68.445 E6.15408
G1 X178.556 Y68.616 E6.17338
G1 X179.139 Y68.95 E6.2069
G1 X179.58 Y69.262 E6.23385
G1 X180.062 Y69.666 E6.26523
G1 X180.408 Y70.003 E6.28932
G1 X180.784 Y70.43 E6.31771
G1 X181.177 Y70.974 E6.35119
G1 X181.462 Y71.458 E6.37921
G1 X181.813 Y72.218 E6.42098
G1 X182.057 Y72.961 E6.45999
G1 X182.169 Y73.471 E6.48604
G1 X182.271 Y74.322 E6.5288
G1 X182.285 Y74.876 E6.55645
G1 X182.226 Y75.585 E6.59195
G1 X182.123 Y76.144 E6.6203
G1 X181.556 Y78.824 E6.75697
G1 X181.063 Y81.546 E6.89498
G1 X180.656 Y84.206 E7.02923
G1 X180.317 Y86.947 E7.16702
G1 X180.057 Y89.679 E7.30394
G1 X179.875 Y92.397 E7.43984
G1 X179.768 Y95.147 E7.57715
G1 X179.741 Y97.891 E7.71405
G1 X179.789 Y100.57 E7.84773
G1 X179.919 Y103.364 E7.98727
G1 X180.123 Y106.085 E8.1234
G1 X180.404 Y108.808 E8.25998
G1 X180.763 Y111.521 E8.39651
G1 X181.193 Y114.198 E8.53178
G1 X181.712 Y116.929 E8.67047
G1 X182.298 Y119.595 E8.80665
G1 X182.964 Y122.257 E8.94355
G1 X183.696 Y124.878 E9.07932
G1 X184.504 Y127.479 E9.2152
G1 X185.397 Y130.092 E9.35296
G1 X186.345 Y132.633 E9.48827
G1 X187.393 Y135.211 E9.62711
G1 X188.477 Y137.677 E9.7615
G1 X189.655 Y140.163 E9.89875
G1 X190.557 Y141.953 E9.99875
G1 X190.857 Y142.534 E10.03137
G1 X191.164 Y143.222 E10.06895
G1 X191.362 Y143.777 E10.09835
G1 X191.471 Y144.155 E10.11798
G1 X191.609 Y144.773 E10.14957
G1 X191.693 Y145.336 E10.17797
G1 X191.732 Y145.891 E10.20573
G1 X191.722 Y146.636 E10.2429
G1 X191.669 Y147.226 E10.27245
G1 X191.562 Y147.841 E10.3036
G1 X191.492 Y148.128 E10.31834
G1 X191.334 Y148.667 E10.34636
G1 X191.198 Y149.043 E10.36631
G1 X190.948 Y149.618 E10.39759
G1 X190.765 Y149.975 E10.4176
G1 X190.466 Y150.479 E10.44684
G1 X190.234 Y150.818 E10.46733
G1 X189.798 Y151.375 E10.50262
G1 X189.416 Y151.791 E10.5308
G1 X188.963 Y152.213 E10.56169
G1 X188.513 Y152.571 E10.59037
G1 X187.92 Y152.973 E10.62612
G1 X187.41 Y153.253 E10.65514
G1 X187.319 Y153.299 E10.66023
G1 X186.391 Y153.751 E10.71173
G1 X159.891 Y166.108 E12.17049
G1 X159.244 Y166.397 E12.20584
G1 X158.697 Y166.623 E12.23537
G1 X158.275 Y166.768 E12.25763
G1 X157.697 Y166.927 E12.28754
G1 X157.301 Y167.01 E12.30773
G1 X156.707 Y167.095 E12.33766
G1 X156.307 Y167.127 E12.35768
G1 X155.708 Y167.137 E12.38757
G1 X155.308 Y167.118 E12.40755
G1 X154.712 Y167.053 E12.43746
G1 X154.317 Y166.985 E12.45746
G1 X153.734 Y166.846 E12.48736
G1 X153.349 Y166.728 E12.50745
G1 X151.63 Y166.081 E12.59908
G1 X149.041 Y165.147 E12.7364
G1 X146.441 Y164.293 E12.87293
G1 X143.829 Y163.515 E13.0089
G1 X141.138 Y162.796 E13.14786
G1 X138.52 Y162.175 E13.2821
G1 X135.845 Y161.619 E13.41841
G1 X133.139 Y161.137 E13.55554
G1 X130.413 Y160.731 E13.69304
G1 X127.728 Y160.408 E13.82796
G1 X124.973 Y160.155 E13.96598
G1 X122.233 Y159.982 E14.10296
G1 X119.512 Y159.887 E14.23879
G1 X116.76 Y159.869 E14.37609
G1 X114.046 Y159.928 E14.51152
G1 X111.291 Y160.066 E14.64914
G1 X108.586 Y160.278 E14.78451
G1 X105.841 Y160.572 E14.92224
G1 X103.147 Y160.937 E15.05788
G1 X100.41 Y161.387 E15.19626
G1 X97.751 Y161.904 E15.3314
G1 X95.062 Y162.504 E15.46885
G1 X92.448 Y163.164 E15.60336
G1 X89.799 Y163.916 E15.74074
G1 X87.152 Y164.748 E15.87917
G1 X84.6 Y165.631 E16.0139
G1 X82.28 Y166.502 E16.13753
G1 X81.475 Y166.784 E16.18008
G1 X81.098 Y166.891 E16.19964
G1 X80.482 Y167.025 E16.23109
G1 X79.921 Y167.106 E16.25937
G1 X79.408 Y167.139 E16.28501
G1 X79.105 Y167.141 E16.30013
G1 X78.543 Y167.118 E16.32819
G1 X78.154 Y167.079 E16.3477
G1 X77.528 Y166.976 E16.37935
G1 X77.133 Y166.884 E16.39958
G1 X76.57 Y166.716 E16.42889
G1 X75.909 Y166.463 E16.4642
G1 X75.811 Y166.421 E16.46952
G1 X75.036 Y166.074 E16.51189
G1 X48.457 Y153.679 E17.97502
G1 X47.94 Y153.43 E18.00365
G1 X47.848 Y153.384 E18.00878
G1 X47.373 Y153.136 E18.03552
G1 X46.87 Y152.842 E18.06458
G1 X46.356 Y152.471 E18.09621
G1 X46.143 Y152.296 E18.10996
G1 X45.683 Y151.884 E18.14077
G1 X45.404 Y151.601 E18.1606
G1 X45.041 Y151.184 E18.18818
G1 X44.593 Y150.574 E18.22594
G1 X44.312 Y150.11 E18.253
G1 X44.018 Y149.541 E18.28495
G1 X43.858 Y149.178 E18.30475
G1 X43.655 Y148.627 E18.33404
G1 X43.537 Y148.228 E18.3548
G1 X43.409 Y147.663 E18.3837
G1 X43.346 Y147.276 E18.40326
G1 X43.282 Y146.639 E18.4352
G1 X43.267 Y146.239 E18.45517
G1 X43.281 Y145.682 E18.48297
G1 X43.336 Y145.092 E18.51253
G1 X43.443 Y144.478 E18.54363
G1 X43.594 Y143.897 E18.57358
G1 X43.786 Y143.346 E18.60269
G1 X44.051 Y142.729 E18.63619
G1 X44.132 Y142.555 E18.64577
G1 X44.7 Y141.425 E18.70886
G1 X44.911 Y141.019 E18.73169
G1 X46.111 Y138.552 E18.86856
G1 X47.221 Y136.09 E19.00329
G1 X48.291 Y133.528 E19.14181
G1 X49.265 Y131.001 E19.27693
G1 X50.188 Y128.383 E19.41542
G1 X51.024 Y125.782 E19.55172
G1 X51.782 Y123.17 E19.68741
G1 X52.474 Y120.505 E19.82478
G1 X53.086 Y117.85 E19.96071
G1 X53.619 Y115.186 E20.09625
G1 X54.085 Y112.463 E20.23408
G1 X54.467 Y109.777 E20.36943
G1 X54.778 Y107.034 E20.50715
G1 X55.01 Y104.295 E20.64429
G1 X55.163 Y101.579 E20.78001
G1 X55.24 Y98.828 E20.91731
G1 X55.24 Y96.11 E21.05291
G1 X55.161 Y93.356 E21.19037
G1 X55.004 Y90.604 E21.32789
G1 X54.774 Y87.9 E21.46328
G1 X54.466 Y85.199 E21.59891
G1 X54.076 Y82.468 E21.73654
G1 X53.613 Y79.768 E21.87321
G1 X53.091 Y77.231 E22.00243
G1 X53.074 Y77.094 E22.00932
G1 X52.827 Y75.929 E22.06873
G1 X52.729 Y75.095 E22.11063
G1 X52.721 Y74.461 E22.14226
G1 X52.774 Y73.829 E22.1739
G1 X52.839 Y73.437 E22.19372
G1 X52.971 Y72.861 E22.22321
G1 X53.164 Y72.27 E22.25422
G1 X53.392 Y71.747 E22.28269
G1 X53.563 Y71.417 E22.30123
G1 X53.836 Y70.958 E22.32787
G1 X54.177 Y70.477 E22.35729
G1 X54.597 Y69.996 E22.38915
G1 X54.864 Y69.731 E22.40792
G1 X55.28 Y69.365 E22.43556
G1 F1500 E15.93556
;MESH:Breather_M_Hook.stl
G0 F2400 X56.915 Y71.291
G0 X57.602 Y72.103
G0 X58.812 Y73.531
;TYPE:WALL-INNER
G1 F1500 E22.43556
G1 F900 X58.549 Y74.219 E22.47231
G1 X58.511 Y74.948 E22.50873
G1 X58.674 Y75.589 E22.54172
G1 X58.999 Y76.153 E22.5742
G1 X59.473 Y76.615 E22.60722
G1 X60.123 Y76.946 E22.64361
G1 X60.85 Y77.06 E22.68033
G1 X61.572 Y76.947 E22.71679
G1 X61.961 Y76.75 E22.73854
G1 X63.995 Y77.274 E22.84333
G1 X64.57 Y77.326 E22.87213
G1 X65.115 Y77.258 E22.89953
G1 X65.633 Y77.078 E22.92689
G1 X66.108 Y76.788 E22.95466
G1 X66.597 Y76.3 E22.98913
G1 X66.908 Y75.779 E23.0194
G1 X67.079 Y75.254 E23.04694
G1 X67.136 Y74.708 E23.07433
G1 X67.079 Y74.164 E23.10162
G1 X66.91 Y73.642 E23.12899
G1 X66.634 Y73.165 E23.15649
G1 X66.229 Y72.727 E23.18625
G1 X65.778 Y72.415 E23.21361
G1 X65.273 Y72.201 E23.24097
G1 X64.736 Y72.1 E23.26823
G1 X64.19 Y72.111 E23.29548
G1 X63.56 Y72.255 E23.32772
G1 X61.963 Y72.666 E23.40999
G1 X61.685 Y72.516 E23.42575
G1 X61.093 Y72.37 E23.45617
G1 X60.416 Y72.4 E23.48998
G1 X59.821 Y72.596 E23.52123
G1 X59.274 Y72.964 E23.55413
G1 X58.812 Y73.531 E23.59061
G0 F2400 X59.892 Y72.743
G0 X64.724 Y72.262
G0 X69.079 Y73.531
G1 F900 X68.816 Y74.219 E23.62736
G1 X68.777 Y74.951 E23.66393
G1 X68.965 Y75.658 E23.70043
G1 X69.337 Y76.245 E23.7351
G1 X69.843 Y76.679 E23.76836
G1 X70.396 Y76.944 E23.79895
G1 X71.002 Y77.052 E23.82966
G1 X71.609 Y77.006 E23.86003
G1 X72.224 Y76.776 E23.89279
G1 X72.254 Y76.757 E23.89456
G1 X74.262 Y77.274 E23.99801
G1 X74.836 Y77.326 E24.02676
G1 X75.382 Y77.258 E24.05421
G1 X75.9 Y77.078 E24.08157
G1 X76.375 Y76.788 E24.10934
G1 X76.864 Y76.3 E24.14381
G1 X77.175 Y75.779 E24.17408
G1 X77.346 Y75.254 E24.20162
G1 X77.403 Y74.708 E24.22901
G1 X77.346 Y74.164 E24.2563
G1 X77.177 Y73.642 E24.28367
G1 X76.901 Y73.165 E24.31117
G1 X76.496 Y72.727 E24.34093
G1 X76.045 Y72.415 E24.36829
G1 X75.54 Y72.201 E24.39565
G1 X75.002 Y72.1 E24.42296
G1 X74.456 Y72.111 E24.45021
G1 X73.826 Y72.255 E24.48245
G1 X72.23 Y72.666 E24.56467
G1 X71.95 Y72.515 E24.58054
G1 X71.355 Y72.371 E24.61109
G1 X70.685 Y72.399 E24.64454
G1 X70.086 Y72.6 E24.67606
G1 X69.542 Y72.963 E24.70869
G1 X69.079 Y73.531 E24.74525
G0 F2400 X70.159 Y72.745
G0 X74.99 Y72.262
G0 X81.412 Y75.255
G1 F900 X81.774 Y75.865 E24.78064
G1 X82.211 Y76.203 E24.8082
G1 X82.695 Y76.378 E24.83388
G1 X83.004 Y76.408 E24.84937
G1 X110.244 Y76.407 E26.20838
G1 X110.728 Y76.319 E26.23292
G1 X111.194 Y76.07 E26.25928
G1 X111.549 Y75.71 E26.2845
G1 X111.791 Y75.236 E26.31105
G1 X111.875 Y74.708 E26.33773
G1 X111.791 Y74.179 E26.36445
G1 X111.546 Y73.701 E26.39125
G1 X111.143 Y73.308 E26.41933
G1 X110.665 Y73.077 E26.44582
G1 X110.212 Y73.008 E26.46868
G1 X82.956 Y73.009 E27.82848
G1 X82.471 Y73.097 E27.85308
G1 X82.005 Y73.347 E27.87946
G1 X81.651 Y73.707 E27.90465
G1 X81.409 Y74.179 E27.93111
G1 X81.325 Y74.708 E27.95783
G1 X81.412 Y75.255 E27.98547
G0 F2400 X82.29 Y76.06
G0 X117.664 Y77.938
G0 X119.005 Y78.207
G1 F900 X118.366 Y77.908 E28.02066
G1 X117.676 Y77.776 E28.05571
G1 X116.974 Y77.82 E28.0908
G1 X116.305 Y78.037 E28.12589
G1 X115.714 Y78.413 E28.16084
G1 X115.252 Y78.899 E28.19429
G1 X114.907 Y79.509 E28.22926
G1 X114.728 Y80.17 E28.26342
G1 X114.7 Y80.554 E28.28263
G1 X114.7 Y123.878 E30.44407
G1 X114.775 Y124.505 E30.47558
G1 X115.024 Y125.161 E30.51058
G1 X115.432 Y125.736 E30.54576
G1 X115.995 Y126.209 E30.58244
G1 X116.634 Y126.51 E30.61768
G1 X117.324 Y126.64 E30.65271
G1 X118.026 Y126.597 E30.6878
G1 X118.695 Y126.379 E30.72291
G1 X119.286 Y126.004 E30.75783
G1 X119.748 Y125.518 E30.79128
G1 X120.093 Y124.908 E30.82624
G1 X120.272 Y124.246 E30.86046
G1 X120.3 Y123.864 E30.87957
G1 X120.3 Y80.539 E33.04106
G1 X120.225 Y79.912 E33.07256
G1 X119.976 Y79.256 E33.10757
G1 X119.568 Y78.681 E33.14274
G1 X119.005 Y78.207 E33.17946
G0 F2400 X123.454 Y75.716
G1 F900 X123.858 Y76.109 E33.20758
G1 X124.336 Y76.339 E33.23405
G1 X124.788 Y76.408 E33.25686
G1 X152.044 Y76.407 E34.61666
G1 X152.528 Y76.319 E34.64121
G1 X152.994 Y76.07 E34.66757
G1 X153.349 Y75.71 E34.69279
G1 X153.591 Y75.236 E34.71934
G1 X153.675 Y74.708 E34.74602
G1 X153.591 Y74.179 E34.77274
G1 X153.346 Y73.701 E34.79954
G1 X152.943 Y73.308 E34.82762
G1 X152.465 Y73.077 E34.85411
G1 X152.012 Y73.008 E34.87697
G1 X124.756 Y73.009 E36.23677
G1 X124.271 Y73.097 E36.26137
G1 X123.805 Y73.347 E36.28775
G1 X123.451 Y73.707 E36.31294
G1 X123.209 Y74.179 E36.3394
G1 X123.125 Y74.708 E36.36612
G1 X123.209 Y75.236 E36.3928
G1 X123.454 Y75.716 E36.41968
G0 F2400 X124.325 Y87.918
G1 F900 X124.256 Y88.646 E36.45617
G1 X124.233 Y89.366 E36.49211
G1 X124.233 Y112.484 E37.64547
G1 X124.278 Y113.967 E37.71949
G1 X124.292 Y114.355 E37.73886
G1 X124.469 Y116.226 E37.83262
G1 X124.701 Y117.701 E37.90711
G1 X124.763 Y118.085 E37.92652
G1 X125.173 Y119.92 E38.02032
G1 X125.698 Y121.725 E38.11411
G1 X126.335 Y123.494 E38.20791
G1 X127.082 Y125.221 E38.30179
G1 X127.936 Y126.895 E38.39554
G1 X128.893 Y128.514 E38.48937
G1 X129.95 Y130.07 E38.58322
G1 X131.103 Y131.556 E38.67705
G1 X131.736 Y132.274 E38.72481
G1 X147.809 Y148.346 E39.85881
G1 X148.433 Y148.933 E39.90155
G1 X149.101 Y149.486 E39.94482
G1 X149.803 Y149.996 E39.98811
G1 X150.534 Y150.459 E40.03127
G1 X151.294 Y150.878 E40.07457
G1 X152.079 Y151.247 E40.11785
G1 X152.885 Y151.566 E40.16109
G1 X153.709 Y151.833 E40.20431
G1 X154.549 Y152.05 E40.24759
G1 X155.401 Y152.212 E40.29086
G1 X156.26 Y152.32 E40.33405
G1 X157.126 Y152.375 E40.37734
G1 X157.993 Y152.375 E40.4206
G1 X158.859 Y152.32 E40.46389
G1 X159.719 Y152.212 E40.50713
G1 X160.571 Y152.05 E40.5504
G1 X161.41 Y151.833 E40.59364
G1 X162.234 Y151.566 E40.63685
G1 X163.036 Y151.249 E40.67987
G1 X163.393 Y151.088 E40.69941
G1 X182.022 Y142.401 E41.7249
G1 X182.506 Y142.211 E41.75084
G1 X183.019 Y142.082 E41.77723
G1 X183.543 Y142.017 E41.80357
G1 X184.062 Y142.019 E41.82947
G1 X184.58 Y142.086 E41.85553
G1 X185.09 Y142.219 E41.88182
G1 X185.571 Y142.412 E41.90768
G1 X186.035 Y142.668 E41.93412
G1 X186.452 Y142.974 E41.95992
G1 X186.795 Y143.295 E41.98336
G1 X187.131 Y143.695 E42.00942
G1 X187.417 Y144.135 E42.0356
G1 X187.64 Y144.601 E42.06138
G1 X187.811 Y145.109 E42.08812
G1 X187.912 Y145.609 E42.11357
G1 X187.948 Y146.135 E42.13987
G1 X187.923 Y146.666 E42.16639
G1 X187.831 Y147.167 E42.1918
G1 X187.673 Y147.669 E42.21806
G1 X187.452 Y148.15 E42.24447
G1 X187.175 Y148.596 E42.27066
G1 X186.856 Y148.988 E42.29588
G1 X186.428 Y149.395 E42.32534
G1 X186.006 Y149.701 E42.35135
G1 X185.536 Y149.956 E42.37803
G1 X157.637 Y162.966 E43.91381
G1 X157.152 Y163.156 E43.9398
G1 X156.64 Y163.285 E43.96614
G1 X156.116 Y163.35 E43.99249
G1 X155.597 Y163.348 E44.01838
G1 X155.079 Y163.281 E44.04444
G1 X154.565 Y163.147 E44.07094
G1 X154.088 Y162.957 E44.09655
G1 X153.627 Y162.7 E44.12289
G1 X153.211 Y162.396 E44.14859
G1 X152.84 Y162.048 E44.17397
G1 X152.663 Y161.875 E44.18632
G1 X124.875 Y134.087 E46.14691
G1 X124.427 Y133.692 E46.17671
G1 X123.888 Y133.273 E46.21077
G1 X123.322 Y132.89 E46.24486
G1 X122.735 Y132.542 E46.27891
G1 X122.127 Y132.232 E46.31296
G1 X121.5 Y131.961 E46.34704
G1 X120.859 Y131.73 E46.38103
G1 X120.203 Y131.539 E46.41512
G1 X119.537 Y131.39 E46.44916
G1 X118.862 Y131.283 E46.48326
G1 X118.183 Y131.22 E46.51728
G1 X117.5 Y131.198 E46.55137
G1 X116.817 Y131.22 E46.58547
G1 X116.138 Y131.283 E46.61949
G1 X115.463 Y131.39 E46.65358
G1 X114.797 Y131.539 E46.68763
G1 X114.141 Y131.73 E46.72172
G1 X113.5 Y131.961 E46.75571
G1 X112.873 Y132.232 E46.78979
G1 X112.265 Y132.542 E46.82384
G1 X111.678 Y132.89 E46.85788
G1 X111.112 Y133.273 E46.89198
G1 X110.573 Y133.692 E46.92604
G1 X110.125 Y134.087 E46.95584
G1 X82.312 Y161.898 E48.91812
G1 X81.949 Y162.256 E48.94356
G1 X81.593 Y162.55 E48.96659
G1 X81.152 Y162.832 E48.99271
G1 X80.669 Y163.061 E49.01938
G1 X80.178 Y163.223 E49.04517
G1 X79.667 Y163.322 E49.07114
G1 X79.14 Y163.356 E49.09749
G1 X78.622 Y163.327 E49.12337
G1 X78.1 Y163.229 E49.14987
G1 X77.61 Y163.071 E49.17555
G1 X77.35 Y162.96 E49.18966
G1 X49.464 Y149.956 E50.72473
G1 X48.99 Y149.698 E50.75165
G1 X48.568 Y149.393 E50.77763
G1 X48.189 Y149.04 E50.80347
G1 X47.887 Y148.68 E50.82691
G1 X47.6 Y148.242 E50.85304
G1 X47.365 Y147.763 E50.87966
G1 X47.201 Y147.283 E50.90496
G1 X47.092 Y146.759 E50.93167
G1 X47.051 Y146.247 E50.95729
G1 X47.075 Y145.713 E50.98396
G1 X47.163 Y145.203 E51.00978
G1 X47.315 Y144.708 E51.03561
G1 X47.531 Y144.229 E51.06183
G1 X47.805 Y143.783 E51.08794
G1 X48.131 Y143.375 E51.114
G1 X48.549 Y142.973 E51.14293
G1 X48.965 Y142.668 E51.16867
G1 X49.429 Y142.412 E51.19511
G1 X49.91 Y142.219 E51.22096
G1 X50.42 Y142.086 E51.24726
G1 X50.938 Y142.019 E51.27332
