;FLAVOR:Marlin
;TIME:3602
;Filament used: 1.44369m, 0m
;Layer height: 0.25
;MINX:30.349
;MINY:59.395
;MINZ:0.3
;MAXX:204.652
;MAXY:175.587
;MAXZ:2.05
;POSTPROCESSED
;Generated with Cura_SteamEngine 4.7.1
T0
M140 S60
M105
M190 S60
M104 S200
M105
M109 S200
M82 ;absolute extrusion mode
M201 X500.00 Y500.00 Z100.00 E5000.00 	;Setup machine max acceleration
M203 X500.00 Y500.00 Z10.00 E50.00 	;Setup machine max feedrate
M204 P500.00 R1000.00 T500.00 		;Setup Print/Retract/Travel acceleration
M205 X8.00 Y8.00 Z0.40 E5.00 		;Setup Jerk
M220 S100 				;Reset Feedrate
M221 S100 				;Reset Flowrate
G28				;Home the Machine
G29 				;Bed Level
G92 E0
M300 P150 S587
G92 E0
G1 F1500 E-6.5
;LAYER_COUNT:8
;LAYER:0
M107
G0 F2400 X44.804 Y60.71 Z0.3
;TYPE:SKIRT
G1 F1500 E0
G1 F1350 X45.455 Y60.319 E0.03789
G1 X45.921 Y60.089 E0.06381
G1 X46.283 Y59.938 E0.08338
G1 X46.836 Y59.745 E0.1126
G1 X47.225 Y59.636 E0.13276
G1 X47.738 Y59.527 E0.15892
G1 X48.137 Y59.468 E0.17904
G1 X48.689 Y59.422 E0.20668
G1 X48.9 Y59.411 E0.21722
G1 X49.83 Y59.395 E0.26363
G1 X185.307 Y59.395 E7.0226
G1 X185.856 Y59.403 E7.04999
G1 X185.955 Y59.406 E7.05493
G1 X186.524 Y59.432 E7.08335
G1 X186.911 Y59.474 E7.10277
G1 X187.497 Y59.573 E7.13242
G1 X187.891 Y59.665 E7.15261
G1 X188.39 Y59.816 E7.17862
G1 X188.764 Y59.955 E7.19852
G1 X189.29 Y60.189 E7.22725
G1 X189.65 Y60.378 E7.24753
G1 X190.116 Y60.661 E7.27473
G1 X190.549 Y60.965 E7.30113
G1 X191.126 Y61.464 E7.33918
G1 X191.515 Y61.863 E7.36699
G1 X191.771 Y62.16 E7.38655
G1 X192.127 Y62.628 E7.41588
G1 X192.353 Y62.967 E7.43621
G1 X192.644 Y63.472 E7.46529
G1 X192.887 Y63.985 E7.49361
G1 X193.123 Y64.632 E7.52797
G1 X193.274 Y65.18 E7.55633
G1 X193.355 Y65.565 E7.57595
G1 X193.435 Y66.11 E7.60344
G1 X193.468 Y66.509 E7.62341
G1 X193.479 Y67.04 E7.64991
G1 X193.462 Y67.443 E7.67003
G1 X193.404 Y67.99 E7.69747
G1 X193.337 Y68.384 E7.71741
G1 X193.169 Y69.095 E7.75386
G1 X192.946 Y69.914 E7.79621
G1 X192.613 Y71.076 E7.85652
G1 X191.927 Y73.756 E7.99453
G1 X191.336 Y76.369 E8.12819
G1 X190.802 Y79.077 E8.26589
G1 X190.349 Y81.785 E8.40287
G1 X189.97 Y84.517 E8.54048
G1 X189.671 Y87.253 E8.67779
G1 X189.454 Y89.916 E8.81109
G1 X189.306 Y92.713 E8.95083
G1 X189.24 Y95.43 E9.08642
G1 X189.251 Y98.183 E9.22377
G1 X189.338 Y100.9 E9.35939
G1 X189.505 Y103.648 E9.49674
G1 X189.746 Y106.36 E9.63257
G1 X190.067 Y109.085 E9.76947
G1 X190.463 Y111.79 E9.90586
G1 X190.938 Y114.503 E10.04327
G1 X191.474 Y117.127 E10.17688
G1 X192.11 Y119.841 E10.31595
G1 X192.815 Y122.507 E10.45353
G1 X193.577 Y125.09 E10.58789
G1 X194.438 Y127.735 E10.72666
G1 X195.345 Y130.27 E10.86099
G1 X196.353 Y132.857 E10.9995
G1 X197.413 Y135.363 E11.13525
G1 X198.552 Y137.86 E11.27218
G1 X199.747 Y140.296 E11.40755
G1 X201.038 Y142.747 E11.54575
G1 X202.377 Y145.124 E11.68186
G1 X202.778 Y145.789 E11.72061
G1 X203.419 Y146.88 E11.78373
G1 X203.515 Y147.056 E11.79374
G1 X203.843 Y147.704 E11.82997
G1 X204 Y148.069 E11.84979
G1 X204.25 Y148.766 E11.88674
G1 X204.363 Y149.155 E11.90695
G1 X204.51 Y149.82 E11.94092
G1 X204.571 Y150.212 E11.96072
G1 X204.64 Y150.948 E11.9976
G1 X204.652 Y151.35 E12.01766
G1 X204.631 Y152 E12.05011
G1 X204.585 Y152.53 E12.07665
G1 X204.461 Y153.229 E12.11207
G1 X204.393 Y153.51 E12.12649
G1 X204.19 Y154.206 E12.16266
G1 X204.052 Y154.588 E12.18292
G1 X203.775 Y155.224 E12.21753
G1 X203.592 Y155.581 E12.23755
G1 X203.224 Y156.2 E12.27347
G1 X202.819 Y156.778 E12.30869
G1 X202.424 Y157.255 E12.33958
G1 X202.055 Y157.643 E12.3663
G1 X201.597 Y158.07 E12.39754
G1 X201.202 Y158.392 E12.42296
G1 X200.761 Y158.705 E12.44994
G1 X200.513 Y158.862 E12.46459
G1 X199.92 Y159.201 E12.49866
G1 X199.735 Y159.299 E12.50911
G1 X198.815 Y159.747 E12.56016
G1 X167.196 Y174.49 E14.30069
G1 X166.646 Y174.737 E14.33077
G1 X166.558 Y174.775 E14.33555
G1 X165.959 Y175.022 E14.36788
G1 X165.422 Y175.211 E14.39628
G1 X164.728 Y175.388 E14.43201
G1 X164.432 Y175.445 E14.44705
G1 X163.778 Y175.538 E14.48001
G1 X163.245 Y175.586 E14.50671
G1 X162.496 Y175.583 E14.54407
G1 X162.205 Y175.564 E14.55862
G1 X161.543 Y175.49 E14.59186
G1 X161.156 Y175.423 E14.61145
G1 X160.464 Y175.258 E14.64694
G1 X160.079 Y175.14 E14.66703
G1 X159.404 Y174.886 E14.70301
G1 X159.118 Y174.767 E14.71847
G1 X158.465 Y174.474 E14.75417
G1 X157.292 Y173.924 E14.81881
G1 X154.802 Y172.843 E14.95424
G1 X152.264 Y171.824 E15.09068
G1 X149.659 Y170.865 E15.22917
G1 X147.064 Y169.992 E15.36577
G1 X144.472 Y169.2 E15.50099
G1 X141.803 Y168.468 E15.63906
G1 X139.147 Y167.818 E15.77548
G1 X136.5 Y167.249 E15.91056
G1 X133.815 Y166.751 E16.0468
G1 X131.055 Y166.32 E16.18616
G1 X128.395 Y165.981 E16.31994
G1 X125.62 Y165.707 E16.45906
G1 X122.91 Y165.517 E16.5946
G1 X120.19 Y165.403 E16.73042
G1 X117.44 Y165.366 E16.86763
G1 X114.685 Y165.407 E17.00509
G1 X111.974 Y165.523 E17.14047
G1 X109.221 Y165.72 E17.27816
G1 X106.519 Y165.99 E17.41364
G1 X103.79 Y166.341 E17.55091
G1 X101.093 Y166.765 E17.68712
G1 X98.402 Y167.267 E17.82369
G1 X95.716 Y167.848 E17.96079
G1 X93.092 Y168.491 E18.09558
G1 X90.402 Y169.234 E18.23481
G1 X87.808 Y170.029 E18.37016
G1 X85.215 Y170.906 E18.50673
G1 X82.645 Y171.856 E18.64343
G1 X80.121 Y172.871 E18.77915
G1 X77.571 Y173.982 E18.91792
G1 X76.854 Y174.314 E18.95734
G1 X75.689 Y174.849 E19.0213
G1 X75.411 Y174.962 E19.03627
G1 X74.722 Y175.203 E19.07268
G1 X74.349 Y175.308 E19.09202
G1 X73.677 Y175.455 E19.12634
G1 X73.169 Y175.535 E19.15199
G1 X72.456 Y175.585 E19.18765
G1 X72.156 Y175.587 E19.20262
G1 X71.443 Y175.558 E19.23822
G1 X71.053 Y175.518 E19.25778
G1 X70.373 Y175.406 E19.29216
G1 X69.651 Y175.231 E19.32923
G1 X69.166 Y175.07 E19.35472
G1 X68.67 Y174.874 E19.38133
G1 X68.577 Y174.834 E19.38638
G1 X67.693 Y174.439 E19.43468
G1 X36.028 Y159.672 E21.1778
G1 X35.539 Y159.437 E21.20487
G1 X35.44 Y159.387 E21.2104
G1 X34.821 Y159.062 E21.24528
G1 X34.457 Y158.843 E21.26647
G1 X33.866 Y158.435 E21.3023
G1 X33.548 Y158.184 E21.32251
G1 X32.996 Y157.689 E21.35951
G1 X32.717 Y157.407 E21.3793
G1 X32.331 Y156.963 E21.40865
G1 X31.791 Y156.223 E21.45435
G1 X31.512 Y155.764 E21.48115
G1 X31.171 Y155.104 E21.51821
G1 X31.008 Y154.733 E21.53843
G1 X30.765 Y154.068 E21.57375
G1 X30.651 Y153.681 E21.59388
G1 X30.5 Y153.018 E21.6278
G1 X30.436 Y152.625 E21.64767
G1 X30.364 Y151.904 E21.68382
G1 X30.349 Y151.506 E21.70369
G1 X30.366 Y150.829 E21.73748
G1 X30.401 Y150.428 E21.75756
G1 X30.512 Y149.698 E21.7944
G1 X30.598 Y149.304 E21.81452
G1 X30.784 Y148.65 E21.84844
G1 X30.918 Y148.27 E21.86854
G1 X31.202 Y147.604 E21.90466
G1 X31.383 Y147.244 E21.92476
G1 X32.427 Y145.457 E22.02802
G1 X32.465 Y145.382 E22.03221
G1 X32.886 Y144.672 E22.07339
G1 X34.228 Y142.261 E22.21106
G1 X35.478 Y139.855 E22.34633
G1 X36.674 Y137.385 E22.48324
G1 X37.794 Y134.896 E22.61941
G1 X38.845 Y132.378 E22.75554
G1 X39.83 Y129.805 E22.89299
G1 X40.738 Y127.221 E23.02963
G1 X41.579 Y124.594 E23.16725
G1 X42.333 Y121.986 E23.30269
G1 X43.022 Y119.321 E23.44002
G1 X43.624 Y116.692 E23.57458
G1 X43.625 Y116.681 E23.57513
G1 X44.165 Y113.967 E23.71318
G1 X44.622 Y111.275 E23.84941
G1 X45.006 Y108.552 E23.9866
G1 X45.308 Y105.853 E24.1221
G1 X45.538 Y103.102 E24.25982
G1 X45.687 Y100.393 E24.39518
G1 X45.761 Y97.639 E24.53263
G1 X45.757 Y94.921 E24.66823
G1 X45.674 Y92.169 E24.80559
G1 X45.515 Y89.42 E24.94297
G1 X45.28 Y86.707 E25.07883
G1 X44.966 Y83.981 E25.21573
G1 X44.578 Y81.283 E25.35172
G1 X44.11 Y78.578 E25.48867
G1 X43.572 Y75.919 E25.62402
G1 X42.952 Y73.237 E25.76135
G1 X42.231 Y70.491 E25.903
G1 X41.727 Y68.68 E25.99678
G1 X41.644 Y68.284 E26.01697
G1 X41.565 Y67.743 E26.04424
G1 X41.532 Y67.347 E26.06407
G1 X41.521 Y66.816 E26.09057
G1 X41.538 Y66.414 E26.11064
G1 X41.596 Y65.865 E26.13818
G1 X41.663 Y65.47 E26.15817
G1 X41.785 Y64.95 E26.18482
G1 X41.903 Y64.561 E26.2051
G1 X42.125 Y63.967 E26.23673
G1 X42.356 Y63.468 E26.26417
G1 X42.717 Y62.853 E26.29975
G1 X43.006 Y62.439 E26.32493
G1 X43.253 Y62.129 E26.34471
G1 X43.653 Y61.685 E26.37452
G1 X43.939 Y61.405 E26.39449
G1 X44.364 Y61.038 E26.42251
G1 X44.804 Y60.71 E26.44989
G1 F1500 E19.94989
;MESH:Breather_L_Hook.stl
G0 F2400 X46.57 Y62.583
G0 X47.15 Y63.499
G0 X48.984 Y64.767
;TYPE:WALL-INNER
G1 F1500 E26.44989
G1 F900 X48.453 Y65.283 E26.48683
G1 X48.114 Y65.848 E26.5197
G1 X47.933 Y66.434 E26.5503
G1 X47.893 Y67.114 E26.58428
G1 X48.015 Y67.754 E26.61679
G1 X48.31 Y68.371 E26.65091
G1 X48.766 Y68.911 E26.68617
G1 X49.375 Y69.32 E26.72277
G1 X49.997 Y69.538 E26.75565
G1 X50.679 Y69.588 E26.78977
G1 X51.369 Y69.466 E26.82472
G1 X51.865 Y69.229 E26.85215
G1 X54.286 Y69.853 E26.97688
G1 X54.944 Y69.911 E27.00984
G1 X55.565 Y69.834 E27.04106
G1 X56.154 Y69.628 E27.07219
G1 X56.683 Y69.308 E27.10303
G1 X57.104 Y68.925 E27.13143
G1 X57.469 Y68.422 E27.16243
G1 X57.717 Y67.865 E27.19285
G1 X57.806 Y67.533 E27.21
G1 X57.87 Y66.928 E27.24035
G1 X57.805 Y66.307 E27.2715
G1 X57.612 Y65.712 E27.30271
G1 X57.298 Y65.168 E27.33405
G1 X56.835 Y64.67 E27.36797
G1 X56.322 Y64.313 E27.39915
G1 X55.746 Y64.07 E27.43034
G1 X55.132 Y63.954 E27.46152
G1 X54.511 Y63.967 E27.4925
G1 X53.779 Y64.135 E27.52997
G1 X51.857 Y64.628 E27.62897
G1 X51.548 Y64.457 E27.64659
G1 X50.919 Y64.29 E27.67905
G1 X50.269 Y64.277 E27.71149
G1 X49.611 Y64.435 E27.74525
G1 X48.984 Y64.767 E27.78065
G0 F2400 X50.286 Y64.439
G0 X55.12 Y64.116
G0 X61.117 Y64.767
G1 F900 X60.587 Y65.282 E27.81751
G1 X60.244 Y65.849 E27.85058
G1 X60.046 Y66.552 E27.88701
G1 X60.03 Y67.205 E27.9196
G1 X60.193 Y67.873 E27.95391
G1 X60.523 Y68.494 E27.98899
G1 X61.038 Y69.025 E28.02589
G1 X61.608 Y69.368 E28.05908
G1 X62.309 Y69.566 E28.09543
G1 X62.965 Y69.579 E28.12816
G1 X63.627 Y69.418 E28.16215
G1 X63.989 Y69.226 E28.18259
G1 X66.419 Y69.853 E28.3078
G1 X67.078 Y69.911 E28.3408
G1 X67.698 Y69.834 E28.37197
G1 X68.286 Y69.628 E28.40305
G1 X68.817 Y69.308 E28.43398
G1 X69.238 Y68.925 E28.46238
G1 X69.604 Y68.421 E28.49346
G1 X69.85 Y67.865 E28.52379
G1 X69.939 Y67.533 E28.54094
G1 X70.003 Y66.928 E28.57129
G1 X69.938 Y66.307 E28.60244
G1 X69.745 Y65.712 E28.63365
G1 X69.431 Y65.168 E28.66498
G1 X68.968 Y64.67 E28.69891
G1 X68.455 Y64.313 E28.73009
G1 X67.879 Y64.07 E28.76128
G1 X67.266 Y63.954 E28.7924
G1 X66.645 Y63.967 E28.82339
G1 X65.912 Y64.135 E28.86091
G1 X63.99 Y64.628 E28.9599
G1 X63.682 Y64.457 E28.97748
G1 X63.054 Y64.29 E29.0099
G1 X62.401 Y64.275 E29.04249
G1 X61.739 Y64.437 E29.07649
G1 X61.117 Y64.767 E29.11162
G0 F2400 X62.42 Y64.436
G0 X67.253 Y64.116
G0 X75.339 Y68.198
G1 F900 X75.847 Y68.598 E29.14387
G1 X76.389 Y68.792 E29.17259
G1 X76.736 Y68.828 E29.19
G1 X108.914 Y68.827 E30.79537
G1 X109.46 Y68.727 E30.82306
G1 X109.981 Y68.449 E30.85252
G1 X110.377 Y68.047 E30.88067
G1 X110.648 Y67.518 E30.91033
G1 X110.74 Y66.928 E30.94012
G1 X110.648 Y66.338 E30.96991
G1 X110.374 Y65.803 E30.9999
G1 X109.923 Y65.363 E31.03133
G1 X109.389 Y65.104 E31.06094
G1 X108.878 Y65.028 E31.08672
G1 X76.686 Y65.029 E32.69278
G1 X76.141 Y65.128 E32.72042
G1 X75.617 Y65.407 E32.75003
G1 X75.223 Y65.809 E32.77812
G1 X74.952 Y66.338 E32.80777
G1 X74.86 Y66.928 E32.83756
G1 X74.954 Y67.534 E32.86816
G1 X75.339 Y68.198 E32.90645
G0 F2400 X76.427 Y68.634
G0 X105.653 Y68.662
G0 X125.077 Y68.493
G1 F900 X125.611 Y68.75 E32.93601
G1 X126.122 Y68.828 E32.9618
G1 X158.314 Y68.827 E34.56787
G1 X158.859 Y68.727 E34.59551
G1 X159.382 Y68.449 E34.62506
G1 X159.777 Y68.047 E34.65318
G1 X160.048 Y67.518 E34.68283
G1 X160.14 Y66.928 E34.71262
G1 X160.048 Y66.338 E34.74242
G1 X159.774 Y65.803 E34.7724
G1 X159.324 Y65.363 E34.8038
G1 X158.788 Y65.104 E34.8335
G1 X158.278 Y65.028 E34.85923
G1 X126.086 Y65.029 E36.46529
G1 X125.54 Y65.128 E36.49298
G1 X125.018 Y65.407 E36.52251
G1 X124.623 Y65.809 E36.55062
G1 X124.352 Y66.338 E36.58028
G1 X124.26 Y66.928 E36.61007
G1 X124.352 Y67.518 E36.63986
G1 X124.626 Y68.053 E36.66985
G1 X125.077 Y68.493 E36.70128
G0 F2400 X125.674 Y82.554
G1 F900 X125.593 Y83.407 E36.74403
G1 X125.567 Y84.252 E36.78621
G1 X125.567 Y111.57 E38.14911
G1 X125.62 Y113.321 E38.23651
G1 X125.636 Y113.776 E38.25922
G1 X125.844 Y115.981 E38.36972
G1 X126.191 Y118.17 E38.48029
G1 X126.674 Y120.332 E38.59081
G1 X127.292 Y122.46 E38.70136
G1 X128.043 Y124.544 E38.81188
G1 X128.923 Y126.577 E38.9224
G1 X129.929 Y128.551 E39.03293
G1 X131.056 Y130.458 E39.14345
G1 X132.301 Y132.291 E39.254
G1 X133.66 Y134.042 E39.36458
G1 X134.403 Y134.885 E39.42064
G1 X153.395 Y153.876 E40.76059
G1 X154.13 Y154.566 E40.81089
G1 X154.914 Y155.215 E40.86167
G1 X155.738 Y155.813 E40.91246
G1 X156.596 Y156.358 E40.96317
G1 X157.488 Y156.849 E41.01397
G1 X158.41 Y157.282 E41.06479
G1 X159.355 Y157.657 E41.11551
G1 X160.323 Y157.971 E41.16628
G1 X161.309 Y158.225 E41.21708
G1 X162.309 Y158.415 E41.26786
G1 X163.318 Y158.542 E41.3186
G1 X164.334 Y158.607 E41.36939
G1 X165.352 Y158.607 E41.42018
G1 X166.368 Y158.542 E41.47097
G1 X167.378 Y158.415 E41.52176
G1 X168.377 Y158.225 E41.57249
G1 X169.363 Y157.971 E41.62329
G1 X170.332 Y157.657 E41.67411
G1 X171.273 Y157.284 E41.72461
G1 X171.691 Y157.096 E41.74747
G1 X193.708 Y146.829 E42.95947
G1 X194.294 Y146.599 E42.99087
G1 X194.911 Y146.443 E43.02262
G1 X195.544 Y146.365 E43.05444
G1 X196.171 Y146.367 E43.08572
G1 X196.798 Y146.449 E43.11727
G1 X197.416 Y146.61 E43.14913
G1 X197.993 Y146.84 E43.18012
G1 X198.554 Y147.152 E43.21215
G1 X199.059 Y147.522 E43.24338
G1 X199.474 Y147.912 E43.27179
G1 X199.877 Y148.388 E43.30291
G1 X200.226 Y148.928 E43.33499
G1 X200.499 Y149.495 E43.36638
G1 X200.698 Y150.091 E43.39773
G1 X200.823 Y150.714 E43.42943
G1 X200.869 Y151.341 E43.4608
G1 X200.837 Y151.966 E43.49202
G1 X200.721 Y152.599 E43.52413
G1 X200.533 Y153.196 E43.55535
G1 X200.269 Y153.773 E43.58701
G1 X199.938 Y154.306 E43.61831
G1 X199.539 Y154.796 E43.64984
G1 X199.028 Y155.281 E43.68499
G1 X198.525 Y155.644 E43.71593
G1 X197.954 Y155.955 E43.74837
G1 X164.985 Y171.329 E45.56325
G1 X164.391 Y171.563 E45.5951
G1 X163.769 Y171.719 E45.62709
G1 X163.151 Y171.796 E45.65816
G1 X162.515 Y171.792 E45.68989
G1 X161.89 Y171.712 E45.72133
G1 X161.274 Y171.552 E45.75308
G1 X160.693 Y171.32 E45.78429
G1 X160.137 Y171.01 E45.81605
G1 X159.634 Y170.642 E45.84715
G1 X159.191 Y170.226 E45.87746
G1 X158.978 Y170.019 E45.89228
G1 X126.142 Y137.182 E48.20907
G1 X125.617 Y136.72 E48.24396
G1 X124.985 Y136.229 E48.28389
G1 X124.322 Y135.78 E48.32384
G1 X123.634 Y135.373 E48.36372
G1 X122.922 Y135.01 E48.40359
G1 X122.188 Y134.692 E48.4435
G1 X121.435 Y134.421 E48.48343
G1 X120.667 Y134.197 E48.52334
G1 X119.886 Y134.023 E48.56326
G1 X119.096 Y133.898 E48.60316
G1 X118.3 Y133.823 E48.64305
G1 X117.5 Y133.798 E48.68298
G1 X116.7 Y133.823 E48.72292
G1 X115.904 Y133.898 E48.7628
G1 X115.114 Y134.023 E48.80271
G1 X114.333 Y134.197 E48.84263
G1 X113.565 Y134.421 E48.88254
G1 X112.812 Y134.692 E48.92247
G1 X112.078 Y135.01 E48.96237
G1 X111.366 Y135.373 E49.00225
G1 X110.678 Y135.78 E49.04213
G1 X110.015 Y136.229 E49.08207
G1 X109.383 Y136.72 E49.122
G1 X108.858 Y137.182 E49.15689
G1 X76.017 Y170.023 E51.474
G1 X75.674 Y170.364 E51.49813
G1 X75.122 Y170.833 E51.53427
G1 X74.59 Y171.172 E51.56574
G1 X74.017 Y171.445 E51.59741
G1 X73.42 Y171.642 E51.62877
G1 X72.801 Y171.762 E51.66023
G1 X72.167 Y171.803 E51.69193
G1 X71.537 Y171.767 E51.72341
G1 X70.918 Y171.652 E51.75482
G1 X70.307 Y171.454 E51.78686
G1 X70.018 Y171.33 E51.80255
G1 X37.046 Y155.955 E53.61758
G1 X36.475 Y155.644 E53.65002
G1 X35.964 Y155.275 E53.68147
G1 X35.507 Y154.849 E53.71264
G1 X35.143 Y154.415 E53.7409
G1 X34.794 Y153.885 E53.77256
G1 X34.514 Y153.313 E53.80433
