;FLAVOR:Marlin
;TIME:3242
;Filament used: 1.82975m, 0m
;Layer height: 0.2
;MINX:63.18
;MINY:85.835
;MINZ:0.2
;MAXX:171.848
;MAXY:137.256
;MAXZ:1.6
;Generated with Cura_SteamEngine 4.8.0
T0
M140 S60
M105
M190 S60
M104 S200
M105
M109 S200
M82 ;absolute extrusion mode
M201 X500.00 Y500.00 Z100.00 E5000.00 	;Setup machine max acceleration
M203 X500.00 Y500.00 Z10.00 E50.00 	;Setup machine max feedrate
M204 P500.00 R1000.00 T500.00 		;Setup Print/Retract/Travel acceleration
M205 X8.00 Y8.00 Z0.40 E5.00 		;Setup Jerk
M220 S100 				;Reset Feedrate
M221 S100 				;Reset Flowrate
G28				;Home the Machine
#G29 				;Bed Level
G92 E0
M300 P150 S587
G92 E0
G1 F1500 E-5.5
;LAYER_COUNT:8
;LAYER:0
M107
G0 F2160 X64.9 Y86.421 Z0.2
;TYPE:SKIRT
G1 F1500 E0
G1 F900 X65.358 Y86.164 E0.0131
G1 X65.85 Y85.98 E0.0262
G1 X66.364 Y85.873 E0.0393
G1 X67.033 Y85.836 E0.05601
G1 X167.742 Y85.835 E2.56821
G1 X168.44 Y85.845 E2.58562
G1 X168.963 Y85.893 E2.59873
G1 X169.473 Y86.019 E2.61183
G1 X169.957 Y86.221 E2.62491
G1 X170.406 Y86.494 E2.63802
G1 X170.807 Y86.832 E2.6511
G1 X171.153 Y87.228 E2.66422
G1 X171.435 Y87.671 E2.67732
G1 X171.646 Y88.151 E2.6904
G1 X171.782 Y88.658 E2.70349
G1 X171.839 Y89.193 E2.71692
G1 X171.848 Y89.584 E2.72667
G1 X171.84 Y90.11 E2.73979
G1 X171.797 Y90.6 E2.75206
G1 X171.655 Y91.493 E2.77462
G1 X164.316 Y133.11 E3.82878
G1 X164.187 Y133.787 E3.84597
G1 X164.034 Y134.338 E3.86024
G1 X163.943 Y134.584 E3.86678
G1 X163.724 Y135.061 E3.87987
G1 X163.377 Y135.572 E3.89528
G1 X163.21 Y135.776 E3.90186
G1 X162.847 Y136.156 E3.91496
G1 X162.295 Y136.561 E3.93204
G1 X162.026 Y136.72 E3.93984
G1 X161.556 Y136.952 E3.95291
G1 X160.891 Y137.144 E3.97018
G1 X160.65 Y137.188 E3.97629
G1 X160.086 Y137.244 E3.99043
G1 X159.344 Y137.256 E4.00894
G1 X145.257 Y137.256 E4.36034
G1 X144.569 Y137.246 E4.37751
G1 X144.046 Y137.198 E4.39061
G1 X143.536 Y137.072 E4.40371
G1 X143.054 Y136.871 E4.41674
G1 X142.149 Y136.409 E4.44208
G1 X65.583 Y95.652 E6.60577
G1 X64.959 Y95.309 E6.62354
G1 X64.52 Y95.022 E6.63662
G1 X64.129 Y94.672 E6.64971
G1 X63.796 Y94.266 E6.66281
G1 X63.528 Y93.814 E6.67592
G1 X63.332 Y93.327 E6.68901
G1 X63.212 Y92.816 E6.70211
G1 X63.18 Y92.043 E6.7214
G1 X63.238 Y91.22 E6.74199
G1 X63.327 Y89.649 E6.78124
G1 X63.369 Y89.052 E6.79617
G1 X63.445 Y88.533 E6.80925
G1 X63.6 Y88.031 E6.82236
G1 X63.828 Y87.558 E6.83545
G1 X64.126 Y87.126 E6.84855
G1 X64.486 Y86.744 E6.86164
G1 X64.9 Y86.421 E6.87474
G0 F2160 X65.179 Y86.599
G1 F900 X65.628 Y86.374 E6.88727
G1 X66.106 Y86.224 E6.89976
G1 X66.721 Y86.145 E6.91523
G1 X67.13 Y86.135 E6.92544
G1 X167.738 Y86.135 E9.43511
G1 X168.436 Y86.145 E9.45253
G1 X168.936 Y86.192 E9.46505
G1 X169.421 Y86.318 E9.47755
G1 X169.881 Y86.519 E9.49008
G1 X170.302 Y86.791 E9.50258
G1 X170.675 Y87.126 E9.51509
G1 X170.991 Y87.516 E9.52761
G1 X171.24 Y87.951 E9.54011
G1 X171.417 Y88.421 E9.55264
G1 X171.518 Y88.912 E9.56514
G1 X171.547 Y89.439 E9.57831
G1 X171.548 Y89.58 E9.58183
G1 X171.54 Y90.106 E9.59495
G1 X171.501 Y90.553 E9.60614
G1 X171.359 Y91.441 E9.62857
G1 X164.021 Y133.054 E10.68263
G1 X163.892 Y133.731 E10.69982
G1 X163.752 Y134.234 E10.71285
G1 X163.661 Y134.48 E10.71939
G1 X163.45 Y134.935 E10.7319
G1 X163.144 Y135.382 E10.74541
G1 X162.977 Y135.586 E10.75199
G1 X162.63 Y135.948 E10.7645
G1 X162.143 Y136.303 E10.77953
G1 X161.874 Y136.462 E10.78733
G1 X161.423 Y136.682 E10.79984
G1 X160.837 Y136.849 E10.81504
G1 X160.596 Y136.893 E10.82115
G1 X160.081 Y136.944 E10.83406
G1 X159.339 Y136.956 E10.85258
G1 X145.261 Y136.956 E11.20375
G1 X144.573 Y136.946 E11.22092
G1 X144.074 Y136.898 E11.23342
G1 X143.588 Y136.773 E11.24594
G1 X143.19 Y136.603 E11.25674
G1 X142.29 Y136.145 E11.28193
G1 X65.728 Y95.389 E13.44552
G1 X65.104 Y95.046 E13.46328
G1 X64.685 Y94.771 E13.47578
G1 X64.315 Y94.432 E13.4883
G1 X64.004 Y94.038 E13.50082
G1 X63.759 Y93.601 E13.51332
G1 X63.586 Y93.13 E13.52583
G1 X63.491 Y92.637 E13.53836
G1 X63.479 Y92.065 E13.55263
G1 X63.534 Y91.283 E13.57218
G1 X63.626 Y89.67 E13.61249
G1 X63.668 Y89.073 E13.62742
G1 X63.743 Y88.577 E13.63993
G1 X63.895 Y88.099 E13.65244
G1 X64.122 Y87.652 E13.66495
G1 X64.417 Y87.246 E13.67747
G1 X64.772 Y86.892 E13.68997
G1 X65.179 Y86.599 E13.70248
G1 F1500 E8.20248
;MESH:Cover.stl
G0 F2160 X66.136 Y90.06
G0 X67.269 Y90.105
G0 X149.908 Y132.762
;TYPE:WALL-INNER
G1 F1500 E13.70248
G1 F900 X150.522 Y132.949 E13.71849
G1 X151.286 Y132.917 E13.73757
G1 X151.669 Y132.763 E13.74786
G1 X151.995 Y132.632 E13.75663
G1 X152.569 Y132.126 E13.77572
G1 X152.926 Y131.488 E13.79395
G1 X153.038 Y131.056 E13.80509
G1 X153.038 Y130.324 E13.82335
G1 X152.783 Y129.604 E13.8424
G1 X152.304 Y129.01 E13.86143
G1 X151.653 Y128.609 E13.88051
G1 X151.604 Y128.599 E13.88175
G1 X150.906 Y128.448 E13.89957
G1 X150.148 Y128.544 E13.91863
G1 X149.465 Y128.888 E13.9377
G1 X148.937 Y129.44 E13.95676
G1 X148.623 Y130.136 E13.97581
G1 X148.557 Y130.897 E13.99486
G1 X148.75 Y131.637 E14.01394
G1 X149.177 Y132.269 E14.03296
G1 X149.792 Y132.726 E14.05208
G1 X149.908 Y132.762 E14.05511
G0 F2160 X149.929 Y132.454
G1 F900 X150.561 Y132.647 E14.07159
G1 X151.222 Y132.619 E14.08809
G1 X151.835 Y132.373 E14.10457
G1 X152.332 Y131.935 E14.1211
G1 X152.645 Y131.375 E14.1371
G1 X152.738 Y131.018 E14.1463
G1 X152.738 Y130.376 E14.16232
G1 X152.517 Y129.752 E14.17883
G1 X152.103 Y129.238 E14.19529
G1 X151.54 Y128.891 E14.21179
G1 X150.893 Y128.752 E14.2283
G1 X150.237 Y128.835 E14.24479
G1 X149.646 Y129.133 E14.2613
G1 X149.189 Y129.61 E14.27778
G1 X148.917 Y130.213 E14.29428
G1 X148.86 Y130.871 E14.31076
G1 X149.027 Y131.512 E14.32728
G1 X149.397 Y132.059 E14.34376
G1 X149.929 Y132.454 E14.36028
G0 F2160 X150.043 Y132.227
;TYPE:WALL-OUTER
G1 F900 X150.593 Y132.395 E14.37463
G1 X151.169 Y132.371 E14.38901
G1 X151.702 Y132.157 E14.40334
G1 X152.135 Y131.776 E14.41773
G1 X152.411 Y131.281 E14.43186
G1 X152.488 Y130.986 E14.43947
G1 X152.488 Y130.419 E14.45361
G1 X152.296 Y129.876 E14.46798
G1 X151.935 Y129.428 E14.48233
G1 X151.445 Y129.126 E14.49669
G1 X150.882 Y129.005 E14.51105
G1 X150.311 Y129.078 E14.52541
G1 X149.797 Y129.337 E14.53977
G1 X149.399 Y129.752 E14.55412
G1 X149.162 Y130.277 E14.56848
G1 X149.113 Y130.85 E14.58283
G1 X149.258 Y131.408 E14.59721
G1 X149.58 Y131.884 E14.61155
G1 X150.043 Y132.227 E14.62592
G0 F2160 X150.234 Y132.285
G0 X150.137 Y132.6
G0 X150.131 Y132.619
G0 X149.369 Y132.086
G0 X148.991 Y131.528
G0 X148.821 Y130.874
G0 X148.879 Y130.203
G0 X160.067 Y92.701
G0 X160.075 Y91.282
;TYPE:WALL-INNER
G1 F900 X159.593 Y90.686 E14.64504
G1 X159.012 Y90.33 E14.66204
G1 X158.943 Y90.288 E14.66405
G1 X158.894 Y90.278 E14.6653
G1 X158.248 Y90.138 E14.68179
G1 X158.197 Y90.126 E14.6831
G1 X157.439 Y90.222 E14.70216
G1 X157.23 Y90.327 E14.70799
G1 X156.755 Y90.567 E14.72127
G1 X156.227 Y91.119 E14.74032
G1 X155.913 Y91.815 E14.75937
G1 X155.847 Y92.576 E14.77842
G1 X156.04 Y93.316 E14.7975
G1 X156.467 Y93.949 E14.81655
G1 X157.083 Y94.404 E14.83565
G1 X157.812 Y94.627 E14.85467
G1 X158.576 Y94.595 E14.87374
G1 X159.285 Y94.31 E14.8928
G1 X159.859 Y93.804 E14.91189
G1 X160.216 Y93.166 E14.93013
G1 X160.328 Y92.734 E14.94126
G1 X160.328 Y92.003 E14.95949
G1 X160.075 Y91.282 E14.97856
G0 F2160 X159.809 Y91.43
G1 F900 X159.392 Y90.915 E14.99509
G1 X158.83 Y90.57 E15.01154
G1 X158.184 Y90.43 E15.02802
G1 X157.528 Y90.513 E15.04452
G1 X156.936 Y90.812 E15.06106
G1 X156.479 Y91.289 E15.07754
G1 X156.207 Y91.892 E15.09404
G1 X156.15 Y92.55 E15.11052
G1 X156.317 Y93.191 E15.12704
G1 X156.687 Y93.738 E15.14351
G1 X157.22 Y94.132 E15.16005
G1 X157.851 Y94.325 E15.17651
G1 X158.512 Y94.297 E15.19301
G1 X159.125 Y94.051 E15.20949
G1 X159.622 Y93.613 E15.22601
G1 X159.935 Y93.053 E15.24202
G1 X160.028 Y92.696 E15.25122
G1 X160.028 Y92.054 E15.26723
G1 X159.809 Y91.43 E15.28373
G0 F2160 X159.587 Y91.554
;TYPE:WALL-OUTER
G1 F900 X159.225 Y91.106 E15.2981
G1 X158.735 Y90.805 E15.31244
G1 X158.173 Y90.683 E15.32679
G1 X157.602 Y90.756 E15.34115
G1 X157.087 Y91.016 E15.35554
G1 X156.689 Y91.431 E15.36988
G1 X156.452 Y91.956 E15.38425
G1 X156.403 Y92.529 E15.3986
G1 X156.548 Y93.086 E15.41296
G1 X156.87 Y93.562 E15.42729
G1 X157.334 Y93.905 E15.44169
G1 X157.883 Y94.073 E15.45601
G1 X158.459 Y94.049 E15.47039
G1 X158.992 Y93.835 E15.48472
G1 X159.425 Y93.454 E15.4991
G1 X159.701 Y92.959 E15.51324
G1 X159.778 Y92.664 E15.52085
G1 X159.778 Y92.097 E15.53499
G1 X159.587 Y91.554 E15.54935
G0 F2160 X159.462 Y91.399
G0 X159.719 Y91.193
G0 X159.735 Y91.181
G0 X158.844 Y90.533
G0 X89.075 Y91.282
;TYPE:WALL-INNER
G1 F900 X88.593 Y90.686 E15.56847
G1 X88.012 Y90.33 E15.58547
G1 X87.943 Y90.288 E15.58748
G1 X87.894 Y90.278 E15.58873
G1 X87.248 Y90.138 E15.60522
G1 X87.197 Y90.126 E15.60652
G1 X86.439 Y90.222 E15.62558
G1 X86.23 Y90.327 E15.63142
G1 X85.755 Y90.567 E15.64469
G1 X85.227 Y91.119 E15.66375
G1 X84.913 Y91.815 E15.6828
G1 X84.847 Y92.576 E15.70185
G1 X85.04 Y93.316 E15.72093
G1 X85.467 Y93.949 E15.73997
G1 X86.083 Y94.404 E15.75908
G1 X86.812 Y94.627 E15.77809
G1 X87.576 Y94.595 E15.79717
G1 X88.285 Y94.31 E15.81623
G1 X88.859 Y93.804 E15.83532
G1 X89.216 Y93.166 E15.85355
G1 X89.328 Y92.734 E15.86469
G1 X89.328 Y92.003 E15.88292
G1 X89.075 Y91.282 E15.90198
G0 F2160 X88.809 Y91.43
G1 F900 X88.392 Y90.915 E15.91851
G1 X87.83 Y90.57 E15.93496
G1 X87.184 Y90.43 E15.95145
G1 X86.528 Y90.513 E15.96795
G1 X85.936 Y90.812 E15.98449
G1 X85.479 Y91.289 E16.00097
G1 X85.207 Y91.892 E16.01747
G1 X85.15 Y92.55 E16.03395
G1 X85.317 Y93.191 E16.05047
G1 X85.687 Y93.738 E16.06694
G1 X86.22 Y94.132 E16.08348
G1 X86.851 Y94.325 E16.09994
G1 X87.512 Y94.297 E16.11644
G1 X88.125 Y94.051 E16.13292
G1 X88.622 Y93.613 E16.14944
G1 X88.935 Y93.053 E16.16544
G1 X89.028 Y92.696 E16.17465
G1 X89.028 Y92.054 E16.19066
G1 X88.809 Y91.43 E16.20716
G0 F2160 X88.587 Y91.554
;TYPE:WALL-OUTER
G1 F900 X88.225 Y91.106 E16.22153
G1 X87.735 Y90.805 E16.23587
G1 X87.173 Y90.683 E16.25022
G1 X86.602 Y90.756 E16.26458
G1 X86.087 Y91.016 E16.27897
G1 X85.689 Y91.431 E16.29331
G1 X85.452 Y91.956 E16.30768
G1 X85.403 Y92.529 E16.32203
G1 X85.548 Y93.086 E16.33638
G1 X85.87 Y93.562 E16.35072
G1 X86.334 Y93.905 E16.36511
G1 X86.883 Y94.073 E16.37943
G1 X87.459 Y94.049 E16.39382
G1 X87.992 Y93.835 E16.40814
G1 X88.425 Y93.454 E16.42253
G1 X88.701 Y92.959 E16.43667
G1 X88.778 Y92.664 E16.44427
G1 X88.778 Y92.097 E16.45842
G1 X88.587 Y91.554 E16.47278
G0 F2160 X88.462 Y91.399
G0 X88.719 Y91.193
G0 X88.735 Y91.181
G0 X87.844 Y90.533
G0 X67.55 Y90.119
;TYPE:WALL-INNER
G1 F900 X67.55 Y90.035 E16.47487
G1 X86.204 Y90.035 E16.9402
G1 X86.439 Y90.035 E16.94499
G1 X87.197 Y90.035 E16.95376
G1 X87.943 Y90.035 E16.96546
G1 X88.024 Y90.035 E16.96733
G1 X157.204 Y90.035 E18.69303
G1 X157.439 Y90.035 E18.69783
G1 X158.197 Y90.035 E18.7066
G1 X158.943 Y90.035 E18.71829
G1 X159.024 Y90.035 E18.72016
G1 X167.47 Y90.035 E18.93085
G1 X167.471 Y90.035 E18.93088
G1 X167.648 Y90.035 E18.93529
G1 X167.618 Y90.21 E18.93802
G1 X160.083 Y132.928 E20.02008
G1 X160.03 Y133.024 E20.02281
G1 X159.936 Y133.056 E20.02529
G1 X151.699 Y133.056 E20.23076
G1 X151.286 Y133.056 E20.23836
G1 X150.522 Y133.056 E20.2462
G1 X149.88 Y133.056 E20.25714
G1 X144.789 Y133.056 E20.38413
G1 X67.392 Y91.856 E22.57131
G1 X67.55 Y90.119 E22.61482
G0 F2160 X67.25 Y90.105
G1 F900 X67.25 Y89.735 E22.62405
G1 X167.95 Y89.735 E25.13602
G1 X167.95 Y90.047 E25.1438
G1 X160.369 Y133.032 E26.23262
G1 X160.237 Y133.271 E26.23943
G1 X160.032 Y133.339 E26.24482
G1 X159.983 Y133.356 E26.24611
G1 X144.714 Y133.356 E26.627
G1 X67.075 Y92.027 E28.82102
G1 X67.25 Y90.105 E28.86916
G0 F2160 X67 Y90.094
;TYPE:WALL-OUTER
G1 F900 X67 Y89.485 E28.88435
G1 X168.2 Y89.485 E31.4088
G1 X168.2 Y90.067 E31.42331
G1 X160.611 Y133.1 E32.51334
G1 X160.532 Y133.31 E32.51894
G1 X160.397 Y133.468 E32.52412
G1 X160.218 Y133.569 E32.52925
G1 X160.002 Y133.606 E32.53472
G1 X144.651 Y133.606 E32.91765
G1 X66.811 Y92.17 E35.11735
G1 X67 Y90.094 E35.16935
G0 F2160 X67 Y89.894
G0 X67.33 Y89.894
G0 X67.822 Y90.325
;TYPE:SKIN
G1 F900 X85.591 Y90.325 E35.6126
G1 X85.579 Y90.331 E35.61293
G1 X84.983 Y90.955 E35.63446
G1 X84.629 Y91.741 E35.65596
G1 X84.553 Y92.601 E35.6775
G1 X84.772 Y93.438 E35.69908
G1 X85.254 Y94.152 E35.72057
G1 X85.951 Y94.667 E35.74219
G1 X86.775 Y94.919 E35.76368
G1 X87.638 Y94.883 E35.78523
G1 X88.44 Y94.561 E35.80679
G1 X89.088 Y93.989 E35.82835
G1 X89.487 Y93.275 E35.84875
G1 X89.618 Y92.771 E35.86174
G1 X89.618 Y91.953 E35.88215
G1 X89.332 Y91.139 E35.90367
G1 X88.787 Y90.465 E35.92529
G1 X88.558 Y90.325 E35.93199
G1 X156.591 Y90.325 E37.62908
G1 X156.579 Y90.331 E37.62941
G1 X155.983 Y90.955 E37.65094
G1 X155.629 Y91.741 E37.67244
G1 X155.553 Y92.601 E37.69398
G1 X155.772 Y93.438 E37.71556
G1 X156.254 Y94.152 E37.73705
G1 X156.951 Y94.667 E37.75867
G1 X157.775 Y94.919 E37.78016
G1 X158.638 Y94.883 E37.80171
G1 X159.44 Y94.561 E37.82326
G1 X160.088 Y93.989 E37.84483
G1 X160.487 Y93.275 E37.86523
G1 X160.618 Y92.771 E37.87822
G1 X160.618 Y91.953 E37.89862
G1 X160.332 Y91.139 E37.92015
G1 X159.787 Y90.465 E37.94177
G1 X159.558 Y90.325 E37.94846
G1 X167.302 Y90.325 E38.14164
G1 X159.817 Y132.766 E39.21667
G1 X152.283 Y132.766 E39.40461
G1 X152.798 Y132.311 E39.42175
G1 X153.197 Y131.597 E39.44215
G1 X153.328 Y131.093 E39.45514
G1 X153.328 Y130.274 E39.47557
G1 X153.04 Y129.461 E39.49709
G1 X152.499 Y128.789 E39.51861
G1 X151.763 Y128.336 E39.54017
G1 X150.919 Y128.154 E39.56171
G1 X150.063 Y128.262 E39.58323
G1 X149.289 Y128.652 E39.60485
G1 X148.693 Y129.276 E39.62637
G1 X148.339 Y130.062 E39.64788
G1 X148.263 Y130.922 E39.66941
G1 X148.482 Y131.759 E39.69099
G1 X148.964 Y132.472 E39.71246
G1 X149.359 Y132.766 E39.72475
G1 X144.861 Y132.766 E39.83695
G1 X67.698 Y91.69 E42.01752
G1 X67.822 Y90.325 E42.05171
G0 F2160 X67.876 Y91.211
G1 F900 X68.777 Y92.111 E42.08348
G1 X68.83 Y92.164
G0 F2160 X69.684 Y92.594
G1 F900 X67.911 Y90.822 E42.14601
G0 F2160 X67.973 Y90.459
G1 F900 X70.591 Y93.077 E42.23837
G1 X70.644 Y93.13
G0 F2160 X71.499 Y93.56
G1 F900 X68.397 Y90.459 E42.34778
G0 F2160 X68.821 Y90.459
G1 F900 X72.406 Y94.043 E42.47423
G1 X72.459 Y94.096
G0 F2160 X73.313 Y94.526
G1 F900 X69.246 Y90.459 E42.61771
G0 F2160 X69.67 Y90.459
G1 F900 X74.22 Y95.009 E42.77822
G1 X74.273 Y95.062
G0 F2160 X75.127 Y95.492
G1 F900 X70.094 Y90.459 E42.95578
G0 F2160 X70.519 Y90.459
G1 F900 X76.035 Y95.975 E43.15037
G1 X76.088 Y96.028
G0 F2160 X76.942 Y96.458
G1 F900 X70.943 Y90.459 E43.362
G0 F2160 X71.367 Y90.459
G1 F900 X77.849 Y96.941 E43.59067
G1 X77.902 Y96.994
G0 F2160 X78.756 Y97.424
G1 F900 X71.791 Y90.459 E43.83638
G0 F2160 X72.216 Y90.459
G1 F900 X79.664 Y97.907 E44.09913
G1 X79.717 Y97.96
G0 F2160 X80.571 Y98.39
G1 F900 X72.64 Y90.459 E44.37891
G0 F2160 X73.064 Y90.459
G1 F900 X81.478 Y98.873 E44.67574
G1 X81.531 Y98.926
G0 F2160 X82.385 Y99.356
G1 F900 X73.488 Y90.459 E44.98961
G0 F2160 X73.913 Y90.459
G1 F900 X83.292 Y99.839 E45.32049
G1 X83.345 Y99.892
G0 F2160 X84.2 Y100.322
G1 F900 X74.337 Y90.459 E45.66844
G0 F2160 X74.761 Y90.459
G1 F900 X85.107 Y100.805 E46.03342
G1 X85.16 Y100.858
G0 F2160 X86.014 Y101.288
G1 F900 X75.185 Y90.459 E46.41544
G0 F2160 X75.61 Y90.459
G1 F900 X86.921 Y101.771 E46.81449
G1 X86.974 Y101.824
G0 F2160 X87.829 Y102.254
G1 F900 X76.034 Y90.459 E47.23059
G0 F2160 X76.458 Y90.459
G1 F900 X88.736 Y102.736 E47.66371
G1 X88.789 Y102.789
G0 F2160 X89.643 Y103.219
G1 F900 X76.883 Y90.459 E48.11385
G0 F2160 X77.307 Y90.459
G1 F900 X90.55 Y103.702 E48.58103
G1 X90.603 Y103.755
G0 F2160 X91.457 Y104.185
G1 F900 X77.731 Y90.459 E49.06526
G0 F2160 X78.155 Y90.459
G1 F900 X92.365 Y104.668 E49.56653
G1 X92.418 Y104.721
G0 F2160 X93.272 Y105.151
G1 F900 X78.58 Y90.459 E50.08483
G0 F2160 X79.004 Y90.459
G1 F900 X94.179 Y105.634 E50.62017
G1 X94.232 Y105.687
G0 F2160 X95.086 Y106.117
G1 F900 X79.428 Y90.459 E51.17255
G0 F2160 X79.852 Y90.459
G1 F900 X95.993 Y106.6 E51.74197
G1 X96.046 Y106.653
G0 F2160 X96.901 Y107.083
G1 F900 X80.277 Y90.459 E52.32843
G0 F2160 X80.701 Y90.459
G1 F900 X97.808 Y107.566 E52.93192
G1 X97.861 Y107.619
G0 F2160 X98.715 Y108.049
