;FLAVOR:Marlin
;TIME:3313
;Filament used: 1.86427m, 0m
;Layer height: 0.2
;MINX:63.177
;MINY:85.835
;MINZ:0.2
;MAXX:171.85
;MAXY:137.756
;MAXZ:1.6
;Generated with Cura_SteamEngine 4.8.0
T0
M140 S60
M105
M190 S60
M104 S200
M105
M109 S200
M82 ;absolute extrusion mode
M201 X500.00 Y500.00 Z100.00 E5000.00 	;Setup machine max acceleration
M203 X500.00 Y500.00 Z10.00 E50.00 	;Setup machine max feedrate
M204 P500.00 R1000.00 T500.00 		;Setup Print/Retract/Travel acceleration
M205 X8.00 Y8.00 Z0.40 E5.00 		;Setup Jerk
M220 S100 				;Reset Feedrate
M221 S100 				;Reset Flowrate
G28				;Home the Machine
#G29 				;Bed Level
G92 E0
M300 P150 S587
G92 E0
G1 F1500 E-5.5
;LAYER_COUNT:8
;LAYER:0
M107
G0 F2160 X64.82 Y86.476 Z0.2
;TYPE:SKIRT
G1 F1500 E0
G1 F900 X65.271 Y86.206 E0.01311
G1 X65.757 Y86.009 E0.02619
G1 X66.268 Y85.887 E0.0393
G1 X67.033 Y85.836 E0.05842
G1 X167.742 Y85.835 E2.57062
G1 X168.44 Y85.845 E2.58803
G1 X168.963 Y85.893 E2.60114
G1 X169.473 Y86.019 E2.61424
G1 X169.957 Y86.221 E2.62732
G1 X170.406 Y86.494 E2.64043
G1 X170.807 Y86.832 E2.65351
G1 X171.153 Y87.228 E2.66663
G1 X171.435 Y87.671 E2.67973
G1 X171.646 Y88.151 E2.69281
G1 X171.782 Y88.658 E2.7059
G1 X171.84 Y89.198 E2.71945
G1 X171.85 Y89.899 E2.73694
G1 X171.84 Y90.607 E2.7546
G1 X171.797 Y91.1 E2.76695
G1 X171.655 Y91.993 E2.7895
G1 X164.316 Y133.61 E3.84366
G1 X164.187 Y134.287 E3.86085
G1 X164.034 Y134.838 E3.87512
G1 X163.943 Y135.084 E3.88166
G1 X163.724 Y135.561 E3.89475
G1 X163.377 Y136.072 E3.91016
G1 X163.21 Y136.276 E3.91674
G1 X162.847 Y136.656 E3.92985
G1 X162.295 Y137.061 E3.94693
G1 X162.026 Y137.22 E3.95472
G1 X161.556 Y137.452 E3.9678
G1 X160.891 Y137.644 E3.98506
G1 X160.65 Y137.688 E3.99117
G1 X160.086 Y137.744 E4.00531
G1 X159.344 Y137.756 E4.02382
G1 X145.257 Y137.756 E4.37522
G1 X144.569 Y137.746 E4.39239
G1 X144.046 Y137.698 E4.40549
G1 X143.536 Y137.572 E4.41859
G1 X143.054 Y137.371 E4.43162
G1 X142.149 Y136.909 E4.45697
G1 X65.581 Y96.151 E6.62071
G1 X64.958 Y95.808 E6.63845
G1 X64.519 Y95.521 E6.65154
G1 X64.128 Y95.17 E6.66464
G1 X63.795 Y94.764 E6.67774
G1 X63.528 Y94.312 E6.69084
G1 X63.332 Y93.825 E6.70393
G1 X63.213 Y93.314 E6.71702
G1 X63.177 Y92.591 E6.73508
G1 X63.338 Y89.74 E6.80631
G1 X63.363 Y89.149 E6.82107
G1 X63.425 Y88.627 E6.83418
G1 X63.565 Y88.122 E6.84725
G1 X63.781 Y87.643 E6.86036
G1 X64.066 Y87.202 E6.87346
G1 X64.415 Y86.81 E6.88655
G1 X64.82 Y86.476 E6.89964
G0 F2160 X65.104 Y86.646
G1 F900 X65.546 Y86.409 E6.91216
G1 X66.02 Y86.245 E6.92467
G1 X66.721 Y86.145 E6.94233
G1 X67.13 Y86.135 E6.95254
G1 X167.738 Y86.135 E9.46221
G1 X168.436 Y86.145 E9.47963
G1 X168.936 Y86.192 E9.49215
G1 X169.421 Y86.318 E9.50465
G1 X169.881 Y86.519 E9.51718
G1 X170.302 Y86.791 E9.52968
G1 X170.675 Y87.126 E9.54219
G1 X170.991 Y87.516 E9.55471
G1 X171.24 Y87.951 E9.56721
G1 X171.417 Y88.421 E9.57974
G1 X171.518 Y88.912 E9.59224
G1 X171.549 Y89.526 E9.60758
G1 X171.55 Y89.894 E9.61676
G1 X171.54 Y90.602 E9.63442
G1 X171.501 Y91.053 E9.64571
G1 X171.359 Y91.941 E9.66815
G1 X164.021 Y133.554 E10.7222
G1 X163.892 Y134.231 E10.73939
G1 X163.752 Y134.734 E10.75242
G1 X163.661 Y134.98 E10.75896
G1 X163.45 Y135.435 E10.77147
G1 X163.144 Y135.882 E10.78499
G1 X162.977 Y136.086 E10.79156
G1 X162.63 Y136.448 E10.80407
G1 X162.143 Y136.803 E10.8191
G1 X161.874 Y136.962 E10.8269
G1 X161.423 Y137.182 E10.83942
G1 X160.837 Y137.349 E10.85462
G1 X160.596 Y137.393 E10.86073
G1 X160.081 Y137.444 E10.87364
G1 X159.339 Y137.456 E10.89215
G1 X145.261 Y137.456 E11.24333
G1 X144.573 Y137.446 E11.26049
G1 X144.074 Y137.398 E11.27299
G1 X143.588 Y137.273 E11.28551
G1 X143.19 Y137.103 E11.29631
G1 X142.29 Y136.645 E11.3215
G1 X65.726 Y95.888 E13.48514
G1 X65.103 Y95.545 E13.50288
G1 X64.684 Y95.269 E13.5154
G1 X64.314 Y94.93 E13.52792
G1 X64.003 Y94.537 E13.54042
G1 X63.759 Y94.099 E13.55293
G1 X63.587 Y93.628 E13.56543
G1 X63.491 Y93.135 E13.57796
G1 X63.477 Y92.608 E13.59111
G1 X63.638 Y89.757 E13.66235
G1 X63.663 Y89.161 E13.67723
G1 X63.724 Y88.664 E13.68972
G1 X63.863 Y88.182 E13.70223
G1 X64.077 Y87.728 E13.71475
G1 X64.36 Y87.314 E13.72726
G1 X64.705 Y86.95 E13.73977
G1 X65.104 Y86.646 E13.75228
G1 F1500 E8.25228
;MESH:Cover.stl
G0 F2160 X67.264 Y88.62
G0 X67.264 Y89.749
G0 X149.908 Y133.262
;TYPE:WALL-INNER
G1 F1500 E13.75228
G1 F900 X150.522 Y133.449 E13.76829
G1 X151.286 Y133.417 E13.78737
G1 X151.669 Y133.263 E13.79767
G1 X151.995 Y133.132 E13.80643
G1 X152.569 Y132.626 E13.82552
G1 X152.926 Y131.988 E13.84376
G1 X153.038 Y131.556 E13.85489
G1 X153.038 Y130.824 E13.87315
G1 X152.783 Y130.104 E13.8922
G1 X152.304 Y129.51 E13.91124
G1 X151.653 Y129.109 E13.93031
G1 X151.604 Y129.099 E13.93156
G1 X150.906 Y128.948 E13.94937
G1 X150.148 Y129.044 E13.96843
G1 X149.465 Y129.388 E13.98751
G1 X148.937 Y129.94 E14.00656
G1 X148.623 Y130.636 E14.02561
G1 X148.557 Y131.397 E14.04466
G1 X148.75 Y132.137 E14.06374
G1 X149.177 Y132.769 E14.08277
G1 X149.792 Y133.226 E14.10188
G1 X149.908 Y133.262 E14.10491
G0 F2160 X149.929 Y132.954
G1 F900 X150.561 Y133.147 E14.12139
G1 X151.222 Y133.119 E14.1379
G1 X151.835 Y132.873 E14.15437
G1 X152.332 Y132.435 E14.1709
G1 X152.645 Y131.875 E14.1869
G1 X152.738 Y131.518 E14.1961
G1 X152.738 Y130.876 E14.21212
G1 X152.517 Y130.252 E14.22863
G1 X152.103 Y129.738 E14.2451
G1 X151.54 Y129.391 E14.26159
G1 X150.893 Y129.252 E14.2781
G1 X150.237 Y129.335 E14.2946
G1 X149.646 Y129.633 E14.31111
G1 X149.189 Y130.11 E14.32758
G1 X148.917 Y130.713 E14.34409
G1 X148.86 Y131.371 E14.36056
G1 X149.027 Y132.012 E14.37708
G1 X149.397 Y132.559 E14.39356
G1 X149.929 Y132.954 E14.41009
G0 F2160 X150.043 Y132.727
;TYPE:WALL-OUTER
G1 F900 X150.593 Y132.895 E14.42443
G1 X151.169 Y132.871 E14.43881
G1 X151.702 Y132.657 E14.45314
G1 X152.135 Y132.276 E14.46753
G1 X152.411 Y131.781 E14.48167
G1 X152.488 Y131.486 E14.48927
G1 X152.488 Y130.919 E14.50341
G1 X152.296 Y130.376 E14.51778
G1 X151.935 Y129.928 E14.53213
G1 X151.445 Y129.626 E14.54649
G1 X150.882 Y129.505 E14.56086
G1 X150.311 Y129.578 E14.57522
G1 X149.797 Y129.837 E14.58957
G1 X149.399 Y130.252 E14.60392
G1 X149.162 Y130.777 E14.61829
G1 X149.113 Y131.35 E14.63263
G1 X149.258 Y131.908 E14.64701
G1 X149.58 Y132.384 E14.66135
G1 X150.043 Y132.727 E14.67572
G0 F2160 X150.234 Y132.785
G0 X150.137 Y133.1
G0 X150.131 Y133.119
G0 X149.369 Y132.586
G0 X148.991 Y132.028
G0 X148.821 Y131.374
G0 X148.879 Y130.703
G0 X160.067 Y93.201
G0 X160.075 Y91.782
;TYPE:WALL-INNER
G1 F900 X159.593 Y91.186 E14.69484
G1 X158.943 Y90.788 E14.71386
G1 X158.894 Y90.778 E14.7151
G1 X158.248 Y90.638 E14.73159
G1 X158.197 Y90.626 E14.7329
G1 X157.439 Y90.722 E14.75196
G1 X156.755 Y91.067 E14.77107
G1 X156.227 Y91.619 E14.79012
G1 X155.913 Y92.315 E14.80917
G1 X155.847 Y93.076 E14.82822
G1 X156.04 Y93.816 E14.8473
G1 X156.467 Y94.449 E14.86635
G1 X157.083 Y94.904 E14.88545
G1 X157.812 Y95.127 E14.90447
G1 X158.576 Y95.095 E14.92354
G1 X159.285 Y94.81 E14.9426
G1 X159.859 Y94.304 E14.96169
G1 X160.216 Y93.666 E14.97993
G1 X160.328 Y93.234 E14.99106
G1 X160.328 Y92.503 E15.0093
G1 X160.075 Y91.782 E15.02836
G0 F2160 X159.809 Y91.93
G1 F900 X159.392 Y91.415 E15.04489
G1 X158.83 Y91.07 E15.06134
G1 X158.184 Y90.93 E15.07783
G1 X157.528 Y91.013 E15.09432
G1 X156.936 Y91.312 E15.11086
G1 X156.479 Y91.789 E15.12734
G1 X156.207 Y92.392 E15.14384
G1 X156.15 Y93.05 E15.16032
G1 X156.317 Y93.691 E15.17684
G1 X156.687 Y94.238 E15.19332
G1 X157.22 Y94.632 E15.20985
G1 X157.851 Y94.825 E15.22631
G1 X158.512 Y94.797 E15.24281
G1 X159.125 Y94.551 E15.25929
G1 X159.622 Y94.113 E15.27582
G1 X159.935 Y93.553 E15.29182
G1 X160.028 Y93.196 E15.30102
G1 X160.028 Y92.554 E15.31704
G1 X159.809 Y91.93 E15.33353
G0 F2160 X159.587 Y92.054
;TYPE:WALL-OUTER
G1 F900 X159.225 Y91.606 E15.3479
G1 X158.735 Y91.305 E15.36225
G1 X158.173 Y91.183 E15.37659
G1 X157.602 Y91.256 E15.39095
G1 X157.087 Y91.516 E15.40534
G1 X156.689 Y91.931 E15.41969
G1 X156.452 Y92.456 E15.43405
G1 X156.403 Y93.029 E15.4484
G1 X156.548 Y93.586 E15.46276
G1 X156.87 Y94.062 E15.47709
G1 X157.334 Y94.405 E15.49149
G1 X157.883 Y94.573 E15.50581
G1 X158.459 Y94.549 E15.52019
G1 X158.992 Y94.335 E15.53452
G1 X159.425 Y93.954 E15.5489
G1 X159.701 Y93.459 E15.56304
G1 X159.778 Y93.164 E15.57065
G1 X159.778 Y92.597 E15.58479
G1 X159.587 Y92.054 E15.59915
G0 F2160 X159.462 Y91.899
G0 X159.719 Y91.693
G0 X159.735 Y91.681
G0 X158.844 Y91.033
G0 X89.075 Y91.782
;TYPE:WALL-INNER
G1 F900 X88.593 Y91.186 E15.61827
G1 X87.943 Y90.788 E15.63728
G1 X87.894 Y90.778 E15.63853
G1 X87.248 Y90.638 E15.65502
G1 X87.197 Y90.626 E15.65633
G1 X86.439 Y90.722 E15.67539
G1 X85.755 Y91.067 E15.6945
G1 X85.227 Y91.619 E15.71355
G1 X84.913 Y92.315 E15.7326
G1 X84.847 Y93.076 E15.75165
G1 X85.04 Y93.816 E15.77073
G1 X85.467 Y94.449 E15.78978
G1 X86.083 Y94.904 E15.80888
G1 X86.812 Y95.127 E15.8279
G1 X87.576 Y95.095 E15.84697
G1 X88.285 Y94.81 E15.86603
G1 X88.859 Y94.304 E15.88512
G1 X89.216 Y93.666 E15.90336
G1 X89.328 Y93.234 E15.91449
G1 X89.328 Y92.503 E15.93272
G1 X89.075 Y91.782 E15.95178
G0 F2160 X88.809 Y91.93
G1 F900 X88.392 Y91.415 E15.96831
G1 X87.83 Y91.07 E15.98476
G1 X87.184 Y90.93 E16.00125
G1 X86.528 Y91.013 E16.01775
G1 X85.936 Y91.312 E16.03429
G1 X85.479 Y91.789 E16.05077
G1 X85.207 Y92.392 E16.06727
G1 X85.15 Y93.05 E16.08375
G1 X85.317 Y93.691 E16.10027
G1 X85.687 Y94.238 E16.11674
G1 X86.22 Y94.632 E16.13328
G1 X86.851 Y94.825 E16.14974
G1 X87.512 Y94.797 E16.16624
G1 X88.125 Y94.551 E16.18272
G1 X88.622 Y94.113 E16.19924
G1 X88.935 Y93.553 E16.21525
G1 X89.028 Y93.196 E16.22445
G1 X89.028 Y92.554 E16.24046
G1 X88.809 Y91.93 E16.25696
G0 F2160 X88.587 Y92.054
;TYPE:WALL-OUTER
G1 F900 X88.225 Y91.606 E16.27133
G1 X87.735 Y91.305 E16.28567
G1 X87.173 Y91.183 E16.30002
G1 X86.602 Y91.256 E16.31438
G1 X86.087 Y91.516 E16.32877
G1 X85.689 Y91.931 E16.34311
G1 X85.452 Y92.456 E16.35748
G1 X85.403 Y93.029 E16.37183
G1 X85.548 Y93.586 E16.38619
G1 X85.87 Y94.062 E16.40052
G1 X86.334 Y94.405 E16.41491
G1 X86.883 Y94.573 E16.42924
G1 X87.459 Y94.549 E16.44362
G1 X87.992 Y94.335 E16.45794
G1 X88.425 Y93.954 E16.47233
G1 X88.701 Y93.459 E16.48647
G1 X88.778 Y93.164 E16.49407
G1 X88.778 Y92.597 E16.50822
G1 X88.587 Y92.054 E16.52258
G0 F2160 X88.462 Y91.899
G0 X88.719 Y91.693
G0 X88.735 Y91.681
G0 X87.844 Y91.033
G0 X67.55 Y90.619
;TYPE:WALL-INNER
G1 F900 X67.55 Y90.035 E16.53715
G1 X167.65 Y90.035 E19.03415
G1 X167.65 Y90.523 E19.04632
G1 X160.083 Y133.428 E20.13311
G1 X160.03 Y133.524 E20.13585
G1 X159.936 Y133.556 E20.13832
G1 X151.699 Y133.556 E20.3438
G1 X151.286 Y133.556 E20.3514
G1 X150.522 Y133.556 E20.35923
G1 X149.88 Y133.556 E20.37017
G1 X144.789 Y133.556 E20.49716
G1 X67.392 Y92.356 E22.68434
G1 X67.55 Y90.619 E22.72785
G0 F2160 X67.25 Y90.605
G1 F900 X67.25 Y89.735 E22.74955
G1 X167.95 Y89.735 E25.26153
G1 X167.95 Y90.547 E25.28178
G1 X160.369 Y133.532 E26.37059
G1 X160.237 Y133.771 E26.37741
G1 X160.032 Y133.839 E26.38279
G1 X159.983 Y133.856 E26.38409
G1 X144.714 Y133.856 E26.76497
G1 X67.075 Y92.527 E28.95899
G1 X67.25 Y90.605 E29.00714
G0 F2160 X67 Y90.594
;TYPE:WALL-OUTER
G1 F900 X67 Y89.485 E29.0348
G1 X168.2 Y89.485 E31.55925
G1 X168.2 Y90.567 E31.58624
G1 X160.611 Y133.6 E32.67626
G1 X160.532 Y133.81 E32.68186
G1 X160.397 Y133.968 E32.68704
G1 X160.218 Y134.069 E32.69217
G1 X160.002 Y134.106 E32.69764
G1 X144.651 Y134.106 E33.08057
G1 X66.811 Y92.67 E35.28027
G1 X67 Y90.594 E35.33227
G0 F2160 X67 Y90.394
G0 X67.33 Y90.394
G0 X67.84 Y90.325
;TYPE:SKIN
G1 F900 X167.36 Y90.325 E37.81481
G1 X167.36 Y90.495 E37.81905
G1 X159.817 Y133.266 E38.90244
G1 X152.283 Y133.266 E39.09038
G1 X152.798 Y132.811 E39.10752
G1 X153.197 Y132.097 E39.12792
G1 X153.328 Y131.593 E39.14091
G1 X153.328 Y130.774 E39.16134
G1 X153.04 Y129.961 E39.18286
G1 X152.499 Y129.289 E39.20438
G1 X151.763 Y128.836 E39.22594
G1 X150.919 Y128.654 E39.24747
G1 X150.063 Y128.762 E39.269
G1 X149.289 Y129.152 E39.29062
G1 X148.693 Y129.776 E39.31214
G1 X148.339 Y130.562 E39.33364
G1 X148.263 Y131.422 E39.35518
G1 X148.482 Y132.259 E39.37676
G1 X148.964 Y132.972 E39.39823
G1 X149.359 Y133.266 E39.41051
G1 X144.861 Y133.266 E39.52272
G1 X67.698 Y92.19 E41.70329
G1 X67.84 Y90.632 E41.74232
G1 X67.84 Y90.325 E41.74998
G0 F2160 X84.629 Y92.241
G1 F900 X84.553 Y93.101 E41.77151
G1 X84.772 Y93.938 E41.79309
G1 X85.254 Y94.652 E41.81458
G1 X85.951 Y95.167 E41.8362
G1 X86.775 Y95.419 E41.8577
G1 X87.638 Y95.383 E41.87924
G1 X88.44 Y95.061 E41.9008
G1 X89.088 Y94.489 E41.92236
G1 X89.487 Y93.775 E41.94276
G1 X89.618 Y93.271 E41.95575
G1 X89.618 Y92.453 E41.97616
G1 X89.332 Y91.639 E41.99768
G1 X88.787 Y90.965 E42.0193
G1 X88.053 Y90.515 E42.04078
G1 X87.21 Y90.332 E42.0623
G1 X86.353 Y90.44 E42.08385
G1 X85.579 Y90.831 E42.10548
G1 X84.983 Y91.455 E42.127
G1 X84.629 Y92.241 E42.14851
G0 F2160 X85.913 Y91.28
G0 X86.517 Y90.975
G0 X155.553 Y93.101
G1 F900 X155.772 Y93.938 E42.17009
G1 X156.254 Y94.652 E42.19158
G1 X156.951 Y95.167 E42.21319
G1 X157.775 Y95.419 E42.23469
G1 X158.638 Y95.383 E42.25624
G1 X159.44 Y95.061 E42.27779
G1 X160.088 Y94.489 E42.29936
G1 X160.487 Y93.775 E42.31976
G1 X160.618 Y93.271 E42.33275
G1 X160.618 Y92.453 E42.35315
G1 X160.332 Y91.639 E42.37468
G1 X159.787 Y90.965 E42.3963
G1 X159.053 Y90.515 E42.41777
G1 X158.21 Y90.332 E42.43929
G1 X157.353 Y90.44 E42.46084
G1 X156.579 Y90.831 E42.48247
G1 X155.983 Y91.455 E42.504
G1 X155.629 Y92.241 E42.5255
G1 X155.553 Y93.101 E42.54704
G0 F2160 X156.446 Y91.767
G0 X156.913 Y91.28
G0 X157.517 Y90.975
G0 X167.168 Y90.8
G1 F900 X166.827 Y90.46 E42.55905
G0 F2160 X166.403 Y90.46
G1 F900 X167.104 Y91.161 E42.58378
G0 F2160 X167.041 Y91.522
G1 F900 X165.979 Y90.46 E42.62124
G0 F2160 X165.554 Y90.46
G1 F900 X166.977 Y91.882 E42.67143
G0 F2160 X166.913 Y92.243
G1 F900 X165.13 Y90.46 E42.73433
G0 F2160 X164.706 Y90.46
G1 F900 X166.85 Y92.604 E42.80996
G0 F2160 X166.786 Y92.964
G1 F900 X164.282 Y90.46 E42.8983
G0 F2160 X163.857 Y90.46
G1 F900 X166.723 Y93.325 E42.99938
G0 F2160 X166.659 Y93.685
G1 F900 X163.433 Y90.46 E43.11317
G0 F2160 X163.009 Y90.46
G1 F900 X166.595 Y94.046 E43.23968
G0 F2160 X166.532 Y94.407
G1 F900 X162.585 Y90.46 E43.37892
G0 F2160 X162.16 Y90.46
G1 F900 X166.468 Y94.767 E43.53088
G0 F2160 X166.404 Y95.128
G1 F900 X161.736 Y90.46 E43.69555
G0 F2160 X161.312 Y90.46
G1 F900 X166.341 Y95.489 E43.87297
G0 F2160 X166.277 Y95.849
G1 F900 X160.888 Y90.46 E44.06308
G0 F2160 X160.463 Y90.46
G1 F900 X166.214 Y96.211 E44.26596
G0 F2160 X166.151 Y96.571
G1 F900 X160.039 Y90.46 E44.48156
G0 F2160 X159.615 Y90.46
G1 F900 X166.087 Y96.932 E44.70988
G0 F2160 X166.023 Y97.292
G1 F900 X160.53 Y91.8 E44.90364
G1 X160.477 Y91.747
G0 F2160 X160.752 Y92.445
G1 F900 X165.96 Y97.653 E45.08737
G0 F2160 X165.896 Y98.014
G1 F900 X160.752 Y92.869 E45.26885
G0 F2160 X160.75 Y93.292
G1 F900 X165.832 Y98.374 E45.44813
G0 F2160 X165.769 Y98.735
G1 F900 X160.662 Y93.628 E45.6283
G0 F2160 X160.548 Y93.939
G1 F900 X165.705 Y99.096 E45.81022
G0 F2160 X165.641 Y99.456
G1 F900 X160.395 Y94.21 E45.99529
G0 F2160 X160.243 Y94.482
G1 F900 X165.578 Y99.817 E46.1835
G0 F2160 X165.514 Y100.177
G1 F900 X160.043 Y94.707 E46.37648
G0 F2160 X159.818 Y94.906
G1 F900 X165.45 Y100.538 E46.57517
G0 F2160 X165.387 Y100.899
G1 F900 X159.594 Y95.105 E46.77955
G0 F2160 X159.318 Y95.255
G1 F900 X165.323 Y101.259 E46.99137
G0 F2160 X165.26 Y101.62
G1 F900 X159.016 Y95.376 E47.21165
G0 F2160 X158.713 Y95.498
G1 F900 X165.196 Y101.981 E47.44035
G0 F2160 X165.132 Y102.341
G1 F900 X158.322 Y95.531 E47.68059
G0 F2160 X157.915 Y95.548
G1 F900 X165.069 Y102.702 E47.93297
G0 F2160 X165.005 Y103.062
G1 F900 X157.383 Y95.441 E48.20184
G1 X157.33 Y95.388
G0 F2160 X156.576 Y95.057
G1 F900 X164.942 Y103.424 E48.49699
G0 F2160 X164.878 Y103.784
G1 F900 X151.554 Y90.46 E48.96703
G0 F2160 X151.978 Y90.46
G1 F900 X155.921 Y94.403 E49.10613
G1 X155.974 Y94.456
G0 F2160 X155.543 Y93.601
G1 F900 X152.402 Y90.46 E49.21694
G0 F2160 X152.826 Y90.46
G1 F900 X155.42 Y93.053 E49.30843
G0 F2160 X155.455 Y92.664
G1 F900 X153.251 Y90.46 E49.38618
G0 F2160 X153.675 Y90.46
