;FLAVOR:Marlin
;TIME:2024
;Filament used: 1.50932m, 0m
;Layer height: 0.2
;MINX:74.05
;MINY:94.31
;MINZ:0.26
;MAXX:160.95
;MAXY:140.69
;MAXZ:43.26
;Generated with Cura_SteamEngine 4.8.0
T0
M140 S60
M105
M190 S60
M104 S200
M105
M109 S200
M82 ;absolute extrusion mode
M201 X500.00 Y500.00 Z100.00 E5000.00 	;Setup machine max acceleration
M203 X500.00 Y500.00 Z10.00 E50.00 	;Setup machine max feedrate
M204 P500.00 R1000.00 T500.00 		;Setup Print/Retract/Travel acceleration
M205 X8.00 Y8.00 Z0.40 E5.00 		;Setup Jerk
M220 S100 				;Reset Feedrate
M221 S100 				;Reset Flowrate
G28				;Home the Machine
#G29 				;Bed Level
G92 E0
M300 P150 S587
G92 E0
G1 F1500 E-5.5
;LAYER_COUNT:217
;LAYER:0
M107
G0 F2160 X75.444 Y95.006 Z0.26
;TYPE:SKIRT
G1 F1500 E0
G1 F900 X75.888 Y94.724 E0.01706
G1 X76.368 Y94.513 E0.03406
G1 X76.876 Y94.378 E0.05111
G1 X77.413 Y94.32 E0.06862
G1 X77.83 Y94.31 E0.08215
G1 X156.842 Y94.31 E2.6444
G1 X157.54 Y94.32 E2.66704
G1 X158.063 Y94.368 E2.68407
G1 X158.573 Y94.494 E2.7011
G1 X159.057 Y94.696 E2.71811
G1 X159.506 Y94.969 E2.73515
G1 X159.907 Y95.307 E2.75216
G1 X160.253 Y95.703 E2.76921
G1 X160.535 Y96.146 E2.78624
G1 X160.746 Y96.626 E2.80324
G1 X160.882 Y97.133 E2.82027
G1 X160.94 Y97.673 E2.83788
G1 X160.95 Y98.09 E2.85141
G1 X160.95 Y100.102 E2.91665
G1 X160.94 Y100.804 E2.93942
G1 X160.892 Y101.327 E2.95645
G1 X160.766 Y101.837 E2.97349
G1 X160.564 Y102.321 E2.99049
G1 X160.291 Y102.769 E3.00751
G1 X159.878 Y103.253 E3.02814
G1 X159.608 Y103.532 E3.04073
G1 X123.911 Y139.228 E4.67781
G1 X123.417 Y139.707 E4.70012
G1 X123.013 Y140.043 E4.71716
G1 X122.563 Y140.313 E4.73418
G1 X122.077 Y140.512 E4.75121
G1 X121.567 Y140.636 E4.76823
G1 X120.983 Y140.683 E4.78723
G1 X120.5 Y140.69 E4.8029
G1 X114.638 Y140.69 E4.99299
G1 X113.936 Y140.68 E5.01576
G1 X113.413 Y140.632 E5.03279
G1 X112.903 Y140.506 E5.04983
G1 X112.419 Y140.304 E5.06683
G1 X111.971 Y140.031 E5.08385
G1 X111.487 Y139.618 E5.10448
G1 X111.199 Y139.338 E5.11751
G1 X75.501 Y103.64 E6.75465
G1 X75.03 Y103.153 E6.77662
G1 X74.695 Y102.749 E6.79364
G1 X74.425 Y102.299 E6.81066
G1 X74.226 Y101.813 E6.82769
G1 X74.104 Y101.303 E6.8447
G1 X74.057 Y100.723 E6.86357
G1 X74.05 Y100.24 E6.87923
G1 X74.05 Y98.382 E6.93948
G1 X74.06 Y97.717 E6.96105
G1 X74.108 Y97.194 E6.97808
G1 X74.235 Y96.685 E6.99509
G1 X74.437 Y96.2 E7.01213
G1 X74.711 Y95.752 E7.02916
G1 X75.049 Y95.351 E7.04617
G1 X75.444 Y95.006 E7.06318
G0 F2160 X75.733 Y95.168
G1 F900 X76.169 Y94.919 E7.07946
G1 X76.638 Y94.742 E7.09571
G1 X77.129 Y94.642 E7.11196
G1 X77.741 Y94.611 E7.13184
G1 X156.838 Y94.61 E9.69684
G1 X157.536 Y94.62 E9.71948
G1 X158.036 Y94.667 E9.73577
G1 X158.521 Y94.793 E9.75202
G1 X158.981 Y94.994 E9.7683
G1 X159.402 Y95.266 E9.78455
G1 X159.775 Y95.601 E9.80081
G1 X160.091 Y95.991 E9.81709
G1 X160.34 Y96.426 E9.83334
G1 X160.517 Y96.896 E9.84963
G1 X160.618 Y97.387 E9.86588
G1 X160.649 Y98.001 E9.88582
G1 X160.65 Y100.098 E9.95382
G1 X160.64 Y100.8 E9.97659
G1 X160.593 Y101.299 E9.99284
G1 X160.467 Y101.785 E10.00912
G1 X160.266 Y102.244 E10.02537
G1 X159.994 Y102.666 E10.04165
G1 X159.658 Y103.049 E10.05818
G1 X159.395 Y103.319 E10.0704
G1 X123.702 Y139.012 E11.70732
G1 X123.208 Y139.491 E11.72963
G1 X122.821 Y139.811 E11.74591
G1 X122.388 Y140.065 E11.76219
G1 X121.921 Y140.247 E11.77845
G1 X121.431 Y140.352 E11.7947
G1 X120.906 Y140.385 E11.81176
G1 X120.497 Y140.39 E11.82502
G1 X114.642 Y140.39 E12.01489
G1 X113.94 Y140.38 E12.03766
G1 X113.441 Y140.333 E12.05391
G1 X112.955 Y140.207 E12.07019
G1 X112.496 Y140.006 E12.08644
G1 X112.074 Y139.734 E12.10272
G1 X111.691 Y139.398 E12.11925
G1 X111.411 Y139.125 E12.13193
G1 X75.717 Y103.432 E13.76887
G1 X75.246 Y102.945 E13.79084
G1 X74.927 Y102.558 E13.8071
G1 X74.673 Y102.125 E13.82338
G1 X74.492 Y101.657 E13.83965
G1 X74.387 Y101.167 E13.8559
G1 X74.355 Y100.646 E13.87283
G1 X74.35 Y100.237 E13.8861
G1 X74.35 Y98.387 E13.94609
G1 X74.36 Y97.722 E13.96766
G1 X74.408 Y97.222 E13.98394
G1 X74.534 Y96.737 E14.00019
G1 X74.735 Y96.277 E14.01647
G1 X75.007 Y95.856 E14.03273
G1 X75.343 Y95.483 E14.04901
G1 X75.733 Y95.168 E14.06526
G1 F1500 E8.56526
;MESH:Nexus_Stand.stl
G0 F2160 X77.964 Y97.145
G0 X77.964 Y98.224
G0 X78.55 Y98.81
;TYPE:WALL-INNER
G1 F1500 E14.06526
G1 F900 X156.45 Y98.81 E16.59146
G1 X156.45 Y100.326 E16.64062
G1 X120.586 Y136.19 E18.28538
G1 X118.571 Y136.19 E18.35072
G1 X118.57 Y136.19 E18.35075
G1 X117.958 Y136.19 E18.3706
G1 X118.502 Y135.908 E18.38082
G1 X118.686 Y135.813 E18.38753
G1 X121.738 Y132.762 E18.52748
G1 X122.573 Y132.13 E18.56144
G1 X125.349 Y129.35 E18.68884
G1 X126.449 Y128.304 E18.73806
G1 X129.104 Y125.649 E18.85983
G1 X130.317 Y124.458 E18.91495
G1 X136.798 Y117.977 E19.21218
G1 X138.109 Y116.661 E19.27242
G1 X140.688 Y114.082 E19.39069
G1 X142.022 Y112.739 E19.45208
G1 X144.597 Y110.166 E19.57012
G1 X145.944 Y108.807 E19.63217
G1 X148.517 Y106.235 E19.75015
G1 X150.366 Y104.374 E19.83522
G1 X149.83 Y103.078 E19.8807
G1 X85.176 Y103.078 E21.97734
G1 X84.634 Y104.369 E22.02275
G1 X86.48 Y106.233 E22.10782
G1 X89.052 Y108.804 E22.22575
G1 X90.401 Y110.165 E22.2879
G1 X92.974 Y112.736 E22.40585
G1 X94.31 Y114.081 E22.46733
G1 X96.889 Y116.66 E22.5856
G1 X98.2 Y117.976 E22.64584
G1 X104.682 Y124.457 E22.94309
G1 X105.891 Y125.643 E22.99801
G1 X108.55 Y128.303 E23.11998
G1 X109.65 Y129.348 E23.16918
G1 X112.426 Y132.129 E23.29661
G1 X113.261 Y132.761 E23.33057
G1 X116.313 Y135.812 E23.47051
G1 X116.499 Y135.909 E23.47731
G1 X117.043 Y136.19 E23.49717
G1 X116.431 Y136.19 E23.50738
G1 X116.43 Y136.19 E23.50741
G1 X114.414 Y136.19 E23.57278
G1 X78.55 Y100.326 E25.21754
G1 X78.55 Y98.81 E25.26671
G0 F2160 X84.988 Y104.3
G1 F900 X86.693 Y106.021 E25.34527
G1 X89.265 Y108.593 E25.46322
G1 X90.614 Y109.953 E25.52534
G1 X93.187 Y112.525 E25.64332
G1 X94.522 Y113.869 E25.70475
G1 X97.101 Y116.448 E25.82302
G1 X98.412 Y117.764 E25.88326
G1 X104.893 Y124.244 E26.18047
G1 X106.103 Y125.431 E26.23543
G1 X108.759 Y128.088 E26.35726
G1 X109.857 Y129.131 E26.40637
G1 X112.624 Y131.902 E26.53336
G1 X113.458 Y132.534 E26.5673
G1 X116.492 Y135.567 E26.70641
G1 X117.5 Y136.089 E26.74323
G1 X118.507 Y135.568 E26.77999
G1 X121.541 Y132.535 E26.91911
G1 X122.375 Y131.903 E26.95305
G1 X125.142 Y129.133 E27.08001
G1 X126.24 Y128.089 E27.12915
G1 X128.894 Y125.435 E27.25086
G1 X130.106 Y124.245 E27.30594
G1 X136.586 Y117.765 E27.60312
G1 X137.897 Y116.449 E27.66336
G1 X140.476 Y113.87 E27.78164
G1 X141.81 Y112.527 E27.84302
G1 X144.384 Y109.954 E27.96104
G1 X145.732 Y108.595 E28.02312
G1 X148.305 Y106.023 E28.14109
G1 X150.012 Y104.304 E28.21965
G1 X149.629 Y103.378 E28.25215
G1 X85.375 Y103.378 E30.33582
G1 X84.988 Y104.3 E30.36825
G0 F2160 X85.342 Y104.231
G1 F900 X86.906 Y105.809 E30.44029
G1 X89.478 Y108.382 E30.55827
G1 X90.827 Y109.741 E30.62037
G1 X93.4 Y112.314 E30.73837
G1 X94.734 Y113.657 E30.79975
G1 X97.313 Y116.236 E30.91803
G1 X98.624 Y117.552 E30.97827
G1 X105.104 Y124.031 E31.27542
G1 X106.315 Y125.219 E31.33044
G1 X108.968 Y127.873 E31.45213
G1 X110.064 Y128.914 E31.50115
G1 X112.822 Y131.675 E31.6277
G1 X113.656 Y132.308 E31.66166
G1 X116.671 Y135.322 E31.7999
G1 X117.5 Y135.751 E31.83017
G1 X118.328 Y135.323 E31.8604
G1 X121.343 Y132.309 E31.99865
G1 X122.177 Y131.676 E32.0326
G1 X124.935 Y128.916 E32.15913
G1 X126.031 Y127.874 E32.20817
G1 X128.684 Y125.221 E32.32984
G1 X129.895 Y124.032 E32.38488
G1 X136.374 Y117.553 E32.68201
G1 X137.685 Y116.237 E32.74225
G1 X140.264 Y113.658 E32.86052
G1 X141.598 Y112.315 E32.92191
G1 X144.171 Y109.742 E33.03991
G1 X145.52 Y108.383 E33.10201
G1 X148.092 Y105.811 E33.21996
G1 X149.658 Y104.234 E33.29203
G1 X149.428 Y103.678 E33.31154
G1 X85.574 Y103.678 E35.38224
G1 X85.342 Y104.231 E35.40169
G0 F2160 X85.637 Y104.174
;TYPE:WALL-OUTER
G1 F900 X85.665 Y104.202 E35.40297
G1 X87.083 Y105.633 E35.4683
G1 X89.655 Y108.205 E35.58626
G1 X91.004 Y109.565 E35.64838
G1 X93.577 Y112.137 E35.76635
G1 X94.911 Y113.48 E35.82774
G1 X97.49 Y116.059 E35.94601
G1 X98.801 Y117.375 E36.00625
G1 X105.28 Y123.853 E36.30336
G1 X106.492 Y125.042 E36.35842
G1 X109.143 Y127.694 E36.48002
G1 X110.241 Y128.737 E36.52913
G1 X112.987 Y131.486 E36.65514
G1 X113.824 Y132.122 E36.68923
G1 X116.82 Y135.118 E36.82663
G1 X117.5 Y135.47 E36.85146
G1 X118.179 Y135.119 E36.87624
G1 X121.175 Y132.123 E37.01364
G1 X122.012 Y131.487 E37.04773
G1 X124.758 Y128.739 E37.17371
G1 X125.856 Y127.695 E37.22285
G1 X128.507 Y125.044 E37.34442
G1 X129.719 Y123.854 E37.3995
G1 X136.197 Y117.376 E37.69659
G1 X137.508 Y116.06 E37.75683
G1 X140.087 Y113.481 E37.87511
G1 X141.421 Y112.138 E37.93649
G1 X143.994 Y109.566 E38.05447
G1 X145.343 Y108.206 E38.11659
G1 X147.915 Y105.634 E38.23454
G1 X149.336 Y104.202 E38.29996
G1 X149.363 Y104.175 E38.3012
G1 X149.261 Y103.928 E38.30987
G1 X149.222 Y103.928 E38.31113
G1 X85.78 Y103.928 E40.36847
G1 X85.74 Y103.928 E40.36977
G1 X85.637 Y104.174 E40.37842
G0 F2160 X85.665 Y104.202
G0 X85.778 Y104.316
G0 X85.543 Y104.548
G0 X85.529 Y104.561
G0 X85.552 Y103.645
G0 X156.75 Y100.45
;TYPE:WALL-INNER
G1 F900 X120.71 Y136.49 E42.03125
G1 X114.29 Y136.49 E42.23944
G1 X78.25 Y100.45 E43.89227
G1 X78.25 Y98.51 E43.95518
G1 X156.75 Y98.51 E46.50083
G1 X156.75 Y100.45 E46.56374
G0 F2160 X157.05 Y100.574
G1 F900 X120.834 Y136.79 E48.22464
G1 X114.166 Y136.79 E48.44088
G1 X77.95 Y100.574 E50.10178
G1 X77.95 Y98.21 E50.17844
G1 X157.05 Y98.21 E52.74355
G1 X157.05 Y100.574 E52.82021
G0 F2160 X157.3 Y100.678
;TYPE:WALL-OUTER
G1 F900 X120.938 Y137.04 E54.4878
G1 X114.062 Y137.04 E54.71078
G1 X77.7 Y100.678 E56.37838
G1 X77.7 Y97.96 E56.46652
G1 X157.3 Y97.96 E59.04784
G1 X157.3 Y100.678 E59.13598
G0 F2160 X157.159 Y100.819
G0 X156.926 Y100.586
G0 X156.16 Y100.206
;TYPE:SKIN
G1 F900 X120.466 Y135.9 E60.77295
G1 X119.01 Y135.9 E60.82016
G1 X121.922 Y132.988 E60.95371
G1 X122.764 Y132.349 E60.98799
G1 X125.551 Y129.558 E61.11589
G1 X126.652 Y128.511 E61.16516
G1 X129.307 Y125.856 E61.28692
G1 X130.522 Y124.664 E61.34212
G1 X137.003 Y118.182 E61.63937
G1 X138.314 Y116.866 E61.69961
G1 X140.893 Y114.287 E61.81788
G1 X142.227 Y112.944 E61.87927
G1 X144.802 Y110.371 E61.99731
G1 X146.149 Y109.012 E62.05937
G1 X148.722 Y106.44 E62.17734
G1 X150.708 Y104.442 E62.2687
G1 X150.024 Y102.788 E62.32674
G1 X84.983 Y102.788 E64.43593
G1 X84.292 Y104.435 E64.49385
G1 X86.273 Y106.437 E64.58519
G1 X88.845 Y109.008 E64.70312
G1 X90.194 Y110.369 E64.76526
G1 X92.767 Y112.94 E64.88321
G1 X94.103 Y114.285 E64.94469
G1 X96.682 Y116.864 E65.06297
G1 X97.993 Y118.18 E65.1232
G1 X104.477 Y124.662 E65.42052
G1 X105.686 Y125.848 E65.47544
G1 X108.347 Y128.51 E65.5975
G1 X109.445 Y129.553 E65.64661
G1 X112.235 Y132.348 E65.77468
G1 X113.077 Y132.987 E65.80896
G1 X115.99 Y135.9 E65.94255
G1 X114.534 Y135.9 E65.98977
G1 X78.84 Y100.206 E67.62673
G1 X78.84 Y99.1 E67.66259
G1 X156.16 Y99.1 E70.16998
G1 X156.16 Y100.206 E70.20584
G0 F2160 X156.024 Y99.597
G1 F900 X155.662 Y99.235 E70.22244
G0 F2160 X155.238 Y99.235
G1 F900 X156.024 Y100.021 E70.25849
G0 F2160 X155.876 Y100.298
G1 F900 X154.813 Y99.235 E70.30724
G0 F2160 X154.389 Y99.235
G1 F900 X155.664 Y100.51 E70.36571
G0 F2160 X155.452 Y100.722
G1 F900 X153.965 Y99.235 E70.43391
G0 F2160 X153.541 Y99.235
G1 F900 X155.24 Y100.934 E70.51183
G0 F2160 X155.028 Y101.146
G1 F900 X153.116 Y99.235 E70.59949
G0 F2160 X152.692 Y99.235
G1 F900 X154.816 Y101.358 E70.69688
G0 F2160 X154.603 Y101.57
G1 F900 X152.268 Y99.235 E70.80396
G0 F2160 X151.844 Y99.235
G1 F900 X154.391 Y101.783 E70.92079
G0 F2160 X154.179 Y101.995
G1 F900 X151.419 Y99.235 E71.04737
G0 F2160 X150.995 Y99.235
G1 F900 X153.967 Y102.207 E71.18367
G0 F2160 X153.755 Y102.419
G1 F900 X150.571 Y99.235 E71.32969
G0 F2160 X150.147 Y99.235
G1 F900 X153.543 Y102.631 E71.48543
G0 F2160 X153.331 Y102.843
G1 F900 X149.722 Y99.235 E71.65092
G0 F2160 X149.298 Y99.235
G1 F900 X153.119 Y103.055 E71.82614
G0 F2160 X152.906 Y103.267
G1 F900 X148.874 Y99.235 E72.01105
G0 F2160 X148.449 Y99.235
G1 F900 X152.694 Y103.48 E72.20573
G0 F2160 X152.482 Y103.692
G1 F900 X148.025 Y99.235 E72.41013
G0 F2160 X147.601 Y99.235
G1 F900 X152.27 Y103.904 E72.62425
G0 F2160 X152.058 Y104.116
G1 F900 X147.177 Y99.235 E72.8481
G0 F2160 X146.752 Y99.235
G1 F900 X151.846 Y104.328 E73.08169
G0 F2160 X151.634 Y104.54
G1 F900 X150.371 Y103.277 E73.13962
G1 X150.318 Y103.224
G0 F2160 X150.671 Y104.001
G1 F900 X151.421 Y104.752 E73.17404
G0 F2160 X151.209 Y104.965
G1 F900 X150.791 Y104.547 E73.19321
G0 F2160 X150.58 Y104.759
G1 F900 X150.997 Y105.177 E73.21235
G0 F2160 X150.785 Y105.389
G1 F900 X150.369 Y104.972 E73.23145
G0 F2160 X150.157 Y105.185
G1 F900 X150.573 Y105.601 E73.25053
G0 F2160 X150.361 Y105.813
G1 F900 X149.946 Y105.398 E73.26956
G0 F2160 X149.734 Y105.61
G1 F900 X150.149 Y106.025 E73.2886
G0 F2160 X149.937 Y106.237
G1 F900 X149.522 Y105.823 E73.30761
G0 F2160 X149.311 Y106.036
G1 F900 X149.724 Y106.449 E73.32655
G0 F2160 X149.512 Y106.662
G1 F900 X149.099 Y106.249 E73.34549
G0 F2160 X148.888 Y106.461
G1 F900 X149.3 Y106.874 E73.36441
G0 F2160 X149.088 Y107.086
G1 F900 X148.676 Y106.674 E73.3833
G0 F2160 X148.464 Y106.886
G1 F900 X148.876 Y107.298 E73.40219
G0 F2160 X148.664 Y107.51
G1 F900 X148.252 Y107.099 E73.42107
G0 F2160 X148.04 Y107.311
G1 F900 X148.452 Y107.722 E73.43994
G0 F2160 X148.239 Y107.934
G1 F900 X147.828 Y107.523 E73.45879
G0 F2160 X147.616 Y107.735
G1 F900 X148.027 Y108.147 E73.47766
G0 F2160 X147.815 Y108.359
G1 F900 X147.404 Y107.947 E73.49653
G0 F2160 X147.192 Y108.159
G1 F900 X147.603 Y108.571 E73.5154
G0 F2160 X147.391 Y108.783
G1 F900 X146.979 Y108.371 E73.5343
G0 F2160 X146.767 Y108.584
G1 F900 X147.179 Y108.995 E73.55317
G0 F2160 X146.967 Y109.207
G1 F900 X146.555 Y108.796 E73.57204
G0 F2160 X146.343 Y109.008
G1 F900 X146.755 Y109.419 E73.59091
G0 F2160 X146.542 Y109.631
G1 F900 X146.13 Y109.219 E73.60981
G0 F2160 X145.919 Y109.432
G1 F900 X146.33 Y109.844 E73.62868
G0 F2160 X146.118 Y110.056
G1 F900 X145.708 Y109.646 E73.64748
G0 F2160 X145.497 Y109.858
G1 F900 X145.906 Y110.268 E73.66626
G0 F2160 X145.694 Y110.48
G1 F900 X145.285 Y110.071 E73.68502
G0 F2160 X145.074 Y110.284
G1 F900 X145.482 Y110.692 E73.70373
G0 F2160 X145.27 Y110.904
G1 F900 X144.863 Y110.498 E73.72237
G0 F2160 X144.651 Y110.71
G1 F900 X145.058 Y111.116 E73.74102
G0 F2160 X144.845 Y111.329
G1 F900 X144.439 Y110.922 E73.75966
G0 F2160 X144.227 Y111.134
G1 F900 X144.633 Y111.541 E73.7783
G0 F2160 X144.421 Y111.753
G1 F900 X144.015 Y111.346 E73.79694
G0 F2160 X143.802 Y111.558
G1 F900 X144.209 Y111.965 E73.81561
G0 F2160 X143.997 Y112.177
G1 F900 X143.59 Y111.77 E73.83427
G0 F2160 X143.378 Y111.983
G1 F900 X143.785 Y112.389 E73.85292
G0 F2160 X143.573 Y112.601
G1 F900 X143.166 Y112.195 E73.87156
G0 F2160 X142.954 Y112.407
G1 F900 X143.36 Y112.813 E73.89018
G0 F2160 X143.148 Y113.026
G1 F900 X142.742 Y112.619 E73.90882
G0 F2160 X142.53 Y112.831
G1 F900 X142.936 Y113.238 E73.92746
G0 F2160 X142.724 Y113.45
G1 F900 X142.317 Y113.043 E73.94613
G0 F2160 X142.105 Y113.255
G1 F900 X142.512 Y113.662 E73.96479
G0 F2160 X142.3 Y113.874
G1 F900 X141.893 Y113.468 E73.98344
G0 F2160 X141.682 Y113.68
G1 F900 X142.088 Y114.086 E74.00206
G0 F2160 X141.876 Y114.298
G1 F900 X141.47 Y113.893 E74.02065
G0 F2160 X141.259 Y114.106
G1 F900 X141.663 Y114.51 E74.03918
G0 F2160 X141.451 Y114.723
G1 F900 X141.048 Y114.319 E74.05769
G0 F2160 X140.836 Y114.532
G1 F900 X141.239 Y114.935 E74.07617
G0 F2160 X141.027 Y115.147
G1 F900 X140.624 Y114.744 E74.09465
G0 F2160 X140.412 Y114.956
G1 F900 X140.815 Y115.359 E74.11313
