;FLAVOR:Marlin
;TIME:531
;Filament used: 0.502141m, 0m
;Layer height: 0.2
;MINX:96.791
;MINY:101.744
;MINZ:0.3
;MAXX:138.204
;MAXY:139.926
;MAXZ:1.9
;Generated with Cura_SteamEngine 4.8.0
T0
M140 S60
M105
M190 S60
M104 S200
M105
M109 S200
M82 ;absolute extrusion mode
M201 X500.00 Y500.00 Z100.00 E5000.00 	;Setup machine max acceleration
M203 X500.00 Y500.00 Z10.00 E50.00 	;Setup machine max feedrate
M204 P500.00 R1000.00 T500.00 		;Setup Print/Retract/Travel acceleration
M205 X8.00 Y8.00 Z0.40 E5.00 		;Setup Jerk
M220 S100 				;Reset Feedrate
M221 S100 				;Reset Flowrate
G28				;Home the Machine
#G29 				;Bed Level
G92 E0
M300 P150 S587
G92 E0
G1 F1500 E-6.5
;LAYER_COUNT:9
;LAYER:0
M107
G0 F2160 X111.362 Y104.323 Z0.3
;TYPE:SKIRT
G1 F1500 E0
G1 F900 X111.817 Y103.89 E0.03134
G1 X112.48 Y103.363 E0.07359
G1 X112.948 Y103.048 E0.10173
G1 X113.426 Y102.771 E0.1293
G1 X113.878 Y102.541 E0.1546
G1 X114.377 Y102.329 E0.18165
G1 X115.279 Y102.035 E0.22898
G1 X115.812 Y101.908 E0.25631
G1 X116.408 Y101.811 E0.28644
G1 X117.302 Y101.744 E0.33117
G1 X117.837 Y101.748 E0.35786
G1 X118.348 Y101.785 E0.38342
G1 X118.877 Y101.853 E0.41003
G1 X119.45 Y101.966 E0.43917
G1 X120.331 Y102.223 E0.48495
G1 X120.841 Y102.418 E0.51219
G1 X121.394 Y102.675 E0.54262
G1 X122.187 Y103.135 E0.58835
G1 X122.618 Y103.434 E0.61452
G1 X123.075 Y103.797 E0.64364
G1 X123.382 Y104.074 E0.66427
G1 X123.859 Y104.558 E0.69817
G1 X124.383 Y105.196 E0.73936
G1 X124.851 Y105.887 E0.781
G1 X124.911 Y105.984 E0.78669
G1 X125.319 Y106.668 E0.82642
G1 X136.774 Y126.514 E1.96964
G1 X137.052 Y127.011 E1.99805
G1 X137.311 Y127.505 E2.02588
G1 X137.549 Y128.028 E2.05455
G1 X137.762 Y128.592 E2.08462
G1 X138.007 Y129.479 E2.13053
G1 X138.106 Y130.001 E2.15704
G1 X138.169 Y130.514 E2.18283
G1 X138.204 Y131.041 E2.20918
G1 X138.204 Y131.6 E2.23706
G1 X138.122 Y132.527 E2.28349
G1 X138.026 Y133.093 E2.31213
G1 X137.887 Y133.657 E2.34111
G1 X137.763 Y134.051 E2.36172
G1 X137.545 Y134.634 E2.39278
G1 X137.161 Y135.433 E2.437
G1 X136.891 Y135.895 E2.4637
G1 X136.598 Y136.33 E2.48987
G1 X136.278 Y136.75 E2.51621
G1 X135.868 Y137.218 E2.54725
G1 X135.581 Y137.507 E2.56757
G1 X135.155 Y137.891 E2.59618
G1 X134.412 Y138.45 E2.64257
G1 X133.972 Y138.727 E2.66851
G1 X133.484 Y138.992 E2.69621
G1 X133.013 Y139.213 E2.72217
G1 X132.515 Y139.41 E2.74889
G1 X132.086 Y139.548 E2.77137
G1 X131.46 Y139.711 E2.80365
G1 X130.624 Y139.851 E2.84593
G1 X129.869 Y139.91 E2.88372
G1 X129.742 Y139.914 E2.89006
G1 X128.917 Y139.926 E2.93122
G1 X106.009 Y139.926 E4.0741
G1 X105.46 Y139.918 E4.1015
G1 X104.757 Y139.887 E4.1366
G1 X104.234 Y139.836 E4.16282
G1 X103.689 Y139.744 E4.19039
G1 X102.796 Y139.512 E4.23643
G1 X102.253 Y139.322 E4.26513
G1 X101.728 Y139.097 E4.29362
G1 X101.347 Y138.906 E4.31489
G1 X100.801 Y138.59 E4.34636
G1 X100.093 Y138.091 E4.38957
G1 X99.655 Y137.726 E4.41802
G1 X99.235 Y137.325 E4.44699
G1 X98.625 Y136.627 E4.49324
G1 X98.31 Y136.201 E4.51967
G1 X98.033 Y135.769 E4.54527
G1 X97.762 Y135.291 E4.57268
G1 X97.525 Y134.798 E4.59997
G1 X97.349 Y134.371 E4.62302
G1 X97.185 Y133.893 E4.64823
G1 X97.052 Y133.423 E4.6726
G1 X96.932 Y132.868 E4.70093
G1 X96.812 Y131.91 E4.7491
G1 X96.791 Y131.367 E4.77621
G1 X96.81 Y130.746 E4.8072
G1 X96.92 Y129.852 E4.85214
G1 X97.031 Y129.307 E4.87989
G1 X97.192 Y128.732 E4.90968
G1 X97.501 Y127.912 E4.9534
G1 X97.855 Y127.182 E4.99387
G1 X97.914 Y127.073 E5.00006
G1 X98.284 Y126.41 E5.03794
G1 X109.715 Y106.613 E6.17844
G1 X110.061 Y106.032 E6.21217
G1 X110.362 Y105.558 E6.24019
G1 X110.696 Y105.091 E6.26883
G1 X111.072 Y104.635 E6.29832
G1 X111.362 Y104.323 E6.31957
G0 F2160 X111.639 Y104.612
G1 F900 X112.086 Y104.186 E6.35037
G1 X112.721 Y103.682 E6.39082
G1 X113.149 Y103.394 E6.41656
G1 X113.699 Y103.077 E6.44823
G1 X114.444 Y102.734 E6.48915
G1 X114.927 Y102.555 E6.51485
G1 X115.473 Y102.396 E6.54322
G1 X116.357 Y102.223 E6.58816
G1 X117.322 Y102.144 E6.63646
G1 X117.808 Y102.147 E6.66071
G1 X118.319 Y102.184 E6.68627
G1 X119.26 Y102.335 E6.73382
G1 X119.75 Y102.456 E6.759
G1 X120.295 Y102.632 E6.78757
G1 X120.673 Y102.781 E6.80784
G1 X121.226 Y103.038 E6.83826
G1 X121.977 Y103.475 E6.88161
G1 X122.743 Y104.042 E6.92916
G1 X123.098 Y104.355 E6.95277
G1 X123.503 Y104.764 E6.98149
G1 X124.067 Y105.441 E7.02545
G1 X124.514 Y106.103 E7.0653
G1 X124.948 Y106.827 E7.10741
G1 X136.425 Y126.709 E8.25273
G1 X136.748 Y127.289 E8.28585
G1 X137.01 Y127.797 E8.31437
G1 X137.352 Y128.636 E8.35957
G1 X137.618 Y129.575 E8.40826
G1 X137.709 Y130.05 E8.43239
G1 X137.772 Y130.563 E8.45818
G1 X137.805 Y131.507 E8.5053
G1 X137.78 Y132.012 E8.53053
G1 X137.713 Y132.575 E8.55881
G1 X137.533 Y133.431 E8.60245
G1 X137.388 Y133.911 E8.62747
G1 X137.17 Y134.494 E8.65852
G1 X136.806 Y135.249 E8.70034
G1 X136.559 Y135.672 E8.72478
G1 X136.266 Y136.107 E8.75094
G1 X135.648 Y136.864 E8.7997
G1 X135.312 Y137.211 E8.8238
G1 X134.892 Y137.59 E8.85202
G1 X134.181 Y138.124 E8.89638
G1 X133.781 Y138.375 E8.91994
G1 X133.293 Y138.64 E8.94765
G1 X132.486 Y138.993 E8.99159
G1 X131.985 Y139.161 E9.01795
G1 X131.359 Y139.324 E9.05023
G1 X130.569 Y139.455 E9.09018
G1 X129.849 Y139.51 E9.1262
G1 X129.737 Y139.514 E9.1318
G1 X128.912 Y139.526 E9.17296
G1 X106.014 Y139.526 E10.31534
G1 X105.366 Y139.515 E10.34768
G1 X104.701 Y139.483 E10.38089
G1 X103.864 Y139.369 E10.42304
G1 X103.363 Y139.26 E10.44862
G1 X102.807 Y139.097 E10.47752
G1 X102.41 Y138.954 E10.49858
G1 X101.885 Y138.729 E10.52707
G1 X101.547 Y138.56 E10.54593
G1 X101.009 Y138.249 E10.57693
G1 X100.333 Y137.77 E10.61826
G1 X99.931 Y137.436 E10.64434
G1 X99.518 Y137.042 E10.67281
G1 X98.934 Y136.373 E10.71712
G1 X98.647 Y135.985 E10.7412
G1 X98.315 Y135.465 E10.77198
G1 X97.923 Y134.706 E10.81459
G1 X97.727 Y134.241 E10.83977
G1 X97.563 Y133.763 E10.86498
G1 X97.443 Y133.338 E10.88701
G1 X97.323 Y132.783 E10.91534
G1 X97.211 Y131.874 E10.96104
G1 X97.191 Y131.378 E10.9858
G1 X97.209 Y130.767 E11.0163
G1 X97.315 Y129.911 E11.05933
G1 X97.417 Y129.413 E11.08469
G1 X97.574 Y128.852 E11.11376
G1 X97.872 Y128.062 E11.15588
G1 X98.21 Y127.365 E11.19453
G1 X98.631 Y126.61 E11.23765
G1 X110.059 Y106.818 E12.37786
G1 X110.459 Y106.149 E12.41675
G1 X110.745 Y105.703 E12.44318
G1 X111.005 Y105.345 E12.46526
G1 X111.381 Y104.889 E12.49474
G1 X111.639 Y104.612 E12.51363
G1 F1500 E6.01363
;MESH:Outer.stl
G0 F2160 X113.016 Y106.87
G0 X113.997 Y107.698
G0 X114.662 Y113.11
G0 X115.305 Y114.285
G0 X130.145 Y128.432
G0 X130.698 Y129.489
G0 X131.361 Y132.541
;TYPE:WALL-INNER
G1 F1500 E12.51363
G1 F900 X131.827 Y131.539 E12.56876
G1 X132.005 Y130.448 E12.62391
G1 X131.927 Y129.697 E12.66158
G1 X131.891 Y129.348 E12.67908
G1 X131.499 Y128.355 E12.73235
G1 X131.027 Y127.666 E12.77401
G1 X130.446 Y127.132 E12.81338
G1 X130.318 Y127.014 E12.82207
G1 X129.857 Y126.72 E12.84935
G1 X128.926 Y126.341 E12.89949
G1 X127.867 Y126.213 E12.95271
G1 X127.037 Y126.304 E12.99437
G1 X126.049 Y126.645 E13.04651
G1 X125.138 Y127.266 E13.10152
G1 X124.424 Y128.11 E13.15667
G1 X123.957 Y129.113 E13.21187
G1 X123.775 Y130.203 E13.267
G1 X123.894 Y131.303 E13.3222
G1 X124.295 Y132.328 E13.37712
G1 X124.958 Y133.214 E13.43232
G1 X125.833 Y133.893 E13.48758
G1 X126.425 Y134.134 E13.51947
G1 X126.859 Y134.311 E13.54285
G1 X127.918 Y134.438 E13.59606
G1 X128.748 Y134.347 E13.63772
G1 X129.369 Y134.134 E13.67048
G1 X129.736 Y134.007 E13.68985
G1 X130.646 Y133.385 E13.74484
G1 X131.361 Y132.541 E13.80003
G0 F2160 X131.021 Y132.324
G1 F900 X131.441 Y131.42 E13.84976
G1 X131.602 Y130.436 E13.8995
G1 X131.499 Y129.444 E13.94926
G1 X131.144 Y128.544 E13.99753
G1 X130.723 Y127.93 E14.03467
G1 X130.073 Y127.332 E14.07874
G1 X129.673 Y127.077 E14.1024
G1 X128.825 Y126.732 E14.14808
G1 X127.865 Y126.616 E14.19632
G1 X127.125 Y126.697 E14.23346
G1 X126.23 Y127.006 E14.2807
G1 X125.408 Y127.566 E14.33032
G1 X124.764 Y128.327 E14.38006
G1 X124.343 Y129.232 E14.42985
G1 X124.179 Y130.215 E14.47957
G1 X124.286 Y131.207 E14.52935
G1 X124.648 Y132.132 E14.57891
G1 X125.246 Y132.931 E14.6287
G1 X126.035 Y133.543 E14.67851
G1 X126.96 Y133.92 E14.72835
G1 X127.92 Y134.035 E14.77659
G1 X128.66 Y133.954 E14.81372
G1 X129.555 Y133.646 E14.86095
G1 X130.376 Y133.085 E14.91056
G1 X131.021 Y132.324 E14.96032
G0 F2160 X130.681 Y132.107
G1 F900 X131.055 Y131.301 E15.00465
G1 X131.199 Y130.424 E15.04899
G1 X131.107 Y129.54 E15.09333
G1 X130.789 Y128.733 E15.13661
G1 X130.419 Y128.194 E15.16923
G1 X129.828 Y127.65 E15.2093
G1 X129.489 Y127.434 E15.22936
G1 X128.724 Y127.123 E15.27055
G1 X127.863 Y127.019 E15.31382
G1 X127.213 Y127.09 E15.34644
G1 X126.411 Y127.367 E15.38877
G1 X125.678 Y127.866 E15.43301
G1 X125.104 Y128.544 E15.47733
G1 X124.729 Y129.351 E15.52173
G1 X124.583 Y130.227 E15.56604
G1 X124.678 Y131.111 E15.61039
G1 X125.001 Y131.936 E15.65459
G1 X125.534 Y132.648 E15.69897
G1 X126.237 Y133.193 E15.74335
G1 X127.061 Y133.529 E15.78774
G1 X127.922 Y133.632 E15.831
G1 X128.572 Y133.561 E15.86362
G1 X129.374 Y133.285 E15.90594
G1 X130.106 Y132.785 E15.95017
G1 X130.681 Y132.107 E15.99452
G0 F2160 X130.341 Y131.89
G1 F900 X130.669 Y131.182 E16.03345
G1 X130.796 Y130.412 E16.07238
G1 X130.715 Y129.636 E16.11131
G1 X130.434 Y128.922 E16.14959
G1 X130.115 Y128.458 E16.17768
G1 X129.583 Y127.968 E16.21376
G1 X129.305 Y127.791 E16.23021
G1 X128.623 Y127.514 E16.26693
G1 X127.861 Y127.422 E16.30522
G1 X127.301 Y127.483 E16.33333
G1 X126.592 Y127.728 E16.37075
G1 X125.948 Y128.166 E16.40961
G1 X125.444 Y128.761 E16.44851
G1 X125.115 Y129.47 E16.4875
G1 X124.987 Y130.239 E16.5264
G1 X125.07 Y131.015 E16.56533
G1 X125.354 Y131.74 E16.60418
G1 X125.822 Y132.365 E16.64313
G1 X126.439 Y132.843 E16.68207
G1 X127.162 Y133.138 E16.72103
G1 X127.924 Y133.229 E16.75932
G1 X128.484 Y133.168 E16.78742
G1 X129.193 Y132.924 E16.82483
G1 X129.836 Y132.485 E16.86367
G1 X130.341 Y131.89 E16.90261
G0 F2160 X130.001 Y131.673
;TYPE:WALL-OUTER
G1 F900 X130.283 Y131.063 E16.93614
G1 X130.393 Y130.4 E16.96966
G1 X130.323 Y129.732 E17.00317
G1 X130.079 Y129.111 E17.03646
G1 X129.811 Y128.722 E17.06003
G1 X129.338 Y128.286 E17.09212
G1 X129.121 Y128.148 E17.10495
G1 X128.522 Y127.905 E17.1372
G1 X127.859 Y127.825 E17.17052
G1 X127.389 Y127.876 E17.19411
G1 X126.773 Y128.089 E17.22662
G1 X126.218 Y128.466 E17.2601
G1 X125.784 Y128.978 E17.29358
G1 X125.501 Y129.589 E17.32718
G1 X125.391 Y130.251 E17.36066
G1 X125.462 Y130.919 E17.39417
G1 X125.707 Y131.544 E17.42766
G1 X126.11 Y132.082 E17.4612
G1 X126.641 Y132.493 E17.4947
G1 X127.263 Y132.747 E17.52822
G1 X127.926 Y132.826 E17.56153
G1 X128.396 Y132.775 E17.58511
G1 X129.012 Y132.563 E17.61762
G1 X129.566 Y132.185 E17.65108
G1 X130.001 Y131.673 E17.68459
G0 F2160 X130.084 Y131.492
G0 X130.483 Y131.677
G0 X130.537 Y131.703
G0 X129.862 Y132.514
G0 X128.492 Y133.207
G0 X110.052 Y130.238
G0 X109.589 Y128.74
G0 X108.424 Y127.692
G0 X106.889 Y127.389
G0 X105.548 Y127.848
G0 X103.037 Y129.771
;TYPE:WALL-INNER
G1 F900 X103.02 Y130.816 E17.73674
G1 X103.296 Y131.886 E17.79187
G1 X103.852 Y132.845 E17.84717
G1 X104.639 Y133.619 E17.90224
G1 X105.549 Y134.13 E17.95431
G1 X105.602 Y134.159 E17.95732
G1 X106.678 Y134.418 E18.01254
G1 X107.781 Y134.386 E18.06759
G1 X108.602 Y134.133 E18.11045
G1 X108.764 Y134.083 E18.11891
G1 X109.251 Y133.829 E18.14631
G1 X110.042 Y133.213 E18.19633
G1 X110.705 Y132.332 E18.25134
G1 X111.106 Y131.303 E18.30644
G1 X111.225 Y130.203 E18.36164
G1 X111.043 Y129.113 E18.41677
G1 X110.576 Y128.11 E18.47197
G1 X109.862 Y127.266 E18.52712
G1 X108.947 Y126.644 E18.58232
G1 X107.903 Y126.287 E18.63737
G1 X106.801 Y126.219 E18.69245
G1 X105.719 Y126.45 E18.74765
G1 X104.74 Y126.96 E18.80272
G1 X104.557 Y127.13 E18.81518
G1 X103.927 Y127.713 E18.85801
G1 X103.347 Y128.652 E18.91307
G1 X103.037 Y129.713 E18.96821
G1 X103.037 Y129.771 E18.97111
G0 F2160 X103.436 Y129.773
G1 F900 X103.421 Y130.768 E19.02076
G1 X103.67 Y131.733 E19.07048
G1 X104.171 Y132.598 E19.12035
G1 X104.881 Y133.296 E19.17002
G1 X105.749 Y133.783 E19.21967
G1 X106.72 Y134.017 E19.2695
G1 X107.715 Y133.988 E19.31917
G1 X108.611 Y133.712 E19.36594
G1 X109.034 Y133.491 E19.38975
G1 X109.754 Y132.93 E19.43529
G1 X110.352 Y132.135 E19.48492
G1 X110.714 Y131.207 E19.53462
G1 X110.821 Y130.215 E19.58439
G1 X110.657 Y129.232 E19.63411
G1 X110.236 Y128.327 E19.68391
G1 X109.592 Y127.566 E19.73365
G1 X108.767 Y127.005 E19.78342
G1 X107.825 Y126.683 E19.83309
G1 X106.831 Y126.622 E19.88277
G1 X105.856 Y126.83 E19.93251
G1 X104.972 Y127.29 E19.98223
G1 X104.239 Y127.969 E20.03207
G1 X103.716 Y128.816 E20.08174
G1 X103.436 Y129.773 E20.13148
G0 F2160 X103.835 Y129.833
G1 F900 X103.822 Y130.72 E20.17574
G1 X104.044 Y131.58 E20.22005
G1 X104.49 Y132.351 E20.26449
G1 X105.123 Y132.973 E20.30877
G1 X105.897 Y133.407 E20.35304
G1 X106.762 Y133.616 E20.39743
G1 X107.649 Y133.59 E20.44171
G1 X108.458 Y133.341 E20.48394
G1 X108.816 Y133.153 E20.50411
G1 X109.466 Y132.647 E20.54521
G1 X109.999 Y131.938 E20.58946
G1 X110.322 Y131.111 E20.63375
G1 X110.417 Y130.227 E20.67811
G1 X110.271 Y129.351 E20.72242
G1 X109.896 Y128.544 E20.76681
G1 X109.322 Y127.866 E20.81113
G1 X108.587 Y127.366 E20.85548
G1 X107.747 Y127.079 E20.89977
G1 X106.861 Y127.025 E20.94405
G1 X105.992 Y127.21 E20.98838
G1 X105.204 Y127.62 E21.0327
G1 X104.551 Y128.225 E21.07711
G1 X104.085 Y128.98 E21.12137
G1 X103.835 Y129.833 E21.16572
G0 F2160 X104.234 Y129.893
G1 F900 X104.223 Y130.672 E21.20459
G1 X104.418 Y131.427 E21.24349
G1 X104.809 Y132.104 E21.28249
G1 X105.365 Y132.65 E21.32137
G1 X106.045 Y133.031 E21.36026
G1 X106.804 Y133.215 E21.39922
G1 X107.583 Y133.192 E21.4381
G1 X108.305 Y132.97 E21.47579
G1 X108.598 Y132.816 E21.4923
G1 X109.178 Y132.364 E21.52899
G1 X109.646 Y131.741 E21.56786
G1 X109.93 Y131.015 E21.60676
G1 X110.013 Y130.239 E21.64569
G1 X109.885 Y129.47 E21.68458
G1 X109.556 Y128.761 E21.72358
G1 X109.052 Y128.166 E21.76248
G1 X108.407 Y127.727 E21.80141
G1 X107.669 Y127.475 E21.84031
G1 X106.891 Y127.428 E21.8792
G1 X106.128 Y127.59 E21.91811
G1 X105.436 Y127.95 E21.95703
G1 X104.863 Y128.481 E21.99601
G1 X104.454 Y129.144 E22.03487
G1 X104.234 Y129.893 E22.07382
G0 F2160 X104.633 Y129.953
;TYPE:WALL-OUTER
G1 F900 X104.624 Y130.624 E22.1073
G1 X104.792 Y131.274 E22.14079
G1 X105.128 Y131.857 E22.17436
G1 X105.607 Y132.327 E22.20784
G1 X106.193 Y132.655 E22.24135
G1 X106.846 Y132.814 E22.27488
G1 X107.517 Y132.794 E22.30837
G1 X108.152 Y132.599 E22.34151
G1 X108.38 Y132.479 E22.35436
G1 X108.89 Y132.081 E22.38664
G1 X109.293 Y131.544 E22.42013
G1 X109.538 Y130.919 E22.45362
G1 X109.609 Y130.251 E22.48714
G1 X109.499 Y129.589 E22.52062
G1 X109.216 Y128.978 E22.55421
G1 X108.782 Y128.466 E22.5877
G1 X108.227 Y128.088 E22.6212
G1 X107.591 Y127.871 E22.65473
G1 X106.921 Y127.831 E22.68821
G1 X106.264 Y127.97 E22.72171
G1 X105.668 Y128.28 E22.75523
G1 X105.175 Y128.737 E22.78877
G1 X104.823 Y129.308 E22.82223
G1 X104.633 Y129.953 E22.85578
G0 F2160 X104.631 Y130.153
G0 X104.191 Y130.147
G0 X104.131 Y130.146
G0 X104.389 Y129.23
G0 X114.939 Y109.101
;TYPE:WALL-INNER
G1 F900 X114.932 Y109.105 E22.85618
G1 X114.168 Y109.907 E22.91144
G1 X113.646 Y110.879 E22.96649
G1 X113.456 Y111.716 E23.00931
G1 X113.418 Y111.879 E23.01766
G1 X113.395 Y112.427 E23.04502
G1 X113.533 Y113.424 E23.09524
G1 X113.951 Y114.404 E23.14839
G1 X114.446 Y115.076 E23.19003
G1 X115.207 Y115.739 E23.24039
G1 X115.94 Y116.129 E23.28181
G1 X116.948 Y116.405 E23.33395
G1 X118.052 Y116.405 E23.38903
G1 X119.116 Y116.111 E23.4441
G1 X120.068 Y115.546 E23.49933
G1 X120.832 Y114.745 E23.55456
