;FLAVOR:Marlin
;TIME:767
;Filament used: 0.817892m, 0m
;Layer height: 0.2
;MINX:105.861
;MINY:107.919
;MINZ:0.3
;MAXX:147.271
;MAXY:146.1
;MAXZ:13.9
;Generated with Cura_SteamEngine 4.8.0
T0
M140 S60
M105
M190 S60
M104 S200
M105
M109 S200
M82 ;absolute extrusion mode
M201 X500.00 Y500.00 Z100.00 E5000.00 	;Setup machine max acceleration
M203 X500.00 Y500.00 Z10.00 E50.00 	;Setup machine max feedrate
M204 P500.00 R1000.00 T500.00 		;Setup Print/Retract/Travel acceleration
M205 X8.00 Y8.00 Z0.40 E5.00 		;Setup Jerk
M220 S100 				;Reset Feedrate
M221 S100 				;Reset Flowrate
G28				;Home the Machine
#G29 				;Bed Level
G92 E0
M300 P150 S587
G92 E0
G1 F1500 E-6.5
;LAYER_COUNT:69
;LAYER:0
M107
G0 F2160 X120.128 Y110.824 Z0.3
;TYPE:SKIRT
G1 F1500 E0
G1 F900 X120.435 Y110.496 E0.02241
G1 X120.907 Y110.05 E0.05481
G1 X121.237 Y109.773 E0.07631
G1 X121.714 Y109.42 E0.10591
G1 X122.103 Y109.17 E0.12898
G1 X122.659 Y108.86 E0.16074
G1 X123.041 Y108.675 E0.18192
G1 X123.585 Y108.451 E0.21127
G1 X124.01 Y108.307 E0.23365
G1 X124.623 Y108.14 E0.26535
G1 X125.06 Y108.049 E0.28762
G1 X125.613 Y107.97 E0.31549
G1 X126.09 Y107.931 E0.33937
G1 X126.702 Y107.919 E0.36991
G1 X127.143 Y107.937 E0.39193
G1 X127.772 Y108.002 E0.42347
G1 X128.216 Y108.076 E0.44593
G1 X128.78 Y108.207 E0.47482
G1 X129.205 Y108.334 E0.49695
G1 X129.819 Y108.559 E0.52957
G1 X130.228 Y108.739 E0.55187
G1 X130.76 Y109.013 E0.58172
G1 X131.137 Y109.236 E0.60357
G1 X131.656 Y109.589 E0.63489
G1 X132.002 Y109.857 E0.65672
G1 X132.435 Y110.236 E0.68543
G1 X132.752 Y110.55 E0.70769
G1 X133.193 Y111.045 E0.74077
G1 X133.47 Y111.398 E0.76315
G1 X133.78 Y111.848 E0.79042
G1 X133.903 Y112.039 E0.80175
G1 X134.443 Y112.941 E0.8542
G1 X145.831 Y132.67 E1.99069
G1 X146.142 Y133.23 E2.02265
G1 X146.405 Y133.735 E2.05105
G1 X146.616 Y134.207 E2.07685
G1 X146.84 Y134.808 E2.10885
G1 X146.97 Y135.234 E2.13107
G1 X147.106 Y135.807 E2.16045
G1 X147.18 Y136.234 E2.18207
G1 X147.243 Y136.792 E2.21008
G1 X147.271 Y137.301 E2.23552
G1 X147.264 Y137.913 E2.26605
G1 X147.232 Y138.355 E2.28816
G1 X147.153 Y138.939 E2.31756
G1 X147.065 Y139.377 E2.33985
G1 X146.899 Y140.004 E2.37221
G1 X146.762 Y140.419 E2.39401
G1 X146.553 Y140.942 E2.42211
G1 X146.348 Y141.374 E2.44597
G1 X146.046 Y141.92 E2.4771
G1 X145.81 Y142.292 E2.49908
G1 X145.443 Y142.798 E2.53026
G1 X145.158 Y143.143 E2.55259
G1 X144.753 Y143.576 E2.58217
G1 X144.432 Y143.88 E2.60422
G1 X143.952 Y144.281 E2.63543
G1 X143.6 Y144.54 E2.65723
G1 X143.124 Y144.848 E2.68552
G1 X142.702 Y145.086 E2.70969
G1 X142.153 Y145.353 E2.74014
G1 X141.728 Y145.528 E2.76307
G1 X141.152 Y145.722 E2.7934
G1 X140.733 Y145.835 E2.81505
G1 X140.12 Y145.962 E2.84628
G1 X139.684 Y146.025 E2.86826
G1 X139.111 Y146.072 E2.89694
G1 X138.877 Y146.084 E2.90863
G1 X137.912 Y146.1 E2.95678
G1 X115.078 Y146.1 E4.09597
G1 X114.561 Y146.093 E4.12177
G1 X113.793 Y146.059 E4.16012
G1 X113.286 Y146.006 E4.18556
G1 X112.711 Y145.907 E4.21466
G1 X112.298 Y145.81 E4.23583
G1 X111.695 Y145.631 E4.26721
G1 X111.274 Y145.477 E4.28958
G1 X110.724 Y145.236 E4.31953
G1 X110.324 Y145.031 E4.34196
G1 X109.786 Y144.71 E4.37321
G1 X109.425 Y144.463 E4.39504
G1 X108.948 Y144.093 E4.42515
G1 X108.62 Y143.805 E4.44693
G1 X108.178 Y143.367 E4.47798
G1 X107.874 Y143.025 E4.5008
G1 X107.501 Y142.547 E4.53105
G1 X107.259 Y142.195 E4.55236
G1 X106.942 Y141.671 E4.58292
G1 X106.733 Y141.272 E4.60539
G1 X106.477 Y140.697 E4.63679
G1 X106.322 Y140.281 E4.65894
G1 X106.154 Y139.729 E4.68773
G1 X106.052 Y139.301 E4.70968
G1 X105.94 Y138.66 E4.74214
G1 X105.89 Y138.214 E4.76453
G1 X105.861 Y137.616 E4.7944
G1 X105.867 Y137.174 E4.81646
G1 X105.914 Y136.544 E4.84797
G1 X105.973 Y136.108 E4.86992
G1 X106.085 Y135.546 E4.89851
G1 X106.197 Y135.123 E4.92034
G1 X106.399 Y134.51 E4.95254
G1 X106.567 Y134.09 E4.97511
G1 X106.832 Y133.533 E5.00589
G1 X106.937 Y133.33 E5.01729
G1 X107.399 Y132.5 E5.06468
G1 X118.794 Y112.766 E6.20156
G1 X119.107 Y112.242 E6.23201
G1 X119.452 Y111.7 E6.26407
G1 X119.764 Y111.266 E6.29073
G1 X120.128 Y110.824 E6.3193
G0 F2160 X120.437 Y111.079
G1 F900 X120.709 Y110.787 E6.33921
G1 X121.181 Y110.341 E6.37161
G1 X121.475 Y110.095 E6.39073
G1 X121.952 Y109.742 E6.42034
G1 X122.298 Y109.519 E6.44087
G1 X122.854 Y109.209 E6.47263
G1 X123.194 Y109.045 E6.49147
G1 X123.738 Y108.821 E6.52082
G1 X124.115 Y108.693 E6.54068
G1 X124.728 Y108.526 E6.57238
G1 X125.116 Y108.445 E6.59215
G1 X125.669 Y108.366 E6.62002
G1 X126.098 Y108.331 E6.64149
G1 X126.71 Y108.319 E6.67203
G1 X127.102 Y108.335 E6.69161
G1 X127.731 Y108.4 E6.72315
G1 X128.126 Y108.466 E6.74313
G1 X128.69 Y108.597 E6.77202
G1 X129.067 Y108.709 E6.79164
G1 X129.681 Y108.934 E6.82427
G1 X130.045 Y109.094 E6.8441
G1 X130.577 Y109.368 E6.87396
G1 X130.912 Y109.567 E6.8934
G1 X131.431 Y109.92 E6.92471
G1 X131.739 Y110.158 E6.94413
G1 X132.172 Y110.537 E6.97284
G1 X132.453 Y110.816 E6.9926
G1 X132.894 Y111.311 E7.02567
G1 X133.14 Y111.625 E7.04557
G1 X133.45 Y112.075 E7.07283
G1 X133.56 Y112.245 E7.08294
G1 X134.096 Y113.141 E7.13503
G1 X145.482 Y132.865 E8.27125
G1 X145.787 Y133.415 E8.30263
G1 X146.05 Y133.92 E8.33103
G1 X146.242 Y134.346 E8.35434
G1 X146.466 Y134.947 E8.38634
G1 X146.581 Y135.326 E8.4061
G1 X146.717 Y135.899 E8.43548
G1 X146.783 Y136.279 E8.45473
G1 X146.846 Y136.837 E8.48274
G1 X146.871 Y137.297 E8.50573
G1 X146.864 Y137.909 E8.53626
G1 X146.835 Y138.301 E8.55587
G1 X146.756 Y138.885 E8.58527
G1 X146.678 Y139.275 E8.60511
G1 X146.512 Y139.902 E8.63747
G1 X146.391 Y140.27 E8.6568
G1 X146.182 Y140.793 E8.6849
G1 X145.998 Y141.181 E8.70632
G1 X145.696 Y141.727 E8.73745
G1 X145.486 Y142.057 E8.75697
G1 X145.119 Y142.563 E8.78815
G1 X144.866 Y142.87 E8.808
G1 X144.461 Y143.303 E8.83758
G1 X144.176 Y143.573 E8.85716
G1 X143.696 Y143.974 E8.88837
G1 X143.382 Y144.205 E8.90782
G1 X142.906 Y144.513 E8.9361
G1 X142.528 Y144.727 E8.95777
G1 X141.979 Y144.994 E8.98823
G1 X141.6 Y145.149 E9.00866
G1 X141.024 Y145.343 E9.03898
G1 X140.652 Y145.443 E9.0582
G1 X140.039 Y145.57 E9.08943
G1 X139.652 Y145.626 E9.10894
G1 X139.079 Y145.673 E9.13762
G1 X138.87 Y145.684 E9.14807
G1 X137.905 Y145.7 E9.19622
G1 X115.084 Y145.7 E10.33476
G1 X114.463 Y145.69 E10.36575
G1 X113.811 Y145.66 E10.39831
G1 X113.354 Y145.612 E10.42123
G1 X112.779 Y145.513 E10.45034
G1 X112.411 Y145.427 E10.4692
G1 X111.808 Y145.248 E10.50058
G1 X111.435 Y145.111 E10.5204
G1 X110.885 Y144.87 E10.55036
G1 X110.529 Y144.687 E10.57033
G1 X109.991 Y144.366 E10.60159
G1 X109.67 Y144.146 E10.621
G1 X109.193 Y143.776 E10.65112
G1 X108.902 Y143.521 E10.67042
G1 X108.46 Y143.083 E10.70147
G1 X108.189 Y142.779 E10.72179
G1 X107.816 Y142.301 E10.75204
G1 X107.601 Y141.988 E10.77098
G1 X107.284 Y141.464 E10.80153
G1 X107.099 Y141.11 E10.82146
G1 X106.843 Y140.535 E10.85286
G1 X106.705 Y140.165 E10.87256
G1 X106.537 Y139.613 E10.90135
G1 X106.446 Y139.232 E10.92089
G1 X106.334 Y138.591 E10.95336
G1 X106.29 Y138.195 E10.97324
G1 X106.261 Y137.597 E11.00311
G1 X106.266 Y137.204 E11.02271
G1 X106.313 Y136.574 E11.05423
G1 X106.366 Y136.187 E11.07372
G1 X106.478 Y135.625 E11.10231
G1 X106.577 Y135.248 E11.12176
G1 X106.779 Y134.635 E11.15396
G1 X106.928 Y134.262 E11.174
G1 X107.193 Y133.705 E11.20477
G1 X107.287 Y133.524 E11.21494
G1 X107.746 Y132.7 E11.262
G1 X119.138 Y112.971 E12.39859
G1 X119.451 Y112.447 E12.42904
G1 X119.789 Y111.916 E12.46045
G1 X120.073 Y111.521 E12.48472
G1 X120.437 Y111.079 E12.51328
G1 F1500 E6.01328
;MESH:Inner.stl
G0 F2160 X121.702 Y113.604
G0 X122.773 Y114.313
G0 X119.048 Y137.131
G0 X117.694 Y140.306
;TYPE:WALL-INNER
G1 F1500 E12.51328
G1 F900 X118.566 Y139.851 E12.56235
G1 X119.372 Y139.095 E12.61749
G1 X119.931 Y138.169 E12.67145
G1 X120.191 Y137.364 E12.71365
G1 X120.194 Y137.32 E12.71585
G1 X120.276 Y136.396 E12.76213
G1 X120.281 Y136.35 E12.76444
G1 X120.166 Y135.511 E12.80669
G1 X119.798 Y134.559 E12.85761
G1 X119.326 Y133.858 E12.89977
G1 X118.576 Y133.163 E12.95079
G1 X117.841 Y132.741 E12.99307
G1 X116.904 Y132.461 E13.04186
G1 X116.86 Y132.447 E13.04416
G1 X116.815 Y132.445 E13.04641
G1 X116.017 Y132.393 E13.08631
G1 X115.009 Y132.558 E13.13727
G1 X114.267 Y132.864 E13.17731
G1 X113.657 Y133.255 E13.21346
G1 X113.604 Y133.289 E13.2166
G1 X112.864 Y134.054 E13.2697
G1 X112.347 Y135.002 E13.32357
G1 X112.12 Y135.815 E13.36568
G1 X112.116 Y135.922 E13.37103
G1 X112.075 Y136.84 E13.41687
G1 X112.237 Y137.673 E13.45921
G1 X112.644 Y138.604 E13.5099
G1 X113.146 Y139.284 E13.55207
G1 X113.931 Y139.945 E13.60327
G1 X114.628 Y140.303 E13.64236
G1 X114.683 Y140.331 E13.64544
G1 X115.674 Y140.581 E13.69643
G1 X116.518 Y140.597 E13.73854
G1 X117.557 Y140.377 E13.79153
G1 X117.694 Y140.306 E13.79923
G0 F2160 X117.421 Y139.997
G1 F900 X118.332 Y139.522 E13.85048
G1 X119.058 Y138.841 E13.90015
G1 X119.565 Y138.002 E13.94905
G1 X119.797 Y137.284 E13.9867
G1 X119.8 Y137.24 E13.9889
G1 X119.874 Y136.406 E14.03067
G1 X119.879 Y136.36 E14.03298
G1 X119.776 Y135.612 E14.07065
G1 X119.441 Y134.745 E14.11702
G1 X119.02 Y134.12 E14.15461
G1 X118.337 Y133.487 E14.20107
G1 X117.682 Y133.111 E14.23875
G1 X116.833 Y132.857 E14.28296
G1 X116.789 Y132.843 E14.28527
G1 X116.744 Y132.841 E14.28752
G1 X116.037 Y132.795 E14.32286
G1 X115.119 Y132.945 E14.36927
G1 X114.453 Y133.22 E14.40522
G1 X113.859 Y133.601 E14.44042
G1 X113.189 Y134.293 E14.48848
G1 X112.72 Y135.153 E14.53735
G1 X112.518 Y135.878 E14.5749
G1 X112.477 Y136.81 E14.62144
G1 X112.621 Y137.553 E14.6592
G1 X112.992 Y138.402 E14.70542
G1 X113.44 Y139.008 E14.74302
G1 X114.154 Y139.61 E14.78961
G1 X114.825 Y139.954 E14.82723
G1 X115.727 Y140.182 E14.87365
G1 X116.48 Y140.196 E14.91122
G1 X117.421 Y139.997 E14.95921
G0 F2160 X117.285 Y139.617
G1 F900 X118.098 Y139.193 E15.00495
G1 X118.744 Y138.587 E15.04914
G1 X119.174 Y137.875 E15.09064
G1 X119.199 Y137.835 E15.09299
G1 X119.403 Y137.204 E15.12608
G1 X119.406 Y137.16 E15.12828
G1 X119.472 Y136.416 E15.16554
G1 X119.477 Y136.37 E15.16785
G1 X119.386 Y135.713 E15.20094
G1 X119.084 Y134.931 E15.24277
G1 X118.714 Y134.382 E15.2758
G1 X118.098 Y133.811 E15.3177
G1 X117.523 Y133.481 E15.35078
G1 X116.718 Y133.239 E15.39271
G1 X116.673 Y133.237 E15.39496
G1 X116.057 Y133.197 E15.42576
G1 X115.229 Y133.332 E15.46761
G1 X114.639 Y133.576 E15.49946
G1 X114.114 Y133.913 E15.53059
G1 X113.514 Y134.532 E15.5736
G1 X113.093 Y135.304 E15.61747
G1 X112.916 Y135.941 E15.65045
G1 X112.879 Y136.781 E15.6924
G1 X113.005 Y137.434 E15.72558
G1 X113.34 Y138.2 E15.76729
G1 X113.734 Y138.732 E15.80032
G1 X114.377 Y139.275 E15.84231
G1 X114.967 Y139.577 E15.87537
G1 X115.78 Y139.783 E15.91722
G1 X116.442 Y139.795 E15.95025
G1 X117.285 Y139.617 E15.99323
G0 F2160 X117.149 Y139.237
G1 F900 X117.864 Y138.864 E16.03347
G1 X118.43 Y138.333 E16.07219
G1 X118.833 Y137.668 E16.11098
G1 X119.009 Y137.124 E16.13951
G1 X119.075 Y136.38 E16.17677
G1 X118.996 Y135.814 E16.20528
G1 X118.727 Y135.117 E16.24255
G1 X118.408 Y134.644 E16.27102
G1 X117.859 Y134.135 E16.30837
G1 X117.364 Y133.851 E16.33684
G1 X116.647 Y133.635 E16.3742
G1 X116.077 Y133.599 E16.40269
G1 X115.339 Y133.719 E16.44
G1 X114.825 Y133.932 E16.46775
G1 X114.369 Y134.225 E16.4948
G1 X113.839 Y134.771 E16.53276
G1 X113.466 Y135.455 E16.57163
G1 X113.314 Y136.004 E16.60005
G1 X113.281 Y136.752 E16.6374
G1 X113.389 Y137.315 E16.666
G1 X113.688 Y137.998 E16.7032
G1 X114.028 Y138.456 E16.73166
G1 X114.6 Y138.94 E16.76904
G1 X115.109 Y139.2 E16.79755
G1 X115.833 Y139.384 E16.83482
G1 X116.404 Y139.394 E16.86331
G1 X117.149 Y139.237 E16.9013
G0 F2160 X117.013 Y138.857
;TYPE:WALL-OUTER
G1 F900 X117.63 Y138.535 E16.93602
G1 X118.116 Y138.079 E16.96927
G1 X118.467 Y137.5 E17.00305
G1 X118.615 Y137.044 E17.02697
G1 X118.673 Y136.39 E17.05972
G1 X118.606 Y135.915 E17.08366
G1 X118.37 Y135.303 E17.11638
G1 X118.102 Y134.906 E17.14028
G1 X117.62 Y134.459 E17.17307
G1 X117.205 Y134.221 E17.19694
G1 X116.576 Y134.031 E17.22972
G1 X116.097 Y134.001 E17.25367
G1 X115.449 Y134.106 E17.28642
G1 X115.011 Y134.288 E17.31008
G1 X114.624 Y134.537 E17.33304
G1 X114.164 Y135.011 E17.36599
G1 X113.839 Y135.606 E17.39982
G1 X113.712 Y136.067 E17.42367
G1 X113.683 Y136.723 E17.45643
G1 X113.773 Y137.196 E17.48045
G1 X114.036 Y137.796 E17.51314
G1 X114.322 Y138.18 E17.53703
G1 X114.823 Y138.605 E17.5698
G1 X115.251 Y138.823 E17.59377
G1 X115.886 Y138.985 E17.62646
G1 X116.366 Y138.993 E17.65041
G1 X117.013 Y138.857 E17.6834
G0 F2160 X117.19 Y138.765
G0 X117.392 Y139.155
G0 X117.419 Y139.208
G0 X136.373 Y133.615
G0 X140.154 Y133.902
;TYPE:WALL-INNER
G1 F900 X139.51 Y133.306 E17.72717
G1 X139.322 Y133.132 E17.73995
G1 X139.274 Y133.108 E17.74263
G1 X138.339 Y132.623 E17.79518
G1 X137.242 Y132.392 E17.85111
G1 X136.158 Y132.466 E17.90532
G1 X135.348 Y132.716 E17.94761
G1 X134.465 Y133.23 E17.99858
G1 X133.849 Y133.811 E18.04083
G1 X133.283 Y134.661 E18.09178
G1 X133 Y135.413 E18.13186
G1 X132.859 Y136.189 E18.17121
G1 X132.91 Y137.212 E18.22231
G1 X133.142 Y138.023 E18.2644
G1 X133.635 Y138.918 E18.31537
G1 X134.2 Y139.546 E18.35752
G1 X135.037 Y140.135 E18.40858
G1 X135.465 Y140.307 E18.43159
G1 X135.822 Y140.45 E18.45078
G1 X136.785 Y140.6 E18.4994
G1 X136.83 Y140.608 E18.50168
G1 X137.672 Y140.55 E18.54379
G1 X138.461 Y140.307 E18.58498
G1 X138.652 Y140.248 E18.59495
G1 X139.381 Y139.823 E18.63705
G1 X140.125 Y139.122 E18.68805
G1 X140.595 Y138.418 E18.73028
G1 X140.955 Y137.46 E18.78134
G1 X141.066 Y136.625 E18.82336
G1 X140.998 Y135.883 E18.86054
G1 X140.973 Y135.606 E18.87441
G1 X140.704 Y134.805 E18.91657
G1 X140.154 Y133.902 E18.96932
G0 F2160 X139.841 Y134.158
G1 F900 X139.09 Y133.462 E19.0204
G1 X139.042 Y133.438 E19.02308
G1 X138.252 Y133.029 E19.06746
G1 X138.203 Y133.003 E19.07023
G1 X137.214 Y132.795 E19.12065
G1 X136.232 Y132.862 E19.16975
G1 X135.51 Y133.085 E19.20745
G1 X134.706 Y133.553 E19.25387
G1 X134.157 Y134.071 E19.29152
G1 X133.641 Y134.845 E19.33793
G1 X133.387 Y135.52 E19.37391
G1 X133.261 Y136.215 E19.40915
G1 X133.307 Y137.146 E19.45566
G1 X133.514 Y137.87 E19.49323
G1 X133.963 Y138.685 E19.53965
G1 X134.467 Y139.245 E19.57724
G1 X135.229 Y139.781 E19.62372
G1 X135.929 Y140.062 E19.66135
G1 X136.802 Y140.198 E19.70543
G1 X136.847 Y140.206 E19.70771
G1 X137.598 Y140.154 E19.74526
G1 X138.49 Y139.879 E19.79183
G1 X139.14 Y139.5 E19.82937
G1 X139.818 Y138.862 E19.87582
G1 X140.237 Y138.234 E19.91348
G1 X140.548 Y137.405 E19.95766
G1 X140.565 Y137.362 E19.95996
G1 X140.664 Y136.617 E19.99746
G1 X140.579 Y135.689 E20.04395
G1 X140.339 Y134.975 E20.08153
G1 X139.841 Y134.158 E20.12927
G0 F2160 X139.528 Y134.414
G1 F900 X138.858 Y133.792 E20.17488
G1 X138.81 Y133.768 E20.17755
G1 X138.117 Y133.409 E20.21649
G1 X138.068 Y133.383 E20.21926
G1 X137.186 Y133.198 E20.26422
G1 X136.306 Y133.258 E20.30822
G1 X135.672 Y133.454 E20.34133
G1 X134.947 Y133.876 E20.38318
G1 X134.465 Y134.331 E20.41625
G1 X133.999 Y135.029 E20.45812
G1 X133.774 Y135.627 E20.49
G1 X133.663 Y136.241 E20.52113
G1 X133.704 Y137.08 E20.56304
G1 X133.886 Y137.717 E20.59609
G1 X134.291 Y138.452 E20.63796
G1 X134.734 Y138.944 E20.67099
G1 X135.421 Y139.427 E20.71288
G1 X136.036 Y139.674 E20.74595
G1 X136.864 Y139.804 E20.78776
G1 X137.524 Y139.758 E20.82077
G1 X138.328 Y139.51 E20.86275
G1 X138.899 Y139.177 E20.89573
G1 X139.511 Y138.602 E20.93762
G1 X139.879 Y138.05 E20.97072
G1 X140.158 Y137.307 E21.01031
G1 X140.175 Y137.264 E21.01262
G1 X140.262 Y136.609 E21.04559
G1 X140.185 Y135.772 E21.08752
G1 X139.974 Y135.145 E21.12053
G1 X139.528 Y134.414 E21.16325
G0 F2160 X139.215 Y134.669
G1 F900 X138.626 Y134.122 E21.20335
