;FLAVOR:Marlin
;TIME:551
;Filament used: 0.593567m, 0m
;Layer height: 0.28
;MINX:44.592
;MINY:131.25
;MINZ:0.3
;MAXX:166.408
;MAXY:163.75
;MAXZ:1.14
;Generated with Cura_SteamEngine 4.7.1
T0
M140 S60
M105
M190 S60
M104 S190
M105
M109 S190
M82 ;absolute extrusion mode
M201 X500.00 Y500.00 Z100.00 E5000.00 	;Setup machine max acceleration
M203 X500.00 Y500.00 Z10.00 E50.00 	;Setup machine max feedrate
M204 P500.00 R1000.00 T500.00 		;Setup Print/Retract/Travel acceleration
M205 X8.00 Y8.00 Z0.40 E5.00 		;Setup Jerk
M220 S100 				;Reset Feedrate
M221 S100 				;Reset Flowrate
G28				;Home the Machine
G29 				;Bed Level
G92 E0
M300 P150 S587
G92 E0
;LAYER_COUNT:4
;LAYER:0
M107
G0 F1440 X51.384 Y132.052 Z0.3
;TYPE:SKIRT
G1 F600 X52.189 Y131.744 E0.043
G1 X52.722 Y131.584 E0.07076
G1 X53.412 Y131.423 E0.10611
G1 X54.201 Y131.306 E0.14591
G1 X54.73 Y131.265 E0.17238
G1 X55.396 Y131.25 E0.20561
G1 X56.111 Y131.292 E0.24135
G1 X56.255 Y131.306 E0.24856
G1 X59.022 Y131.63 E0.38755
G1 X61.727 Y131.871 E0.52304
G1 X64.723 Y132.049 E0.67278
G1 X65.315 Y132.118 E0.70251
G1 X65.986 Y132.25 E0.73663
G1 X67.049 Y132.55 E0.79173
G1 X69.653 Y133.241 E0.92614
G1 X72.311 Y133.869 E1.0624
G1 X75.011 Y134.425 E1.19993
G1 X77.701 Y134.899 E1.33621
G1 X80.375 Y135.294 E1.47106
G1 X83.117 Y135.619 E1.60882
G1 X85.803 Y135.862 E1.74337
G1 X88.526 Y136.029 E1.87947
G1 X91.259 Y136.121 E2.0159
G1 X93.987 Y136.135 E2.152
G1 X96.72 Y136.071 E2.28839
G1 X99.438 Y135.931 E2.42417
G1 X101.66 Y135.759 E2.53536
G1 X102.086 Y135.723 E2.55669
G1 X102.853 Y135.663 E2.59507
G1 X103.516 Y135.618 E2.62823
G1 X104.265 Y135.575 E2.66565
G1 X105.172 Y135.542 E2.71094
G1 X105.33 Y135.54 E2.71882
G1 X105.859 Y135.544 E2.74521
G1 X106.868 Y135.581 E2.79558
G1 X107.582 Y135.623 E2.83127
G1 X108.537 Y135.691 E2.87903
G1 X109.594 Y135.778 E2.93195
G1 X112.188 Y135.969 E3.06171
G1 X114.916 Y136.093 E3.19795
G1 X117.611 Y136.139 E3.33243
G1 X120.375 Y136.107 E3.47033
G1 X123.071 Y136.001 E3.60494
G1 X125.827 Y135.813 E3.74276
G1 X128.514 Y135.554 E3.87743
G1 X131.228 Y135.214 E4.01389
G1 X133.921 Y134.8 E4.14983
G1 X136.611 Y134.308 E4.28626
G1 X139.262 Y133.744 E4.42148
G1 X141.887 Y133.11 E4.5562
G1 X143.633 Y132.62 E4.64668
G1 X143.852 Y132.576 E4.65782
G1 X145.153 Y132.22 E4.72511
G1 X145.297 Y132.184 E4.73252
G1 X145.938 Y132.085 E4.76488
G1 X147.928 Y131.956 E4.86437
G1 X147.964 Y131.951 E4.86618
G1 X149.418 Y131.864 E4.93885
G1 X152.131 Y131.624 E5.07473
G1 X155.045 Y131.282 E5.22111
G1 X155.663 Y131.253 E5.25198
G1 X156.36 Y131.266 E5.28676
G1 X157.151 Y131.348 E5.32643
G1 X157.766 Y131.458 E5.3576
G1 X158.362 Y131.604 E5.38821
G1 X159.122 Y131.852 E5.4281
G1 X159.696 Y132.089 E5.45908
G1 X160.297 Y132.381 E5.49242
G1 X160.991 Y132.791 E5.53263
G1 X161.45 Y133.111 E5.56055
G1 X161.965 Y133.514 E5.59317
G1 X162.564 Y134.067 E5.63384
G1 X162.975 Y134.506 E5.66384
G1 X163.399 Y135.02 E5.69709
G1 X163.841 Y135.652 E5.73556
G1 X164.151 Y136.173 E5.76581
G1 X164.464 Y136.78 E5.79988
G1 X164.758 Y137.485 E5.83799
G1 X164.954 Y138.067 E5.86863
G1 X165.132 Y138.749 E5.90379
G1 X165.235 Y139.303 E5.93191
G1 X165.34 Y140.08 E5.97102
G1 X165.391 Y140.577 E5.99595
G1 X166.325 Y151.188 E6.52738
G1 X166.391 Y152.072 E6.57161
G1 X166.408 Y152.7 E6.60295
G1 X166.393 Y153.227 E6.62925
G1 X166.327 Y153.942 E6.66508
G1 X166.196 Y154.692 E6.70306
G1 X166.05 Y155.273 E6.73295
G1 X165.867 Y155.857 E6.76348
G1 X165.538 Y156.666 E6.80705
G1 X165.286 Y157.176 E6.83543
G1 X164.972 Y157.725 E6.86698
G1 X164.774 Y158.028 E6.88504
G1 X164.48 Y158.442 E6.91038
G1 X164.114 Y158.899 E6.93959
G1 X163.66 Y159.396 E6.97317
G1 X163.104 Y159.917 E7.01118
G1 X162.669 Y160.273 E7.03923
G1 X162.113 Y160.671 E7.07334
G1 X161.418 Y161.088 E7.11378
G1 X160.889 Y161.356 E7.14336
G1 X160.289 Y161.615 E7.17597
G1 X159.544 Y161.867 E7.2152
G1 X158.975 Y162.017 E7.24456
G1 X158.33 Y162.144 E7.27736
G1 X157.612 Y162.227 E7.31342
G1 X157.255 Y162.254 E7.33128
G1 X154.905 Y162.389 E7.44871
G1 X152.162 Y162.623 E7.58606
G1 X149.322 Y162.95 E7.72868
G1 X148.77 Y163.011 E7.75639
G1 X148.172 Y163.033 E7.78625
G1 X147.636 Y163.002 E7.81303
G1 X146.177 Y162.781 E7.88665
G1 X143.486 Y162.411 E8.02217
G1 X140.738 Y162.111 E8.16008
G1 X138.047 Y161.895 E8.29477
G1 X135.322 Y161.753 E8.4309
G1 X132.592 Y161.689 E8.56714
G1 X129.861 Y161.702 E8.70339
G1 X127.132 Y161.792 E8.83962
G1 X124.443 Y161.956 E8.97402
G1 X121.685 Y162.204 E9.11217
G1 X119 Y162.521 E9.24706
G1 X116.36 Y162.894 E9.38008
G1 X115.644 Y162.989 E9.41611
G1 X115.06 Y163.061 E9.44547
G1 X114.12 Y163.172 E9.49269
G1 X113.11 Y163.28 E9.54337
G1 X112.222 Y163.366 E9.58788
G1 X111.407 Y163.437 E9.62869
G1 X110.446 Y163.514 E9.67679
G1 X109.375 Y163.589 E9.73035
G1 X108.339 Y163.649 E9.78213
G1 X107.114 Y163.708 E9.84331
G1 X106.358 Y163.735 E9.88105
G1 X105.659 Y163.75 E9.91594
G1 X104.97 Y163.746 E9.95031
G1 X104.296 Y163.724 E9.98395
G1 X103.576 Y163.695 E10.0199
G1 X102.638 Y163.648 E10.06676
G1 X101.742 Y163.597 E10.11153
G1 X101.717 Y163.594 E10.11279
G1 X100.771 Y163.531 E10.16009
G1 X99.902 Y163.464 E10.20357
G1 X99.083 Y163.394 E10.24458
G1 X98.458 Y163.336 E10.2759
G1 X97.401 Y163.229 E10.3289
G1 X96.279 Y163.103 E10.38523
G1 X95.574 Y163.016 E10.42067
G1 X94.652 Y162.895 E10.46706
G1 X93.992 Y162.804 E10.5003
G1 X93.433 Y162.723 E10.52848
G1 X90.72 Y162.36 E10.66504
G1 X88.03 Y162.077 E10.79999
G1 X85.279 Y161.867 E10.93763
G1 X82.549 Y161.736 E11.07399
G1 X79.854 Y161.682 E11.20847
G1 X77.123 Y161.705 E11.34473
G1 X74.357 Y161.807 E11.48282
G1 X71.673 Y161.981 E11.617
G1 X68.949 Y162.237 E11.7535
G1 X66.265 Y162.565 E11.8884
G1 X63.973 Y162.906 E12.00401
G1 X63.468 Y162.987 E12.02953
G1 X62.831 Y163.033 E12.06139
G1 X62.017 Y162.994 E12.10205
G1 X61.136 Y162.884 E12.14634
G1 X58.402 Y162.582 E12.28357
G1 X55.681 Y162.358 E12.41978
G1 X54.105 Y162.271 E12.49853
G1 X53.272 Y162.211 E12.54019
G1 X52.656 Y162.136 E12.57115
G1 X52.067 Y162.023 E12.60107
G1 X51.397 Y161.852 E12.63557
G1 X50.871 Y161.675 E12.66326
G1 X50.286 Y161.437 E12.69477
G1 X49.707 Y161.157 E12.72686
G1 X48.989 Y160.737 E12.76836
G1 X48.511 Y160.408 E12.79731
G1 X48.014 Y160.019 E12.82879
G1 X47.42 Y159.474 E12.86901
G1 X46.993 Y159.021 E12.90007
G1 X46.563 Y158.502 E12.9337
G1 X46.119 Y157.866 E12.97239
G1 X45.831 Y157.389 E13.00019
G1 X45.509 Y156.769 E13.03505
G1 X45.208 Y156.058 E13.07357
G1 X45.01 Y155.476 E13.10424
G1 X44.826 Y154.785 E13.13991
G1 X44.691 Y154.047 E13.17734
G1 X44.627 Y153.482 E13.20571
G1 X44.592 Y152.83 E13.23829
G1 X44.61 Y152.091 E13.27517
G1 X44.616 Y151.982 E13.28061
G1 X44.687 Y151.018 E13.32884
G1 X45.601 Y140.653 E13.84795
G1 X45.691 Y139.791 E13.89119
G1 X45.785 Y139.15 E13.92352
G1 X45.909 Y138.567 E13.95325
G1 X46.096 Y137.896 E13.988
G1 X46.346 Y137.214 E14.02424
G1 X46.594 Y136.661 E14.05448
G1 X46.919 Y136.04 E14.08945
G1 X47.353 Y135.361 E14.12965
G1 X47.674 Y134.926 E14.15662
G1 X48.07 Y134.454 E14.18736
G1 X48.675 Y133.836 E14.23051
G1 X49.102 Y133.459 E14.25893
G1 X49.624 Y133.054 E14.29189
G1 X50.288 Y132.618 E14.33152
G1 X50.77 Y132.349 E14.35906
G1 X51.384 Y132.052 E14.39309
G0 F1440 X51.539 Y132.42
G1 F600 X52.324 Y132.121 E14.43499
G1 X52.818 Y131.972 E14.46074
G1 X53.479 Y131.817 E14.49461
G1 X54.254 Y131.703 E14.53369
G1 X55.206 Y131.65 E14.58126
G1 X55.386 Y131.65 E14.59024
G1 X56.08 Y131.691 E14.62492
G1 X56.208 Y131.704 E14.63134
G1 X58.976 Y132.028 E14.77038
G1 X61.698 Y132.271 E14.90672
G1 X64.7 Y132.449 E15.05676
G1 X65.262 Y132.515 E15.08499
G1 X65.877 Y132.636 E15.11626
G1 X66.895 Y132.922 E15.16901
G1 X69.598 Y133.64 E15.30854
G1 X72.23 Y134.261 E15.44346
G1 X74.932 Y134.817 E15.58109
G1 X77.61 Y135.29 E15.71676
G1 X80.336 Y135.692 E15.85423
G1 X83.07 Y136.016 E15.99159
G1 X85.776 Y136.26 E16.12714
G1 X88.525 Y136.43 E16.26455
G1 X91.244 Y136.521 E16.40027
G1 X93.994 Y136.535 E16.53747
G1 X96.715 Y136.471 E16.67326
G1 X99.489 Y136.329 E16.81184
G1 X101.695 Y136.158 E16.92223
G1 X102.117 Y136.122 E16.94336
G1 X102.88 Y136.063 E16.98154
G1 X103.539 Y136.017 E17.01449
G1 X104.28 Y135.975 E17.05152
G1 X105.187 Y135.942 E17.0968
G1 X105.327 Y135.94 E17.10379
G1 X105.856 Y135.944 E17.13018
G1 X105.952 Y135.946 E17.13497
G1 X106.844 Y135.98 E17.17951
G1 X107.554 Y136.022 E17.21499
G1 X108.504 Y136.09 E17.26251
G1 X109.56 Y136.177 E17.31537
G1 X112.139 Y136.367 E17.44438
G1 X114.892 Y136.492 E17.58187
G1 X117.644 Y136.538 E17.71919
G1 X120.396 Y136.507 E17.8565
G1 X123.078 Y136.401 E17.99041
G1 X125.856 Y136.212 E18.12932
G1 X128.569 Y135.95 E18.2653
G1 X131.267 Y135.612 E18.40096
G1 X133.983 Y135.195 E18.53805
G1 X136.694 Y134.699 E18.67555
G1 X139.368 Y134.131 E18.81193
G1 X141.979 Y133.499 E18.94596
G1 X143.741 Y133.005 E19.03725
G1 X143.955 Y132.963 E19.04813
G1 X145.25 Y132.609 E19.11511
G1 X145.394 Y132.573 E19.12252
G1 X145.963 Y132.484 E19.15125
G1 X147.938 Y132.356 E19.24999
G1 X147.988 Y132.351 E19.25249
G1 X149.406 Y132.266 E19.32337
G1 X152.18 Y132.021 E19.4623
G1 X155.092 Y131.679 E19.60858
G1 X155.671 Y131.653 E19.63749
G1 X156.329 Y131.665 E19.67033
G1 X157.104 Y131.745 E19.7092
G1 X157.674 Y131.848 E19.7381
G1 X158.25 Y131.988 E19.76767
G1 X158.992 Y132.23 E19.80661
G1 X159.524 Y132.45 E19.83533
G1 X160.104 Y132.731 E19.86748
G1 X160.782 Y133.132 E19.90678
G1 X161.206 Y133.428 E19.93258
G1 X161.704 Y133.817 E19.96411
G1 X162.288 Y134.357 E20.00379
G1 X162.67 Y134.764 E20.03164
G1 X163.077 Y135.257 E20.06353
G1 X163.51 Y135.876 E20.10122
G1 X163.798 Y136.362 E20.1294
G1 X164.099 Y136.943 E20.16205
G1 X164.387 Y137.634 E20.1994
G1 X164.568 Y138.175 E20.22786
G1 X164.74 Y138.826 E20.26145
G1 X164.838 Y139.356 E20.28834
G1 X164.943 Y140.133 E20.32746
G1 X164.993 Y140.612 E20.35149
G1 X165.869 Y150.553 E20.84937
G1 X165.922 Y151.176 E20.88056
G1 X165.987 Y152.026 E20.92309
G1 X166.008 Y152.708 E20.95713
G1 X165.958 Y153.65 E21.00419
G1 X165.873 Y154.248 E21.03433
G1 X165.755 Y154.832 E21.06405
G1 X165.542 Y155.569 E21.10233
G1 X165.365 Y156.054 E21.12808
G1 X165.102 Y156.658 E21.16095
G1 X164.716 Y157.374 E21.20153
G1 X164.448 Y157.797 E21.22652
G1 X164.154 Y158.211 E21.25185
G1 X163.814 Y158.634 E21.27892
G1 X163.382 Y159.109 E21.31096
G1 X162.834 Y159.622 E21.34841
G1 X162.433 Y159.95 E21.37425
G1 X161.897 Y160.334 E21.40715
G1 X161.217 Y160.742 E21.44671
G1 X160.727 Y160.99 E21.47411
G1 X160.15 Y161.24 E21.50548
G1 X159.422 Y161.486 E21.54382
G1 X158.893 Y161.625 E21.57111
G1 X158.272 Y161.748 E21.60269
G1 X157.573 Y161.829 E21.6378
G1 X157.232 Y161.855 E21.65486
G1 X154.849 Y161.992 E21.77395
G1 X152.15 Y162.222 E21.90909
G1 X149.249 Y162.556 E22.05477
G1 X148.748 Y162.612 E22.07992
G1 X148.166 Y162.633 E22.10898
G1 X147.591 Y162.592 E22.13774
G1 X146.229 Y162.385 E22.20647
G1 X143.509 Y162.01 E22.34346
G1 X140.816 Y161.717 E22.4786
G1 X138.064 Y161.496 E22.61634
G1 X135.318 Y161.353 E22.75353
G1 X132.6 Y161.289 E22.88917
G1 X129.846 Y161.302 E23.02656
G1 X127.131 Y161.391 E23.16209
G1 X124.381 Y161.56 E23.29955
G1 X121.674 Y161.803 E23.43514
G1 X118.942 Y162.126 E23.57239
G1 X116.307 Y162.497 E23.70515
G1 X115.594 Y162.592 E23.74103
G1 X115.013 Y162.664 E23.77024
G1 X114.098 Y162.772 E23.81621
G1 X113.071 Y162.882 E23.86774
G1 X112.187 Y162.968 E23.91205
G1 X111.375 Y163.039 E23.95272
G1 X110.418 Y163.115 E24.00061
G1 X109.352 Y163.19 E24.05393
G1 X108.356 Y163.248 E24.1037
G1 X107.171 Y163.304 E24.16289
G1 X107.099 Y163.308 E24.16648
G1 X106.349 Y163.335 E24.20393
G1 X105.657 Y163.35 E24.23846
G1 X104.979 Y163.346 E24.27228
G1 X104.312 Y163.324 E24.30558
G1 X103.596 Y163.295 E24.34133
G1 X102.661 Y163.249 E24.38803
G1 X101.765 Y163.198 E24.43281
G1 X101.731 Y163.193 E24.43452
G1 X101.119 Y163.154 E24.46512
G1 X100.802 Y163.132 E24.48097
G1 X99.936 Y163.065 E24.5243
G1 X99.12 Y162.995 E24.56516
G1 X98.497 Y162.938 E24.59638
G1 X97.445 Y162.832 E24.64913
G1 X96.327 Y162.706 E24.70526
G1 X95.626 Y162.62 E24.74049
G1 X94.707 Y162.499 E24.78674
G1 X94.049 Y162.408 E24.81988
G1 X93.525 Y162.332 E24.84629
G1 X90.743 Y161.96 E24.98632
G1 X88.066 Y161.678 E25.12062
G1 X85.294 Y161.467 E25.25931
G1 X82.575 Y161.336 E25.39512
G1 X79.858 Y161.282 E25.5307
G1 X77.106 Y161.306 E25.668
G1 X74.351 Y161.407 E25.80554
G1 X71.646 Y161.582 E25.94078
G1 X68.896 Y161.84 E26.07858
G1 X66.204 Y162.169 E26.21388
G1 X63.91 Y162.511 E26.3296
G1 X63.405 Y162.592 E26.35511
G1 X62.836 Y162.633 E26.38357
G1 X62.067 Y162.597 E26.42198
G1 X61.197 Y162.489 E26.46572
G1 X58.407 Y162.18 E26.60576
G1 X55.702 Y161.958 E26.74117
G1 X54.134 Y161.872 E26.81952
G1 X53.301 Y161.812 E26.86118
G1 X52.731 Y161.743 E26.88983
G1 X52.142 Y161.63 E26.91975
G1 X51.52 Y161.471 E26.95178
G1 X51.001 Y161.297 E26.97909
G1 X50.456 Y161.074 E27.00846
G1 X49.9 Y160.806 E27.03926
G1 X49.197 Y160.395 E27.07989
G1 X48.755 Y160.09 E27.10668
G1 X48.275 Y159.716 E27.13704
G1 X47.695 Y159.184 E27.1763
G1 X47.297 Y158.762 E27.20524
G1 X46.886 Y158.266 E27.23738
G1 X46.45 Y157.642 E27.27536
G1 X46.184 Y157.2 E27.30109
G1 X45.873 Y156.604 E27.33463
G1 X45.579 Y155.908 E27.37233
G1 X45.396 Y155.369 E27.40072
G1 X45.217 Y154.703 E27.43513
G1 X45.086 Y153.98 E27.47179
G1 X45.026 Y153.456 E27.4981
G1 X44.992 Y152.828 E27.52948
G1 X45.01 Y152.108 E27.56541
G1 X45.015 Y152.011 E27.57026
G1 X45.085 Y151.053 E27.61818
G1 X45.999 Y140.695 E28.13695
G1 X46.089 Y139.833 E28.18019
G1 X46.18 Y139.212 E28.2115
G1 X46.296 Y138.669 E28.2392
G1 X46.474 Y138.027 E28.27244
G1 X46.72 Y137.357 E28.30805
G1 X46.95 Y136.842 E28.33619
G1 X47.263 Y136.246 E28.36977
G1 X47.687 Y135.582 E28.40908
G1 X47.984 Y135.179 E28.43406
G1 X48.364 Y134.726 E28.46355
G1 X48.955 Y134.121 E28.50575
G1 X49.349 Y133.773 E28.53198
G1 X49.854 Y133.381 E28.56387
G1 X50.502 Y132.956 E28.60253
G1 X50.959 Y132.701 E28.62864
G1 X51.539 Y132.42 E28.66079
;MESH:TB_V13-1mm.stl
G0 F1440 X51.343 Y135.424
G0 X52.045 Y136.499
G0 X50.836 Y142.746
;TYPE:WALL-INNER
G1 F900 X50.975 Y143.089 E28.67926
G1 X51.157 Y143.362 E28.69563
G1 X51.519 Y143.904 E28.72814
G1 X52.22 Y144.594 E28.77722
G1 X53.045 Y145.124 E28.82614
G1 X53.958 Y145.478 E28.87499
G1 X54.927 Y145.637 E28.92398
G1 X55.908 Y145.598 E28.97296
G1 X56.86 Y145.36 E29.02192
G1 X57.745 Y144.932 E29.07097
G1 X58.52 Y144.339 E29.11965
G1 X59.167 Y143.594 E29.16888
G1 X59.441 Y143.096 E29.19724
G1 X59.6 Y142.807 E29.21369
G1 X59.62 Y142.771 E29.21575
G1 X59.64 Y142.736 E29.21776
G1 X59.652 Y142.696 E29.21984
G1 X59.657 Y142.681 E29.22063
G1 X59.665 Y142.732 E29.22155
G1 X59.684 Y142.852 E29.22435
G1 X59.799 Y143.161 E29.2351
G1 X60.031 Y143.778 E29.26798
G1 X60.595 Y144.679 E29.32102
G1 X61.242 Y145.247 E29.36397
G1 X62.166 Y145.67 E29.41467
G1 X62.86 Y145.872 E29.45073
G1 X63.567 Y146.019 E29.48676
G1 X64.169 Y146.111 E29.51714
G1 X64.804 Y146.178 E29.54899
G1 X65.465 Y146.228 E29.58207
G1 X66.241 Y146.266 E29.62083
G1 X67.104 Y146.283 E29.66389
G1 X68.057 Y146.283 E29.71144
G1 X68.639 Y146.271 E29.74048
G1 X69.18 Y146.255 E29.76748
G1 X69.751 Y146.234 E29.79599
G1 X70.964 Y146.167 E29.8566
G1 X71.536 Y146.132 E29.88519
G1 X72.287 Y146.077 E29.92276
G1 X72.987 Y146.021 E29.95779
G1 X74.454 Y145.884 E30.0313
G1 X75.138 Y145.816 E30.06559
G1 X75.928 Y145.732 E30.10523
G1 X76.743 Y145.636 E30.14617
G1 X77.668 Y145.523 E30.19266
G1 X78.515 Y145.415 E30.23526
G1 X80.141 Y145.191 E30.31715
G1 X81.119 Y145.049 E30.36645
G1 X82.766 Y144.791 E30.44962
G1 X84.583 Y144.483 E30.54156
G1 X85.421 Y144.335 E30.58402
G1 X85.736 Y144.276 E30.60001
G1 X86.095 Y144.209 E30.61823
G1 X86.233 Y144.183 E30.62523
G1 X86.641 Y144.103 E30.64598
