;FLAVOR:Marlin
;TIME:2535
;Filament used: 2.87797m, 0m
;Layer height: 0.28
;MINX:46.621
;MINY:35.251
;MINZ:0.3
;MAXX:169.712
;MAXY:195.75
;MAXZ:1.14
;Generated with Cura_SteamEngine 4.7.1
T0
M140 S60
M105
M190 S60
M104 S190
M105
M109 S190
M82 ;absolute extrusion mode
M201 X500.00 Y500.00 Z100.00 E5000.00 	;Setup machine max acceleration
M203 X500.00 Y500.00 Z10.00 E50.00 	;Setup machine max feedrate
M204 P500.00 R1000.00 T500.00 		;Setup Print/Retract/Travel acceleration
M205 X8.00 Y8.00 Z0.40 E5.00 		;Setup Jerk
M220 S100 				;Reset Feedrate
M221 S100 				;Reset Flowrate
G28				;Home the Machine
#G29 				;Bed Level
G92 E0
M300 P150 S587
G92 E0
;LAYER_COUNT:4
;LAYER:0
M107
G0 F1440 X50.985 Y38.919 Z0.3
;TYPE:SKIRT
G1 F600 X51.373 Y38.454 E0.03021
G1 X51.978 Y37.836 E0.07336
G1 X52.406 Y37.459 E0.10182
G1 X52.928 Y37.054 E0.13478
G1 X53.591 Y36.618 E0.17437
G1 X54.079 Y36.346 E0.20224
G1 X54.717 Y36.039 E0.23756
G1 X55.493 Y35.744 E0.27898
G1 X56.026 Y35.584 E0.30675
G1 X56.716 Y35.423 E0.34209
G1 X57.505 Y35.306 E0.38189
G1 X58.044 Y35.263 E0.40886
G1 X58.708 Y35.251 E0.442
G1 X59.407 Y35.292 E0.47693
G1 X59.558 Y35.306 E0.4845
G1 X62.325 Y35.63 E0.62348
G1 X65.028 Y35.871 E0.75887
G1 X68.025 Y36.049 E0.90866
G1 X68.605 Y36.116 E0.93779
G1 X69.274 Y36.247 E0.9718
G1 X70.338 Y36.545 E1.02692
G1 X73.034 Y37.26 E1.16608
G1 X75.65 Y37.877 E1.30017
G1 X78.344 Y38.43 E1.43738
G1 X81.006 Y38.899 E1.57223
G1 X83.753 Y39.304 E1.71076
G1 X86.417 Y39.619 E1.84459
G1 X89.178 Y39.867 E1.98289
G1 X91.868 Y40.031 E2.11735
G1 X94.596 Y40.121 E2.25352
G1 X97.328 Y40.135 E2.38982
G1 X100.057 Y40.07 E2.52601
G1 X102.783 Y39.928 E2.6622
G1 X104.996 Y39.757 E2.77293
G1 X105.34 Y39.727 E2.79016
G1 X106.164 Y39.663 E2.8314
G1 X106.889 Y39.614 E2.86765
G1 X107.546 Y39.576 E2.90048
G1 X108.481 Y39.542 E2.94716
G1 X108.639 Y39.54 E2.95504
G1 X109.163 Y39.544 E2.98119
G1 X110.172 Y39.581 E3.03156
G1 X110.886 Y39.623 E3.06724
G1 X111.841 Y39.691 E3.11501
G1 X112.85 Y39.774 E3.16552
G1 X112.874 Y39.774 E3.16671
G1 X115.339 Y39.96 E3.29004
G1 X118.063 Y40.087 E3.42609
G1 X120.76 Y40.138 E3.56067
G1 X123.522 Y40.111 E3.69847
G1 X126.219 Y40.008 E3.83313
G1 X128.941 Y39.828 E3.96922
G1 X131.663 Y39.57 E4.10563
G1 X134.371 Y39.236 E4.24176
G1 X137.071 Y38.825 E4.37801
G1 X139.734 Y38.342 E4.51304
G1 X142.414 Y37.777 E4.64968
G1 X145.041 Y37.147 E4.78446
G1 X146.91 Y36.64 E4.88108
G1 X146.953 Y36.632 E4.88326
G1 X148.403 Y36.234 E4.95828
G1 X148.61 Y36.182 E4.96892
G1 X149.244 Y36.083 E5.00094
G1 X151.265 Y35.953 E5.10197
G1 X152.612 Y35.874 E5.16929
G1 X155.281 Y35.641 E5.30295
G1 X158.358 Y35.281 E5.45751
G1 X158.944 Y35.253 E5.48678
G1 X159.667 Y35.266 E5.52286
G1 X160.455 Y35.348 E5.56238
G1 X161.07 Y35.458 E5.59355
G1 X161.666 Y35.604 E5.62417
G1 X162.426 Y35.852 E5.66405
G1 X163 Y36.089 E5.69503
G1 X163.599 Y36.38 E5.72826
G1 X164.286 Y36.786 E5.76807
G1 X164.746 Y37.105 E5.796
G1 X165.283 Y37.525 E5.83001
G1 X165.867 Y38.066 E5.86973
G1 X166.281 Y38.508 E5.89994
G1 X166.72 Y39.042 E5.93443
G1 X167.147 Y39.656 E5.97174
G1 X167.455 Y40.173 E6.00176
G1 X167.768 Y40.78 E6.03584
G1 X168.068 Y41.499 E6.07471
G1 X168.255 Y42.059 E6.10416
G1 X168.407 Y42.617 E6.13301
G1 X168.57 Y43.476 E6.17663
G1 X168.63 Y43.913 E6.19864
G1 X168.686 Y44.49 E6.22756
G1 X169.622 Y55.097 E6.7588
G1 X169.695 Y56.07 E6.80748
G1 X169.712 Y56.699 E6.83888
G1 X169.696 Y57.244 E6.86608
G1 X169.638 Y57.89 E6.89844
G1 X169.548 Y58.544 E6.93137
G1 X169.209 Y61.298 E7.06981
G1 X168.95 Y64.026 E7.20652
G1 X168.771 Y66.744 E7.34241
G1 X168.669 Y69.439 E7.47697
G1 X168.642 Y72.203 E7.61487
G1 X168.693 Y74.9 E7.74945
G1 X168.821 Y77.634 E7.886
G1 X169.014 Y80.208 E8.01477
G1 X169.622 Y87.097 E8.3598
G1 X169.695 Y88.073 E8.40863
G1 X169.712 Y88.699 E8.43987
G1 X169.696 Y89.244 E8.46708
G1 X169.638 Y89.89 E8.49944
G1 X169.548 Y90.544 E8.53237
G1 X169.209 Y93.298 E8.67081
G1 X168.95 Y96.026 E8.80752
G1 X168.771 Y98.744 E8.94341
G1 X168.669 Y101.439 E9.07796
G1 X168.642 Y104.203 E9.21587
G1 X168.693 Y106.9 E9.35044
G1 X168.821 Y109.634 E9.48699
G1 X169.014 Y112.208 E9.61577
G1 X169.622 Y119.095 E9.9607
G1 X169.69 Y119.99 E10.00548
G1 X169.712 Y120.699 E10.04087
G1 X169.695 Y121.25 E10.06837
G1 X169.621 Y122.006 E10.10627
G1 X169.563 Y122.356 E10.12397
G1 X169.072 Y125.109 E10.26349
G1 X168.674 Y127.769 E10.39767
G1 X168.345 Y130.489 E10.53436
G1 X168.096 Y133.199 E10.67013
G1 X167.922 Y135.93 E10.80666
G1 X167.826 Y138.658 E10.94284
G1 X167.807 Y141.389 E11.0791
G1 X167.864 Y144.084 E11.21358
G1 X168.001 Y146.837 E11.3511
G1 X168.178 Y149.171 E11.46788
G1 X168.348 Y151.098 E11.56439
G1 X168.416 Y151.998 E11.60942
G1 X168.438 Y152.699 E11.64441
G1 X168.421 Y153.248 E11.67181
G1 X168.392 Y153.606 E11.68973
G1 X168.204 Y156.392 E11.82904
G1 X168.1 Y159.084 E11.96345
G1 X168.07 Y161.84 E12.10095
G1 X168.118 Y164.549 E12.23613
G1 X168.241 Y167.253 E12.37117
G1 X168.539 Y170.997 E12.55855
G1 X168.691 Y172.544 E12.6361
G1 X169.622 Y183.097 E13.16464
G1 X169.695 Y184.07 E13.21332
G1 X169.712 Y184.699 E13.24471
G1 X169.695 Y185.25 E13.27221
G1 X169.621 Y186.006 E13.31011
G1 X169.499 Y186.69 E13.34477
G1 X169.351 Y187.284 E13.37531
G1 X169.146 Y187.927 E13.40898
G1 X168.844 Y188.662 E13.44863
G1 X168.588 Y189.18 E13.47745
G1 X168.273 Y189.73 E13.50907
G1 X167.804 Y190.415 E13.55049
G1 X167.446 Y190.866 E13.57922
G1 X166.924 Y191.437 E13.61782
G1 X166.427 Y191.9 E13.6517
G1 X165.957 Y192.283 E13.68195
G1 X165.407 Y192.676 E13.71568
G1 X164.737 Y193.08 E13.75471
G1 X164.216 Y193.344 E13.78385
G1 X163.534 Y193.638 E13.8209
G1 X162.855 Y193.866 E13.85664
G1 X162.275 Y194.018 E13.88655
G1 X161.638 Y194.143 E13.91894
G1 X160.916 Y194.227 E13.9552
G1 X160.55 Y194.255 E13.97351
G1 X158.212 Y194.389 E14.09035
G1 X155.503 Y194.62 E14.22599
G1 X152.579 Y194.956 E14.37283
G1 X152.328 Y194.988 E14.38545
G1 X151.718 Y195.028 E14.41595
G1 X151.013 Y195.01 E14.45114
G1 X150.834 Y194.987 E14.46014
G1 X149.479 Y194.781 E14.52852
G1 X146.788 Y194.411 E14.66403
G1 X144.04 Y194.111 E14.80195
G1 X141.35 Y193.895 E14.93658
G1 X138.624 Y193.753 E15.07277
G1 X135.896 Y193.689 E15.20891
G1 X133.165 Y193.702 E15.34516
G1 X130.435 Y193.792 E15.48143
G1 X127.747 Y193.956 E15.61579
G1 X124.988 Y194.204 E15.75399
G1 X122.311 Y194.521 E15.88848
G1 X120.631 Y194.757 E15.97312
G1 X119.97 Y194.853 E16.00644
G1 X119.197 Y194.957 E16.04535
G1 X118.447 Y195.051 E16.08306
G1 X117.886 Y195.12 E16.11126
G1 X117.011 Y195.217 E16.15518
G1 X116.413 Y195.28 E16.18518
G1 X115.525 Y195.366 E16.22969
G1 X114.708 Y195.438 E16.27061
G1 X113.72 Y195.516 E16.32006
G1 X112.73 Y195.586 E16.36957
G1 X112.084 Y195.625 E16.40186
G1 X111.542 Y195.654 E16.42894
G1 X110.413 Y195.708 E16.48533
G1 X109.639 Y195.735 E16.52397
G1 X108.963 Y195.75 E16.5577
G1 X108.22 Y195.745 E16.59477
G1 X107.18 Y195.708 E16.64669
G1 X106.756 Y195.69 E16.66786
G1 X106.194 Y195.662 E16.69593
G1 X105.047 Y195.597 E16.75325
G1 X105.021 Y195.594 E16.75456
G1 X104.075 Y195.531 E16.80186
G1 X103.205 Y195.464 E16.84539
G1 X102.276 Y195.384 E16.89191
G1 X101.369 Y195.297 E16.93737
G1 X100.866 Y195.246 E16.96259
G1 X100.261 Y195.18 E16.99295
G1 X99.189 Y195.056 E17.04679
G1 X98.146 Y194.922 E17.09926
G1 X97.056 Y194.77 E17.15416
G1 X96.714 Y194.719 E17.17141
G1 X94.014 Y194.359 E17.30731
G1 X91.3 Y194.074 E17.44346
G1 X88.606 Y193.868 E17.57825
G1 X85.845 Y193.735 E17.71616
G1 X83.151 Y193.682 E17.85059
G1 X80.419 Y193.705 E17.98689
G1 X77.656 Y193.807 E18.12483
G1 X74.967 Y193.982 E18.25927
G1 X72.245 Y194.238 E18.39567
G1 X69.567 Y194.565 E18.53027
G1 X67.261 Y194.909 E18.64659
G1 X66.458 Y195.023 E18.68705
G1 X65.933 Y195.03 E18.71325
G1 X65.321 Y194.994 E18.74384
G1 X64.464 Y194.887 E18.78692
G1 X61.723 Y194.583 E18.92451
G1 X58.998 Y194.358 E19.06092
G1 X57.322 Y194.265 E19.14467
G1 X56.594 Y194.213 E19.18108
G1 X55.966 Y194.136 E19.21265
G1 X55.357 Y194.019 E19.24359
G1 X54.606 Y193.822 E19.28232
G1 X53.896 Y193.569 E19.31992
G1 X53.205 Y193.256 E19.35777
G1 X52.656 Y192.959 E19.38891
G1 X52.092 Y192.605 E19.42213
G1 X51.47 Y192.143 E19.46079
G1 X51.04 Y191.775 E19.48902
G1 X50.557 Y191.306 E19.52261
G1 X50.036 Y190.715 E19.56192
G1 X49.674 Y190.238 E19.59179
G1 X49.303 Y189.677 E19.62535
G1 X48.92 Y188.989 E19.66463
G1 X48.661 Y188.425 E19.6956
G1 X48.434 Y187.844 E19.72672
G1 X48.188 Y187.022 E19.76952
G1 X48.068 Y186.477 E19.79737
G1 X47.962 Y185.81 E19.83106
G1 X47.902 Y185.039 E19.86964
G1 X47.897 Y184.47 E19.89803
G1 X47.918 Y184.008 E19.9211
G1 X47.991 Y183.007 E19.97118
G1 X48.155 Y181.146 E20.06438
G1 X48.357 Y178.421 E20.2007
G1 X48.48 Y175.698 E20.33669
G1 X48.527 Y172.988 E20.47192
G1 X48.495 Y170.234 E20.60932
G1 X48.39 Y167.545 E20.74358
G1 X48.202 Y164.782 E20.88175
G1 X47.944 Y162.103 E21.01602
G1 X47.603 Y159.379 E21.15298
G1 X47.195 Y156.718 E21.28729
G1 X46.891 Y155.047 E21.37203
G1 X46.72 Y154.041 E21.42294
G1 X46.655 Y153.464 E21.4519
G1 X46.621 Y152.83 E21.48358
G1 X46.638 Y152.115 E21.51926
G1 X46.644 Y152.008 E21.52461
G1 X46.715 Y151.034 E21.57333
G1 X47.629 Y140.686 E22.0916
G1 X47.749 Y139.526 E22.14979
G1 X47.998 Y136.748 E22.28894
G1 X48.161 Y134.058 E22.42339
G1 X48.25 Y131.329 E22.55961
G1 X48.262 Y128.599 E22.69581
G1 X48.196 Y125.866 E22.8322
G1 X48.055 Y123.146 E22.96808
G1 X47.948 Y121.773 E23.03679
G1 X47.902 Y121.033 E23.07378
G1 X47.897 Y120.473 E23.10172
G1 X47.918 Y120.002 E23.12524
G1 X47.991 Y119.011 E23.17482
G1 X48.593 Y112.182 E23.51684
G1 X48.795 Y109.458 E23.65311
G1 X48.919 Y106.732 E23.78925
G1 X48.966 Y104.023 E23.92443
G1 X48.934 Y101.27 E24.06178
G1 X48.829 Y98.577 E24.19624
G1 X48.642 Y95.82 E24.3341
G1 X48.385 Y93.151 E24.46788
G1 X48.01 Y90.172 E24.61767
G1 X47.942 Y89.611 E24.64587
G1 X47.902 Y89.04 E24.67442
G1 X47.897 Y88.47 E24.70286
G1 X47.918 Y88.007 E24.72598
G1 X47.991 Y87.011 E24.77581
G1 X48.593 Y80.182 E25.11783
G1 X48.795 Y77.458 E25.2541
G1 X48.919 Y74.732 E25.39025
G1 X48.966 Y72.024 E25.52537
G1 X48.934 Y69.27 E25.66278
G1 X48.827 Y66.549 E25.79863
G1 X48.642 Y63.82 E25.93509
G1 X48.385 Y61.152 E26.06882
G1 X48.01 Y58.173 E26.21861
G1 X47.942 Y57.612 E26.24681
G1 X47.902 Y57.039 E26.27546
G1 X47.897 Y56.47 E26.30385
G1 X47.918 Y56.008 E26.32693
G1 X47.989 Y55.035 E26.3756
G1 X48.905 Y44.654 E26.89552
G1 X48.998 Y43.761 E26.94031
G1 X49.087 Y43.158 E26.97072
G1 X49.202 Y42.605 E26.9989
G1 X49.385 Y41.941 E27.03326
G1 X49.647 Y41.22 E27.07154
G1 X49.893 Y40.668 E27.10169
G1 X50.221 Y40.045 E27.13681
G1 X50.631 Y39.4 E27.17494
G1 X50.985 Y38.919 E27.20474
G0 F1440 X51.295 Y39.172
G1 F600 X51.667 Y38.725 E27.23375
G1 X52.258 Y38.121 E27.27591
G1 X52.653 Y37.773 E27.30218
G1 X53.158 Y37.381 E27.33407
G1 X53.805 Y36.956 E27.37269
G1 X54.267 Y36.699 E27.39906
G1 X54.871 Y36.408 E27.43251
G1 X55.628 Y36.121 E27.4729
G1 X56.122 Y35.972 E27.49865
G1 X56.783 Y35.817 E27.53252
G1 X57.558 Y35.703 E27.5716
G1 X58.507 Y35.65 E27.61902
G1 X58.696 Y35.65 E27.62845
G1 X59.377 Y35.691 E27.66248
G1 X59.511 Y35.704 E27.6692
G1 X62.279 Y36.028 E27.80824
G1 X65.001 Y36.271 E27.94458
G1 X68.001 Y36.449 E28.09452
G1 X68.554 Y36.513 E28.12229
G1 X69.166 Y36.632 E28.15339
G1 X70.257 Y36.938 E28.20992
G1 X72.902 Y37.639 E28.34644
G1 X75.57 Y38.268 E28.4832
G1 X78.306 Y38.83 E28.62254
G1 X80.949 Y39.295 E28.75643
G1 X83.679 Y39.698 E28.89411
G1 X86.406 Y40.02 E29.0311
G1 X89.116 Y40.263 E29.16685
G1 X91.867 Y40.432 E29.30435
G1 X94.581 Y40.521 E29.43983
G1 X97.335 Y40.535 E29.57723
G1 X100.053 Y40.47 E29.71287
G1 X102.834 Y40.326 E29.8518
G1 X105.018 Y40.156 E29.96109
G1 X105.371 Y40.125 E29.97877
G1 X106.191 Y40.062 E30.0198
G1 X106.912 Y40.014 E30.05585
G1 X107.561 Y39.976 E30.08828
G1 X108.496 Y39.942 E30.13496
G1 X108.636 Y39.94 E30.14195
G1 X109.16 Y39.944 E30.16809
G1 X109.256 Y39.946 E30.17288
G1 X110.148 Y39.98 E30.21741
G1 X110.858 Y40.022 E30.2529
G1 X111.808 Y40.09 E30.30042
G1 X112.825 Y40.174 E30.35133
G1 X112.844 Y40.173 E30.35228
G1 X115.291 Y40.358 E30.47471
G1 X118.072 Y40.487 E30.6136
G1 X120.756 Y40.538 E30.74753
G1 X123.506 Y40.511 E30.88473
G1 X126.26 Y40.406 E31.02223
G1 X128.972 Y40.227 E31.15783
G1 X131.713 Y39.967 E31.29519
G1 X134.409 Y39.634 E31.43072
G1 X137.137 Y39.219 E31.56838
G1 X139.844 Y38.728 E31.70564
G1 X142.484 Y38.172 E31.84024
G1 X145.142 Y37.534 E31.97661
G1 X147.015 Y37.026 E32.07343
G1 X147.059 Y37.018 E32.07566
G1 X148.585 Y36.6 E32.1546
G1 X148.706 Y36.57 E32.16082
G1 X149.27 Y36.483 E32.18929
G1 X151.289 Y36.353 E32.29023
G1 X152.6 Y36.276 E32.35575
G1 X155.36 Y36.035 E32.49397
G1 X158.404 Y35.679 E32.64687
G1 X158.952 Y35.653 E32.67424
G1 X159.635 Y35.665 E32.70832
G1 X160.408 Y35.745 E32.74709
G1 X160.978 Y35.848 E32.77599
G1 X161.554 Y35.988 E32.80556
G1 X162.296 Y36.23 E32.8445
G1 X162.828 Y36.45 E32.87322
G1 X163.407 Y36.731 E32.90533
G1 X164.077 Y37.127 E32.94416
G1 X164.503 Y37.422 E32.97001
G1 X165.019 Y37.826 E33.00271
G1 X165.591 Y38.356 E33.04161
G1 X165.975 Y38.766 E33.06964
G1 X166.397 Y39.278 E33.10274
G1 X166.816 Y39.88 E33.13933
G1 X167.102 Y40.362 E33.16729
G1 X167.403 Y40.943 E33.19994
G1 X167.696 Y41.648 E33.23803
G1 X167.87 Y42.167 E33.26534
G1 X168.017 Y42.706 E33.29321
G1 X168.176 Y43.542 E33.33566
G1 X168.232 Y43.952 E33.35631
G1 X168.288 Y44.525 E33.38503
G1 X169.223 Y55.127 E33.91602
G1 X169.295 Y56.092 E33.9643
G1 X169.312 Y56.707 E33.99499
G1 X169.297 Y57.213 E34.02025
G1 X169.242 Y57.835 E34.0514
G1 X169.145 Y58.54 E34.08691
G1 X168.812 Y61.247 E34.22298
G1 X168.551 Y63.995 E34.36069
G1 X168.373 Y66.703 E34.49609
G1 X168.269 Y69.456 E34.63353
G1 X168.242 Y72.203 E34.77059
G1 X168.293 Y74.927 E34.90651
G1 X168.421 Y77.647 E35.04236
G1 X168.616 Y80.243 E35.17224
G1 X169.223 Y87.127 E35.51702
G1 X169.295 Y88.094 E35.5654
G1 X169.312 Y88.706 E35.59594
G1 X169.297 Y89.213 E35.62125
G1 X169.242 Y89.835 E35.6524
G1 X169.145 Y90.54 E35.6879
G1 X168.812 Y93.247 E35.82397
G1 X168.551 Y95.995 E35.96169
G1 X168.373 Y98.703 E36.09708
G1 X168.269 Y101.456 E36.23453
G1 X168.242 Y104.203 E36.37158
G1 X168.293 Y106.927 E36.50751
G1 X168.421 Y109.647 E36.64336
G1 X168.616 Y112.243 E36.77324
G1 X169.223 Y119.126 E37.11797
G1 X169.296 Y120.098 E37.1666
G1 X169.312 Y120.706 E37.19694
G1 X169.297 Y121.217 E37.22245
G1 X169.227 Y121.94 E37.25869
G1 X169.169 Y122.285 E37.27614
G1 X168.682 Y125.011 E37.41429
G1 X168.276 Y127.733 E37.5516
G1 X167.949 Y130.437 E37.68748
G1 X167.697 Y133.174 E37.82461
G1 X167.522 Y135.927 E37.96223
G1 X167.426 Y138.642 E38.09777
G1 X167.407 Y141.394 E38.23507
G1 X167.465 Y144.113 E38.37075
G1 X167.6 Y146.848 E38.50737
G1 X167.776 Y149.167 E38.6234
G1 X167.949 Y151.128 E38.72161
G1 X168.021 Y152.091 E38.76979
G1 X168.038 Y152.707 E38.80054
G1 X168.023 Y153.216 E38.82594
G1 X167.99 Y153.623 E38.84631
G1 X167.806 Y156.35 E38.98267
G1 X167.699 Y159.099 E39.11992
G1 X167.671 Y161.817 E39.25553
G1 X167.719 Y164.574 E39.3931
G1 X167.844 Y167.301 E39.52929
G1 X168.138 Y171.005 E39.71467
G1 X168.293 Y172.579 E39.79358
G1 X169.223 Y183.127 E40.32186
G1 X169.295 Y184.092 E40.37014
G1 X169.312 Y184.707 E40.40083
G1 X169.297 Y185.217 E40.42629
G1 X169.227 Y185.94 E40.46253
G1 X169.106 Y186.615 E40.49674
G1 X168.968 Y187.167 E40.52513
G1 X168.772 Y187.786 E40.55752
G1 X168.476 Y188.505 E40.59631
G1 X168.239 Y188.984 E40.62297
G1 X167.936 Y189.515 E40.65347
G1 X167.478 Y190.184 E40.69392
G1 X167.147 Y190.6 E40.72045
G1 X166.647 Y191.148 E40.75746
G1 X166.157 Y191.605 E40.79088
G1 X165.721 Y191.96 E40.81893
G1 X165.192 Y192.339 E40.8514
G1 X164.536 Y192.734 E40.8896
G1 X164.053 Y192.978 E40.9166
G1 X163.398 Y193.261 E40.9522
