;FLAVOR:Marlin
;TIME:3319
;Filament used: 1.15787m
;Layer height: 0.2
;MINX:94.519
;MINY:94.519
;MINZ:0.2
;MAXX:140.481
;MAXY:140.481
;MAXZ:57
;Generated with Cura_SteamEngine 4.12.1
M140 S50
M105
M190 S50
M104 S200
M105
M109 S200
M82 ;absolute extrusion mode
M201 X500.00 Y500.00 Z100.00 E5000.00 ;Setup machine max acceleration
M203 X500.00 Y500.00 Z10.00 E50.00 ;Setup machine max feedrate
M204 P500.00 R1000.00 T500.00 ;Setup Print/Retract/Travel acceleration
M205 X8.00 Y8.00 Z0.40 E5.00 ;Setup Jerk
M220 S100 ;Reset Feedrate
M221 S100 ;Reset Flowrate

G28 ;Home
G90
G92 E0 ;Reset Extruder
G1 Z2.0 F3000 ;Move Z Axis up

G92 E0 ;Reset Extruder
G1 Z2.0 F3000 ;Move Z Axis up
G92 E0
G92 E0
G1 F2700 E-5
;LAYER_COUNT:285
;LAYER:0
M107
G0 F6000 X101.333 Y101.169 Z0.2
;TYPE:SKIRT
G1 F2700 E0
G1 F900 X102.047 Y100.494 E0.03268
G1 X102.283 Y100.279 E0.0433
G1 X102.534 Y100.058 E0.05442
G1 X102.964 Y99.703 E0.07297
G1 X103.812 Y99.045 E0.10867
G1 X104.09 Y98.837 E0.12022
G1 X104.347 Y98.653 E0.13073
G1 X104.792 Y98.354 E0.14856
G1 X105.688 Y97.79 E0.18377
G1 X105.991 Y97.607 E0.19555
G1 X106.255 Y97.455 E0.20568
G1 X106.724 Y97.203 E0.22339
G1 X107.677 Y96.727 E0.25882
G1 X107.977 Y96.585 E0.26986
G1 X108.25 Y96.461 E0.27983
G1 X108.761 Y96.247 E0.29826
G1 X109.782 Y95.857 E0.33461
G1 X110.084 Y95.748 E0.34529
G1 X110.368 Y95.651 E0.35527
G1 X110.912 Y95.484 E0.37419
G1 X111.918 Y95.21 E0.40887
G1 X112.214 Y95.135 E0.41903
G1 X112.523 Y95.062 E0.42959
G1 X113.084 Y94.948 E0.44863
G1 X114.131 Y94.77 E0.48395
G1 X114.448 Y94.722 E0.49462
G1 X114.755 Y94.681 E0.50492
G1 X115.321 Y94.624 E0.52384
G1 X116.398 Y94.549 E0.55975
G1 X116.695 Y94.533 E0.56964
G1 X116.997 Y94.522 E0.57969
G1 X117.575 Y94.519 E0.59891
G1 X118.617 Y94.548 E0.63359
G1 X118.958 Y94.564 E0.64494
G1 X119.262 Y94.584 E0.65507
G1 X119.801 Y94.636 E0.67308
G1 X120.907 Y94.776 E0.71016
G1 X121.209 Y94.82 E0.72031
G1 X121.482 Y94.864 E0.72951
G1 X122.06 Y94.976 E0.74909
G1 X123.099 Y95.214 E0.78454
G1 X123.43 Y95.297 E0.79589
G1 X123.727 Y95.377 E0.80612
G1 X124.237 Y95.531 E0.82384
G1 X125.246 Y95.868 E0.85923
G1 X125.53 Y95.968 E0.86924
G1 X125.826 Y96.078 E0.87974
G1 X126.374 Y96.302 E0.89943
G1 X127.344 Y96.737 E0.93479
G1 X127.603 Y96.858 E0.9443
G1 X128.032 Y97.067 E0.96017
G1 X128.52 Y97.324 E0.97851
G1 X128.833 Y97.501 E0.99047
G1 X129.037 Y97.62 E0.99833
G1 X129.426 Y97.854 E1.01343
G1 X129.864 Y98.125 E1.03056
G1 X130.341 Y98.442 E1.04961
G1 X131.187 Y99.043 E1.08412
G1 X131.434 Y99.225 E1.09433
G1 X131.839 Y99.534 E1.11127
G1 X132.245 Y99.863 E1.12865
G1 X132.522 Y100.101 E1.1408
G1 X132.709 Y100.266 E1.14909
G1 X132.988 Y100.521 E1.16167
G1 X133.416 Y100.921 E1.18115
G1 X133.815 Y101.317 E1.19985
G1 X134.526 Y102.07 E1.23429
G1 X134.74 Y102.305 E1.24486
G1 X134.952 Y102.546 E1.25554
G1 X135.306 Y102.974 E1.27401
G1 X135.959 Y103.816 E1.30945
G1 X136.163 Y104.09 E1.32081
G1 X136.345 Y104.344 E1.33121
G1 X136.646 Y104.792 E1.34916
G1 X137.21 Y105.688 E1.38437
G1 X137.393 Y105.991 E1.39615
G1 X137.545 Y106.255 E1.40628
G1 X137.797 Y106.724 E1.42399
G1 X138.273 Y107.677 E1.45942
G1 X138.415 Y107.977 E1.47046
G1 X138.539 Y108.25 E1.48043
G1 X138.753 Y108.761 E1.49885
G1 X139.143 Y109.782 E1.53521
G1 X139.252 Y110.084 E1.54589
G1 X139.349 Y110.368 E1.55587
G1 X139.516 Y110.912 E1.57479
G1 X139.79 Y111.918 E1.60947
G1 X139.865 Y112.214 E1.61963
G1 X139.938 Y112.523 E1.63019
G1 X140.052 Y113.084 E1.64923
G1 X140.23 Y114.131 E1.68455
G1 X140.277 Y114.44 E1.69495
G1 X140.318 Y114.745 E1.70518
G1 X140.376 Y115.32 E1.72441
G1 X140.451 Y116.399 E1.76038
G1 X140.467 Y116.694 E1.77021
G1 X140.478 Y116.995 E1.78022
G1 X140.481 Y117.574 E1.79948
G1 X140.452 Y118.617 E1.83419
G1 X140.436 Y118.958 E1.84554
G1 X140.416 Y119.262 E1.85567
G1 X140.364 Y119.801 E1.87368
G1 X140.224 Y120.907 E1.91076
G1 X140.18 Y121.209 E1.92091
G1 X140.136 Y121.482 E1.93011
G1 X140.024 Y122.06 E1.94969
G1 X139.786 Y123.099 E1.98514
G1 X139.703 Y123.43 E1.99649
G1 X139.623 Y123.727 E2.00672
G1 X139.47 Y124.235 E2.02437
G1 X139.139 Y125.227 E2.05915
G1 X139.043 Y125.499 E2.06875
G1 X138.928 Y125.81 E2.07977
G1 X138.699 Y126.372 E2.09996
G1 X138.263 Y127.344 E2.13539
G1 X138.142 Y127.603 E2.1449
G1 X137.933 Y128.032 E2.16077
G1 X137.676 Y128.52 E2.17912
G1 X137.499 Y128.833 E2.19107
G1 X137.38 Y129.037 E2.19893
G1 X137.143 Y129.431 E2.21422
G1 X136.871 Y129.87 E2.2314
G1 X136.558 Y130.341 E2.25021
G1 X135.958 Y131.186 E2.28468
G1 X135.777 Y131.432 E2.29484
G1 X135.469 Y131.836 E2.31173
G1 X135.138 Y132.244 E2.32921
G1 X134.906 Y132.514 E2.34105
G1 X134.739 Y132.703 E2.34944
G1 X134.455 Y133.014 E2.36344
G1 X134.049 Y133.447 E2.38319
G1 X133.667 Y133.831 E2.4012
G1 X132.953 Y134.506 E2.43388
G1 X132.717 Y134.721 E2.4445
G1 X132.466 Y134.942 E2.45562
G1 X132.036 Y135.297 E2.47417
G1 X131.188 Y135.955 E2.50987
G1 X130.91 Y136.163 E2.52142
G1 X130.653 Y136.347 E2.53193
G1 X130.208 Y136.646 E2.54976
G1 X129.312 Y137.21 E2.58497
G1 X129.009 Y137.393 E2.59675
G1 X128.745 Y137.545 E2.60688
G1 X128.276 Y137.797 E2.62459
G1 X127.323 Y138.273 E2.66002
G1 X127.023 Y138.415 E2.67106
G1 X126.75 Y138.539 E2.68103
G1 X126.239 Y138.753 E2.69946
G1 X125.218 Y139.143 E2.73581
G1 X124.916 Y139.252 E2.74649
G1 X124.632 Y139.349 E2.75647
G1 X124.088 Y139.516 E2.77539
G1 X123.082 Y139.79 E2.81007
G1 X122.786 Y139.865 E2.82023
G1 X122.477 Y139.938 E2.83079
G1 X121.916 Y140.052 E2.84983
G1 X120.869 Y140.23 E2.88515
G1 X120.552 Y140.278 E2.89582
G1 X120.245 Y140.319 E2.90612
G1 X119.679 Y140.376 E2.92504
G1 X118.602 Y140.451 E2.96095
G1 X118.305 Y140.467 E2.97084
G1 X118.003 Y140.478 E2.98089
G1 X117.425 Y140.481 E3.00012
G1 X116.383 Y140.452 E3.03479
G1 X116.042 Y140.436 E3.04614
G1 X115.738 Y140.416 E3.05627
G1 X115.199 Y140.364 E3.07428
G1 X114.093 Y140.224 E3.11136
G1 X113.791 Y140.18 E3.12151
G1 X113.518 Y140.136 E3.13071
G1 X112.94 Y140.024 E3.15029
G1 X111.901 Y139.786 E3.18574
G1 X111.57 Y139.703 E3.19709
G1 X111.273 Y139.623 E3.20732
G1 X110.763 Y139.469 E3.22504
G1 X109.754 Y139.132 E3.26043
G1 X109.47 Y139.032 E3.27044
G1 X109.174 Y138.922 E3.28094
G1 X108.626 Y138.698 E3.30063
G1 X107.656 Y138.263 E3.33599
G1 X107.397 Y138.142 E3.3455
G1 X106.966 Y137.932 E3.36145
G1 X106.475 Y137.674 E3.37989
G1 X106.164 Y137.498 E3.39178
G1 X105.675 Y137.207 E3.41071
G1 X105.149 Y136.883 E3.43125
G1 X104.667 Y136.563 E3.4505
G1 X103.788 Y135.938 E3.48637
G1 X103.541 Y135.756 E3.49657
G1 X103.156 Y135.462 E3.51268
G1 X102.756 Y135.138 E3.52981
G1 X102.516 Y134.932 E3.54033
G1 X102.335 Y134.773 E3.54834
G1 X101.954 Y134.426 E3.56548
G1 X101.566 Y134.062 E3.58317
G1 X101.19 Y133.687 E3.60084
G1 X100.49 Y132.948 E3.63469
G1 X100.265 Y132.701 E3.6458
G1 X100.054 Y132.461 E3.65643
G1 X99.703 Y132.036 E3.67477
G1 X99.045 Y131.188 E3.71047
G1 X98.841 Y130.916 E3.72177
G1 X98.656 Y130.658 E3.73233
G1 X98.352 Y130.205 E3.75048
G1 X97.789 Y129.31 E3.78565
G1 X97.605 Y129.005 E3.79749
G1 X97.452 Y128.739 E3.8077
G1 X97.202 Y128.274 E3.82526
G1 X96.727 Y127.323 E3.86062
G1 X96.586 Y127.025 E3.87158
G1 X96.461 Y126.75 E3.88163
G1 X96.246 Y126.236 E3.90016
G1 X95.857 Y125.217 E3.93644
G1 X95.748 Y124.916 E3.94708
G1 X95.651 Y124.632 E3.95707
G1 X95.484 Y124.088 E3.97599
G1 X95.21 Y123.082 E4.01067
G1 X95.135 Y122.786 E4.02083
G1 X95.062 Y122.477 E4.03139
G1 X94.948 Y121.916 E4.05043
G1 X94.77 Y120.869 E4.08575
G1 X94.722 Y120.552 E4.09641
G1 X94.681 Y120.245 E4.10672
G1 X94.624 Y119.679 E4.12564
G1 X94.549 Y118.602 E4.16154
G1 X94.533 Y118.306 E4.1714
G1 X94.522 Y118.005 E4.18142
G1 X94.519 Y117.426 E4.20068
G1 X94.548 Y116.383 E4.23538
G1 X94.564 Y116.042 E4.24674
G1 X94.584 Y115.738 E4.25687
G1 X94.636 Y115.199 E4.27488
G1 X94.776 Y114.093 E4.31196
G1 X94.82 Y113.791 E4.32211
G1 X94.864 Y113.518 E4.33131
G1 X94.976 Y112.94 E4.35089
G1 X95.214 Y111.901 E4.38634
G1 X95.297 Y111.57 E4.39769
G1 X95.377 Y111.273 E4.40792
G1 X95.531 Y110.763 E4.42564
G1 X95.868 Y109.754 E4.46102
G1 X95.965 Y109.476 E4.47082
G1 X96.074 Y109.182 E4.48124
G1 X96.301 Y108.628 E4.50116
G1 X96.737 Y107.656 E4.53659
G1 X96.862 Y107.389 E4.5464
G1 X97.072 Y106.959 E4.56231
G1 X97.32 Y106.487 E4.58005
G1 X97.496 Y106.175 E4.59196
G1 X97.62 Y105.963 E4.60013
G1 X97.857 Y105.569 E4.61542
G1 X98.129 Y105.13 E4.6326
G1 X98.442 Y104.659 E4.65141
G1 X99.042 Y103.814 E4.68588
G1 X99.228 Y103.562 E4.69629
G1 X99.545 Y103.147 E4.71366
G1 X99.877 Y102.738 E4.73118
G1 X100.1 Y102.479 E4.74255
G1 X100.261 Y102.297 E4.75063
G1 X100.545 Y101.986 E4.76464
G1 X100.951 Y101.553 E4.78438
G1 X101.333 Y101.169 E4.8024
G0 F6000 X101.608 Y101.46
G1 F900 X102.322 Y100.785 E4.83508
G1 X102.547 Y100.579 E4.84523
G1 X102.798 Y100.358 E4.85635
G1 X103.209 Y100.019 E4.87407
G1 X104.057 Y99.361 E4.90977
G1 X104.323 Y99.162 E4.92082
G1 X104.58 Y98.978 E4.93133
G1 X105.005 Y98.693 E4.94835
G1 X105.901 Y98.129 E4.98356
G1 X106.191 Y97.954 E4.99483
G1 X106.455 Y97.802 E5.00496
G1 X106.903 Y97.561 E5.02188
G1 X107.856 Y97.085 E5.05731
G1 X108.142 Y96.949 E5.06784
G1 X108.415 Y96.825 E5.07782
G1 X108.903 Y96.621 E5.09541
G1 X109.924 Y96.231 E5.13176
G1 X110.213 Y96.127 E5.14198
G1 X110.497 Y96.03 E5.15196
G1 X111.017 Y95.87 E5.17005
G1 X112.023 Y95.596 E5.20473
G1 X112.306 Y95.524 E5.21444
G1 X112.615 Y95.451 E5.225
G1 X113.151 Y95.343 E5.24319
G1 X114.198 Y95.165 E5.27851
G1 X114.501 Y95.119 E5.28871
G1 X114.808 Y95.078 E5.29901
G1 X115.349 Y95.023 E5.31709
G1 X116.426 Y94.948 E5.353
G1 X116.71 Y94.933 E5.36246
G1 X117.012 Y94.922 E5.37251
G1 X117.564 Y94.919 E5.39087
G1 X118.606 Y94.948 E5.42554
G1 X118.932 Y94.964 E5.4364
G1 X119.236 Y94.984 E5.44653
G1 X119.751 Y95.033 E5.46374
G1 X120.857 Y95.173 E5.50082
G1 X121.145 Y95.215 E5.5105
G1 X121.418 Y95.259 E5.51969
G1 X121.97 Y95.366 E5.5384
G1 X123.009 Y95.604 E5.57385
G1 X123.326 Y95.683 E5.58471
G1 X123.623 Y95.763 E5.59494
G1 X124.11 Y95.91 E5.61186
G1 X125.119 Y96.247 E5.64725
G1 X125.391 Y96.343 E5.65684
G1 X125.687 Y96.453 E5.66734
G1 X126.21 Y96.667 E5.68614
G1 X127.18 Y97.102 E5.7215
G1 X127.428 Y97.218 E5.7306
G1 X127.857 Y97.427 E5.74647
G1 X128.323 Y97.672 E5.76398
G1 X128.636 Y97.849 E5.77594
G1 X128.831 Y97.963 E5.78346
G1 X129.216 Y98.195 E5.79841
G1 X129.654 Y98.466 E5.81554
G1 X130.11 Y98.768 E5.83373
G1 X130.956 Y99.369 E5.86824
G1 X131.192 Y99.543 E5.878
G1 X131.597 Y99.852 E5.89494
G1 X131.985 Y100.166 E5.91154
G1 X132.262 Y100.404 E5.92369
G1 X132.44 Y100.562 E5.9316
G1 X132.715 Y100.813 E5.94399
G1 X133.143 Y101.213 E5.96347
G1 X133.524 Y101.592 E5.98135
G1 X134.235 Y102.345 E6.01579
G1 X134.439 Y102.569 E6.02587
G1 X134.651 Y102.81 E6.03654
G1 X134.99 Y103.22 E6.05424
G1 X135.643 Y104.062 E6.08968
G1 X135.838 Y104.323 E6.10052
G1 X136.02 Y104.577 E6.11091
G1 X136.307 Y105.005 E6.12805
G1 X136.871 Y105.901 E6.16326
G1 X137.046 Y106.191 E6.17453
G1 X137.198 Y106.455 E6.18466
G1 X137.439 Y106.903 E6.20158
G1 X137.915 Y107.856 E6.23701
G1 X138.051 Y108.142 E6.24754
G1 X138.175 Y108.415 E6.25752
G1 X138.379 Y108.903 E6.27511
G1 X138.769 Y109.924 E6.31146
G1 X138.873 Y110.213 E6.32167
G1 X138.97 Y110.497 E6.33166
G1 X139.13 Y111.017 E6.34975
G1 X139.404 Y112.023 E6.38443
G1 X139.476 Y112.306 E6.39414
G1 X139.549 Y112.615 E6.4047
G1 X139.657 Y113.151 E6.42289
G1 X139.835 Y114.198 E6.45821
G1 X139.88 Y114.493 E6.46814
G1 X139.921 Y114.798 E6.47837
G1 X139.977 Y115.348 E6.49676
G1 X140.052 Y116.427 E6.53273
G1 X140.067 Y116.709 E6.54213
G1 X140.078 Y117.01 E6.55215
G1 X140.081 Y117.563 E6.57054
G1 X140.052 Y118.606 E6.60524
G1 X140.036 Y118.932 E6.6161
G1 X140.016 Y119.236 E6.62623
G1 X139.967 Y119.751 E6.64344
G1 X139.827 Y120.857 E6.68052
G1 X139.785 Y121.145 E6.6902
G1 X139.741 Y121.418 E6.69939
G1 X139.634 Y121.97 E6.7181
G1 X139.396 Y123.009 E6.75355
G1 X139.317 Y123.326 E6.76441
G1 X139.237 Y123.623 E6.77464
G1 X139.091 Y124.108 E6.79149
G1 X138.76 Y125.1 E6.82627
G1 X138.668 Y125.361 E6.83548
G1 X138.553 Y125.672 E6.84651
G1 X138.334 Y126.209 E6.86579
G1 X137.898 Y127.181 E6.90123
G1 X137.782 Y127.428 E6.9103
G1 X137.573 Y127.857 E6.92617
G1 X137.328 Y128.323 E6.94368
G1 X137.151 Y128.636 E6.95564
G1 X137.037 Y128.831 E6.96316
G1 X136.803 Y129.221 E6.97828
G1 X136.531 Y129.66 E6.99546
G1 X136.232 Y130.109 E7.0134
G1 X135.632 Y130.954 E7.04787
G1 X135.459 Y131.189 E7.05758
G1 X135.151 Y131.593 E7.07447
G1 X134.835 Y131.984 E7.0912
G1 X134.603 Y132.254 E7.10304
G1 X134.443 Y132.434 E7.11105
G1 X134.164 Y132.74 E7.12482
G1 X133.758 Y133.173 E7.14456
G1 X133.392 Y133.54 E7.1618
G1 X132.678 Y134.215 E7.19448
G1 X132.453 Y134.421 E7.20463
G1 X132.202 Y134.642 E7.21575
G1 X131.791 Y134.981 E7.23347
G1 X130.943 Y135.639 E7.26917
G1 X130.677 Y135.838 E7.28022
G1 X130.42 Y136.022 E7.29073
G1 X129.995 Y136.307 E7.30775
G1 X129.099 Y136.871 E7.34296
G1 X128.809 Y137.046 E7.35423
G1 X128.545 Y137.198 E7.36436
G1 X128.097 Y137.439 E7.38128
G1 X127.144 Y137.915 E7.41671
G1 X126.858 Y138.051 E7.42725
G1 X126.585 Y138.175 E7.43722
G1 X126.097 Y138.379 E7.45481
G1 X125.076 Y138.769 E7.49116
G1 X124.787 Y138.873 E7.50138
G1 X124.503 Y138.97 E7.51136
G1 X123.983 Y139.13 E7.52945
G1 X122.977 Y139.404 E7.56413
G1 X122.694 Y139.476 E7.57385
G1 X122.385 Y139.549 E7.58441
G1 X121.849 Y139.657 E7.60259
G1 X120.802 Y139.835 E7.63791
G1 X120.499 Y139.881 E7.64811
G1 X120.192 Y139.922 E7.65841
G1 X119.651 Y139.977 E7.6765
G1 X118.574 Y140.052 E7.7124
G1 X118.29 Y140.067 E7.72186
G1 X117.988 Y140.078 E7.73191
G1 X117.436 Y140.081 E7.75027
G1 X116.394 Y140.052 E7.78494
G1 X116.068 Y140.036 E7.7958
G1 X115.764 Y140.016 E7.80593
G1 X115.249 Y139.967 E7.82314
G1 X114.143 Y139.827 E7.86022
G1 X113.855 Y139.785 E7.8699
G1 X113.582 Y139.741 E7.8791
G1 X113.03 Y139.634 E7.8978
G1 X111.991 Y139.396 E7.93325
G1 X111.674 Y139.317 E7.94412
G1 X111.377 Y139.237 E7.95435
G1 X110.89 Y139.09 E7.97127
G1 X109.881 Y138.753 E8.00665
G1 X109.609 Y138.657 E8.01624
G1 X109.313 Y138.547 E8.02674
G1 X108.79 Y138.333 E8.04554
G1 X107.82 Y137.898 E8.0809
G1 X107.572 Y137.782 E8.09
G1 X107.141 Y137.572 E8.10595
G1 X106.672 Y137.326 E8.12356
G1 X106.361 Y137.15 E8.13545
G1 X105.786 Y136.807 E8.15772
G1 X105.359 Y136.543 E8.17442
G1 X104.898 Y136.237 E8.19282
G1 X104.019 Y135.612 E8.22869
G1 X103.784 Y135.438 E8.23842
G1 X103.399 Y135.144 E8.25453
G1 X103.017 Y134.835 E8.27087
G1 X102.777 Y134.629 E8.28139
G1 X102.604 Y134.476 E8.28907
G1 X102.228 Y134.134 E8.30598
G1 X101.84 Y133.77 E8.32367
G1 X101.48 Y133.412 E8.34056
G1 X100.78 Y132.673 E8.37441
G1 X100.565 Y132.437 E8.38503
G1 X100.354 Y132.197 E8.39566
G1 X100.019 Y131.791 E8.41317
G1 X99.361 Y130.943 E8.44887
G1 X99.166 Y130.682 E8.4597
G1 X98.981 Y130.424 E8.47026
G1 X98.69 Y129.992 E8.48759
G1 X98.127 Y129.097 E8.52275
G1 X97.952 Y128.806 E8.53405
G1 X97.799 Y128.54 E8.54425
G1 X97.56 Y128.095 E8.56105
G1 X97.085 Y127.144 E8.59641
G1 X96.95 Y126.86 E8.60687
G1 X96.825 Y126.585 E8.61692
G1 X96.62 Y126.093 E8.63464
G1 X96.231 Y125.074 E8.67092
G1 X96.127 Y124.787 E8.68108
G1 X96.03 Y124.503 E8.69106
G1 X95.87 Y123.983 E8.70915
G1 X95.596 Y122.977 E8.74383
G1 X95.524 Y122.694 E8.75354
G1 X95.451 Y122.385 E8.7641
G1 X95.343 Y121.849 E8.78229
G1 X95.165 Y120.802 E8.81761
G1 X95.119 Y120.499 E8.82781
G1 X95.078 Y120.192 E8.83811
G1 X95.023 Y119.651 E8.85619
G1 X94.948 Y118.574 E8.8921
G1 X94.933 Y118.291 E8.90153
G1 X94.922 Y117.99 E8.91155
G1 X94.919 Y117.437 E8.92994
G1 X94.948 Y116.394 E8.96464
G1 X94.964 Y116.068 E8.9755
G1 X94.984 Y115.764 E8.98563
G1 X95.033 Y115.249 E9.00284
G1 X95.173 Y114.143 E9.03992
G1 X95.215 Y113.855 E9.0496
G1 X95.259 Y113.582 E9.05879
G1 X95.366 Y113.03 E9.0775
G1 X95.604 Y111.991 E9.11295
G1 X95.683 Y111.674 E9.12381
G1 X95.763 Y111.377 E9.13404
G1 X95.91 Y110.89 E9.15096
G1 X96.247 Y109.881 E9.18635
G1 X96.34 Y109.615 E9.19572
G1 X96.449 Y109.321 E9.20615
G1 X96.666 Y108.791 E9.2252
G1 X97.102 Y107.819 E9.26063
G1 X97.221 Y107.565 E9.26996
G1 X97.431 Y107.135 E9.28587
G1 X97.669 Y106.684 E9.30283
G1 X97.845 Y106.372 E9.31475
G1 X97.963 Y106.169 E9.32256
G1 X98.197 Y105.779 E9.33768
G1 X98.469 Y105.34 E9.35486
G1 X98.768 Y104.891 E9.3728
G1 X99.368 Y104.046 E9.40727
