;FLAVOR:Marlin
;TIME:2657
;Filament used: 1.41537m
;Layer height: 0.2
;MINX:103.5
;MINY:91.5
;MINZ:0.2
;MAXX:131.5
;MAXY:143.5
;MAXZ:32
;Generated with Cura_SteamEngine 4.12.1
M140 S50
M105
M190 S50
M104 S200
M105
M109 S200
M82 ;absolute extrusion mode
M201 X500.00 Y500.00 Z100.00 E5000.00 ;Setup machine max acceleration
M203 X500.00 Y500.00 Z10.00 E50.00 ;Setup machine max feedrate
M204 P500.00 R1000.00 T500.00 ;Setup Print/Retract/Travel acceleration
M205 X8.00 Y8.00 Z0.40 E5.00 ;Setup Jerk
M220 S100 ;Reset Feedrate
M221 S100 ;Reset Flowrate

G28 ;Home
G90
G92 E0 ;Reset Extruder
G1 Z2.0 F3000 ;Move Z Axis up

G92 E0 ;Reset Extruder
G1 Z2.0 F3000 ;Move Z Axis up
G92 E0
G92 E0
G1 F2700 E-5
;LAYER_COUNT:160
;LAYER:0
M107
G0 F6000 X106.034 Y94.258 Z0.2
;TYPE:SKIRT
G1 F2700 E0
G1 F900 X106.652 Y93.676 E0.02823
G1 X107.321 Y93.155 E0.05644
G1 X108.036 Y92.699 E0.08464
G1 X108.792 Y92.313 E0.11288
G1 X109.58 Y91.999 E0.14109
G1 X110.394 Y91.761 E0.1693
G1 X111.227 Y91.601 E0.19751
G1 X112.257 Y91.513 E0.23189
G1 X112.578 Y91.504 E0.24257
G1 X112.83 Y91.5 E0.25095
G1 X121.793 Y91.5 E0.54906
G1 X122.62 Y91.511 E0.57657
G1 X123.467 Y91.563 E0.6048
G1 X124.305 Y91.695 E0.63301
G1 X125.127 Y91.905 E0.66123
G1 X125.925 Y92.191 E0.68943
G1 X126.693 Y92.551 E0.71764
G1 X127.424 Y92.982 E0.74586
G1 X128.111 Y93.48 E0.77408
G1 X128.747 Y94.04 E0.80227
G1 X129.329 Y94.658 E0.8305
G1 X129.849 Y95.328 E0.85871
G1 X130.305 Y96.044 E0.88695
G1 X130.69 Y96.799 E0.91513
G1 X131.003 Y97.588 E0.94336
G1 X131.241 Y98.402 E0.97157
G1 X131.4 Y99.235 E0.99978
G1 X131.487 Y100.257 E1.03389
G1 X131.496 Y100.577 E1.04454
G1 X131.5 Y100.83 E1.05296
G1 X131.499 Y133.875 E2.15204
G1 X131.49 Y134.602 E2.17622
G1 X131.44 Y135.449 E2.20444
G1 X131.31 Y136.287 E2.23264
G1 X131.102 Y137.11 E2.26088
G1 X130.817 Y137.909 E2.28909
G1 X130.458 Y138.678 E2.31732
G1 X130.028 Y139.409 E2.34553
G1 X129.532 Y140.097 E2.37374
G1 X128.973 Y140.735 E2.40195
G1 X128.356 Y141.317 E2.43016
G1 X127.687 Y141.839 E2.45838
G1 X126.973 Y142.296 E2.48658
G1 X126.218 Y142.683 E2.5148
G1 X125.43 Y142.998 E2.54302
G1 X124.616 Y143.237 E2.57124
G1 X123.783 Y143.398 E2.59946
G1 X122.743 Y143.487 E2.63418
G1 X122.422 Y143.496 E2.64486
G1 X122.17 Y143.5 E2.65324
G1 X113.091 Y143.499 E2.95521
G1 X112.393 Y143.49 E2.97842
G1 X111.546 Y143.439 E3.00665
G1 X110.708 Y143.309 E3.03485
G1 X109.886 Y143.1 E3.06306
G1 X109.087 Y142.815 E3.09128
G1 X108.318 Y142.456 E3.1195
G1 X107.587 Y142.026 E3.14771
G1 X106.9 Y141.529 E3.17591
G1 X106.262 Y140.97 E3.20413
G1 X105.68 Y140.353 E3.23234
G1 X105.158 Y139.684 E3.26056
G1 X104.702 Y138.969 E3.28877
G1 X104.315 Y138.214 E3.31698
G1 X104.001 Y137.426 E3.3452
G1 X103.762 Y136.612 E3.37341
G1 X103.602 Y135.779 E3.40163
G1 X103.512 Y134.734 E3.43651
G1 X103.503 Y134.401 E3.44759
G1 X103.5 Y134.158 E3.45567
G1 X103.501 Y101.052 E4.55678
G1 X103.51 Y100.387 E4.5789
G1 X103.561 Y99.54 E4.60713
G1 X103.692 Y98.702 E4.63534
G1 X103.901 Y97.88 E4.66355
G1 X104.187 Y97.082 E4.69174
G1 X104.547 Y96.313 E4.71998
G1 X104.977 Y95.582 E4.74819
G1 X105.475 Y94.895 E4.77641
G1 X106.034 Y94.258 E4.8046
G0 F6000 X106.427 Y94.429
G1 F900 X107.04 Y93.872 E4.83215
G1 X107.705 Y93.376 E4.85974
G1 X108.414 Y92.946 E4.88732
G1 X109.162 Y92.587 E4.91492
G1 X109.94 Y92.302 E4.94247
G1 X110.743 Y92.092 E4.97008
G1 X111.562 Y91.961 E4.99767
G1 X112.268 Y91.912 E5.0212
G1 X112.589 Y91.903 E5.03188
G1 X112.83 Y91.9 E5.0399
G1 X121.793 Y91.9 E5.33801
G1 X122.614 Y91.911 E5.36532
G1 X123.442 Y91.963 E5.39291
G1 X124.261 Y92.094 E5.4205
G1 X125.063 Y92.304 E5.44807
G1 X125.841 Y92.589 E5.47563
G1 X126.588 Y92.949 E5.50321
G1 X127.298 Y93.379 E5.53082
G1 X127.962 Y93.875 E5.55839
G1 X128.576 Y94.432 E5.58596
G1 X129.133 Y95.047 E5.61356
G1 X129.628 Y95.712 E5.64113
G1 X130.057 Y96.421 E5.66869
G1 X130.416 Y97.169 E5.69629
G1 X130.7 Y97.948 E5.72387
G1 X130.909 Y98.75 E5.75143
G1 X131.039 Y99.569 E5.77901
G1 X131.088 Y100.268 E5.80232
G1 X131.097 Y100.588 E5.81297
G1 X131.1 Y100.83 E5.82101
G1 X131.099 Y133.87 E6.91993
G1 X131.09 Y134.597 E6.94411
G1 X131.04 Y135.425 E6.9717
G1 X130.91 Y136.244 E6.99928
G1 X130.702 Y137.047 E7.02687
G1 X130.418 Y137.826 E7.05445
G1 X130.06 Y138.574 E7.08203
G1 X129.632 Y139.284 E7.1096
G1 X129.137 Y139.949 E7.13718
G1 X128.58 Y140.564 E7.16477
G1 X127.967 Y141.122 E7.19234
G1 X127.303 Y141.619 E7.21993
G1 X126.594 Y142.049 E7.24751
G1 X125.847 Y142.409 E7.27509
G1 X125.069 Y142.695 E7.30266
G1 X124.267 Y142.906 E7.33024
G1 X123.448 Y143.038 E7.35783
G1 X122.732 Y143.088 E7.38171
G1 X122.411 Y143.097 E7.39239
G1 X122.17 Y143.1 E7.4004
G1 X113.096 Y143.099 E7.70221
G1 X112.398 Y143.09 E7.72542
G1 X111.57 Y143.04 E7.75301
G1 X110.752 Y142.91 E7.78056
G1 X109.949 Y142.701 E7.80816
G1 X109.17 Y142.416 E7.83575
G1 X108.422 Y142.058 E7.86333
G1 X107.713 Y141.629 E7.89089
G1 X107.047 Y141.134 E7.91849
G1 X106.433 Y140.577 E7.94606
G1 X105.875 Y139.964 E7.97363
G1 X105.379 Y139.299 E8.00123
G1 X104.949 Y138.59 E8.02881
G1 X104.589 Y137.843 E8.05639
G1 X104.303 Y137.065 E8.08396
G1 X104.093 Y136.263 E8.11153
G1 X103.962 Y135.444 E8.13912
G1 X103.912 Y134.723 E8.16315
G1 X103.903 Y134.39 E8.17423
G1 X103.9 Y134.158 E8.18195
G1 X103.901 Y101.058 E9.28286
G1 X103.91 Y100.393 E9.30498
G1 X103.961 Y99.565 E9.33257
G1 X104.092 Y98.746 E9.36016
G1 X104.301 Y97.944 E9.38772
G1 X104.586 Y97.165 E9.41531
G1 X104.945 Y96.418 E9.44288
G1 X105.374 Y95.708 E9.47047
G1 X105.869 Y95.043 E9.49804
G1 X106.427 Y94.429 E9.52564
G0 F6000 X106.818 Y94.605
G1 F900 X107.428 Y94.073 E9.55256
G1 X108.088 Y93.603 E9.57951
G1 X108.791 Y93.201 E9.60644
G1 X109.529 Y92.869 E9.63336
G1 X110.297 Y92.613 E9.66028
G1 X111.087 Y92.433 E9.68723
G1 X112.279 Y92.312 E9.72708
G1 X112.6 Y92.303 E9.73776
G1 X112.83 Y92.3 E9.74541
G1 X121.793 Y92.3 E10.04352
G1 X122.608 Y92.311 E10.07063
G1 X123.417 Y92.362 E10.09759
G1 X124.216 Y92.493 E10.12452
G1 X124.998 Y92.703 E10.15145
G1 X125.756 Y92.988 E10.17839
G1 X126.481 Y93.346 E10.20528
G1 X127.168 Y93.775 E10.23222
G1 X127.81 Y94.269 E10.25916
G1 X128.399 Y94.824 E10.28608
G1 X128.931 Y95.434 E10.313
G1 X129.401 Y96.094 E10.33995
G1 X129.802 Y96.797 E10.36687
G1 X130.133 Y97.537 E10.39383
G1 X130.389 Y98.305 E10.42076
G1 X130.568 Y99.094 E10.44767
G1 X130.688 Y100.279 E10.48728
G1 X130.697 Y100.599 E10.49793
G1 X130.7 Y100.83 E10.50561
G1 X130.699 Y133.866 E11.60439
G1 X130.69 Y134.593 E11.62858
G1 X130.64 Y135.401 E11.6555
G1 X130.511 Y136.2 E11.68242
G1 X130.303 Y136.983 E11.70937
G1 X130.02 Y137.741 E11.73628
G1 X129.662 Y138.468 E11.76323
G1 X129.235 Y139.155 E11.79013
G1 X128.742 Y139.798 E11.81708
G1 X128.188 Y140.388 E11.844
G1 X127.579 Y140.922 E11.87094
G1 X126.92 Y141.392 E11.89786
G1 X126.218 Y141.795 E11.92478
G1 X125.479 Y142.127 E11.95173
G1 X124.712 Y142.385 E11.97865
G1 X123.922 Y142.565 E12.00559
G1 X122.721 Y142.688 E12.04575
G1 X122.4 Y142.697 E12.05643
G1 X122.17 Y142.7 E12.06408
G1 X113.101 Y142.699 E12.36572
G1 X112.403 Y142.69 E12.38893
G1 X111.595 Y142.64 E12.41586
G1 X110.796 Y142.51 E12.44278
G1 X110.013 Y142.302 E12.46973
G1 X109.255 Y142.018 E12.49665
G1 X108.529 Y141.66 E12.52357
G1 X107.841 Y141.233 E12.55051
G1 X107.199 Y140.74 E12.57743
G1 X106.609 Y140.185 E12.60437
G1 X106.076 Y139.576 E12.63129
G1 X105.606 Y138.916 E12.65824
G1 X105.203 Y138.214 E12.68516
G1 X104.871 Y137.475 E12.71211
G1 X104.614 Y136.708 E12.73901
G1 X104.434 Y135.918 E12.76596
G1 X104.312 Y134.713 E12.80624
G1 X104.303 Y134.38 E12.81732
G1 X104.3 Y134.158 E12.82471
G1 X104.301 Y101.063 E13.92545
G1 X104.31 Y100.398 E13.94757
G1 X104.361 Y99.59 E13.9745
G1 X104.491 Y98.791 E14.00142
G1 X104.7 Y98.008 E14.02838
G1 X104.984 Y97.25 E14.0553
G1 X105.342 Y96.524 E14.08222
G1 X105.77 Y95.837 E14.10914
G1 X106.264 Y95.195 E14.13609
G1 X106.818 Y94.605 E14.163
G1 F2700 E9.163
;MESH:Mirror_1__2_Alignment_Jig.stl
G0 F6000 X112.914 Y99.835
G0 X112.914 Y100.914
G0 X113.682 Y133.318
G0 X121.5 Y133.5
;TYPE:WALL-INNER
G1 F2700 E14.163
G1 F900 X113.5 Y133.5 E14.42909
G1 X113.5 Y101.5 E15.49341
G1 X121.5 Y101.5 E15.75949
G1 X121.5 Y133.5 E16.82382
G0 F6000 X121.9 Y133.9
G1 F900 X113.1 Y133.9 E17.1165
G1 X113.1 Y101.1 E18.20744
G1 X121.9 Y101.1 E18.50013
G1 X121.9 Y133.9 E19.59106
G0 F6000 X122.3 Y134.3
;TYPE:WALL-OUTER
G1 F900 X112.7 Y134.3 E19.91036
G1 X112.7 Y100.7 E21.0279
G1 X122.3 Y100.7 E21.34719
G1 X122.3 Y134.3 E22.46473
G0 F6000 X122.03 Y134.03
G0 X121.39 Y133.11
G0 X121.11 Y133.11
;TYPE:SKIN
G1 F900 X113.89 Y133.11 E22.70487
G1 X113.89 Y101.89 E23.74325
G1 X121.11 Y101.89 E23.98339
G1 X121.11 Y133.11 E25.02177
G0 F6000 X121.39 Y133.11
G0 X114.281 Y133.39
G0 X114.281 Y132.949
G1 F900 X114.049 Y132.716 E25.03271
G0 F6000 X114.049 Y132.151
G1 F900 X114.847 Y132.949 E25.07025
G0 F6000 X115.413 Y132.949
G1 F900 X114.049 Y131.585 E25.1344
G0 F6000 X114.049 Y131.019
G1 F900 X115.978 Y132.949 E25.22516
G0 F6000 X116.544 Y132.949
G1 F900 X114.049 Y130.454 E25.34252
G0 F6000 X114.049 Y129.888
G1 F900 X117.11 Y132.949 E25.4865
G0 F6000 X117.676 Y132.949
G1 F900 X114.049 Y129.322 E25.6571
G0 F6000 X114.049 Y128.757
G1 F900 X118.241 Y132.949 E25.85428
G0 F6000 X118.807 Y132.949
G1 F900 X114.049 Y128.191 E26.07808
G0 F6000 X114.049 Y127.625
G1 F900 X119.373 Y132.949 E26.32851
G0 F6000 X119.938 Y132.949
G1 F900 X114.049 Y127.06 E26.60551
G0 F6000 X114.049 Y126.494
G1 F900 X120.504 Y132.949 E26.90913
G0 F6000 X120.949 Y132.829
G1 F900 X114.049 Y125.928 E27.23371
G0 F6000 X114.049 Y125.362
G1 F900 X120.949 Y132.263 E27.55829
G0 F6000 X120.949 Y131.697
G1 F900 X114.049 Y124.797 E27.88284
G0 F6000 X114.049 Y124.231
G1 F900 X120.949 Y131.132 E28.20742
G0 F6000 X120.949 Y130.566
G1 F900 X114.049 Y123.665 E28.532
G0 F6000 X114.049 Y123.1
G1 F900 X120.949 Y130 E28.85655
G0 F6000 X120.949 Y129.435
G1 F900 X114.049 Y122.534 E29.18113
G0 F6000 X114.049 Y121.968
G1 F900 X120.949 Y128.869 E29.50571
G0 F6000 X120.949 Y128.303
G1 F900 X114.049 Y121.403 E29.83027
G0 F6000 X114.049 Y120.837
G1 F900 X120.949 Y127.738 E30.15484
G0 F6000 X120.949 Y127.172
G1 F900 X114.049 Y120.271 E30.47942
G0 F6000 X114.049 Y119.706
G1 F900 X120.949 Y126.606 E30.80398
G0 F6000 X120.949 Y126.041
G1 F900 X114.049 Y119.14 E31.12856
G0 F6000 X114.049 Y118.574
G1 F900 X120.949 Y125.475 E31.45313
G0 F6000 X120.949 Y124.909
G1 F900 X114.049 Y118.009 E31.77769
G0 F6000 X114.049 Y117.443
G1 F900 X120.949 Y124.344 E32.10227
G0 F6000 X120.949 Y123.778
G1 F900 X114.049 Y116.877 E32.42685
G0 F6000 X114.049 Y116.311
G1 F900 X120.949 Y123.212 E32.75142
G0 F6000 X120.949 Y122.646
G1 F900 X114.049 Y115.746 E33.07598
G0 F6000 X114.049 Y115.18
G1 F900 X120.949 Y122.081 E33.40056
G0 F6000 X120.949 Y121.515
G1 F900 X114.049 Y114.614 E33.72514
G0 F6000 X114.049 Y114.049
G1 F900 X120.949 Y120.949 E34.04969
G0 F6000 X120.949 Y120.384
G1 F900 X114.049 Y113.483 E34.37427
G0 F6000 X114.049 Y112.917
G1 F900 X120.949 Y119.818 E34.69885
G0 F6000 X120.949 Y119.252
G1 F900 X114.049 Y112.352 E35.0234
G0 F6000 X114.049 Y111.786
G1 F900 X120.949 Y118.687 E35.34798
G0 F6000 X120.949 Y118.121
G1 F900 X114.049 Y111.22 E35.67256
G0 F6000 X114.049 Y110.655
G1 F900 X120.949 Y117.555 E35.99711
G0 F6000 X120.949 Y116.99
G1 F900 X114.049 Y110.089 E36.32169
G0 F6000 X114.049 Y109.523
G1 F900 X120.949 Y116.424 E36.64627
G0 F6000 X120.949 Y115.858
G1 F900 X114.049 Y108.958 E36.97082
G0 F6000 X114.049 Y108.392
G1 F900 X120.949 Y115.293 E37.2954
G0 F6000 X120.949 Y114.727
G1 F900 X114.049 Y107.826 E37.61998
G0 F6000 X114.049 Y107.261
G1 F900 X120.949 Y114.161 E37.94454
G0 F6000 X120.949 Y113.595
G1 F900 X114.049 Y106.695 E38.26909
G0 F6000 X114.049 Y106.129
G1 F900 X120.949 Y113.03 E38.59367
G0 F6000 X120.949 Y112.464
G1 F900 X114.049 Y105.563 E38.91825
G0 F6000 X114.049 Y104.998
G1 F900 X120.949 Y111.898 E39.2428
G0 F6000 X120.949 Y111.333
G1 F900 X114.049 Y104.432 E39.56738
G0 F6000 X114.049 Y103.866
G1 F900 X120.949 Y110.767 E39.89196
G0 F6000 X120.949 Y110.201
G1 F900 X114.049 Y103.301 E40.21651
G0 F6000 X114.049 Y102.735
G1 F900 X120.949 Y109.636 E40.54109
G0 F6000 X120.949 Y109.07
G1 F900 X114.049 Y102.169 E40.86567
G0 F6000 X114.494 Y102.049
G1 F900 X120.949 Y108.504 E41.16929
G0 F6000 X120.949 Y107.939
G1 F900 X115.06 Y102.049 E41.44632
G0 F6000 X115.626 Y102.049
G1 F900 X120.949 Y107.373 E41.69672
G0 F6000 X120.949 Y106.807
G1 F900 X116.191 Y102.049 E41.92052
G0 F6000 X116.757 Y102.049
G1 F900 X120.949 Y106.242 E42.11772
G0 F6000 X120.949 Y105.676
G1 F900 X117.323 Y102.049 E42.2883
G0 F6000 X117.888 Y102.049
G1 F900 X120.949 Y105.11 E42.43228
G0 F6000 X120.949 Y104.545
G1 F900 X118.454 Y102.049 E42.54966
G0 F6000 X119.02 Y102.049
G1 F900 X120.949 Y103.979 E42.64042
G0 F6000 X120.949 Y103.413
G1 F900 X119.585 Y102.049 E42.70458
G0 F6000 X120.151 Y102.049
G1 F900 X120.949 Y102.847 E42.74212
G0 F6000 X120.949 Y102.282
G1 F900 X120.717 Y102.049 E42.75305
G0 F6000 X120.717 Y101.31
G1 F2700 E37.75305
;MESH:NONMESH
G0 F300 X120.717 Y101.31 Z0.4
G0 F6000 X121.318 Y101.682
G0 X121.5 Y133.5
;TIME_ELAPSED:97.250340
;LAYER:1
M106 S85
;TYPE:WALL-INNER
;MESH:Mirror_1__2_Alignment_Jig.stl
G1 F2700 E42.75305
G1 F1200 X113.5 Y133.5 E43.01913
G1 X113.5 Y101.5 E44.08346
G1 X121.5 Y101.5 E44.34954
G1 X121.5 Y133.5 E45.41386
G0 F7500 X121.9 Y133.9
G1 F1200 X113.1 Y133.9 E45.70655
G1 X113.1 Y101.1 E46.79748
G1 X121.9 Y101.1 E47.09017
G1 X121.9 Y133.9 E48.18111
G0 F7500 X122.3 Y134.3
;TYPE:WALL-OUTER
G1 F1200 X112.7 Y134.3 E48.5004
G1 X112.7 Y100.7 E49.61794
G1 X122.3 Y100.7 E49.93724
G1 X122.3 Y134.3 E51.05478
G0 F7500 X122.03 Y134.03
G0 X121.39 Y133.11
G0 X121.11 Y133.11
;TYPE:SKIN
G1 F1200 X113.89 Y133.11 E51.29492
G1 X113.89 Y101.89 E52.3333
G1 X121.11 Y101.89 E52.57344
G1 X121.11 Y133.11 E53.61182
G0 F7500 X120.477 Y132.949
G1 F1200 X120.949 Y132.477 E53.63402
G0 F7500 X120.949 Y131.912
G1 F1200 X119.911 Y132.949 E53.68282
G0 F7500 X119.346 Y132.949
G1 F1200 X120.949 Y131.346 E53.75822
G0 F7500 X120.949 Y130.78
G1 F1200 X118.78 Y132.949 E53.86025
G0 F7500 X118.214 Y132.949
G1 F1200 X120.949 Y130.215 E53.98887
G0 F7500 X120.949 Y129.649
G1 F1200 X117.649 Y132.949 E54.14409
G0 F7500 X117.083 Y132.949
G1 F1200 X120.949 Y129.083 E54.32594
G0 F7500 X120.949 Y128.518
G1 F1200 X116.517 Y132.949 E54.53438
G0 F7500 X115.952 Y132.949
G1 F1200 X120.949 Y127.952 E54.76942
G0 F7500 X120.949 Y127.386
G1 F1200 X115.386 Y132.949 E55.03109
G0 F7500 X114.82 Y132.949
G1 F1200 X120.949 Y126.821 E55.31936
G0 F7500 X120.949 Y126.255
G1 F1200 X114.255 Y132.949 E55.63422
G0 F7500 X114.049 Y132.588
G1 F1200 X120.949 Y125.689 E55.95875
G0 F7500 X120.949 Y125.123
G1 F1200 X114.049 Y132.023 E56.28331
G0 F7500 X114.049 Y131.457
G1 F1200 X120.949 Y124.558 E56.60784
G0 F7500 X120.949 Y123.992
G1 F1200 X114.049 Y130.891 E56.93237
G0 F7500 X114.049 Y130.326
G1 F1200 X120.949 Y123.426 E57.25692
G0 F7500 X120.949 Y122.861
G1 F1200 X114.049 Y129.76 E57.58146
G0 F7500 X114.049 Y129.194
G1 F1200 X120.949 Y122.295 E57.90599
G0 F7500 X120.949 Y121.729
G1 F1200 X114.049 Y128.629 E58.23054
G0 F7500 X114.049 Y128.063
G1 F1200 X120.949 Y121.164 E58.55507
G0 F7500 X120.949 Y120.598
G1 F1200 X114.049 Y127.497 E58.8796
G0 F7500 X114.049 Y126.932
G1 F1200 X120.949 Y120.032 E59.20416
G0 F7500 X120.949 Y119.467
G1 F1200 X114.049 Y126.366 E59.52869
G0 F7500 X114.049 Y125.8
G1 F1200 X120.949 Y118.901 E59.85322
G0 F7500 X120.949 Y118.335
G1 F1200 X114.049 Y125.234 E60.17775
G0 F7500 X114.049 Y124.669
G1 F1200 X120.949 Y117.77 E60.50228
G0 F7500 X120.949 Y117.204
G1 F1200 X114.049 Y124.103 E60.82682
G0 F7500 X114.049 Y123.537
G1 F1200 X120.949 Y116.638 E61.15135
G0 F7500 X120.949 Y116.072
G1 F1200 X114.049 Y122.972 E61.4759
G0 F7500 X114.049 Y122.406
G1 F1200 X120.949 Y115.507 E61.80043
G0 F7500 X120.949 Y114.941
G1 F1200 X114.049 Y121.84 E62.12496
G0 F7500 X114.049 Y121.275
G1 F1200 X120.949 Y114.375 E62.44952
G0 F7500 X120.949 Y113.81
G1 F1200 X114.049 Y120.709 E62.77405
G0 F7500 X114.049 Y120.143
G1 F1200 X120.949 Y113.244 E63.09858
G0 F7500 X120.949 Y112.678
G1 F1200 X114.049 Y119.578 E63.42314
G0 F7500 X114.049 Y119.012
G1 F1200 X120.949 Y112.113 E63.74767
G0 F7500 X120.949 Y111.547
