;FLAVOR:Marlin
;TIME:3140
;Filament used: 1.65951m
;Layer height: 0.2
;MINX:93.907
;MINY:93.5
;MINZ:0.2
;MAXX:141.077
;MAXY:141.5
;MAXZ:30
;Generated with Cura_SteamEngine 4.12.1
M140 S50
M105
M190 S50
M104 S200
M105
M109 S200
M82 ;absolute extrusion mode
M201 X500.00 Y500.00 Z100.00 E5000.00 ;Setup machine max acceleration
M203 X500.00 Y500.00 Z10.00 E50.00 ;Setup machine max feedrate
M204 P500.00 R1000.00 T500.00 ;Setup Print/Retract/Travel acceleration
M205 X8.00 Y8.00 Z0.40 E5.00 ;Setup Jerk
M220 S100 ;Reset Feedrate
M221 S100 ;Reset Flowrate

G28 ;Home
G90
G92 E0 ;Reset Extruder
G1 Z2.0 F3000 ;Move Z Axis up

G92 E0 ;Reset Extruder
G1 Z2.0 F3000 ;Move Z Axis up
G92 E0
G92 E0
G1 F2700 E-5
;LAYER_COUNT:150
;LAYER:0
M107
G0 F6000 X96.438 Y96.261 Z0.2
;TYPE:SKIRT
G1 F2700 E0
G1 F900 X97.055 Y95.679 E0.02821
G1 X97.725 Y95.157 E0.05646
G1 X98.44 Y94.701 E0.08467
G1 X99.195 Y94.314 E0.11288
G1 X99.983 Y94 E0.1411
G1 X100.797 Y93.762 E0.1693
G1 X101.63 Y93.601 E0.19752
G1 X102.664 Y93.513 E0.23204
G1 X102.985 Y93.504 E0.24272
G1 X103.237 Y93.5 E0.2511
G1 X106.2 Y93.5 E0.34965
G1 X107.028 Y93.511 E0.37719
G1 X107.547 Y93.533 E0.39447
G1 X108.068 Y93.585 E0.41188
G1 X108.718 Y93.668 E0.43368
G1 X111.41 Y93.974 E0.52379
G1 X113.958 Y94.19 E0.60884
G1 X116.567 Y94.337 E0.69576
G1 X119.101 Y94.408 E0.78007
G1 X119.525 Y94.413 E0.79417
G1 X121.24 Y94.462 E0.85124
G1 X121.55 Y94.476 E0.86156
G1 X122.041 Y94.507 E0.87792
G1 X122.532 Y94.551 E0.89432
G1 X122.912 Y94.596 E0.90705
G1 X123.193 Y94.634 E0.91648
G1 X123.606 Y94.697 E0.93037
G1 X124.102 Y94.777 E0.94708
G1 X124.69 Y94.892 E0.96701
G1 X125.701 Y95.125 E1.00152
G1 X126.019 Y95.204 E1.01242
G1 X126.32 Y95.285 E1.02278
G1 X126.83 Y95.439 E1.0405
G1 X127.87 Y95.786 E1.07697
G1 X128.168 Y95.891 E1.08748
G1 X128.46 Y96 E1.09784
G1 X128.997 Y96.221 E1.11716
G1 X129.942 Y96.645 E1.15161
G1 X130.211 Y96.771 E1.16149
G1 X130.483 Y96.904 E1.17156
G1 X130.997 Y97.176 E1.1909
G1 X131.945 Y97.718 E1.22722
G1 X132.184 Y97.859 E1.23645
G1 X132.422 Y98.005 E1.24574
G1 X132.928 Y98.339 E1.2659
G1 X133.815 Y98.969 E1.30209
G1 X134.067 Y99.155 E1.3125
G1 X134.3 Y99.333 E1.32226
G1 X134.75 Y99.701 E1.34159
G1 X135.568 Y100.414 E1.37768
G1 X135.799 Y100.623 E1.38804
G1 X136.013 Y100.823 E1.39779
G1 X136.408 Y101.215 E1.41629
G1 X137.136 Y101.985 E1.45154
G1 X137.353 Y102.223 E1.46225
G1 X137.558 Y102.456 E1.47257
G1 X137.914 Y102.887 E1.49117
G1 X138.576 Y103.741 E1.5271
G1 X138.782 Y104.018 E1.53859
G1 X138.948 Y104.25 E1.54807
G1 X139.239 Y104.682 E1.5654
G1 X139.633 Y105.306 E1.58994
G1 X140.052 Y106.044 E1.61817
G1 X140.399 Y106.818 E1.64638
G1 X140.672 Y107.621 E1.67459
G1 X140.868 Y108.446 E1.70279
G1 X140.985 Y109.286 E1.731
G1 X141.023 Y110.134 E1.75924
G1 X141.01 Y110.592 E1.77448
G1 X140.863 Y113.34 E1.866
G1 X140.797 Y115.911 E1.95154
G1 X140.806 Y118.477 E2.03689
G1 X140.885 Y121.04 E2.12218
G1 X140.989 Y122.623 E2.17494
G1 X140.992 Y122.772 E2.1799
G1 X141.068 Y124.093 E2.22391
G1 X141.077 Y124.941 E2.25211
G1 X141.006 Y125.786 E2.28032
G1 X140.856 Y126.621 E2.30853
G1 X140.628 Y127.438 E2.33675
G1 X140.324 Y128.23 E2.36496
G1 X139.966 Y128.955 E2.39186
G1 X139.885 Y129.102 E2.39744
G1 X139.66 Y129.487 E2.41227
G1 X139.489 Y129.764 E2.4231
G1 X139.166 Y130.25 E2.4425
G1 X138.544 Y131.125 E2.47821
G1 X138.357 Y131.379 E2.4887
G1 X138.178 Y131.613 E2.4985
G1 X137.815 Y132.058 E2.5176
G1 X137.103 Y132.875 E2.55365
G1 X136.891 Y133.109 E2.56415
G1 X136.689 Y133.325 E2.57398
G1 X136.301 Y133.716 E2.59231
G1 X135.542 Y134.434 E2.62706
G1 X135.294 Y134.66 E2.63822
G1 X135.057 Y134.868 E2.6487
G1 X134.64 Y135.212 E2.66668
G1 X133.785 Y135.876 E2.70269
G1 X133.505 Y136.085 E2.71431
G1 X133.276 Y136.249 E2.72368
G1 X132.826 Y136.552 E2.74172
G1 X131.897 Y137.136 E2.77822
G1 X131.606 Y137.311 E2.78951
G1 X131.36 Y137.453 E2.79896
G1 X130.873 Y137.714 E2.81734
G1 X129.895 Y138.201 E2.85368
G1 X129.598 Y138.343 E2.86462
G1 X129.342 Y138.459 E2.87397
G1 X128.832 Y138.671 E2.89234
G1 X127.84 Y139.049 E2.92765
G1 X127.541 Y139.157 E2.93822
G1 X127.242 Y139.259 E2.94873
G1 X126.704 Y139.424 E2.96745
G1 X125.681 Y139.703 E3.00272
G1 X125.363 Y139.783 E3.01362
G1 X125.051 Y139.856 E3.02428
G1 X124.501 Y139.967 E3.04294
G1 X123.466 Y140.142 E3.07785
G1 X123.178 Y140.186 E3.08754
G1 X122.869 Y140.228 E3.09792
G1 X122.282 Y140.288 E3.11754
G1 X121.205 Y140.363 E3.15345
G1 X120.897 Y140.379 E3.16371
G1 X119.343 Y140.433 E3.21543
G1 X118.524 Y140.449 E3.24267
G1 X115.962 Y140.575 E3.32799
G1 X113.395 Y140.773 E3.41362
G1 X110.829 Y141.044 E3.49944
G1 X108.744 Y141.319 E3.56939
G1 X108.167 Y141.401 E3.58877
G1 X107.15 Y141.487 E3.62272
G1 X106.831 Y141.496 E3.63333
G1 X106.577 Y141.5 E3.64178
G1 X103.498 Y141.499 E3.74419
G1 X102.8 Y141.49 E3.76741
G1 X101.953 Y141.439 E3.79563
G1 X101.115 Y141.309 E3.82383
G1 X100.293 Y141.1 E3.85204
G1 X99.494 Y140.815 E3.88026
G1 X98.725 Y140.456 E3.90848
G1 X97.994 Y140.026 E3.93669
G1 X97.307 Y139.529 E3.96489
G1 X96.669 Y138.97 E3.99311
G1 X96.087 Y138.353 E4.02132
G1 X95.565 Y137.684 E4.04954
G1 X95.109 Y136.969 E4.07775
G1 X94.722 Y136.214 E4.10596
G1 X94.408 Y135.426 E4.13418
G1 X94.169 Y134.612 E4.16239
G1 X94.009 Y133.779 E4.19061
G1 X93.919 Y132.734 E4.22549
G1 X93.91 Y132.401 E4.23657
G1 X93.907 Y132.158 E4.24465
G1 X93.908 Y103.08 E5.21179
G1 X93.917 Y102.391 E5.23471
G1 X93.968 Y101.545 E5.2629
G1 X94.098 Y100.707 E5.29111
G1 X94.307 Y99.884 E5.31935
G1 X94.593 Y99.085 E5.34757
G1 X94.952 Y98.317 E5.37577
G1 X95.382 Y97.586 E5.40398
G1 X95.879 Y96.898 E5.43221
G1 X96.438 Y96.261 E5.46039
G0 F6000 X96.831 Y96.432
G1 F900 X97.444 Y95.874 E5.48797
G1 X98.109 Y95.378 E5.51556
G1 X98.818 Y94.948 E5.54314
G1 X99.565 Y94.589 E5.5707
G1 X100.343 Y94.303 E5.59827
G1 X101.146 Y94.093 E5.62588
G1 X101.965 Y93.962 E5.65346
G1 X102.675 Y93.912 E5.67714
G1 X102.996 Y93.903 E5.68782
G1 X103.237 Y93.9 E5.69584
G1 X106.2 Y93.9 E5.79438
G1 X107.022 Y93.911 E5.82173
G1 X107.52 Y93.932 E5.83831
G1 X108.018 Y93.981 E5.85495
G1 X108.766 Y94.077 E5.88003
G1 X111.365 Y94.372 E5.96703
G1 X113.938 Y94.59 E6.05291
G1 X116.499 Y94.735 E6.13823
G1 X119.129 Y94.808 E6.22574
G1 X119.514 Y94.813 E6.23854
G1 X121.229 Y94.862 E6.29561
G1 X121.525 Y94.875 E6.30546
G1 X122.016 Y94.906 E6.32183
G1 X122.485 Y94.949 E6.33749
G1 X122.865 Y94.994 E6.35022
G1 X123.134 Y95.03 E6.35924
G1 X123.542 Y95.092 E6.37297
G1 X124.038 Y95.172 E6.38968
G1 X124.6 Y95.282 E6.40873
G1 X125.611 Y95.515 E6.44324
G1 X125.915 Y95.59 E6.45365
G1 X126.216 Y95.671 E6.46402
G1 X126.703 Y95.818 E6.48094
G1 X127.743 Y96.165 E6.5174
G1 X128.029 Y96.266 E6.52749
G1 X128.321 Y96.375 E6.53786
G1 X128.834 Y96.586 E6.55631
G1 X129.779 Y97.01 E6.59076
G1 X130.036 Y97.13 E6.60019
G1 X130.308 Y97.263 E6.61026
G1 X130.798 Y97.523 E6.62871
G1 X131.746 Y98.065 E6.66503
G1 X131.975 Y98.2 E6.67387
G1 X132.213 Y98.346 E6.68316
G1 X132.696 Y98.666 E6.70243
G1 X133.583 Y99.296 E6.73861
G1 X133.824 Y99.473 E6.74856
G1 X134.057 Y99.651 E6.75831
G1 X134.487 Y100.002 E6.77677
G1 X135.305 Y100.715 E6.81286
G1 X135.526 Y100.915 E6.82278
G1 X135.74 Y101.115 E6.83252
G1 X136.117 Y101.49 E6.85021
G1 X136.845 Y102.26 E6.88545
G1 X137.053 Y102.487 E6.89569
G1 X137.258 Y102.72 E6.90601
G1 X137.598 Y103.132 E6.92378
G1 X138.26 Y103.986 E6.95972
G1 X138.457 Y104.251 E6.9707
G1 X138.623 Y104.483 E6.98019
G1 X138.901 Y104.896 E6.99675
G1 X139.295 Y105.52 E7.02129
G1 X139.703 Y106.241 E7.04885
G1 X140.04 Y106.999 E7.07644
G1 X140.303 Y107.785 E7.104
G1 X140.488 Y108.594 E7.13161
G1 X140.595 Y109.416 E7.15918
G1 X140.611 Y110.571 E7.1976
G1 X140.462 Y113.345 E7.28999
G1 X140.397 Y115.902 E7.37507
G1 X140.406 Y118.491 E7.46118
G1 X140.485 Y121.048 E7.54626
G1 X140.59 Y122.649 E7.59963
G1 X140.592 Y122.791 E7.60435
G1 X140.669 Y124.116 E7.6485
G1 X140.677 Y124.945 E7.67607
G1 X140.605 Y125.771 E7.70365
G1 X140.453 Y126.586 E7.73122
G1 X140.224 Y127.383 E7.7588
G1 X139.92 Y128.154 E7.78637
G1 X139.615 Y128.762 E7.80899
G1 X139.534 Y128.909 E7.81457
G1 X139.32 Y129.277 E7.82873
G1 X139.149 Y129.554 E7.83956
G1 X138.84 Y130.019 E7.85813
G1 X138.218 Y130.894 E7.89383
G1 X138.04 Y131.136 E7.90383
G1 X137.861 Y131.37 E7.91363
G1 X137.513 Y131.795 E7.9319
G1 X136.801 Y132.612 E7.96794
G1 X136.599 Y132.836 E7.97797
G1 X136.397 Y133.052 E7.98781
G1 X136.026 Y133.426 E8.00533
G1 X135.267 Y134.144 E8.04008
G1 X135.03 Y134.36 E8.05075
G1 X134.793 Y134.568 E8.06123
G1 X134.395 Y134.896 E8.07839
G1 X133.54 Y135.56 E8.11439
G1 X133.272 Y135.76 E8.12551
G1 X133.043 Y135.924 E8.13488
G1 X132.613 Y136.213 E8.15211
G1 X131.684 Y136.797 E8.18861
G1 X131.406 Y136.964 E8.1994
G1 X131.16 Y137.106 E8.20885
G1 X130.694 Y137.356 E8.22643
G1 X129.716 Y137.843 E8.26277
G1 X129.432 Y137.978 E8.27323
G1 X129.176 Y138.094 E8.28258
G1 X128.689 Y138.297 E8.30013
G1 X127.697 Y138.675 E8.33544
G1 X127.412 Y138.778 E8.34551
G1 X127.113 Y138.88 E8.35602
G1 X126.599 Y139.038 E8.37391
G1 X125.576 Y139.317 E8.40918
G1 X125.272 Y139.394 E8.41961
G1 X124.96 Y139.467 E8.43026
G1 X124.435 Y139.573 E8.44808
G1 X123.4 Y139.748 E8.48299
G1 X123.124 Y139.79 E8.49228
G1 X122.815 Y139.832 E8.50265
G1 X122.254 Y139.889 E8.5214
G1 X121.177 Y139.964 E8.55731
G1 X120.883 Y139.98 E8.5671
G1 X119.465 Y140.03 E8.6143
G1 X118.533 Y140.049 E8.6453
G1 X115.911 Y140.177 E8.73261
G1 X113.358 Y140.375 E8.81778
G1 X110.77 Y140.648 E8.90434
G1 X108.72 Y140.918 E8.97311
G1 X108.11 Y141.005 E8.9936
G1 X107.139 Y141.088 E9.02601
G1 X106.82 Y141.097 E9.03663
G1 X106.577 Y141.1 E9.04471
G1 X103.503 Y141.099 E9.14695
G1 X102.805 Y141.09 E9.17017
G1 X101.977 Y141.04 E9.19776
G1 X101.159 Y140.91 E9.22531
G1 X100.356 Y140.701 E9.25291
G1 X99.577 Y140.416 E9.2805
G1 X98.829 Y140.058 E9.30808
G1 X98.12 Y139.629 E9.33564
G1 X97.454 Y139.134 E9.36324
G1 X96.84 Y138.577 E9.39081
G1 X96.282 Y137.964 E9.41838
G1 X95.786 Y137.299 E9.44597
G1 X95.356 Y136.59 E9.47355
G1 X94.996 Y135.843 E9.50113
G1 X94.71 Y135.065 E9.5287
G1 X94.5 Y134.263 E9.55628
G1 X94.369 Y133.444 E9.58386
G1 X94.319 Y132.723 E9.6079
G1 X94.31 Y132.39 E9.61898
G1 X94.307 Y132.158 E9.6267
G1 X94.308 Y103.086 E10.59364
G1 X94.317 Y102.397 E10.61656
G1 X94.368 Y101.569 E10.64415
G1 X94.498 Y100.75 E10.67173
G1 X94.706 Y99.948 E10.69928
G1 X94.991 Y99.169 E10.72687
G1 X95.35 Y98.421 E10.75447
G1 X95.779 Y97.711 E10.78206
G1 X96.274 Y97.046 E10.80963
G1 X96.831 Y96.432 E10.83721
G0 F6000 X97.223 Y96.608
G1 F900 X97.832 Y96.075 E10.86412
G1 X98.492 Y95.605 E10.89107
G1 X99.194 Y95.202 E10.91799
G1 X99.933 Y94.871 E10.94493
G1 X100.701 Y94.614 E10.97186
G1 X101.49 Y94.434 E10.99878
G1 X102.686 Y94.312 E11.03877
G1 X103.007 Y94.303 E11.04945
G1 X103.237 Y94.3 E11.0571
G1 X106.2 Y94.3 E11.15565
G1 X107.016 Y94.311 E11.18279
G1 X107.492 Y94.331 E11.19863
G1 X107.967 Y94.378 E11.21451
G1 X108.668 Y94.467 E11.23801
G1 X111.322 Y94.769 E11.32685
G1 X113.918 Y94.989 E11.41351
G1 X116.5 Y95.135 E11.49952
G1 X119.117 Y95.208 E11.5866
G1 X119.502 Y95.212 E11.5994
G1 X121.217 Y95.261 E11.65647
G1 X121.5 Y95.274 E11.66589
G1 X121.991 Y95.305 E11.68225
G1 X122.438 Y95.346 E11.69718
G1 X122.818 Y95.391 E11.70991
G1 X123.074 Y95.425 E11.7185
G1 X123.479 Y95.487 E11.73213
G1 X123.975 Y95.567 E11.74884
G1 X124.511 Y95.671 E11.767
G1 X125.522 Y95.904 E11.80151
G1 X125.811 Y95.977 E11.81142
G1 X126.112 Y96.058 E11.82179
G1 X126.576 Y96.198 E11.83791
G1 X127.616 Y96.545 E11.87437
G1 X127.889 Y96.641 E11.884
G1 X128.181 Y96.75 E11.89436
G1 X128.67 Y96.951 E11.91195
G1 X129.615 Y97.375 E11.9464
G1 X129.86 Y97.489 E11.95539
G1 X130.132 Y97.622 E11.96546
G1 X130.6 Y97.87 E11.98307
G1 X131.548 Y98.412 E12.01939
G1 X131.766 Y98.541 E12.02782
G1 X132.004 Y98.687 E12.0371
G1 X132.464 Y98.992 E12.05546
G1 X133.351 Y99.622 E12.09165
G1 X133.581 Y99.791 E12.10114
G1 X133.814 Y99.969 E12.11089
G1 X134.224 Y100.304 E12.1285
G1 X135.042 Y101.017 E12.16459
G1 X135.253 Y101.207 E12.17404
G1 X135.467 Y101.407 E12.18378
G1 X135.827 Y101.765 E12.20067
G1 X136.555 Y102.535 E12.23591
G1 X136.752 Y102.751 E12.24563
G1 X136.957 Y102.984 E12.25596
G1 X137.282 Y103.377 E12.27292
G1 X137.944 Y104.231 E12.30886
G1 X138.132 Y104.483 E12.31931
G1 X138.298 Y104.715 E12.3288
G1 X138.563 Y105.109 E12.34459
G1 X138.957 Y105.733 E12.36914
G1 X139.354 Y106.438 E12.39605
G1 X139.681 Y107.179 E12.42299
G1 X139.933 Y107.949 E12.44994
G1 X140.107 Y108.739 E12.47684
G1 X140.203 Y109.543 E12.50377
G1 X140.211 Y110.549 E12.53723
G1 X140.063 Y113.312 E12.62926
G1 X139.997 Y115.893 E12.71513
G1 X140.006 Y118.504 E12.80198
G1 X140.086 Y121.087 E12.88793
G1 X140.19 Y122.675 E12.94086
G1 X140.192 Y122.81 E12.94535
G1 X140.269 Y124.139 E12.98963
G1 X140.276 Y124.948 E13.01654
G1 X140.203 Y125.755 E13.04349
G1 X140.051 Y126.55 E13.07041
G1 X139.821 Y127.326 E13.09733
G1 X139.515 Y128.076 E13.12427
G1 X139.265 Y128.569 E13.14265
G1 X139.184 Y128.716 E13.14824
G1 X138.98 Y129.066 E13.16171
G1 X138.809 Y129.343 E13.17254
G1 X138.514 Y129.787 E13.19027
G1 X137.892 Y130.662 E13.22597
G1 X137.722 Y130.893 E13.23551
G1 X137.543 Y131.127 E13.24531
G1 X137.212 Y131.532 E13.26271
G1 X136.5 Y132.349 E13.29875
G1 X136.307 Y132.563 E13.30834
G1 X136.105 Y132.779 E13.31817
G1 X135.751 Y133.135 E13.33487
G1 X134.992 Y133.853 E13.36962
G1 X134.766 Y134.059 E13.37979
G1 X134.529 Y134.267 E13.39028
G1 X134.15 Y134.58 E13.40663
G1 X133.295 Y135.244 E13.44264
G1 X133.039 Y135.435 E13.45326
G1 X132.81 Y135.599 E13.46263
G1 X132.4 Y135.874 E13.47905
G1 X131.471 Y136.458 E13.51554
G1 X131.206 Y136.618 E13.52584
G1 X130.96 Y136.76 E13.53529
G1 X130.516 Y136.998 E13.55204
G1 X129.538 Y137.485 E13.58838
G1 X129.267 Y137.614 E13.59836
G1 X129.011 Y137.73 E13.60771
G1 X128.547 Y137.924 E13.62444
G1 X127.555 Y138.302 E13.65975
G1 X127.283 Y138.4 E13.66936
G1 X126.984 Y138.502 E13.67987
G1 X126.494 Y138.652 E13.69691
G1 X125.471 Y138.931 E13.73218
G1 X125.181 Y139.004 E13.74213
G1 X124.869 Y139.077 E13.75279
G1 X124.368 Y139.178 E13.76978
G1 X123.333 Y139.353 E13.8047
G1 X123.07 Y139.393 E13.81355
G1 X122.761 Y139.435 E13.82392
G1 X122.227 Y139.49 E13.84177
G1 X121.15 Y139.565 E13.87768
G1 X120.869 Y139.58 E13.88704
G1 X119.327 Y139.633 E13.93836
G1 X118.504 Y139.65 E13.96574
G1 X115.931 Y139.775 E14.05141
G1 X113.321 Y139.977 E14.13848
G1 X110.716 Y140.252 E14.22561
G1 X108.626 Y140.527 E14.29572
G1 X108.054 Y140.609 E14.31494
G1 X107.127 Y140.688 E14.34588
G1 X106.808 Y140.697 E14.3565
G1 X106.577 Y140.7 E14.36418
G1 X103.508 Y140.699 E14.46626
G1 X102.81 Y140.69 E14.48947
G1 X102.002 Y140.64 E14.5164
G1 X101.203 Y140.51 E14.54332
G1 X100.42 Y140.302 E14.57027
G1 X99.662 Y140.018 E14.59719
G1 X98.936 Y139.66 E14.62412
G1 X98.248 Y139.233 E14.65105
G1 X97.606 Y138.74 E14.67797
G1 X97.016 Y138.185 E14.70491
G1 X96.483 Y137.576 E14.73183
G1 X96.013 Y136.916 E14.75878
G1 X95.61 Y136.214 E14.7857
G1 X95.278 Y135.475 E14.81265
G1 X95.021 Y134.708 E14.83955
G1 X94.841 Y133.918 E14.8665
G1 X94.719 Y132.713 E14.90678
G1 X94.71 Y132.38 E14.91786
G1 X94.707 Y132.158 E14.92525
G1 X94.708 Y103.091 E15.89202
G1 X94.717 Y102.402 E15.91494
G1 X94.767 Y101.594 E15.94186
G1 X94.897 Y100.795 E15.96879
G1 X95.105 Y100.012 E15.99573
G1 X95.39 Y99.254 E16.02267
G1 X95.747 Y98.528 E16.04958
G1 X96.175 Y97.84 E16.07653
G1 X96.668 Y97.198 E16.10345
G1 X97.223 Y96.608 E16.13039
G1 F2700 E11.13039
;MESH:Mirror_3_Alignment.stl
G0 F6000 X103.221 Y101.835
G0 X103.221 Y102.814
G0 X104.089 Y131.318
G0 X106.307 Y131.9
;TYPE:WALL-INNER
G1 F2700 E16.13039
G1 F900 X103.507 Y131.9 E16.22352
G1 X103.507 Y103.1 E17.18141
G1 X106.307 Y103.1 E17.27454
G1 X106.308 Y113.299 E17.61376
G1 X106.95 Y113.411 E17.63543
G1 X106.944 Y113.428 E17.63603
G1 X106.617 Y114.738 E17.68094
G1 X106.42 Y116.073 E17.72582
G1 X106.354 Y117.412 E17.77041
G1 X106.42 Y118.76 E17.8153
G1 X106.618 Y120.095 E17.86019
G1 X106.948 Y121.411 E17.90532
G1 X106.307 Y121.523 E17.92696
G1 X106.307 Y131.9 E18.2721
G0 F6000 X105.907 Y131.5
G1 F900 X103.907 Y131.5 E18.33862
G1 X103.907 Y103.5 E19.2699
G1 X105.907 Y103.5 E19.33642
G1 X105.908 Y113.635 E19.67351
G1 X106.456 Y113.731 E19.69202
G1 X106.224 Y114.66 E19.72387
