;FLAVOR:Marlin
;TIME:3537
;Filament used: 2.74465m, 0m
;Layer height: 0.18
;MINX:49.386
;MINY:50.511
;MINZ:0.3
;MAXX:185.61
;MAXY:182.894
;MAXZ:1.56
;POSTPROCESSED
;Generated with Cura_SteamEngine 4.8.0
T0
M140 S60
M105
M190 S60
M104 S200
M105
M109 S200
M82 ;absolute extrusion mode
M201 X500.00 Y500.00 Z100.00 E5000.00 	;Setup machine max acceleration
M203 X500.00 Y500.00 Z10.00 E50.00 	;Setup machine max feedrate
M204 P500.00 R1000.00 T500.00 		;Setup Print/Retract/Travel acceleration
M205 X8.00 Y8.00 Z0.40 E5.00 		;Setup Jerk
M220 S100 				;Reset Feedrate
M221 S100 				;Reset Flowrate
G28				;Home the Machine
#G29 				;Bed Level
G92 E0
M300 P150 S587
G92 E0
G1 F1500 E-6.5
;LAYER_COUNT:8
;LAYER:0
M107
G0 F2160 X52.309 Y94.652 Z0.3
;TYPE:SKIRT
G1 F1500 E0
G1 F900 X52.787 Y94.407 E0.0268
G1 X53.476 Y94.195 E0.06276
G1 X54.889 Y93.911 E0.13467
G1 X55.249 Y93.843 E0.15295
G1 X57.931 Y93.257 E0.28991
G1 X60.546 Y92.608 E0.42433
G1 X63.205 Y91.867 E0.56204
G1 X65.787 Y91.068 E0.69688
G1 X68.408 Y90.175 E0.83503
G1 X70.934 Y89.234 E0.96951
G1 X73.48 Y88.203 E1.10655
G1 X75.948 Y87.119 E1.24103
G1 X78.426 Y85.949 E1.37775
G1 X80.865 Y84.71 E1.51423
G1 X83.25 Y83.414 E1.64965
G1 X85.611 Y82.041 E1.78591
G1 X87.932 Y80.604 E1.9221
G1 X90.185 Y79.119 E2.05673
G1 X92.468 Y77.519 E2.19581
G1 X94.615 Y75.923 E2.32928
G1 X96.76 Y74.231 E2.46558
G1 X98.859 Y72.477 E2.60205
G1 X100.895 Y70.675 E2.7377
G1 X102.907 Y68.793 E2.87514
G1 X104.821 Y66.895 E3.00962
G1 X106.72 Y64.902 E3.14697
G1 X108.526 Y62.899 E3.28152
G1 X110.315 Y60.796 E3.41926
G1 X111.999 Y58.7 E3.5534
G1 X113.666 Y56.498 E3.69119
G1 X115.234 Y54.304 E3.82573
G1 X115.927 Y53.259 E3.88829
G1 X116.066 Y53.08 E3.8996
G1 X116.738 Y52.086 E3.95946
G1 X117.07 Y51.666 E3.98617
G1 X117.462 Y51.299 E4.01296
G1 X117.903 Y50.995 E4.03968
G1 X118.385 Y50.76 E4.06643
G1 X118.897 Y50.598 E4.09322
G1 X119.427 Y50.515 E4.11999
G1 X119.963 Y50.511 E4.14673
G1 X120.494 Y50.587 E4.17349
G1 X121.007 Y50.741 E4.20021
G1 X121.493 Y50.97 E4.22702
G1 X121.938 Y51.268 E4.25374
G1 X122.335 Y51.629 E4.28051
G1 X122.696 Y52.078 E4.30925
G1 X122.812 Y52.249 E4.31956
G1 X124.099 Y54.209 E4.43654
G1 X125.646 Y56.425 E4.57137
G1 X127.284 Y58.637 E4.70869
G1 X128.954 Y60.763 E4.84357
G1 X130.712 Y62.875 E4.98066
G1 X132.494 Y64.896 E5.11509
G1 X134.389 Y66.927 E5.25367
G1 X136.285 Y68.848 E5.38833
G1 X138.253 Y70.731 E5.52422
G1 X140.273 Y72.558 E5.6601
G1 X142.362 Y74.341 E5.79712
G1 X144.48 Y76.05 E5.9329
G1 X146.665 Y77.711 E6.06983
G1 X148.856 Y79.283 E6.20437
G1 X151.104 Y80.801 E6.33969
G1 X153.45 Y82.289 E6.47829
G1 X155.743 Y83.654 E6.61143
G1 X158.148 Y84.996 E6.74883
G1 X160.574 Y86.261 E6.88533
G1 X163.019 Y87.449 E7.02095
G1 X165.485 Y88.562 E7.15593
G1 X168.03 Y89.625 E7.29353
G1 X170.604 Y90.618 E7.43117
G1 X173.099 Y91.497 E7.56315
G1 X175.742 Y92.345 E7.70163
G1 X178.331 Y93.098 E7.83615
G1 X181.001 Y93.791 E7.97377
G1 X182.007 Y94.022 E8.02526
G1 X182.844 Y94.228 E8.06827
G1 X183.354 Y94.395 E8.09504
G1 X183.833 Y94.635 E8.12177
G1 X184.272 Y94.944 E8.14855
G1 X184.659 Y95.315 E8.1753
G1 X184.987 Y95.739 E8.20204
G1 X185.249 Y96.207 E8.2288
G1 X185.438 Y96.709 E8.25556
G1 X185.55 Y97.234 E8.28234
G1 X185.592 Y97.945 E8.31788
G1 X185.61 Y99.773 E8.40908
G1 X185.571 Y100.507 E8.44575
G1 X185.494 Y101.038 E8.47252
G1 X185.413 Y101.344 E8.48831
G1 X185.234 Y101.908 E8.51783
G1 X185.12 Y102.221 E8.53445
G1 X184.641 Y103.374 E8.59674
G1 X183.627 Y105.922 E8.73356
G1 X182.695 Y108.467 E8.86878
G1 X181.832 Y111.048 E9.00455
G1 X181.049 Y113.634 E9.13935
G1 X180.312 Y116.341 E9.27932
G1 X179.68 Y118.946 E9.41305
G1 X179.114 Y121.619 E9.54937
G1 X178.625 Y124.291 E9.68489
G1 X178.212 Y126.979 E9.82057
G1 X177.87 Y129.706 E9.95768
G1 X177.612 Y132.38 E10.09171
G1 X177.424 Y135.142 E10.22982
G1 X177.318 Y137.835 E10.36428
G1 X177.285 Y140.3 E10.48727
G1 X177.283 Y141.358 E10.54006
G1 X177.248 Y142.604 E10.60224
G1 X177.177 Y143.835 E10.66376
G1 X177.066 Y145.101 E10.72716
G1 X177.054 Y145.214 E10.73283
G1 X176.915 Y146.363 E10.79058
G1 X176.898 Y146.485 E10.79672
G1 X176.731 Y147.558 E10.8509
G1 X176.71 Y147.678 E10.85698
G1 X176.512 Y148.717 E10.90974
G1 X176.485 Y148.847 E10.91637
G1 X176.252 Y149.864 E10.96842
G1 X176.216 Y150.008 E10.97583
G1 X175.931 Y151.052 E11.02982
G1 X175.89 Y151.192 E11.0371
G1 X175.503 Y152.413 E11.101
G1 X175.268 Y153.082 E11.13637
G1 X175.21 Y153.235 E11.14454
G1 X174.83 Y154.168 E11.1948
G1 X174.75 Y154.349 E11.20467
G1 X174.389 Y155.131 E11.24764
G1 X174.279 Y155.351 E11.25991
G1 X173.899 Y156.079 E11.30088
G1 X173.734 Y156.375 E11.31779
G1 X173.419 Y156.909 E11.34872
G1 X173.156 Y157.328 E11.3734
G1 X172.79 Y157.879 E11.4064
G1 X172.268 Y158.597 E11.45069
G1 X171.898 Y159.067 E11.48053
G1 X171.53 Y159.505 E11.50907
G1 X171.089 Y159.996 E11.542
G1 X170.788 Y160.311 E11.56374
G1 X170.409 Y160.687 E11.59037
G1 X170.028 Y161.045 E11.61645
G1 X169.527 Y161.485 E11.64972
G1 X169.225 Y161.734 E11.66925
G1 X168.641 Y162.188 E11.70615
G1 X168.354 Y162.396 E11.72384
G1 X167.852 Y162.741 E11.75423
G1 X167.481 Y162.979 E11.77622
G1 X166.828 Y163.37 E11.81419
G1 X166.519 Y163.542 E11.83183
G1 X165.988 Y163.819 E11.86171
G1 X165.512 Y164.05 E11.88811
G1 X164.941 Y164.304 E11.91929
G1 X164.55 Y164.465 E11.94038
G1 X163.989 Y164.678 E11.97032
G1 X163.499 Y164.847 E11.99618
G1 X162.997 Y165.005 E12.02244
G1 X162.488 Y165.149 E12.04883
G1 X161.933 Y165.289 E12.07738
G1 X161.376 Y165.413 E12.10585
G1 X160.883 Y165.509 E12.13091
G1 X160.249 Y165.615 E12.16298
G1 X159.72 Y165.687 E12.18961
G1 X158.918 Y165.773 E12.22986
G1 X158.662 Y165.794 E12.24267
G1 X157.798 Y165.844 E12.28585
G1 X157.473 Y165.854 E12.30207
G1 X156.649 Y165.861 E12.34318
G1 X156.488 Y165.859 E12.35121
G1 X155.628 Y165.828 E12.39415
G1 X155.465 Y165.818 E12.40229
G1 X154.619 Y165.749 E12.44464
G1 X154.073 Y165.684 E12.47207
G1 X151.352 Y165.375 E12.6087
G1 X148.638 Y165.146 E12.74458
G1 X145.946 Y164.994 E12.8791
G1 X143.179 Y164.917 E13.0172
G1 X140.483 Y164.917 E13.1517
G1 X137.72 Y164.996 E13.28961
G1 X135.029 Y165.15 E13.42408
G1 X132.302 Y165.383 E13.56063
G1 X129.597 Y165.691 E13.69645
G1 X126.885 Y166.078 E13.83312
G1 X124.215 Y166.536 E13.96828
G1 X121.565 Y167.067 E14.10311
G1 X118.882 Y167.687 E14.2405
G1 X116.232 Y168.378 E14.37713
G1 X113.632 Y169.133 E14.5122
G1 X111.01 Y169.978 E14.64964
G1 X108.459 Y170.88 E14.78463
G1 X105.931 Y171.855 E14.91981
G1 X103.393 Y172.916 E15.05705
G1 X100.918 Y174.035 E15.19256
G1 X98.456 Y175.232 E15.32914
G1 X96.045 Y176.491 E15.46483
G1 X93.663 Y177.822 E15.60097
G1 X91.347 Y179.204 E15.73552
G1 X88.775 Y180.842 E15.88765
G1 X87.981 Y181.365 E15.93508
G1 X87.796 Y181.479 E15.94593
G1 X87.191 Y181.827 E15.98075
G1 X86.653 Y182.098 E16.0108
G1 X86.085 Y182.334 E16.04149
G1 X85.767 Y182.443 E16.05826
G1 X85.096 Y182.64 E16.09315
G1 X84.503 Y182.771 E16.12344
G1 X83.922 Y182.85 E16.1527
G1 X83.593 Y182.874 E16.16915
G1 X82.905 Y182.894 E16.20349
G1 X82.365 Y182.881 E16.23044
G1 X81.704 Y182.813 E16.26359
G1 X81.485 Y182.781 E16.27464
G1 X80.711 Y182.64 E16.31389
G1 X80.403 Y182.574 E16.3296
G1 X79.508 Y182.354 E16.37558
G1 X76.797 Y181.732 E16.51435
G1 X74.103 Y181.191 E16.65144
G1 X71.19 Y180.7 E16.79882
G1 X70.539 Y180.537 E16.8323
G1 X70.058 Y180.381 E16.85753
G1 X67.981 Y179.657 E16.96726
G1 X65.351 Y178.823 E17.10491
G1 X63.717 Y178.351 E17.18977
G1 X63.278 Y178.215 E17.2127
G1 X62.671 Y178.007 E17.24471
G1 X62.446 Y177.921 E17.25672
G1 X61.845 Y177.669 E17.28924
G1 X61.25 Y177.384 E17.32215
G1 X60.786 Y177.126 E17.34864
G1 X60.165 Y176.733 E17.3853
G1 X59.445 Y176.196 E17.43012
G1 X59.042 Y175.849 E17.45665
G1 X58.521 Y175.344 E17.49285
G1 X58.089 Y174.867 E17.52495
G1 X57.633 Y174.289 E17.56168
G1 X57.316 Y173.829 E17.58955
G1 X56.986 Y173.294 E17.62091
G1 X56.722 Y172.804 E17.64868
G1 X56.563 Y172.484 E17.66651
G1 X56.225 Y171.758 E17.70646
G1 X56.148 Y171.614 E17.71461
G1 X55.457 Y170.134 E17.7961
G1 X54.235 Y167.699 E17.93202
G1 X52.851 Y165.132 E18.07752
G1 X51.972 Y163.559 E18.16742
G1 X51.746 Y163.073 E18.19416
G1 X51.56 Y162.368 E18.23053
G1 X51.449 Y161.66 E18.26629
G1 X51.355 Y160.811 E18.3089
G1 X51.322 Y160.359 E18.33151
G1 X51.263 Y159.156 E18.3916
G1 X51.053 Y156.466 E18.52622
G1 X50.764 Y153.752 E18.66238
G1 X50.394 Y151.012 E18.80032
G1 X49.962 Y148.381 E18.93334
G1 X49.771 Y147.357 E18.98531
G1 X49.613 Y146.471 E19.03021
G1 X49.516 Y145.812 E19.06344
G1 X49.485 Y145.535 E19.07735
G1 X49.404 Y144.547 E19.1268
G1 X49.386 Y144.013 E19.15346
G1 X49.386 Y143.838 E19.16219
G1 X49.4 Y143.283 E19.18989
G1 X49.438 Y142.701 E19.21899
G1 X49.502 Y142.105 E19.24889
G1 X49.527 Y141.918 E19.25831
G1 X49.843 Y139.235 E19.39309
G1 X50.088 Y136.478 E19.53118
G1 X50.252 Y133.784 E19.66583
G1 X50.346 Y130.691 E19.82021
G1 X50.381 Y129.898 E19.85981
G1 X50.459 Y129.288 E19.89049
G1 X50.821 Y126.589 E20.02635
G1 X51.109 Y123.865 E20.16301
G1 X51.315 Y121.18 E20.29736
G1 X51.449 Y118.418 E20.43532
G1 X51.504 Y115.723 E20.5698
G1 X51.481 Y112.991 E20.70611
G1 X51.382 Y110.23 E20.84394
G1 X51.211 Y107.588 E20.97603
G1 X50.953 Y104.811 E21.11517
G1 X50.576 Y101.757 E21.26869
G1 X50.437 Y100.761 E21.31886
G1 X50.406 Y100.426 E21.33565
G1 X50.374 Y99.718 E21.371
G1 X50.388 Y99.196 E21.39706
G1 X50.43 Y98.776 E21.41811
G1 X50.51 Y98.082 E21.45297
G1 X50.615 Y97.265 E21.49406
G1 X50.723 Y96.74 E21.5208
G1 X50.908 Y96.236 E21.54759
G1 X51.165 Y95.766 E21.57431
G1 X51.49 Y95.339 E21.60109
G1 X51.874 Y94.965 E21.62783
G1 X52.309 Y94.652 E21.65457
G0 F2160 X52.669 Y94.907
G1 F900 X53.131 Y94.703 E21.67976
G1 X53.555 Y94.587 E21.70169
G1 X54.963 Y94.304 E21.77334
G1 X55.344 Y94.232 E21.79269
G1 X58.007 Y93.65 E21.92868
G1 X60.636 Y92.998 E22.06382
G1 X63.325 Y92.248 E22.20309
G1 X65.928 Y91.443 E22.33902
G1 X68.509 Y90.564 E22.47505
G1 X71.106 Y89.596 E22.61333
G1 X73.625 Y88.576 E22.74891
G1 X76.131 Y87.476 E22.88545
G1 X78.599 Y86.31 E23.02163
G1 X81.03 Y85.075 E23.15767
G1 X83.462 Y83.754 E23.29574
G1 X85.817 Y82.384 E23.43167
G1 X88.141 Y80.945 E23.56804
G1 X90.43 Y79.437 E23.70479
G1 X92.673 Y77.864 E23.84147
G1 X94.872 Y76.23 E23.97815
G1 X97.002 Y74.55 E24.1135
G1 X99.134 Y72.768 E24.25212
G1 X101.168 Y70.968 E24.38763
G1 X103.179 Y69.086 E24.52504
G1 X105.11 Y67.172 E24.66069
G1 X106.99 Y65.2 E24.79661
G1 X108.844 Y63.143 E24.93477
G1 X110.616 Y61.059 E25.07125
G1 X112.327 Y58.929 E25.20755
G1 X113.978 Y56.75 E25.34394
G1 X115.559 Y54.537 E25.47963
G1 X116.26 Y53.48 E25.54291
G1 X116.395 Y53.308 E25.55382
G1 X117.069 Y52.311 E25.61386
G1 X117.385 Y51.915 E25.63913
G1 X117.758 Y51.575 E25.66431
G1 X118.181 Y51.297 E25.68957
G1 X118.642 Y51.09 E25.71478
G1 X119.13 Y50.958 E25.74
G1 X119.633 Y50.904 E25.76524
G1 X120.138 Y50.93 E25.79047
G1 X120.632 Y51.036 E25.81567
G1 X121.104 Y51.218 E25.84091
G1 X121.541 Y51.472 E25.86613
G1 X121.933 Y51.791 E25.89134
G1 X122.366 Y52.303 E25.9248
G1 X122.478 Y52.468 E25.93474
G1 X123.781 Y54.452 E26.05317
G1 X125.329 Y56.67 E26.18811
G1 X126.963 Y58.876 E26.32507
G1 X128.66 Y61.036 E26.46211
G1 X130.392 Y63.117 E26.59719
G1 X132.202 Y65.17 E26.73373
G1 X134.077 Y67.18 E26.87087
G1 X136.025 Y69.152 E27.00916
G1 X137.972 Y71.016 E27.14364
G1 X140.01 Y72.859 E27.28072
G1 X142.118 Y74.658 E27.41898
G1 X144.233 Y76.365 E27.55458
G1 X146.412 Y78.022 E27.69115
G1 X148.622 Y79.606 E27.82681
G1 X150.912 Y81.153 E27.96468
G1 X153.196 Y82.602 E28.09963
G1 X155.577 Y84.02 E28.23789
G1 X157.962 Y85.351 E28.37415
G1 X160.392 Y86.618 E28.51087
G1 X162.829 Y87.802 E28.64604
G1 X165.332 Y88.932 E28.78306
G1 X167.88 Y89.996 E28.92081
G1 X170.464 Y90.992 E29.05897
G1 X172.991 Y91.883 E29.19265
G1 X175.612 Y92.724 E29.32998
G1 X178.256 Y93.493 E29.46736
G1 X180.882 Y94.174 E29.6027
G1 X181.912 Y94.411 E29.65543
G1 X182.749 Y94.617 E29.69844
G1 X183.229 Y94.776 E29.72367
G1 X183.677 Y95.009 E29.74886
G1 X184.084 Y95.309 E29.77408
G1 X184.438 Y95.67 E29.79931
G1 X184.731 Y96.082 E29.82453
G1 X184.955 Y96.535 E29.84974
G1 X185.105 Y97.018 E29.87498
G1 X185.183 Y97.635 E29.906
G1 X185.193 Y98.015 E29.92497
G1 X185.21 Y99.777 E30.01288
G1 X185.172 Y100.48 E30.048
G1 X185.031 Y101.224 E30.08578
G1 X184.855 Y101.78 E30.11488
G1 X184.75 Y102.068 E30.13017
G1 X184.271 Y103.221 E30.19246
G1 X183.263 Y105.754 E30.32847
G1 X182.316 Y108.339 E30.46582
G1 X181.457 Y110.911 E30.6011
G1 X180.657 Y113.551 E30.73873
G1 X179.936 Y116.198 E30.8756
G1 X179.279 Y118.907 E31.01467
G1 X178.732 Y121.486 E31.1462
G1 X178.231 Y124.224 E31.28507
G1 X177.813 Y126.945 E31.42241
G1 X177.473 Y129.65 E31.55842
G1 X177.213 Y132.351 E31.6938
G1 X177.023 Y135.15 E31.83376
G1 X176.918 Y137.8 E31.96608
G1 X176.885 Y140.294 E32.09051
G1 X176.883 Y141.347 E32.14305
G1 X176.848 Y142.593 E32.20524
G1 X176.777 Y143.811 E32.26611
G1 X176.667 Y145.065 E32.32891
G1 X176.657 Y145.166 E32.33397
G1 X176.518 Y146.315 E32.39171
G1 X176.503 Y146.423 E32.39715
G1 X176.336 Y147.496 E32.45133
G1 X176.119 Y148.642 E32.50952
G1 X176.095 Y148.758 E32.51543
G1 X175.862 Y149.775 E32.56748
G1 X175.83 Y149.903 E32.57407
G1 X175.545 Y150.947 E32.62806
G1 X175.508 Y151.071 E32.63451
G1 X175.088 Y152.392 E32.70367
G1 X174.891 Y152.949 E32.73314
G1 X174.839 Y153.085 E32.74041
G1 X174.464 Y154.007 E32.79007
G1 X174.387 Y154.181 E32.79956
G1 X174.03 Y154.954 E32.84204
G1 X173.924 Y155.166 E32.85386
G1 X173.548 Y155.886 E32.89439
G1 X173.389 Y156.172 E32.91071
G1 X173.03 Y156.778 E32.94585
G1 X172.823 Y157.108 E32.96529
G1 X172.518 Y157.569 E32.99287
G1 X172.198 Y158.023 E33.02058
G1 X171.894 Y158.428 E33.04584
G1 X171.52 Y158.898 E33.07581
G1 X171.232 Y159.238 E33.09804
G1 X170.798 Y159.721 E33.13043
G1 X170.507 Y160.027 E33.1515
G1 X170.128 Y160.403 E33.17814
G1 X169.763 Y160.745 E33.20309
G1 X169.271 Y161.177 E33.23576
G1 X168.979 Y161.419 E33.25468
G1 X168.486 Y161.804 E33.28588
G1 X168.127 Y162.066 E33.30806
G1 X167.541 Y162.467 E33.34348
G1 X167.275 Y162.636 E33.35921
G1 X166.632 Y163.022 E33.39662
G1 X166.334 Y163.187 E33.41362
G1 X165.725 Y163.503 E33.44785
G1 X165.349 Y163.685 E33.46869
G1 X164.863 Y163.902 E33.49524
G1 X164.408 Y164.091 E33.51982
G1 X163.847 Y164.304 E33.54976
G1 X163.379 Y164.465 E33.57445
G1 X162.778 Y164.653 E33.60587
G1 X162.294 Y164.787 E33.63092
G1 X161.752 Y164.921 E33.65878
G1 X161.203 Y165.041 E33.68681
G1 X160.724 Y165.131 E33.71113
G1 X160.094 Y165.234 E33.74298
G1 X159.677 Y165.289 E33.76396
G1 X158.884 Y165.374 E33.80375
G1 X158.638 Y165.394 E33.81606
G1 X157.784 Y165.444 E33.85874
G1 X157.469 Y165.454 E33.87447
G1 X156.645 Y165.461 E33.91558
G1 X156.503 Y165.459 E33.92266
G1 X155.643 Y165.428 E33.9656
G1 X155.498 Y165.419 E33.97284
G1 X154.652 Y165.35 E34.01519
G1 X154.163 Y165.292 E34.03976
G1 X151.394 Y164.978 E34.17879
G1 X148.66 Y164.747 E34.31568
G1 X145.942 Y164.594 E34.45149
G1 X143.191 Y164.517 E34.58879
G1 X140.472 Y164.517 E34.72445
G1 X137.72 Y164.596 E34.8618
G1 X134.973 Y164.752 E34.99907
G1 X132.259 Y164.985 E35.13497
G1 X129.567 Y165.291 E35.27014
G1 X126.827 Y165.683 E35.40823
G1 X124.147 Y166.142 E35.54388
G1 X121.461 Y166.68 E35.68055
G1 X118.797 Y167.296 E35.81696
G1 X116.124 Y167.992 E35.95477
G1 X113.503 Y168.754 E36.09094
G1 X110.89 Y169.596 E36.22791
G1 X108.329 Y170.501 E36.36342
G1 X105.768 Y171.489 E36.50037
G1 X103.265 Y172.535 E36.63571
G1 X100.744 Y173.675 E36.77374
G1 X98.275 Y174.876 E36.91072
G1 X95.844 Y176.146 E37.04756
G1 X93.469 Y177.473 E37.18329
G1 X91.108 Y178.881 E37.32043
G1 X88.601 Y180.478 E37.46873
G1 X87.761 Y181.031 E37.5189
G1 X87.597 Y181.132 E37.52851
G1 X86.992 Y181.48 E37.56333
