;FLAVOR:Marlin
;TIME:731
;Filament used: 0.570593m, 0m
;Layer height: 0.18
;MINX:82.465
;MINY:88.935
;MINZ:0.3
;MAXX:152.544
;MAXY:144.467
;MAXZ:1.56
;POSTPROCESSED
;Generated with Cura_SteamEngine 4.8.0
T0
M140 S60
M105
M190 S60
M104 S200
M105
M109 S200
M82 ;absolute extrusion mode
M201 X500.00 Y500.00 Z100.00 E5000.00 	;Setup machine max acceleration
M203 X500.00 Y500.00 Z10.00 E50.00 	;Setup machine max feedrate
M204 P500.00 R1000.00 T500.00 		;Setup Print/Retract/Travel acceleration
M205 X8.00 Y8.00 Z0.40 E5.00 		;Setup Jerk
M220 S100 				;Reset Feedrate
M221 S100 				;Reset Flowrate
G28				;Home the Machine
#G29 				;Bed Level
G92 E0
M300 P150 S587
G92 E0
G1 F1500 E-6.5
;LAYER_COUNT:8
;LAYER:0
M107
G0 F2160 X93.731 Y111.986 Z0.3
;TYPE:SKIRT
G1 F1500 E0
G1 F900 X94.842 Y111.218 E0.06738
G1 X97.914 Y109.004 E0.2563
G1 X100.062 Y107.345 E0.39171
G1 X102.176 Y105.615 E0.52799
G1 X104.231 Y103.833 E0.66369
G1 X106.225 Y102.005 E0.79865
G1 X108.194 Y100.091 E0.93565
G1 X110.104 Y98.128 E1.07229
G1 X111.939 Y96.132 E1.20756
G1 X113.744 Y94.054 E1.34488
G1 X115.456 Y91.966 E1.47959
G1 X116.736 Y90.323 E1.5835
G1 X117.096 Y89.926 E1.61024
G1 X117.511 Y89.586 E1.637
G1 X117.972 Y89.312 E1.66376
G1 X118.469 Y89.11 E1.69052
G1 X118.99 Y88.983 E1.71728
G1 X119.524 Y88.935 E1.74402
G1 X120.059 Y88.968 E1.77077
G1 X120.584 Y89.079 E1.79754
G1 X121.086 Y89.267 E1.82428
G1 X121.555 Y89.528 E1.85106
G1 X121.98 Y89.855 E1.87781
G1 X122.601 Y90.532 E1.92365
G1 X124.454 Y92.632 E2.06337
G1 X126.297 Y94.607 E2.19814
G1 X128.211 Y96.543 E2.33396
G1 X130.18 Y98.426 E2.46989
G1 X132.202 Y100.253 E2.60584
G1 X134.302 Y102.045 E2.74357
G1 X136.402 Y103.736 E2.87809
G1 X138.567 Y105.382 E3.01377
G1 X140.803 Y106.984 E3.151
G1 X143.068 Y108.512 E3.28731
G1 X145.346 Y109.956 E3.42187
G1 X147.841 Y111.438 E3.56665
G1 X148.365 Y111.801 E3.59845
G1 X148.741 Y112.12 E3.62306
G1 X149.116 Y112.503 E3.6498
G1 X149.593 Y113.193 E3.69165
G1 X149.954 Y113.872 E3.73001
G1 X150.057 Y114.122 E3.7435
G1 X150.908 Y116.285 E3.85947
G1 X151.77 Y118.326 E3.97
G1 X151.983 Y118.878 E3.99952
G1 X152.169 Y119.501 E4.03196
G1 X152.301 Y120.113 E4.06319
G1 X152.401 Y120.746 E4.09516
G1 X152.414 Y120.858 E4.10079
G1 X152.529 Y122.032 E4.15964
G1 X152.544 Y122.517 E4.18385
G1 X152.486 Y123.071 E4.21164
G1 X152.387 Y123.604 E4.23868
G1 X152.246 Y124.293 E4.27377
G1 X152.1 Y124.809 E4.30053
G1 X151.795 Y125.495 E4.33798
G1 X151.644 Y125.787 E4.35438
G1 X150.98 Y126.935 E4.42055
G1 X150.938 Y127.02 E4.42528
G1 X150.591 Y127.61 E4.45942
G1 X149.282 Y129.987 E4.59481
G1 X148.019 Y132.444 E4.73263
G1 X146.859 Y134.868 E4.8667
G1 X145.741 Y137.383 E5.00401
G1 X145.628 Y137.651 E5.01852
G1 X145.401 Y138.171 E5.04683
G1 X145.097 Y138.728 E5.07849
G1 X144.815 Y139.151 E5.10385
G1 X144.658 Y139.37 E5.1173
G1 X144.234 Y139.845 E5.14906
G1 X143.791 Y140.248 E5.17894
G1 X143.311 Y140.608 E5.20887
G1 X142.757 Y140.934 E5.24094
G1 X142.17 Y141.199 E5.27308
G1 X141.622 Y141.39 E5.30203
G1 X140.897 Y141.562 E5.3392
G1 X140.387 Y141.626 E5.36485
G1 X139.637 Y141.665 E5.40231
G1 X136.925 Y141.743 E5.53767
G1 X134.196 Y141.9 E5.67405
G1 X131.479 Y142.132 E5.81009
G1 X128.764 Y142.442 E5.94643
G1 X126.055 Y142.83 E6.08296
G1 X123.38 Y143.29 E6.21837
G1 X119.612 Y144.071 E6.41035
G1 X119.11 Y144.168 E6.43586
G1 X118.487 Y144.246 E6.46719
G1 X117.766 Y144.298 E6.50325
G1 X117.133 Y144.288 E6.53484
G1 X116.473 Y144.218 E6.56795
G1 X114.854 Y144.028 E6.64927
G1 X112.11 Y143.784 E6.78671
G1 X109.413 Y143.621 E6.92151
G1 X106.683 Y143.532 E7.05779
G1 X103.954 Y143.521 E7.19394
G1 X101.225 Y143.588 E7.33013
G1 X98.494 Y143.732 E7.46657
G1 X95.8 Y143.95 E7.60141
G1 X92.352 Y144.341 E7.77453
G1 X91.696 Y144.413 E7.80746
G1 X91.579 Y144.421 E7.81331
G1 X90.91 Y144.455 E7.84673
G1 X90.767 Y144.46 E7.85387
G1 X90.13 Y144.467 E7.88565
G1 X89.564 Y144.445 E7.91391
G1 X88.716 Y144.333 E7.95658
G1 X88.196 Y144.216 E7.98318
G1 X87.683 Y144.06 E8.00993
G1 X87.057 Y143.769 E8.04437
G1 X86.809 Y143.64 E8.05831
G1 X86.209 Y143.242 E8.09423
G1 X85.87 Y142.964 E8.11611
G1 X85.415 Y142.517 E8.14793
G1 X85.038 Y142.049 E8.17791
G1 X84.807 Y141.718 E8.19805
G1 X84.426 Y141.019 E8.23777
G1 X84.21 Y140.468 E8.26729
G1 X84.023 Y139.765 E8.30358
G1 X83.906 Y139.037 E8.34037
G1 X83.823 Y138.435 E8.37069
G1 X83.353 Y134.912 E8.54801
G1 X82.639 Y129.484 E8.82115
G1 X82.598 Y129.157 E8.83759
G1 X82.519 Y128.448 E8.87318
G1 X82.465 Y127.708 E8.9102
G1 X82.498 Y126.974 E8.94685
G1 X82.572 Y126.478 E8.97187
G1 X82.61 Y126.265 E8.98267
G1 X82.81 Y125.578 E9.01836
G1 X83.019 Y125.059 E9.04628
G1 X83.311 Y124.486 E9.07836
G1 X83.652 Y123.977 E9.10893
G1 X84.085 Y123.439 E9.14338
G1 X84.741 Y122.725 E9.19176
G1 X85.489 Y121.932 E9.24614
G1 X87.319 Y119.876 E9.38346
G1 X89.055 Y117.811 E9.51805
G1 X90.755 Y115.67 E9.65445
G1 X92.537 Y113.285 E9.80298
G1 X92.862 Y112.836 E9.83063
G1 X93.208 Y112.426 E9.8574
G1 X93.731 Y111.986 E9.8915
G0 F2160 X93.959 Y112.315
G1 F900 X95.078 Y111.542 E9.95935
G1 X98.158 Y109.322 E10.14877
G1 X100.293 Y107.673 E10.28335
G1 X102.428 Y105.925 E10.42102
G1 X104.5 Y104.129 E10.55782
G1 X106.508 Y102.287 E10.69376
G1 X108.477 Y100.374 E10.83072
G1 X110.385 Y98.413 E10.96723
G1 X112.252 Y96.383 E11.10482
G1 X114.039 Y94.325 E11.2408
G1 X115.761 Y92.226 E11.37625
G1 X117.051 Y90.569 E11.48102
G1 X117.393 Y90.196 E11.50627
G1 X117.788 Y89.881 E11.53147
G1 X118.229 Y89.633 E11.55671
G1 X118.703 Y89.457 E11.58194
G1 X119.198 Y89.357 E11.60714
G1 X119.703 Y89.338 E11.63235
G1 X120.205 Y89.398 E11.65757
G1 X120.692 Y89.536 E11.68282
G1 X121.15 Y89.749 E11.70802
G1 X121.569 Y90.032 E11.73325
G1 X122.005 Y90.452 E11.76345
G1 X122.301 Y90.797 E11.78613
G1 X124.162 Y92.906 E11.92646
G1 X125.977 Y94.852 E12.05922
G1 X127.95 Y96.848 E12.19924
G1 X129.901 Y98.713 E12.33389
G1 X131.957 Y100.571 E12.47214
G1 X134.037 Y102.346 E12.60856
G1 X136.154 Y104.051 E12.74418
G1 X138.337 Y105.71 E12.88097
G1 X140.568 Y107.309 E13.01791
G1 X142.835 Y108.838 E13.15433
G1 X145.134 Y110.295 E13.29012
G1 X147.643 Y111.786 E13.43573
G1 X148.109 Y112.109 E13.46402
G1 X148.477 Y112.421 E13.48809
G1 X148.829 Y112.784 E13.51332
G1 X149.255 Y113.407 E13.55097
G1 X149.585 Y114.026 E13.58596
G1 X149.685 Y114.269 E13.59907
G1 X150.533 Y116.425 E13.71466
G1 X151.399 Y118.477 E13.82578
G1 X151.602 Y119 E13.85377
G1 X151.779 Y119.591 E13.88455
G1 X151.909 Y120.19 E13.91513
G1 X152.004 Y120.798 E13.94583
G1 X152.016 Y120.897 E13.9508
G1 X152.131 Y122.071 E14.00965
G1 X152.144 Y122.506 E14.03137
G1 X152.007 Y123.461 E14.0795
G1 X151.854 Y124.213 E14.11778
G1 X151.623 Y124.914 E14.15461
G1 X151.298 Y125.586 E14.19185
G1 X150.62 Y126.758 E14.2594
G1 X150.593 Y126.818 E14.26268
G1 X150.245 Y127.41 E14.29694
G1 X148.919 Y129.817 E14.43404
G1 X147.667 Y132.253 E14.57069
G1 X146.49 Y134.713 E14.70674
G1 X145.38 Y137.21 E14.84307
G1 X145.262 Y137.491 E14.85828
G1 X145.035 Y138.011 E14.88658
G1 X144.765 Y138.506 E14.91471
G1 X144.483 Y138.929 E14.94008
G1 X144.338 Y139.13 E14.95244
G1 X143.96 Y139.553 E14.98074
G1 X143.525 Y139.949 E15.01009
G1 X143.099 Y140.269 E15.03667
G1 X142.56 Y140.586 E15.06787
G1 X142.038 Y140.822 E15.09645
G1 X141.49 Y141.013 E15.1254
G1 X140.846 Y141.165 E15.15842
G1 X140.348 Y141.227 E15.18345
G1 X139.653 Y141.265 E15.21818
G1 X136.89 Y141.345 E15.35608
G1 X134.14 Y141.503 E15.49351
G1 X131.432 Y141.734 E15.6291
G1 X128.737 Y142.042 E15.76443
G1 X125.997 Y142.434 E15.90252
G1 X123.292 Y142.899 E16.03945
G1 X119.538 Y143.677 E16.23072
G1 X118.658 Y143.826 E16.27525
G1 X118.458 Y143.847 E16.28528
G1 X117.737 Y143.899 E16.32135
G1 X117.175 Y143.89 E16.34939
G1 X116.52 Y143.821 E16.38225
G1 X114.869 Y143.627 E16.46518
G1 X112.166 Y143.387 E16.60057
G1 X109.416 Y143.22 E16.73802
G1 X106.697 Y143.132 E16.87374
G1 X103.945 Y143.121 E17.01104
G1 X101.23 Y143.187 E17.14653
G1 X98.477 Y143.333 E17.28407
G1 X95.754 Y143.553 E17.42037
G1 X92.275 Y143.948 E17.59505
G1 X91.558 Y144.022 E17.63101
G1 X90.889 Y144.056 E17.66443
G1 X90.762 Y144.06 E17.67077
G1 X90.125 Y144.067 E17.70255
G1 X89.592 Y144.046 E17.72916
G1 X88.804 Y143.943 E17.76881
G1 X88.284 Y143.826 E17.7954
G1 X87.587 Y143.582 E17.83225
G1 X87.134 Y143.36 E17.85741
G1 X86.996 Y143.287 E17.8652
G1 X86.463 Y142.932 E17.89715
G1 X86.124 Y142.654 E17.91902
G1 X85.719 Y142.257 E17.94732
G1 X85.366 Y141.82 E17.97535
G1 X85.135 Y141.489 E17.99548
G1 X84.797 Y140.868 E18.03076
G1 X84.584 Y140.327 E18.05976
G1 X84.417 Y139.701 E18.09209
G1 X84.303 Y138.982 E18.12841
G1 X84.219 Y138.382 E18.15863
G1 X83.749 Y134.86 E18.3359
G1 X83.036 Y129.435 E18.60888
G1 X82.996 Y129.112 E18.62512
G1 X82.908 Y128.318 E18.66498
G1 X82.864 Y127.686 E18.69658
G1 X82.894 Y127.033 E18.7292
G1 X82.968 Y126.537 E18.75422
G1 X83.003 Y126.338 E18.7643
G1 X83.181 Y125.728 E18.796
G1 X83.39 Y125.209 E18.82391
G1 X83.65 Y124.699 E18.85247
G1 X83.968 Y124.222 E18.88107
G1 X84.379 Y123.709 E18.91387
G1 X85.032 Y122.999 E18.96199
G1 X85.796 Y122.189 E19.01755
G1 X87.607 Y120.154 E19.15345
G1 X89.39 Y118.034 E19.29165
G1 X91.074 Y115.913 E19.42677
G1 X92.829 Y113.563 E19.5731
G1 X93.186 Y113.07 E19.60346
G1 X93.514 Y112.685 E19.6287
G1 X93.959 Y112.315 E19.65757
G1 F1500 E13.15757
;MESH:DiaDaMulher.stl
G0 F2160 X95.704 Y114.244
G0 X96.139 Y115.233
G0 X106.362 Y128.012
;TYPE:WALL-INNER
G1 F1500 E19.65757
G1 F900 X106.369 Y128.107 E19.66232
G1 X106.371 Y128.145 E19.66422
G1 X106.329 Y128.267 E19.67066
G1 X106.227 Y128.363 E19.67765
G1 X106.139 Y128.387 E19.6822
G1 X106.102 Y128.383 E19.68405
G1 X105.846 Y128.352 E19.69692
G1 X104.046 Y127.991 E19.78851
G1 X103.781 Y127.937 E19.802
G1 X103.78 Y127.936 E19.80207
G1 X103.518 Y127.884 E19.8154
G1 X103.543 Y128.15 E19.82339
G1 X103.853 Y131.425 E19.98751
G1 X103.926 Y132.122 E20.02247
G1 X103.964 Y133.007 E20.06666
G1 X103.883 Y133.316 E20.0826
G1 X103.668 Y133.409 E20.09429
G1 X103.168 Y133.32 E20.11963
G1 X102.451 Y133.413 E20.1557
G1 X101.923 Y133.372 E20.18212
G1 X101.653 Y133.285 E20.19627
G1 X101.361 Y133.133 E20.21269
G1 X100.83 Y132.692 E20.24713
G1 X99.753 Y131.513 E20.3268
G1 X97.282 Y132.841 E20.46675
G1 X97.708 Y134.532 E20.55375
G1 X97.92 Y134.957 E20.57745
G1 X97.94 Y135.158 E20.58753
G1 X97.941 Y135.168 E20.58803
G1 X97.877 Y135.335 E20.59695
G1 X97.689 Y135.45 E20.60794
G1 X97.678 Y135.45 E20.60849
G1 X97.534 Y135.457 E20.61569
G1 X97.242 Y135.354 E20.63113
G1 X95.716 Y134.657 E20.71483
G1 X95.524 Y134.569 E20.72537
G1 X95.449 Y134.767 E20.73206
G1 X94.645 Y136.876 E20.84467
G1 X94.454 Y137.254 E20.8658
G1 X93.998 Y137.864 E20.90379
G1 X93.442 Y138.329 E20.93996
G1 X93.176 Y138.49 E20.95547
G1 X92.664 Y138.724 E20.98355
G1 X92.176 Y138.883 E21.00916
G1 X91.589 Y139.002 E21.03904
G1 X90.953 Y139.065 E21.07093
G1 X90.083 Y139.076 E21.11433
G1 X89.602 Y139.007 E21.13858
G1 X89.411 Y138.888 E21.1498
G1 X89.318 Y138.729 E21.15899
G1 X89.23 Y138.149 E21.18826
G1 X88.704 Y134.204 E21.38682
G1 X88.03 Y129.072 E21.64506
G1 X87.876 Y127.849 E21.70655
G1 X87.856 Y127.551 E21.72145
G1 X87.941 Y127.256 E21.73677
G1 X88.082 Y127.094 E21.74748
G1 X88.236 Y127.038 E21.75566
G1 X89.058 Y127.058 E21.79668
G1 X89.627 Y127.13 E21.8253
G1 X90.586 Y127.364 E21.87454
G1 X91.483 Y127.738 E21.92303
G1 X92.312 Y128.244 E21.97148
G1 X93.013 Y128.832 E22.01713
G1 X93.293 Y129.137 E22.03779
G1 X94.186 Y130.255 E22.10917
G1 X96.368 Y129.796 E22.22042
G1 X96.754 Y128.289 E22.29803
G1 X97.029 Y127.713 E22.32987
G1 X97.223 Y127.464 E22.34562
G1 X98.123 Y126.523 E22.41058
G1 X97.508 Y125.055 E22.48999
G1 X97.33 Y124.359 E22.52583
G1 X97.304 Y124.322 E22.52809
G1 X97.361 Y123.96 E22.54637
G1 X97.251 Y123.407 E22.5745
G1 X97.177 Y121.31 E22.67918
G1 X97.219 Y120.635 E22.71292
G1 X97.181 Y120.024 E22.74347
G1 X97.261 Y119.438 E22.77297
G1 X97.269 Y119.387 E22.77555
G1 X97.19 Y118.717 E22.80921
G1 X97.233 Y118.388 E22.82576
G1 X97.294 Y117.672 E22.86161
G1 X97.3 Y117.079 E22.8912
G1 X97.365 Y116.206 E22.93487
G1 X97.738 Y116.042 E22.9552
G1 X98.241 Y116.068 E22.98033
G1 X98.865 Y116.156 E23.01177
G1 X99.466 Y116.117 E23.04182
G1 X101.24 Y116.429 E23.13168
G1 X102.066 Y116.196 E23.1745
G1 X102.549 Y116.121 E23.19888
G1 X103.684 Y116.214 E23.2557
G1 X103.814 Y116.232 E23.26225
G1 X104.368 Y116.429 E23.29158
G1 X105.611 Y116.244 E23.35428
G1 X106.079 Y116.172 E23.3779
G1 X106.68 Y116.133 E23.40795
G1 X107.205 Y116.07 E23.43433
G1 X107.538 Y116.034 E23.45104
G1 X108.191 Y116.079 E23.48369
G1 X108.567 Y116.217 E23.50368
G1 X109.554 Y117.573 E23.58735
G1 X109.678 Y117.744 E23.59789
G1 X109.841 Y117.61 E23.60459
G1 X111.614 Y116.146 E23.7193
G1 X111.785 Y116.026 E23.72972
G1 X112.336 Y115.89 E23.75804
G1 X113.009 Y115.839 E23.79171
G1 X113.497 Y115.917 E23.81636
G1 X114.147 Y115.977 E23.84893
G1 X114.948 Y116.043 E23.88903
G1 X115.68 Y115.888 E23.92636
G1 X116.299 Y115.962 E23.95746
G1 X116.914 Y115.885 E23.98838
G1 X117.36 Y115.947 E24.01085
G1 X117.376 Y115.95 E24.01166
G1 X117.39 Y115.95 E24.01236
G1 X119.306 Y116.071 E24.10814
G1 X119.703 Y116.097 E24.12799
G1 X119.711 Y115.989 E24.13339
G1 X121.615 Y115.989 E24.22838
G1 X122.107 Y116.061 E24.25319
G1 X122.613 Y116.12 E24.2786
G1 X123.066 Y116.799 E24.31932
G1 X124.941 Y115.981 E24.42138
G1 X125.03 Y115.949 E24.4261
G1 X126.041 Y115.949 E24.47654
G1 X126.445 Y115.971 E24.49673
G1 X127.002 Y116.049 E24.52479
G1 X127.847 Y116.238 E24.56799
G1 X127.919 Y116.255 E24.57168
G1 X129.379 Y116.046 E24.64526
G1 X130.053 Y115.906 E24.6796
G1 X130.634 Y115.998 E24.70895
G1 X131.246 Y115.963 E24.73953
G1 X131.698 Y116.101 E24.76311
G1 X131.82 Y116.196 E24.77082
G1 X132.854 Y117.48 E24.85307
G1 X134.587 Y116.306 E24.9575
G1 X135.291 Y115.933 E24.99725
G1 X136.084 Y115.716 E25.03827
G1 X136.41 Y115.655 E25.05482
G1 X137.149 Y115.761 E25.09206
G1 X137.807 Y115.712 E25.12498
G1 X138.188 Y115.72 E25.14399
G1 X138.92 Y115.87 E25.18127
G1 X139.276 Y116.07 E25.20164
G1 X140.933 Y117.315 E25.30505
G1 X142.199 Y116.061 E25.39395
G1 X142.212 Y116.054 E25.39468
G1 X142.777 Y115.918 E25.42368
G1 X143.542 Y115.956 E25.46189
G1 X143.944 Y115.994 E25.48203
G1 X144.537 Y115.957 E25.51168
G1 X144.95 Y116.033 E25.53263
G1 X144.973 Y116.437 E25.55282
G1 X144.888 Y117.123 E25.5873
G1 X144.981 Y117.809 E25.62184
G1 X144.978 Y118.3 E25.64634
G1 X144.814 Y120.747 E25.76869
G1 X144.798 Y120.992 E25.78094
G1 X145.041 Y120.958 E25.78844
G1 X146.886 Y120.693 E25.88143
G1 X147.01 Y121.157 E25.90539
G1 X147.122 Y122.021 E25.94885
G1 X147.144 Y122.304 E25.96302
G1 X147.04 Y122.82 E25.98928
G1 X147.021 Y122.891 E25.99294
G1 X146.563 Y123.027 E26.01678
G1 X146.149 Y122.95 E26.03779
G1 X145.445 Y122.775 E26.07398
G1 X144.558 Y122.828 E26.11831
G1 X143.013 Y122.901 E26.19548
G1 X142.638 Y122.893 E26.21419
G1 X142.061 Y122.823 E26.24319
G1 X140.192 Y121.854 E26.34822
G1 X138.929 Y122.746 E26.42536
G1 X138.392 Y122.863 E26.45278
G1 X136.556 Y123.302 E26.54696
G1 X136.889 Y125.305 E26.64826
G1 X136.624 Y126.054 E26.6879
G1 X136.927 Y127.39 E26.75625
G1 X137.422 Y129.654 E26.87187
G1 X137.768 Y129.756 E26.88986
G1 X140.345 Y134.843 E27.17436
G1 X140.554 Y135.441 E27.20597
G1 X140.549 Y135.775 E27.22263
G1 X140.497 Y135.908 E27.22976
G1 X140.31 Y136.121 E27.2439
G1 X140.051 Y136.236 E27.25804
G1 X139.631 Y136.248 E27.279
G1 X139.224 Y136.084 E27.30089
G1 X138.035 Y135.268 E27.37283
G1 X136.692 Y136.062 E27.45067
G1 X136.386 Y136.135 E27.46637
G1 X136.166 Y136.085 E27.47762
G1 X136.079 Y136.02 E27.48304
G1 X135.984 Y135.813 E27.4944
G1 X135.963 Y135.651 E27.50255
G1 X136 Y133.667 E27.60155
G1 X136.001 Y133.665 E27.60166
G1 X136.003 Y133.449 E27.61244
