;FLAVOR:Marlin
;TIME:3665
;Filament used: 3.04552m, 0m
;Layer height: 0.2
;MINX:26.987
;MINY:60.397
;MINZ:0.3
;MAXX:208.015
;MAXY:172.797
;MAXZ:1.7
;POSTPROCESSED
;Generated with Cura_SteamEngine 4.8.0
T0
M140 S60
M105
M190 S60
M104 S200
M105
M109 S200
M82 ;absolute extrusion mode
M201 X500.00 Y500.00 Z100.00 E5000.00 	;Setup machine max acceleration
M203 X500.00 Y500.00 Z10.00 E50.00 	;Setup machine max feedrate
M204 P500.00 R1000.00 T500.00 		;Setup Print/Retract/Travel acceleration
M205 X8.00 Y8.00 Z0.40 E5.00 		;Setup Jerk
M220 S100 				;Reset Feedrate
M221 S100 				;Reset Flowrate
G28				;Home the Machine
#G29 				;Bed Level
G92 E0
M300 P150 S587
G92 E0
G1 F1500 E-6.5
;LAYER_COUNT:8
;LAYER:0
M107
G0 F2160 X75.19 Y61.706 Z0.3
;TYPE:SKIRT
G1 F1500 E0
G1 F900 X75.561 Y61.319 E0.02675
G1 X75.986 Y60.991 E0.05353
G1 X76.454 Y60.73 E0.08026
G1 X76.956 Y60.542 E0.10701
G1 X77.481 Y60.43 E0.13379
G1 X78.016 Y60.397 E0.16053
G1 X78.55 Y60.445 E0.18728
G1 X79.071 Y60.571 E0.21402
G1 X79.768 Y60.88 E0.25206
G1 X80.361 Y61.223 E0.28624
G1 X81.632 Y61.98 E0.36004
G1 X83.972 Y63.288 E0.49379
G1 X86.408 Y64.559 E0.63087
G1 X88.866 Y65.756 E0.76726
G1 X91.35 Y66.878 E0.90325
G1 X93.859 Y67.928 E1.03894
G1 X96.46 Y68.932 E1.17804
G1 X98.955 Y69.811 E1.31001
G1 X101.566 Y70.652 E1.44687
G1 X104.201 Y71.418 E1.58377
G1 X106.833 Y72.104 E1.71947
G1 X109.487 Y72.716 E1.85535
G1 X112.175 Y73.258 E1.99215
G1 X114.853 Y73.715 E2.12769
G1 X117.549 Y74.1 E2.26356
G1 X120.26 Y74.409 E2.39969
G1 X122.976 Y74.64 E2.53568
G1 X125.672 Y74.794 E2.6704
G1 X128.436 Y74.873 E2.80836
G1 X131.131 Y74.873 E2.94281
G1 X133.898 Y74.796 E3.08091
G1 X136.587 Y74.644 E3.21528
G1 X139.311 Y74.413 E3.35167
G1 X142.019 Y74.107 E3.48763
G1 X144.731 Y73.721 E3.6243
G1 X147.395 Y73.266 E3.75913
G1 X150.041 Y72.736 E3.89376
G1 X152.746 Y72.115 E4.03222
G1 X155.384 Y71.428 E4.16822
G1 X158.005 Y70.667 E4.30439
G1 X160.579 Y69.84 E4.43927
G1 X163.162 Y68.929 E4.57591
G1 X165.677 Y67.961 E4.71036
G1 X168.228 Y66.897 E4.84826
G1 X170.704 Y65.779 E4.98379
G1 X173.151 Y64.591 E5.1195
G1 X175.576 Y63.326 E5.25596
G1 X178.029 Y61.957 E5.39611
G1 X178.75 Y61.541 E5.43764
G1 X179.233 Y61.308 E5.46439
G1 X179.745 Y61.15 E5.49112
G1 X180.276 Y61.069 E5.51792
G1 X180.812 Y61.069 E5.54466
G1 X181.342 Y61.147 E5.57139
G1 X181.855 Y61.304 E5.59815
G1 X182.339 Y61.536 E5.62493
G1 X182.783 Y61.836 E5.65167
G1 X183.178 Y62.199 E5.67843
G1 X183.514 Y62.617 E5.70519
G1 X183.784 Y63.08 E5.73193
G1 X183.983 Y63.578 E5.75868
G1 X184.113 Y64.122 E5.78659
G1 X184.571 Y66.58 E5.91133
G1 X185.151 Y69.268 E6.04852
G1 X185.789 Y71.867 E6.18203
G1 X186.525 Y74.531 E6.31992
G1 X187.328 Y77.15 E6.45659
G1 X188.194 Y79.713 E6.59156
G1 X189.137 Y82.265 E6.72729
G1 X190.155 Y84.795 E6.86335
G1 X191.254 Y87.317 E7.0006
G1 X192.41 Y89.78 E7.13634
G1 X193.643 Y92.222 E7.27282
G1 X194.927 Y94.6 E7.40765
G1 X196.282 Y96.944 E7.54272
G1 X197.737 Y99.306 E7.68113
G1 X199.218 Y101.567 E7.81597
G1 X200.782 Y103.809 E7.95236
G1 X202.406 Y106.005 E8.08862
G1 X204.078 Y108.136 E8.22375
G1 X204.801 Y108.999 E8.27992
G1 X204.878 Y109.106 E8.2865
G1 X205.973 Y110.436 E8.37245
G1 X206.461 Y111.1 E8.41356
G1 X206.74 Y111.559 E8.44036
G1 X207.115 Y112.264 E8.4802
G1 X207.333 Y112.778 E8.50805
G1 X207.599 Y113.513 E8.54705
G1 X207.728 Y114.001 E8.57223
G1 X207.847 Y114.505 E8.59807
G1 X207.947 Y115.2 E8.6331
G1 X207.997 Y115.71 E8.65866
G1 X208.015 Y116.25 E8.68562
G1 X207.99 Y117.023 E8.7242
G1 X207.939 Y117.581 E8.75216
G1 X207.857 Y118.11 E8.77887
G1 X207.769 Y118.527 E8.80013
G1 X207.641 Y119.023 E8.82568
G1 X207.464 Y119.592 E8.85541
G1 X207.267 Y120.112 E8.88316
G1 X206.942 Y120.852 E8.92348
G1 X206.76 Y121.222 E8.94405
G1 X205.938 Y122.702 E9.02851
G1 X205.092 Y124.217 E9.11508
G1 X203.828 Y126.641 E9.25147
G1 X202.625 Y129.114 E9.38867
G1 X201.516 Y131.571 E9.52316
G1 X200.457 Y134.101 E9.65999
G1 X200.156 Y134.879 E9.70161
G1 X200.123 Y134.949 E9.70547
G1 X199.632 Y136.199 E9.77247
G1 X199.299 Y136.867 E9.80971
G1 X199.231 Y136.986 E9.81655
G1 X198.96 Y137.44 E9.84293
G1 X198.55 Y138.013 E9.87808
G1 X198.444 Y138.145 E9.88653
G1 X198.094 Y138.557 E9.9135
G1 X197.615 Y139.038 E9.94736
G1 X197.485 Y139.155 E9.95609
G1 X197.083 Y139.498 E9.98245
G1 X196.606 Y139.848 E10.01197
G1 X196.448 Y139.949 E10.02133
G1 X195.934 Y140.261 E10.05132
G1 X195.334 Y140.565 E10.08488
G1 X195.17 Y140.636 E10.0938
G1 X194.627 Y140.854 E10.12299
G1 X194.027 Y141.044 E10.15439
G1 X193.407 Y141.192 E10.18619
G1 X192.977 Y141.266 E10.20796
G1 X191.46 Y141.432 E10.28409
G1 X188.725 Y141.771 E10.42159
G1 X186.014 Y142.185 E10.55841
G1 X183.34 Y142.67 E10.69399
G1 X180.716 Y143.224 E10.82779
G1 X178.04 Y143.868 E10.9651
G1 X175.39 Y144.587 E11.10209
G1 X172.789 Y145.371 E11.23762
G1 X170.184 Y146.238 E11.3746
G1 X167.644 Y147.164 E11.50948
G1 X165.086 Y148.178 E11.64676
G1 X162.627 Y149.235 E11.78029
G1 X160.106 Y150.405 E11.91895
G1 X157.699 Y151.606 E12.05315
G1 X155.286 Y152.895 E12.18964
G1 X152.909 Y154.253 E12.32622
G1 X150.539 Y155.701 E12.46478
G1 X150.3 Y155.835 E12.47845
G1 X149.717 Y156.133 E12.51111
G1 X149.198 Y156.351 E12.5392
G1 X148.714 Y156.509 E12.5646
G1 X148.126 Y156.652 E12.59479
G1 X147.577 Y156.735 E12.62249
G1 X146.936 Y156.789 E12.65458
G1 X146.263 Y156.792 E12.68816
G1 X144.489 Y156.701 E12.77678
G1 X141.759 Y156.637 E12.91302
G1 X139.029 Y156.651 E13.04922
G1 X136.297 Y156.742 E13.1856
G1 X133.012 Y156.954 E13.34983
G1 X131.929 Y157.043 E13.40404
G1 X131.758 Y157.053 E13.41259
G1 X128.76 Y157.155 E13.56224
G1 X126.036 Y157.325 E13.69841
G1 X123.354 Y157.569 E13.83277
G1 X120.6 Y157.899 E13.97115
G1 X117.912 Y158.297 E14.10671
G1 X115.261 Y158.769 E14.24105
G1 X112.579 Y159.321 E14.37766
G1 X109.938 Y159.946 E14.51306
G1 X107.279 Y160.655 E14.65036
G1 X104.668 Y161.431 E14.78625
G1 X102.058 Y162.287 E14.92329
G1 X99.533 Y163.195 E15.05716
G1 X96.955 Y164.206 E15.19531
G1 X94.466 Y165.263 E15.33022
G1 X91.98 Y166.403 E15.46667
G1 X89.555 Y167.6 E15.60159
G1 X87.123 Y168.887 E15.73886
G1 X84.762 Y170.223 E15.8742
G1 X82.815 Y171.404 E15.98781
G1 X82.074 Y171.842 E16.03076
G1 X81.491 Y172.134 E16.06329
G1 X80.758 Y172.417 E16.10249
G1 X80.128 Y172.594 E16.13514
G1 X79.483 Y172.721 E16.16793
G1 X78.748 Y172.792 E16.20477
G1 X78.175 Y172.797 E16.23336
G1 X77.536 Y172.75 E16.26533
G1 X76.978 Y172.663 E16.2935
G1 X76.394 Y172.522 E16.32348
G1 X75.85 Y172.345 E16.35202
G1 X75.32 Y172.127 E16.38061
G1 X74.789 Y171.856 E16.41035
G1 X74.301 Y171.558 E16.43888
G1 X73.802 Y171.195 E16.46966
G1 X73.194 Y170.66 E16.51007
G1 X72.993 Y170.449 E16.52461
G1 X71.101 Y168.438 E16.66236
G1 X69.178 Y166.508 E16.79828
G1 X67.166 Y164.599 E16.93666
G1 X65.169 Y162.81 E17.07042
G1 X63.058 Y161.022 E17.20844
G1 X60.966 Y159.35 E17.34205
G1 X58.768 Y157.693 E17.47937
G1 X56.536 Y156.108 E17.61595
G1 X54.735 Y154.895 E17.72428
G1 X54.249 Y154.575 E17.75331
G1 X54.078 Y154.455 E17.76373
G1 X53.663 Y154.146 E17.78955
G1 X53.159 Y153.715 E17.82263
G1 X52.725 Y153.274 E17.8535
G1 X52.317 Y152.817 E17.88407
G1 X50.506 Y150.809 E18.01897
G1 X48.606 Y148.818 E18.15627
G1 X46.688 Y146.919 E18.29093
G1 X44.664 Y145.025 E18.42922
G1 X42.656 Y143.251 E18.5629
G1 X40.529 Y141.477 E18.70108
G1 X38.424 Y139.818 E18.83479
G1 X36.212 Y138.176 E18.97223
G1 X33.996 Y136.624 E19.10721
G1 X32.358 Y135.561 E19.20463
G1 X32.21 Y135.449 E19.21389
G1 X31.051 Y134.688 E19.28306
G1 X30.632 Y134.396 E19.30854
G1 X30.072 Y133.938 E19.34463
G1 X29.68 Y133.58 E19.37112
G1 X29.385 Y133.275 E19.39229
G1 X29.003 Y132.831 E19.42151
G1 X28.526 Y132.205 E19.46077
G1 X28.231 Y131.738 E19.48833
G1 X27.855 Y131.053 E19.52732
G1 X27.634 Y130.55 E19.55473
G1 X27.419 Y129.982 E19.58503
G1 X27.2 Y129.186 E19.62622
G1 X27.094 Y128.637 E19.65411
G1 X27.018 Y128.019 E19.68518
G1 X26.987 Y127.355 E19.71834
G1 X27.012 Y126.563 E19.75787
G1 X27.12 Y125.727 E19.79993
G1 X27.24 Y125.16 E19.82884
G1 X27.329 Y124.81 E19.84686
G1 X27.983 Y122.111 E19.98541
G1 X28.56 Y119.405 E20.12345
G1 X29.04 Y116.779 E20.25663
G1 X29.457 Y114.072 E20.39327
G1 X29.794 Y111.385 E20.52838
G1 X30.126 Y107.806 E20.7077
G1 X30.2 Y107.134 E20.74143
G1 X30.289 Y106.585 E20.76918
G1 X30.396 Y106.061 E20.79586
G1 X30.578 Y105.364 E20.8318
G1 X30.675 Y105.05 E20.8482
G1 X30.927 Y104.353 E20.88517
G1 X31.144 Y103.835 E20.91319
G1 X31.425 Y103.274 E20.94449
G1 X31.727 Y102.762 E20.97415
G1 X32.066 Y102.259 E21.00441
G1 X32.503 Y101.678 E21.04068
G1 X33.023 Y101.098 E21.07955
G1 X33.379 Y100.744 E21.10459
G1 X33.913 Y100.288 E21.13963
G1 X34.416 Y99.907 E21.17111
G1 X35.165 Y99.439 E21.21517
G1 X35.716 Y99.137 E21.24652
G1 X38.142 Y97.85 E21.38353
G1 X40.509 Y96.506 E21.51933
G1 X42.878 Y95.07 E21.65754
G1 X45.143 Y93.609 E21.79201
G1 X47.402 Y92.058 E21.92871
G1 X49.586 Y90.466 E22.06355
G1 X51.759 Y88.787 E22.20055
G1 X53.872 Y87.056 E22.33683
G1 X55.926 Y85.274 E22.47249
G1 X57.918 Y83.445 E22.60741
G1 X59.888 Y81.531 E22.74445
G1 X61.798 Y79.565 E22.8812
G1 X63.647 Y77.553 E23.01752
G1 X65.42 Y75.509 E23.15252
G1 X67.131 Y73.422 E23.28716
G1 X68.828 Y71.229 E23.4255
G1 X70.43 Y69.031 E23.56119
G1 X71.965 Y66.793 E23.69659
G1 X73.44 Y64.51 E23.83219
G1 X74.495 Y62.786 E23.93303
G1 X74.88 Y62.144 E23.97038
G1 X75.19 Y61.706 E23.99715
G0 F2160 X75.517 Y61.938
G1 F900 X75.872 Y61.578 E24.02237
G1 X76.279 Y61.278 E24.0476
G1 X76.728 Y61.047 E24.07279
G1 X77.208 Y60.888 E24.09801
G1 X77.707 Y60.808 E24.12323
G1 X78.213 Y60.806 E24.14847
G1 X78.712 Y60.885 E24.17368
G1 X79.193 Y61.041 E24.19891
G1 X79.568 Y61.226 E24.21977
G1 X80.157 Y61.567 E24.25372
G1 X81.427 Y62.323 E24.32746
G1 X83.798 Y63.649 E24.46299
G1 X86.227 Y64.916 E24.59967
G1 X88.702 Y66.121 E24.737
G1 X91.167 Y67.234 E24.87194
G1 X93.739 Y68.312 E25.01107
G1 X96.29 Y69.296 E25.14748
G1 X98.837 Y70.193 E25.2822
G1 X101.447 Y71.033 E25.41899
G1 X104.094 Y71.804 E25.55654
G1 X106.747 Y72.495 E25.69331
G1 X109.39 Y73.104 E25.82863
G1 X112.126 Y73.656 E25.96788
G1 X114.766 Y74.107 E26.1015
G1 X117.519 Y74.5 E26.24024
G1 X120.214 Y74.807 E26.37556
G1 X122.923 Y75.037 E26.5112
G1 X125.672 Y75.194 E26.64857
G1 X128.425 Y75.273 E26.78598
G1 X131.143 Y75.273 E26.92158
G1 X133.894 Y75.196 E27.05888
G1 X136.61 Y75.043 E27.1946
G1 X139.353 Y74.811 E27.33193
G1 X142.089 Y74.501 E27.46931
G1 X144.778 Y74.119 E27.60481
G1 X147.469 Y73.658 E27.74102
G1 X150.137 Y73.125 E27.87676
G1 X152.842 Y72.503 E28.01523
G1 X155.492 Y71.813 E28.15185
G1 X158.092 Y71.058 E28.28692
G1 X160.729 Y70.211 E28.4251
G1 X163.29 Y69.308 E28.56058
G1 X165.838 Y68.328 E28.69678
G1 X168.388 Y67.263 E28.83465
G1 X170.894 Y66.132 E28.97182
G1 X173.332 Y64.948 E29.10703
G1 X175.777 Y63.673 E29.2446
G1 X178.184 Y62.329 E29.38214
G1 X178.95 Y61.887 E29.42626
G1 X179.406 Y61.67 E29.45146
G1 X179.891 Y61.527 E29.47668
G1 X180.393 Y61.463 E29.50193
G1 X180.898 Y61.478 E29.52714
G1 X181.395 Y61.573 E29.55238
G1 X181.87 Y61.744 E29.57757
G1 X182.313 Y61.989 E29.60282
G1 X182.711 Y62.3 E29.62802
G1 X183.056 Y62.67 E29.65326
G1 X183.338 Y63.09 E29.6785
G1 X183.55 Y63.548 E29.70368
G1 X183.709 Y64.139 E29.73421
G1 X184.18 Y66.666 E29.86246
G1 X184.76 Y69.351 E29.9995
G1 X185.409 Y71.997 E30.13543
G1 X186.14 Y74.64 E30.27224
G1 X186.942 Y77.258 E30.40884
G1 X187.812 Y79.831 E30.54435
G1 X188.767 Y82.416 E30.68183
G1 X189.794 Y84.968 E30.81907
G1 X190.883 Y87.468 E30.95512
G1 X192.049 Y89.952 E31.09202
G1 X193.291 Y92.414 E31.22959
G1 X194.572 Y94.784 E31.364
G1 X195.953 Y97.174 E31.50171
G1 X197.378 Y99.487 E31.63725
G1 X198.889 Y101.793 E31.7748
G1 X200.46 Y104.046 E31.91183
G1 X202.103 Y106.267 E32.04966
G1 X203.769 Y108.39 E32.18429
G1 X204.494 Y109.256 E32.24064
G1 X204.567 Y109.359 E32.24694
G1 X205.658 Y110.683 E32.33253
G1 X206.12 Y111.308 E32.3713
G1 X206.392 Y111.758 E32.39754
G1 X206.747 Y112.421 E32.43506
G1 X206.961 Y112.925 E32.46238
G1 X207.213 Y113.617 E32.49912
G1 X207.433 Y114.487 E32.54389
G1 X207.55 Y115.248 E32.5823
G1 X207.599 Y115.749 E32.60741
G1 X207.611 Y116.484 E32.64409
G1 X207.59 Y117.007 E32.6702
G1 X207.543 Y117.523 E32.69605
G1 X207.465 Y118.033 E32.72179
G1 X207.381 Y118.427 E32.74189
G1 X207.253 Y118.923 E32.76745
G1 X207.087 Y119.456 E32.7953
G1 X206.901 Y119.951 E32.82168
G1 X206.576 Y120.691 E32.862
G1 X206.41 Y121.028 E32.88074
G1 X205.589 Y122.507 E32.96514
G1 X204.731 Y124.043 E33.05291
G1 X203.471 Y126.46 E33.1889
G1 X202.272 Y128.924 E33.32561
G1 X201.147 Y131.418 E33.46211
G1 X200.086 Y133.952 E33.59917
G1 X199.783 Y134.735 E33.64105
G1 X199.753 Y134.798 E33.64454
G1 X199.26 Y136.053 E33.71181
G1 X198.948 Y136.676 E33.74657
G1 X198.888 Y136.781 E33.7526
G1 X198.617 Y137.235 E33.77898
G1 X198.233 Y137.769 E33.81179
G1 X198.139 Y137.886 E33.81928
G1 X197.789 Y138.298 E33.84625
G1 X197.34 Y138.747 E33.87793
G1 X197.225 Y138.85 E33.88563
G1 X196.823 Y139.193 E33.912
G1 X196.381 Y139.517 E33.93934
G1 X196.24 Y139.607 E33.94768
G1 X195.726 Y139.919 E33.97768
G1 X195.167 Y140.202 E34.00894
G1 X195.021 Y140.265 E34.01687
G1 X194.478 Y140.483 E34.04607
G1 X193.919 Y140.658 E34.07529
G1 X193.316 Y140.803 E34.10623
G1 X192.934 Y140.868 E34.12556
G1 X191.433 Y141.032 E34.20089
G1 X188.647 Y141.377 E34.34095
G1 X185.989 Y141.784 E34.4751
G1 X183.258 Y142.279 E34.61357
G1 X180.611 Y142.838 E34.74855
G1 X177.913 Y143.487 E34.88699
G1 X175.307 Y144.194 E35.0217
G1 X172.663 Y144.991 E35.15947
G1 X170.058 Y145.858 E35.29645
G1 X167.495 Y146.792 E35.43254
G1 X164.973 Y147.793 E35.56791
G1 X162.438 Y148.882 E35.70556
G1 X159.952 Y150.035 E35.84228
G1 X157.482 Y151.267 E35.97999
G1 X155.105 Y152.538 E36.11446
G1 X152.707 Y153.908 E36.25225
G1 X150.33 Y155.36 E36.39121
G1 X150.118 Y155.478 E36.40332
G1 X149.535 Y155.776 E36.43598
G1 X149.061 Y155.975 E36.46163
G1 X148.322 Y156.202 E36.5002
G1 X147.544 Y156.337 E36.53959
G1 X146.903 Y156.391 E36.57169
G1 X146.275 Y156.392 E36.60302
G1 X146.207 Y156.39 E36.60641
G1 X144.483 Y156.301 E36.69254
G1 X141.766 Y156.237 E36.82813
G1 X139.013 Y156.251 E36.96548
G1 X136.29 Y156.341 E37.1014
G1 X132.953 Y156.557 E37.26823
G1 X131.896 Y156.644 E37.32114
G1 X131.744 Y156.653 E37.32874
G1 X128.757 Y156.755 E37.47785
G1 X126.012 Y156.926 E37.61506
G1 X123.268 Y157.176 E37.75253
G1 X120.57 Y157.498 E37.88809
G1 X117.884 Y157.897 E38.02356
G1 X115.147 Y158.383 E38.16225
G1 X112.511 Y158.927 E38.29653
G1 X109.815 Y159.565 E38.43475
G1 X107.168 Y160.27 E38.57141
G1 X104.567 Y161.043 E38.70679
G1 X101.935 Y161.906 E38.84498
G1 X99.369 Y162.829 E38.98103
G1 X96.818 Y163.829 E39.11772
G1 X94.321 Y164.89 E39.25308
G1 X91.815 Y166.04 E39.39064
G1 X89.342 Y167.26 E39.52822
G1 X86.945 Y168.528 E39.6635
G1 X84.564 Y169.876 E39.80001
G1 X82.611 Y171.06 E39.91395
G1 X81.87 Y171.498 E39.9569
G1 X81.335 Y171.765 E39.98673
G1 X80.647 Y172.032 E40.02355
G1 X80.036 Y172.205 E40.05523
G1 X79.437 Y172.323 E40.08568
G1 X78.715 Y172.393 E40.12187
G1 X78.187 Y172.398 E40.14822
G1 X77.568 Y172.351 E40.17919
G1 X77.056 Y172.271 E40.20504
G1 X76.49 Y172.134 E40.2341
G1 X75.987 Y171.969 E40.26051
G1 X75.475 Y171.758 E40.28813
G1 X74.985 Y171.507 E40.3156
G1 X74.511 Y171.217 E40.34332
G1 X74.047 Y170.879 E40.37196
G1 X73.483 Y170.383 E40.40943
G1 X73.284 Y170.175 E40.4238
G1 X71.375 Y168.147 E40.56275
G1 X69.453 Y166.217 E40.69864
G1 X67.444 Y164.311 E40.8368
G1 X65.432 Y162.508 E40.97158
G1 X63.338 Y160.734 E41.1085
G1 X61.171 Y159.003 E41.24687
G1 X59.018 Y157.38 E41.38139
G1 X56.751 Y155.77 E41.52011
G1 X54.986 Y154.582 E41.62626
G1 X54.468 Y154.241 E41.6572
G1 X54.317 Y154.135 E41.6664
G1 X53.902 Y153.826 E41.69221
