;FLAVOR:Marlin
;TIME:1355
;Filament used: 1.12603m, 0m
;Layer height: 0.18
;MINX:65.303
;MINY:63.084
;MINZ:0.26
;MAXX:169.714
;MAXY:171.917
;MAXZ:1.34
;Generated with Cura_SteamEngine 4.8.0
T0
M140 S60
M105
M190 S60
M104 S200
M105
M109 S200
M82 ;absolute extrusion mode
M201 X500.00 Y500.00 Z100.00 E5000.00 	;Setup machine max acceleration
M203 X500.00 Y500.00 Z10.00 E50.00 	;Setup machine max feedrate
M204 P500.00 R1000.00 T500.00 		;Setup Print/Retract/Travel acceleration
M205 X8.00 Y8.00 Z0.40 E5.00 		;Setup Jerk
M220 S100 				;Reset Feedrate
M221 S100 				;Reset Flowrate
G28				;Home the Machine
#G29 				;Bed Level
G92 E0
M300 P150 S587
G92 E0
G1 F1500 E-6.5
;LAYER_COUNT:7
;LAYER:0
M107
G0 F2160 X68.742 Y99.064 Z0.26
;TYPE:SKIRT
G1 F1500 E0
G1 F900 X69.285 Y98.729 E0.02759
G1 X70.278 Y98.208 E0.07607
G1 X70.492 Y98.101 E0.08642
G1 X71.045 Y97.833 E0.11299
G1 X72.489 Y97.185 E0.18142
G1 X72.555 Y97.156 E0.18454
G1 X75.041 Y95.998 E0.30312
G1 X77.444 Y94.794 E0.41933
G1 X79.855 Y93.499 E0.53767
G1 X82.244 Y92.129 E0.65674
G1 X84.575 Y90.702 E0.77492
G1 X86.822 Y89.238 E0.89088
G1 X89.086 Y87.668 E1.01
G1 X91.282 Y86.055 E1.12781
G1 X93.418 Y84.388 E1.24497
G1 X95.539 Y82.634 E1.36397
G1 X97.596 Y80.836 E1.4821
G1 X99.572 Y79.004 E1.59861
G1 X101.518 Y77.096 E1.71645
G1 X103.426 Y75.117 E1.83531
G1 X105.259 Y73.104 E1.95302
G1 X107.05 Y71.021 E2.0718
G1 X108.753 Y68.925 E2.18857
G1 X110.41 Y66.761 E2.30642
G1 X111.913 Y64.692 E2.417
G1 X112.224 Y64.318 E2.43803
G1 X112.623 Y63.96 E2.46121
G1 X113.072 Y63.666 E2.48441
G1 X113.558 Y63.441 E2.50757
G1 X114.196 Y63.267 E2.53616
G1 X114.798 Y63.179 E2.56247
G1 X115.491 Y63.102 E2.59262
G1 X116.027 Y63.084 E2.6158
G1 X116.56 Y63.146 E2.63901
G1 X117.078 Y63.286 E2.66221
G1 X117.569 Y63.501 E2.68538
G1 X117.821 Y63.649 E2.69802
G1 X118.369 Y64.001 E2.72618
G1 X118.728 Y64.248 E2.74502
G1 X119.145 Y64.584 E2.76818
G1 X119.509 Y64.979 E2.7914
G1 X119.81 Y65.423 E2.8146
G1 X120.106 Y66.086 E2.84599
G1 X120.301 Y66.677 E2.8729
G1 X121.19 Y69.25 E2.9906
G1 X122.159 Y71.814 E3.10912
G1 X123.189 Y74.321 E3.22631
G1 X124.292 Y76.807 E3.3439
G1 X125.479 Y79.288 E3.46282
G1 X126.723 Y81.71 E3.58055
G1 X128.022 Y84.075 E3.69722
G1 X129.421 Y86.455 E3.81659
G1 X130.867 Y88.768 E3.93453
G1 X132.364 Y91.014 E4.05124
G1 X133.945 Y93.249 E4.16961
G1 X135.576 Y95.421 E4.28706
G1 X137.283 Y97.564 E4.40552
G1 X139.042 Y99.651 E4.52353
G1 X140.84 Y101.664 E4.64024
G1 X142.745 Y103.68 E4.76016
G1 X144.638 Y105.572 E4.87589
G1 X146.653 Y107.476 E4.99575
G1 X148.668 Y109.274 E5.11252
G1 X150.754 Y111.032 E5.23048
G1 X152.905 Y112.744 E5.34934
G1 X155.066 Y114.366 E5.46617
G1 X157.295 Y115.943 E5.58423
G1 X159.813 Y117.614 E5.7149
G1 X160.263 Y117.903 E5.73802
G1 X160.691 Y118.226 E5.76121
G1 X161.067 Y118.608 E5.78438
G1 X161.28 Y118.888 E5.79959
G1 X161.765 Y119.594 E5.83663
G1 X162.137 Y120.168 E5.86621
G1 X162.474 Y120.82 E5.89794
G1 X162.971 Y122.079 E5.95646
G1 X164.006 Y124.598 E6.07422
G1 X165.115 Y127.089 E6.19211
G1 X166.289 Y129.54 E6.30962
G1 X167.786 Y132.435 E6.45054
G1 X168.148 Y133.108 E6.48358
G1 X168.482 Y133.75 E6.51487
G1 X168.693 Y134.242 E6.53802
G1 X168.8 Y134.618 E6.55492
G1 X169.017 Y135.585 E6.59777
G1 X169.506 Y137.952 E6.70228
G1 X169.634 Y138.618 E6.7316
G1 X169.698 Y139.236 E6.75847
G1 X169.714 Y140.177 E6.79916
G1 X169.714 Y140.778 E6.82515
G1 X169.704 Y141.518 E6.85715
G1 X169.657 Y142.052 E6.88033
G1 X169.531 Y142.573 E6.9035
G1 X169.328 Y143.07 E6.92671
G1 X169.055 Y143.531 E6.94988
G1 X168.806 Y143.848 E6.96731
G1 X167.929 Y144.844 E7.02469
G1 X166.18 Y146.89 E7.14107
G1 X164.439 Y149.047 E7.26093
G1 X162.786 Y151.22 E7.37898
G1 X161.21 Y153.416 E7.49585
G1 X159.675 Y155.689 E7.61444
G1 X158.22 Y157.981 E7.73183
G1 X156.835 Y160.305 E7.8488
G1 X155.42 Y162.858 E7.97501
G1 X155.271 Y163.12 E7.98805
G1 X154.972 Y163.565 E8.01123
G1 X154.529 Y164.039 E8.03928
G1 X152.582 Y165.983 E8.15824
G1 X150.725 Y167.947 E8.27511
G1 X148.995 Y169.902 E8.38799
G1 X148.389 Y170.577 E8.42721
G1 X148.002 Y170.948 E8.45039
G1 X147.564 Y171.258 E8.47359
G1 X147.085 Y171.499 E8.49678
G1 X146.644 Y171.649 E8.51692
G1 X146.097 Y171.796 E8.54141
G1 X145.57 Y171.896 E8.5646
G1 X145.035 Y171.917 E8.58775
G1 X144.43 Y171.853 E8.61405
G1 X144.262 Y171.826 E8.62141
G1 X143.711 Y171.725 E8.64563
G1 X143.035 Y171.531 E8.67604
G1 X142.501 Y171.32 E8.70087
G1 X139.884 Y170.322 E8.82197
G1 X137.33 Y169.429 E8.93896
G1 X134.735 Y168.603 E9.05671
G1 X132.126 Y167.855 E9.17406
G1 X129.463 Y167.171 E9.29294
G1 X126.807 Y166.567 E9.41071
G1 X124.123 Y166.04 E9.52898
G1 X121.465 Y165.593 E9.64552
G1 X118.724 Y165.212 E9.76518
G1 X116.049 Y164.917 E9.88154
G1 X113.328 Y164.695 E9.99958
G1 X110.598 Y164.549 E10.11779
G1 X107.869 Y164.48 E10.23583
G1 X105.139 Y164.489 E10.35387
G1 X102.408 Y164.575 E10.47201
G1 X100.973 Y164.655 E10.53415
G1 X100.599 Y164.663 E10.55033
G1 X100.063 Y164.628 E10.57355
G1 X99.396 Y164.468 E10.60321
G1 X98.746 Y164.234 E10.63308
G1 X96.156 Y163.263 E10.75268
G1 X92.679 Y162.088 E10.91137
G1 X92.126 Y161.912 E10.93646
G1 X91.949 Y161.85 E10.94457
G1 X89.368 Y160.992 E11.06217
G1 X86.767 Y160.209 E11.17962
G1 X84.132 Y159.497 E11.29764
G1 X80.863 Y158.722 E11.4429
G1 X79.475 Y158.418 E11.50434
G1 X78.811 Y158.262 E11.53383
G1 X78.299 Y158.1 E11.55705
G1 X77.817 Y157.865 E11.58024
G1 X77.388 Y157.57 E11.60275
G1 X77.044 Y157.292 E11.62187
G1 X75.617 Y156.054 E11.70356
G1 X75.069 Y155.547 E11.73584
G1 X74.704 Y155.154 E11.75903
G1 X74.365 Y154.649 E11.78533
G1 X73.817 Y153.659 E11.83425
G1 X73.256 Y152.592 E11.88638
G1 X72.95 Y151.988 E11.91565
G1 X72.744 Y151.493 E11.93884
G1 X72.59 Y150.813 E11.96898
G1 X72.452 Y149.717 E12.01675
G1 X72.356 Y148.8 E12.05661
G1 X72.293 Y148.11 E12.08657
G1 X72.278 Y147.799 E12.10003
G1 X72.274 Y146.926 E12.13778
G1 X72.221 Y144.216 E12.25498
G1 X72.092 Y141.491 E12.37293
G1 X71.88 Y138.711 E12.49349
G1 X71.607 Y136.099 E12.60704
G1 X71.241 Y133.348 E12.72704
G1 X70.801 Y130.637 E12.84579
G1 X70.291 Y127.97 E12.96319
G1 X69.712 Y125.347 E13.07934
G1 X68.908 Y122.17 E13.22104
G1 X68.645 Y121.197 E13.26462
G1 X68.597 Y121 E13.27338
G1 X68.418 Y120.146 E13.31111
G1 X68.175 Y118.913 E13.36545
G1 X67.581 Y116.287 E13.48186
G1 X66.897 Y113.616 E13.60108
G1 X65.724 Y109.628 E13.78082
G1 X65.587 Y109.104 E13.80423
G1 X65.523 Y108.818 E13.81691
G1 X65.374 Y108.107 E13.84832
G1 X65.303 Y107.576 E13.87148
G1 X65.308 Y107.084 E13.89275
G1 X65.374 Y106.26 E13.9285
G1 X65.51 Y104.842 E13.99009
G1 X65.586 Y104.15 E14.02019
G1 X65.684 Y103.623 E14.04337
G1 X65.921 Y102.98 E14.073
G1 X66.251 Y102.296 E14.10583
G1 X66.732 Y101.336 E14.15226
G1 X67.029 Y100.762 E14.18021
G1 X67.31 Y100.305 E14.2034
G1 X67.656 Y99.895 E14.2266
G1 X68.175 Y99.457 E14.25596
G1 X68.742 Y99.064 E14.28579
G0 F2160 X68.97 Y99.393
G1 F900 X69.471 Y99.083 E14.31127
G1 X70.456 Y98.566 E14.35937
G1 X70.666 Y98.461 E14.36952
G1 X71.219 Y98.193 E14.39609
G1 X72.647 Y97.552 E14.46377
G1 X72.745 Y97.51 E14.46838
G1 X75.182 Y96.374 E14.58464
G1 X77.661 Y95.131 E14.70454
G1 X80.037 Y93.856 E14.82113
G1 X82.475 Y92.457 E14.94267
G1 X84.755 Y91.061 E15.05826
G1 X87.063 Y89.558 E15.17735
G1 X89.329 Y87.987 E15.29657
G1 X91.498 Y86.393 E15.41296
G1 X93.695 Y84.679 E15.53344
G1 X95.773 Y82.961 E15.65002
G1 X97.865 Y81.131 E15.7702
G1 X99.841 Y79.3 E15.88668
G1 X101.821 Y77.358 E16.0066
G1 X103.727 Y75.382 E16.12531
G1 X105.56 Y73.369 E16.24302
G1 X107.33 Y71.31 E16.36042
G1 X109.065 Y69.175 E16.47937
G1 X110.76 Y66.961 E16.59994
G1 X112.24 Y64.923 E16.70884
G1 X112.532 Y64.574 E16.72852
G1 X112.914 Y64.242 E16.7504
G1 X113.342 Y63.974 E16.77223
G1 X113.808 Y63.777 E16.79411
G1 X114.356 Y63.645 E16.81848
G1 X114.852 Y63.575 E16.84014
G1 X115.535 Y63.5 E16.86985
G1 X116.04 Y63.485 E16.89169
G1 X116.541 Y63.55 E16.91354
G1 X117.026 Y63.693 E16.9354
G1 X117.606 Y63.986 E16.9635
G1 X118.053 Y64.272 E16.98644
G1 X118.501 Y64.578 E17.0099
G1 X118.893 Y64.896 E17.03173
G1 X119.231 Y65.273 E17.05362
G1 X119.505 Y65.698 E17.07548
G1 X119.726 Y66.211 E17.09964
G1 X119.921 Y66.802 E17.12654
G1 X120.81 Y69.375 E17.24425
G1 X121.791 Y71.971 E17.36424
G1 X122.817 Y74.47 E17.48105
G1 X123.931 Y76.979 E17.59974
G1 X125.127 Y79.479 E17.71957
G1 X126.359 Y81.878 E17.83618
G1 X127.676 Y84.275 E17.95443
G1 X129.08 Y86.664 E18.07425
G1 X130.528 Y88.979 E18.19231
G1 X132.032 Y91.237 E18.30962
G1 X133.632 Y93.498 E18.42938
G1 X135.259 Y95.665 E18.54655
G1 X136.98 Y97.826 E18.666
G1 X138.737 Y99.909 E18.78382
G1 X140.551 Y101.942 E18.90163
G1 X142.454 Y103.955 E19.02141
G1 X144.363 Y105.863 E19.13811
G1 X146.377 Y107.766 E19.25792
G1 X148.407 Y109.578 E19.37557
G1 X150.493 Y111.335 E19.4935
G1 X152.661 Y113.061 E19.61332
G1 X154.817 Y114.68 E19.72989
G1 X157.095 Y116.291 E19.85053
G1 X159.57 Y117.933 E19.97896
G1 X160.046 Y118.239 E20.00342
G1 X160.449 Y118.545 E20.0253
G1 X160.798 Y118.911 E20.04717
G1 X160.951 Y119.115 E20.0582
G1 X161.379 Y119.736 E20.09081
G1 X161.801 Y120.386 E20.12431
G1 X162.101 Y120.967 E20.15259
G1 X162.582 Y122.185 E20.20921
G1 X163.642 Y124.763 E20.32973
G1 X164.753 Y127.259 E20.44786
G1 X165.936 Y129.731 E20.56636
G1 X167.406 Y132.572 E20.70467
G1 X167.793 Y133.292 E20.74001
G1 X168.127 Y133.934 E20.7713
G1 X168.324 Y134.4 E20.79318
G1 X168.409 Y134.706 E20.80691
G1 X168.626 Y135.666 E20.84946
G1 X169.113 Y138.027 E20.9537
G1 X169.241 Y138.693 E20.98302
G1 X169.299 Y139.242 E21.00689
G1 X169.314 Y140.122 E21.04495
G1 X169.314 Y140.772 E21.07305
G1 X169.304 Y141.512 E21.10505
G1 X169.257 Y142.016 E21.12694
G1 X169.132 Y142.505 E21.14876
G1 X168.931 Y142.969 E21.17062
G1 X168.506 Y143.584 E21.20295
G1 X167.629 Y144.58 E21.26033
G1 X165.848 Y146.662 E21.37879
G1 X164.138 Y148.782 E21.49656
G1 X162.475 Y150.967 E21.61529
G1 X160.887 Y153.182 E21.73313
G1 X159.35 Y155.457 E21.85184
G1 X157.883 Y157.768 E21.9702
G1 X156.472 Y160.135 E22.08935
G1 X155.073 Y162.66 E22.21416
G1 X154.924 Y162.922 E22.22719
G1 X154.64 Y163.34 E22.24904
G1 X154.225 Y163.777 E22.2751
G1 X152.309 Y165.69 E22.39217
G1 X150.417 Y167.69 E22.51121
G1 X148.697 Y169.635 E22.62347
G1 X148.091 Y170.31 E22.6627
G1 X147.725 Y170.658 E22.68453
G1 X147.308 Y170.944 E22.7064
G1 X146.851 Y171.161 E22.72827
G1 X146.54 Y171.262 E22.74241
G1 X145.993 Y171.409 E22.7669
G1 X145.496 Y171.502 E22.78876
G1 X144.991 Y171.514 E22.8106
G1 X144.483 Y171.456 E22.83271
G1 X144.334 Y171.433 E22.83923
G1 X143.783 Y171.332 E22.86345
G1 X143.182 Y171.159 E22.89049
G1 X142.643 Y170.946 E22.91555
G1 X140.041 Y169.953 E23.03597
G1 X137.436 Y169.043 E23.15528
G1 X134.871 Y168.227 E23.27166
G1 X132.222 Y167.466 E23.39083
G1 X129.546 Y166.78 E23.51028
G1 X126.876 Y166.172 E23.62868
G1 X124.224 Y165.652 E23.74553
G1 X121.486 Y165.192 E23.86558
G1 X118.825 Y164.821 E23.98175
G1 X116.051 Y164.515 E24.10242
G1 X113.348 Y164.295 E24.21968
G1 X110.629 Y164.149 E24.33741
G1 X107.877 Y164.08 E24.45644
G1 X105.126 Y164.089 E24.57539
G1 X102.414 Y164.174 E24.69271
G1 X100.951 Y164.256 E24.75607
G1 X100.595 Y164.263 E24.77146
G1 X100.09 Y164.228 E24.79335
G1 X99.526 Y164.09 E24.81846
G1 X98.864 Y163.851 E24.84889
G1 X96.298 Y162.888 E24.96739
G1 X92.837 Y161.719 E25.12535
G1 X92.35 Y161.565 E25.14743
G1 X92.13 Y161.489 E25.15749
G1 X89.472 Y160.606 E25.2786
G1 X86.881 Y159.826 E25.39559
G1 X84.232 Y159.109 E25.51425
G1 X80.919 Y158.324 E25.66147
G1 X79.566 Y158.028 E25.72135
G1 X78.902 Y157.872 E25.75084
G1 X78.421 Y157.718 E25.77268
G1 X77.969 Y157.49 E25.79457
G1 X77.405 Y157.072 E25.82492
G1 X77.306 Y156.99 E25.83048
G1 X75.967 Y155.83 E25.90708
G1 X75.341 Y155.253 E25.94389
G1 X74.998 Y154.881 E25.96577
G1 X74.715 Y154.455 E25.98789
G1 X74.171 Y153.472 E26.03646
G1 X73.612 Y152.411 E26.08832
G1 X73.306 Y151.807 E26.11759
G1 X73.114 Y151.34 E26.13943
G1 X72.986 Y150.763 E26.16498
G1 X72.849 Y149.675 E26.21239
G1 X72.754 Y148.764 E26.252
G1 X72.691 Y148.074 E26.28196
G1 X72.678 Y147.798 E26.2939
G1 X72.674 Y146.925 E26.33165
G1 X72.621 Y144.189 E26.44997
G1 X72.492 Y141.475 E26.56745
G1 X72.283 Y138.73 E26.68649
G1 X71.996 Y135.986 E26.80578
G1 X71.638 Y133.292 E26.92329
G1 X71.197 Y130.575 E27.0423
G1 X70.688 Y127.914 E27.15945
G1 X70.094 Y125.228 E27.27839
G1 X69.309 Y122.122 E27.41691
G1 X69.031 Y121.093 E27.463
G1 X68.989 Y120.918 E27.47078
G1 X68.81 Y120.069 E27.50829
G1 X68.563 Y118.815 E27.56356
G1 X67.967 Y116.18 E27.68037
G1 X67.287 Y113.521 E27.79904
G1 X66.061 Y109.352 E27.98693
G1 X65.925 Y108.786 E28.0121
G1 X65.765 Y108.025 E28.04572
G1 X65.701 Y107.524 E28.06756
G1 X65.707 Y107.116 E28.08521
G1 X65.772 Y106.298 E28.12069
G1 X65.907 Y104.886 E28.18202
G1 X65.983 Y104.194 E28.21212
G1 X66.078 Y103.697 E28.234
G1 X66.281 Y103.154 E28.25906
G1 X66.588 Y102.517 E28.28964
G1 X67.087 Y101.519 E28.33788
G1 X67.384 Y100.945 E28.36582
G1 X67.651 Y100.516 E28.38767
G1 X67.982 Y100.134 E28.40953
G1 X68.403 Y99.786 E28.43314
G1 X68.97 Y99.393 E28.46297
G1 F1500 E21.96297
;MESH:happy birthday simple.stl
G0 F2160 X70.635 Y101.322
G0 X71.236 Y102.224
G0 X74.606 Y103.028
G0 X76.148 Y103.644
G0 X79.256 Y107.881
;TYPE:WALL-INNER
G1 F1500 E28.46297
G1 F900 X79.534 Y108.505 E28.49251
G1 X80.896 Y106.871 E28.58449
G1 X81.185 Y108.32 E28.64837
G1 X80.634 Y107.906 E28.67817
G1 X79.54 Y109.534 E28.76298
G1 X79.369 Y108.534 E28.80685
G1 X79.256 Y107.881 E28.81266
G0 F2160 X79.853 Y116.102
G1 F900 X80.199 Y116.588 E28.83845
G1 X80.328 Y116.769 E28.84806
G1 X80.177 Y116.92 E28.8573
G1 X80.176 Y116.921 E28.85736
G1 X79.824 Y117.273 E28.87888
G1 X79.835 Y116.775 E28.89043
G1 X79.836 Y116.774 E28.89049
G1 X79.838 Y116.699 E28.89373
G1 X79.839 Y116.698 E28.89379
G1 X79.853 Y116.102 E28.90734
G0 F2160 X82.282 Y116.013
G1 F900 X83.085 Y116.013 E28.94206
G1 X85.668 Y117.189 E29.06478
G1 X85.876 Y117.485 E29.08042
G1 X86.078 Y117.773 E29.09563
G1 X85.727 Y117.798 E29.10421
G1 X84.233 Y117.906 E29.16898
G1 X82.645 Y117.708 E29.23817
G1 X81.651 Y116.837 E29.29532
G1 X81.476 Y116.684 E29.30537
G1 X81.655 Y116.535 E29.3116
G1 X82.282 Y116.013 E29.34687
G0 F2160 X87.102 Y118.199
G1 F900 X87.138 Y118.166 E29.34898
G1 X87.23 Y118.08 E29.35443
G1 X87.252 Y118.148
G1 X87.326 Y118.367 E29.36069
G1 X87.127 Y118.218 E29.36329
G1 X87.102 Y118.199
G0 F2160 X90.805 Y115.583
G0 X92.406 Y124.632
G1 F900 X92.463 Y124.746 E29.3688
G1 X92.463 Y125.024 E29.38082
G1 X92.326 Y125.208 E29.39074
G1 X92.295 Y125.249 E29.39296
G1 X92.217 Y125.258 E29.39636
G1 X92.186 Y125.211 E29.3964
G1 X92.041 Y124.996 E29.40513
G1 X92.238 Y124.799 E29.41529
G1 X92.377 Y124.661 E29.41947
G1 X92.406 Y124.632
G0 F2160 X93.433 Y111.392
G0 X94.23 Y110.02
G0 X95.82 Y110.804
G0 X96.713 Y113.033
G0 X97.525 Y121.97
G0 X97.52 Y123.208
G0 X96.176 Y125.32
G1 F900 X97.074 Y124.511 E29.47173
G1 X98.275 Y123.91 E29.5298
G1 X98.486 Y123.805 E29.53999
G1 X98.486 Y123.773 E29.54137
G1 X98.486 Y123.227 E29.56498
G1 X98.717 Y123.689 E29.57181
G1 X98.748 Y123.75 E29.57477
G1 X98.76 Y123.773 E29.57548
G1 X98.692 Y123.779 E29.57634
G1 X98.67 Y123.857 E29.57863
G1 X98.605 Y124.083 E29.58637
G1 X97.939 Y126.407 E29.6909
G1 X97.44 Y127.241 E29.73292
G1 X97.091 Y127.415 E29.74979
G1 X96.608 Y127.367 E29.77077
G1 X96.07 Y126.881 E29.80212
G1 X96.07 Y125.689 E29.85366
G1 X96.176 Y125.32 E29.87026
G0 F2160 X99.44 Y124.684
G0 X104.175 Y124.146
G0 X104.44 Y115.236
G0 X105.55 Y114.133
G0 X106.458 Y114.354
G0 X107.427 Y115.483
G0 X108.267 Y119.125
G0 X108.538 Y130.589
G0 X108.363 Y131.758
G1 F900 X109.116 Y131.379 E29.90671
G1 X109.116 Y131.964 E29.93201
G1 X109.223 Y132.044 E29.93778
