;FLAVOR:Marlin
;TIME:2533
;Filament used: 2.02823m, 0m
;Layer height: 0.2
;MINX:72.829
;MINY:64.684
;MINZ:0.26
;MAXX:162.164
;MAXY:168.752
;MAXZ:1.46
;POSTPROCESSED
;Generated with Cura_SteamEngine 4.8.0
T0
M140 S60
M105
M190 S60
M104 S200
M105
M109 S200
M82 ;absolute extrusion mode
M201 X500.00 Y500.00 Z100.00 E5000.00 	;Setup machine max acceleration
M203 X500.00 Y500.00 Z10.00 E50.00 	;Setup machine max feedrate
M204 P500.00 R1000.00 T500.00 		;Setup Print/Retract/Travel acceleration
M205 X8.00 Y8.00 Z0.40 E5.00 		;Setup Jerk
M220 S100 				;Reset Feedrate
M221 S100 				;Reset Flowrate
G28				;Home the Machine
#G29 				;Bed Level
G92 E0
M300 P150 S587
G92 E0
G1 F1500 E-6.5
;LAYER_COUNT:7
;LAYER:0
M107
G0 F2160 X114.314 Y66.468 Z0.26
;TYPE:SKIRT
G1 F1500 E0
G1 F900 X114.618 Y66.026 E0.0232
G1 X114.984 Y65.635 E0.04635
G1 X115.405 Y65.302 E0.06956
G1 X115.87 Y65.036 E0.09272
G1 X116.37 Y64.841 E0.11593
G1 X116.893 Y64.723 E0.13911
G1 X117.428 Y64.684 E0.16231
G1 X117.963 Y64.725 E0.18551
G1 X118.485 Y64.845 E0.20866
G1 X118.985 Y65.041 E0.23189
G1 X119.449 Y65.309 E0.25505
G1 X119.868 Y65.643 E0.27822
G1 X120.234 Y66.036 E0.30144
G1 X120.536 Y66.478 E0.32459
G1 X120.77 Y66.961 E0.34779
G1 X120.924 Y67.449 E0.36992
G1 X121.222 Y68.698 E0.42544
G1 X121.887 Y71.317 E0.54228
G1 X122.638 Y73.958 E0.66099
G1 X123.464 Y76.579 E0.77982
G1 X124.351 Y79.135 E0.8968
G1 X125.323 Y81.703 E1.01552
G1 X126.345 Y84.189 E1.13174
G1 X127.469 Y86.714 E1.25125
G1 X128.637 Y89.152 E1.36813
G1 X129.891 Y91.588 E1.4866
G1 X131.205 Y93.977 E1.60449
G1 X132.571 Y96.298 E1.72093
G1 X134.045 Y98.648 E1.84088
G1 X135.535 Y100.883 E1.95702
G1 X137.13 Y103.134 E2.07631
G1 X138.762 Y105.304 E2.19371
G1 X140.449 Y107.42 E2.31072
G1 X142.22 Y109.516 E2.42936
G1 X144.041 Y111.552 E2.54747
G1 X146.252 Y113.864 E2.68579
G1 X146.298 Y113.92 E2.68893
G1 X147.293 Y114.942 E2.7506
G1 X147.863 Y115.54 E2.78632
G1 X148.568 Y116.292 E2.83089
G1 X149.218 Y117.003 E2.87254
G1 X149.719 Y117.56 E2.90493
G1 X150.12 Y118.012 E2.93106
G1 X150.872 Y118.88 E2.98072
G1 X151.558 Y119.691 E3.02665
G1 X151.961 Y120.178 E3.05398
G1 X152.656 Y121.038 E3.10179
G1 X153.183 Y121.709 E3.13868
G1 X153.404 Y121.995 E3.15431
G1 X153.961 Y122.731 E3.19422
G1 X154.537 Y123.518 E3.23638
G1 X155.148 Y124.383 E3.28218
G1 X155.723 Y125.229 E3.3264
G1 X156.294 Y126.104 E3.37158
G1 X156.866 Y127.019 E3.41824
G1 X157.388 Y127.898 E3.46244
G1 X157.916 Y128.835 E3.50894
G1 X158.39 Y129.724 E3.55251
G1 X158.871 Y130.683 E3.59889
G1 X159.321 Y131.643 E3.64474
G1 X159.365 Y131.739 E3.6493
G1 X159.754 Y132.639 E3.6917
G1 X160.165 Y133.67 E3.73969
G1 X160.204 Y133.772 E3.74441
G1 X160.528 Y134.665 E3.78548
G1 X160.569 Y134.785 E3.79097
G1 X160.877 Y135.737 E3.83423
G1 X160.912 Y135.851 E3.83939
G1 X161.18 Y136.784 E3.88136
G1 X161.215 Y136.917 E3.88731
G1 X161.488 Y138.031 E3.9369
G1 X161.67 Y138.906 E3.97554
G1 X161.696 Y139.046 E3.9817
G1 X161.869 Y140.082 E4.02711
G1 X161.891 Y140.235 E4.0338
G1 X162.044 Y141.477 E4.0879
G1 X162.057 Y141.602 E4.09334
G1 X162.106 Y142.16 E4.11756
G1 X162.117 Y142.318 E4.12441
G1 X162.161 Y143.324 E4.16794
G1 X162.164 Y143.481 E4.17473
G1 X162.163 Y144.443 E4.21633
G1 X162.157 Y144.671 E4.22619
G1 X162.11 Y145.635 E4.26792
G1 X162.098 Y145.795 E4.27486
G1 X162.008 Y146.754 E4.31651
G1 X161.974 Y147.031 E4.32857
G1 X161.84 Y147.954 E4.3689
G1 X161.794 Y148.224 E4.38074
G1 X161.626 Y149.089 E4.41884
G1 X161.566 Y149.359 E4.4308
G1 X161.373 Y150.156 E4.46626
G1 X161.282 Y150.489 E4.48119
G1 X161.008 Y151.413 E4.52286
G1 X160.938 Y151.624 E4.53247
G1 X160.636 Y152.487 E4.572
G1 X160.532 Y152.76 E4.58464
G1 X160.212 Y153.55 E4.62149
G1 X160.103 Y153.804 E4.63344
G1 X159.7 Y154.675 E4.67494
G1 X159.605 Y154.867 E4.6842
G1 X159.225 Y155.599 E4.71986
G1 X159.044 Y155.925 E4.73598
G1 X158.574 Y156.731 E4.77632
G1 X158.459 Y156.916 E4.78574
G1 X157.96 Y157.685 E4.82538
G1 X157.797 Y157.92 E4.83775
G1 X157.229 Y158.704 E4.87961
G1 X157.135 Y158.829 E4.88637
G1 X156.603 Y159.5 E4.92339
G1 X156.358 Y159.792 E4.93988
G1 X155.781 Y160.449 E4.97768
G1 X155.572 Y160.675 E4.99099
G1 X154.94 Y161.327 E5.03025
G1 X154.738 Y161.523 E5.04242
G1 X154.091 Y162.129 E5.08075
G1 X153.831 Y162.36 E5.09579
G1 X153.163 Y162.925 E5.13362
G1 X153.024 Y163.035 E5.14129
G1 X152.022 Y163.797 E5.19571
G1 X151.604 Y164.095 E5.21791
G1 X151.1 Y164.434 E5.24417
G1 X150.611 Y164.745 E5.26923
G1 X150.084 Y165.063 E5.29584
G1 X149.564 Y165.36 E5.32174
G1 X148.963 Y165.683 E5.35124
G1 X148.373 Y165.98 E5.3798
G1 X147.942 Y166.183 E5.4004
G1 X147.289 Y166.474 E5.43131
G1 X146.656 Y166.736 E5.46093
G1 X146.152 Y166.931 E5.4843
G1 X145.572 Y167.139 E5.51094
G1 X144.983 Y167.333 E5.53775
G1 X144.278 Y167.547 E5.56961
G1 X143.67 Y167.714 E5.59687
G1 X142.972 Y167.886 E5.62795
G1 X142.393 Y168.014 E5.65359
G1 X141.763 Y168.139 E5.68137
G1 X141.094 Y168.254 E5.71072
G1 X140.481 Y168.344 E5.7375
G1 X139.794 Y168.428 E5.76743
G1 X139.049 Y168.5 E5.79979
G1 X138.417 Y168.546 E5.82719
G1 X137.698 Y168.582 E5.85832
G1 X136.938 Y168.6 E5.89119
G1 X136.373 Y168.6 E5.91562
G1 X135.633 Y168.583 E5.94762
G1 X134.854 Y168.546 E5.98134
G1 X134.132 Y168.492 E6.01265
G1 X133.423 Y168.418 E6.04347
G1 X133.315 Y168.405 E6.04818
G1 X129.646 Y167.91 E6.20825
G1 X126.967 Y167.621 E6.32476
G1 X124.214 Y167.403 E6.44417
G1 X121.519 Y167.266 E6.56085
G1 X118.791 Y167.204 E6.67883
G1 X116.06 Y167.221 E6.79691
G1 X113.33 Y167.313 E6.91502
G1 X110.607 Y167.483 E7.03299
G1 X107.924 Y167.727 E7.14948
G1 X105.158 Y168.058 E7.26993
G1 X103.772 Y168.261 E7.33049
G1 X101.866 Y168.534 E7.41375
G1 X101.131 Y168.618 E7.44573
G1 X101.026 Y168.629 E7.4503
G1 X100.354 Y168.685 E7.47945
G1 X99.523 Y168.731 E7.51544
G1 X98.833 Y168.751 E7.54529
G1 X98.084 Y168.752 E7.57767
G1 X97.487 Y168.74 E7.60349
G1 X96.711 Y168.707 E7.63707
G1 X95.998 Y168.657 E7.66798
G1 X95.455 Y168.606 E7.69156
G1 X94.648 Y168.512 E7.72669
G1 X94.033 Y168.424 E7.75355
G1 X93.375 Y168.314 E7.7824
G1 X92.817 Y168.207 E7.80696
G1 X92.05 Y168.041 E7.8409
G1 X91.503 Y167.906 E7.86526
G1 X90.783 Y167.711 E7.89751
G1 X90.192 Y167.534 E7.92419
G1 X89.584 Y167.337 E7.95182
G1 X89.003 Y167.132 E7.97846
G1 X88.425 Y166.911 E8.00521
G1 X87.774 Y166.644 E8.03564
G1 X87.289 Y166.43 E8.05856
G1 X86.612 Y166.112 E8.0909
G1 X86.126 Y165.869 E8.11439
G1 X85.587 Y165.581 E8.14082
G1 X85.006 Y165.252 E8.16969
G1 X84.508 Y164.954 E8.19478
G1 X84.006 Y164.636 E8.22047
G1 X83.569 Y164.346 E8.24315
G1 X83.178 Y164.07 E8.26385
G1 X82.215 Y163.35 E8.31584
G1 X82.118 Y163.275 E8.32114
G1 X81.645 Y162.894 E8.3474
G1 X81.387 Y162.675 E8.36203
G1 X80.759 Y162.119 E8.3983
G1 X80.514 Y161.89 E8.4128
G1 X79.923 Y161.313 E8.44851
G1 X79.661 Y161.044 E8.46475
G1 X79.035 Y160.37 E8.50452
G1 X78.863 Y160.172 E8.51586
G1 X78.283 Y159.481 E8.55487
G1 X78.126 Y159.284 E8.56576
G1 X77.557 Y158.536 E8.6064
G1 X77.384 Y158.295 E8.61922
G1 X76.861 Y157.533 E8.65918
G1 X76.752 Y157.365 E8.66784
G1 X76.271 Y156.589 E8.70732
G1 X76.121 Y156.331 E8.72022
G1 X75.671 Y155.519 E8.76036
G1 X75.558 Y155.3 E8.77102
G1 X75.162 Y154.5 E8.80962
G1 X75.042 Y154.238 E8.82208
G1 X74.681 Y153.407 E8.86125
G1 X74.588 Y153.178 E8.87194
G1 X74.261 Y152.318 E8.91172
G1 X74.182 Y152.095 E8.92195
G1 X73.923 Y151.302 E8.95802
G1 X73.804 Y150.904 E8.97598
G1 X73.575 Y150.065 E9.01358
G1 X73.514 Y149.813 E9.02479
G1 X73.317 Y148.932 E9.06383
G1 X73.26 Y148.636 E9.07686
G1 X73.106 Y147.739 E9.11621
G1 X73.075 Y147.525 E9.12556
G1 X72.966 Y146.645 E9.1639
G1 X72.933 Y146.309 E9.1785
G1 X72.866 Y145.394 E9.21817
G1 X72.853 Y145.126 E9.22977
G1 X72.829 Y144.188 E9.27034
G1 X72.829 Y144.023 E9.27748
G1 X72.849 Y143.041 E9.31995
G1 X72.855 Y142.887 E9.32661
G1 X72.917 Y141.906 E9.36911
G1 X72.93 Y141.753 E9.37575
G1 X73.017 Y140.933 E9.4114
G1 X73.041 Y140.754 E9.41921
G1 X73.246 Y139.45 E9.47629
G1 X73.27 Y139.311 E9.48239
G1 X73.46 Y138.35 E9.52474
G1 X73.488 Y138.221 E9.53045
G1 X73.696 Y137.34 E9.56959
G1 X73.73 Y137.21 E9.5754
G1 X74.016 Y136.173 E9.62191
G1 X74.053 Y136.047 E9.62759
G1 X74.323 Y135.191 E9.6664
G1 X74.358 Y135.086 E9.67119
G1 X74.72 Y134.055 E9.71843
G1 X75.084 Y133.113 E9.7621
G1 X75.486 Y132.158 E9.8069
G1 X75.526 Y132.066 E9.81124
G1 X75.957 Y131.12 E9.85619
G1 X76.387 Y130.238 E9.89861
G1 X76.96 Y129.136 E9.95232
G1 X77.459 Y128.233 E9.99693
G1 X77.993 Y127.318 E10.04273
G1 X78.527 Y126.445 E10.08698
G1 X79.095 Y125.559 E10.13249
G1 X79.648 Y124.732 E10.1755
G1 X80.337 Y123.742 E10.22766
G1 X80.735 Y123.19 E10.25708
G1 X81.428 Y122.257 E10.30733
G1 X82.092 Y121.394 E10.35441
G1 X82.703 Y120.623 E10.39695
G1 X83.386 Y119.785 E10.44369
G1 X83.916 Y119.151 E10.47942
G1 X84.582 Y118.37 E10.5238
G1 X85.115 Y117.759 E10.55886
G1 X85.598 Y117.214 E10.59035
G1 X86.234 Y116.486 E10.63215
G1 X86.718 Y115.953 E10.66328
G1 X87.207 Y115.426 E10.69436
G1 X87.707 Y114.899 E10.72577
G1 X88.091 Y114.501 E10.74968
G1 X88.675 Y113.901 E10.78589
G1 X90.373 Y112.125 E10.89213
G1 X92.201 Y110.108 E11.00983
G1 X93.99 Y108.016 E11.12885
G1 X95.682 Y105.922 E11.24525
G1 X97.339 Y103.746 E11.36351
G1 X98.94 Y101.516 E11.48221
G1 X100.444 Y99.292 E11.59829
G1 X101.925 Y96.963 E11.71763
G1 X103.322 Y94.62 E11.83558
G1 X104.652 Y92.243 E11.95335
G1 X105.902 Y89.849 E12.07012
G1 X107.107 Y87.374 E12.18915
G1 X108.224 Y84.904 E12.30636
G1 X109.297 Y82.348 E12.42622
G1 X110.266 Y79.828 E12.54296
G1 X111.166 Y77.285 E12.65959
G1 X112.015 Y74.647 E12.77942
G1 X112.771 Y72.051 E12.89633
G1 X113.456 Y69.425 E13.01367
G1 X113.917 Y67.462 E13.10086
G1 X114.078 Y66.95 E13.12406
G1 X114.314 Y66.468 E13.14727
G0 F2160 X114.689 Y66.62
G1 F900 X114.985 Y66.21 E13.16913
G1 X115.342 Y65.852 E13.19099
G1 X115.751 Y65.555 E13.21285
G1 X116.201 Y65.326 E13.23468
G1 X116.682 Y65.171 E13.25653
G1 X117.182 Y65.093 E13.27841
G1 X117.688 Y65.095 E13.30029
G1 X118.187 Y65.177 E13.32215
G1 X118.666 Y65.336 E13.34398
G1 X119.115 Y65.569 E13.36585
G1 X119.522 Y65.869 E13.38771
G1 X119.876 Y66.23 E13.40957
G1 X120.169 Y66.642 E13.43143
G1 X120.393 Y67.095 E13.45328
G1 X120.535 Y67.541 E13.47352
G1 X120.822 Y68.745 E13.52704
G1 X121.509 Y71.452 E13.64779
G1 X122.258 Y74.082 E13.76603
G1 X123.08 Y76.693 E13.88439
G1 X123.97 Y79.259 E14.00182
G1 X124.955 Y81.86 E14.12208
G1 X125.968 Y84.325 E14.23731
G1 X127.101 Y86.871 E14.3578
G1 X128.293 Y89.358 E14.47705
G1 X129.527 Y91.757 E14.5937
G1 X130.853 Y94.168 E14.71267
G1 X132.246 Y96.534 E14.83139
G1 X133.703 Y98.857 E14.94995
G1 X135.208 Y101.114 E15.06724
G1 X136.799 Y103.36 E15.18625
G1 X138.445 Y105.548 E15.30464
G1 X140.161 Y107.7 E15.42365
G1 X141.917 Y109.778 E15.54128
G1 X143.722 Y111.797 E15.65838
G1 X145.963 Y114.14 E15.79857
G1 X146.011 Y114.199 E15.80186
G1 X147.004 Y115.218 E15.86338
G1 X147.572 Y115.813 E15.89894
G1 X148.273 Y116.562 E15.9433
G1 X148.92 Y117.27 E15.98477
G1 X149.42 Y117.826 E16.0171
G1 X149.818 Y118.274 E16.04301
G1 X150.567 Y119.139 E16.09248
G1 X151.25 Y119.945 E16.13816
G1 X151.65 Y120.43 E16.16535
G1 X152.341 Y121.285 E16.21288
G1 X152.867 Y121.953 E16.24964
G1 X153.085 Y122.236 E16.26509
G1 X153.638 Y122.968 E16.30475
G1 X154.211 Y123.749 E16.34664
G1 X154.817 Y124.608 E16.39209
G1 X155.388 Y125.448 E16.43601
G1 X155.955 Y126.316 E16.48084
G1 X156.523 Y127.224 E16.52715
G1 X157.04 Y128.095 E16.57094
G1 X157.563 Y129.023 E16.617
G1 X158.074 Y129.984 E16.66406
G1 X158.552 Y130.941 E16.71031
G1 X158.959 Y131.812 E16.75188
G1 X159.386 Y132.797 E16.7983
G1 X159.423 Y132.885 E16.80243
G1 X159.794 Y133.818 E16.84584
G1 X160.152 Y134.802 E16.89112
G1 X160.189 Y134.908 E16.89597
G1 X160.497 Y135.86 E16.93924
G1 X160.528 Y135.962 E16.94385
G1 X160.796 Y136.895 E16.98582
G1 X160.827 Y137.012 E16.99105
G1 X161.07 Y137.998 E17.03496
G1 X161.096 Y138.112 E17.04002
G1 X161.278 Y138.987 E17.07866
G1 X161.301 Y139.112 E17.08415
G1 X161.474 Y140.148 E17.12957
G1 X161.494 Y140.284 E17.13551
G1 X161.647 Y141.526 E17.18962
G1 X161.659 Y141.637 E17.19445
G1 X161.708 Y142.195 E17.21867
G1 X161.717 Y142.335 E17.22473
G1 X161.761 Y143.341 E17.26827
G1 X161.764 Y143.481 E17.27433
G1 X161.763 Y144.434 E17.31553
G1 X161.757 Y144.652 E17.32496
G1 X161.71 Y145.616 E17.36669
G1 X161.7 Y145.758 E17.37285
G1 X161.61 Y146.708 E17.41411
G1 X161.578 Y146.974 E17.42569
G1 X161.445 Y147.888 E17.46563
G1 X161.401 Y148.148 E17.47703
G1 X161.235 Y149.004 E17.51473
G1 X161.177 Y149.265 E17.52629
G1 X160.984 Y150.062 E17.56175
G1 X160.899 Y150.376 E17.57582
G1 X160.628 Y151.288 E17.61695
G1 X160.56 Y151.492 E17.62625
G1 X160.262 Y152.346 E17.66536
G1 X160.162 Y152.61 E17.67757
G1 X159.844 Y153.393 E17.71411
G1 X159.739 Y153.636 E17.72555
G1 X159.34 Y154.5 E17.7667
G1 X159.25 Y154.682 E17.77548
G1 X158.825 Y155.498 E17.81526
G1 X158.698 Y155.724 E17.82647
G1 X158.233 Y156.521 E17.86637
G1 X158.123 Y156.699 E17.87542
G1 X157.678 Y157.387 E17.91084
G1 X157.473 Y157.685 E17.92648
G1 X156.905 Y158.469 E17.96834
G1 X156.822 Y158.58 E17.97434
G1 X156.29 Y159.251 E18.01136
G1 X156.057 Y159.528 E18.02701
G1 X155.432 Y160.239 E18.06794
G1 X155.285 Y160.397 E18.07727
G1 X154.66 Y161.041 E18.11608
G1 X154.465 Y161.232 E18.12788
G1 X153.882 Y161.779 E18.16245
G1 X153.572 Y162.055 E18.18039
G1 X152.912 Y162.613 E18.21776
G1 X152.782 Y162.716 E18.22493
G1 X151.7 Y163.537 E18.28366
G1 X151.38 Y163.764 E18.30062
G1 X150.885 Y164.097 E18.32642
G1 X150.404 Y164.403 E18.35107
G1 X149.885 Y164.716 E18.37727
G1 X149.374 Y165.008 E18.40272
G1 X148.783 Y165.326 E18.43174
G1 X148.201 Y165.619 E18.45991
G1 X147.779 Y165.818 E18.48009
G1 X147.136 Y166.104 E18.51052
G1 X146.511 Y166.363 E18.53977
G1 X146.017 Y166.554 E18.56267
G1 X145.36 Y166.789 E18.59284
G1 X144.867 Y166.951 E18.61528
G1 X144.172 Y167.162 E18.64668
G1 X143.573 Y167.326 E18.67353
G1 X142.885 Y167.496 E18.70418
G1 X142.315 Y167.622 E18.72942
G1 X141.694 Y167.745 E18.75679
G1 X141.036 Y167.858 E18.78566
G1 X140.346 Y167.958 E18.8158
G1 X139.755 Y168.03 E18.84155
G1 X139.019 Y168.101 E18.87352
G1 X138.396 Y168.147 E18.90053
G1 X137.687 Y168.182 E18.93122
G1 X136.938 Y168.2 E18.96362
G1 X136.381 Y168.2 E18.9877
G1 X135.651 Y168.184 E19.01927
G1 X134.972 Y168.153 E19.04866
G1 X134.174 Y168.094 E19.08326
G1 X133.465 Y168.02 E19.11408
G1 X129.744 Y167.519 E19.27642
G1 X126.971 Y167.22 E19.39702
G1 X124.268 Y167.006 E19.51425
G1 X121.512 Y166.866 E19.63357
G1 X118.797 Y166.804 E19.751
G1 X116.045 Y166.821 E19.86999
G1 X113.326 Y166.913 E19.98762
G1 X110.582 Y167.084 E20.1065
G1 X107.838 Y167.334 E20.22563
G1 X105.136 Y167.657 E20.34329
G1 X103.716 Y167.865 E20.40535
G1 X101.81 Y168.138 E20.4886
G1 X101.086 Y168.221 E20.52011
G1 X100.321 Y168.286 E20.55331
G1 X99.424 Y168.335 E20.59215
G1 X98.832 Y168.351 E20.61776
G1 X98.091 Y168.352 E20.6498
G1 X97.503 Y168.34 E20.67522
G1 X96.738 Y168.308 E20.70833
G1 X96.034 Y168.259 E20.73884
G1 X95.501 Y168.209 E20.76199
G1 X94.704 Y168.116 E20.79669
G1 X94.099 Y168.029 E20.82311
G1 X93.45 Y167.921 E20.85156
G1 X92.822 Y167.799 E20.87922
G1 X92.145 Y167.652 E20.90918
G1 X91.607 Y167.52 E20.93313
G1 X90.897 Y167.328 E20.96493
G1 X90.314 Y167.153 E20.99125
G1 X89.717 Y166.96 E21.01838
G1 X89.146 Y166.758 E21.04457
G1 X88.576 Y166.54 E21.07095
G1 X87.935 Y166.277 E21.10091
G1 X87.459 Y166.068 E21.12339
G1 X86.791 Y165.754 E21.1553
G1 X86.314 Y165.516 E21.17835
G1 X85.783 Y165.232 E21.20439
G1 X85.21 Y164.908 E21.23285
G1 X84.722 Y164.616 E21.25744
G1 X84.228 Y164.302 E21.28275
G1 X83.719 Y163.963 E21.30919
G1 X83.418 Y163.75 E21.32514
G1 X82.455 Y163.03 E21.37713
G1 X82.368 Y162.963 E21.38187
G1 X81.902 Y162.588 E21.40774
