;FLAVOR:Marlin
;TIME:3707
;Filament used: 2.85677m, 0m
;Layer height: 0.18
;MINX:52.653
;MINY:43.796
;MINZ:0.3
;MAXX:182.357
;MAXY:189.609
;MAXZ:1.56
;POSTPROCESSED
;Generated with Cura_SteamEngine 4.8.0
T0
M140 S60
M105
M190 S60
M104 S200
M105
M109 S200
M82 ;absolute extrusion mode
M201 X500.00 Y500.00 Z100.00 E5000.00 	;Setup machine max acceleration
M203 X500.00 Y500.00 Z10.00 E50.00 	;Setup machine max feedrate
M204 P500.00 R1000.00 T500.00 		;Setup Print/Retract/Travel acceleration
M205 X8.00 Y8.00 Z0.40 E5.00 		;Setup Jerk
M220 S100 				;Reset Feedrate
M221 S100 				;Reset Flowrate
G28				;Home the Machine
#G29 				;Bed Level
G92 E0
M300 P150 S587
G92 E0
G1 F1500 E-6.5
;LAYER_COUNT:8
;LAYER:0
M107
G0 F2160 X56.137 Y93.451 Z0.3
;TYPE:SKIRT
G1 F1500 E0
G1 F900 X56.805 Y93.178 E0.036
G1 X59.375 Y92.226 E0.17273
G1 X61.883 Y91.216 E0.30762
G1 X64.39 Y90.123 E0.44407
G1 X66.88 Y88.952 E0.58135
G1 X69.281 Y87.739 E0.71555
G1 X71.697 Y86.433 E0.85257
G1 X74.053 Y85.069 E0.98839
G1 X76.372 Y83.639 E1.12431
G1 X78.655 Y82.141 E1.26054
G1 X80.894 Y80.577 E1.3968
G1 X83.075 Y78.963 E1.53217
G1 X85.227 Y77.272 E1.66871
G1 X87.323 Y75.528 E1.80474
G1 X89.362 Y73.731 E1.94034
G1 X91.362 Y71.867 E2.07674
G1 X93.289 Y69.963 E2.21189
G1 X95.182 Y67.987 E2.34841
G1 X97.028 Y65.946 E2.4857
G1 X98.767 Y63.91 E2.61929
G1 X100.515 Y61.744 E2.75815
G1 X102.137 Y59.611 E2.89184
G1 X103.741 Y57.376 E3.02909
G1 X105.278 Y55.098 E3.16619
G1 X106.707 Y52.847 E3.29921
G1 X108.125 Y50.467 E3.43743
G1 X109.449 Y48.094 E3.573
G1 X110.193 Y46.658 E3.65368
G1 X110.7 Y45.704 E3.70758
G1 X110.986 Y45.25 E3.73435
G1 X111.337 Y44.844 E3.76113
G1 X111.744 Y44.495 E3.78788
G1 X112.198 Y44.21 E3.81462
G1 X112.689 Y43.995 E3.84136
G1 X113.207 Y43.856 E3.86812
G1 X113.74 Y43.796 E3.89488
G1 X114.276 Y43.815 E3.92164
G1 X114.803 Y43.914 E3.94839
G1 X115.31 Y44.09 E3.97516
G1 X115.785 Y44.339 E4.00192
G1 X116.217 Y44.656 E4.02865
G1 X116.598 Y45.034 E4.05543
G1 X117.037 Y45.664 E4.09374
G1 X117.124 Y45.823 E4.10278
G1 X118.482 Y48.207 E4.23966
G1 X119.884 Y50.512 E4.37426
G1 X121.376 Y52.817 E4.51124
G1 X122.915 Y55.053 E4.64667
G1 X124.519 Y57.249 E4.78234
G1 X126.195 Y59.411 E4.91882
G1 X127.929 Y61.522 E5.05511
G1 X129.715 Y63.575 E5.19087
G1 X131.563 Y65.583 E5.32702
G1 X133.47 Y67.543 E5.46345
G1 X135.421 Y69.433 E5.59897
G1 X137.425 Y71.271 E5.73463
G1 X139.507 Y73.072 E5.87197
G1 X141.594 Y74.778 E6.00645
G1 X143.773 Y76.459 E6.14375
G1 X145.95 Y78.04 E6.27799
G1 X148.223 Y79.598 E6.41547
G1 X150.504 Y81.066 E6.5508
G1 X152.848 Y82.484 E6.68747
G1 X155.223 Y83.829 E6.82364
G1 X157.644 Y85.112 E6.96034
G1 X160.067 Y86.309 E7.09517
G1 X162.554 Y87.452 E7.23173
G1 X165.052 Y88.515 E7.36717
G1 X167.577 Y89.506 E7.50249
G1 X170.175 Y90.442 E7.64026
G1 X172.764 Y91.293 E7.77623
G1 X175.347 Y92.062 E7.91068
G1 X178.59 Y92.918 E8.07802
G1 X179.605 Y93.167 E8.13016
G1 X180.115 Y93.333 E8.15692
G1 X180.594 Y93.574 E8.18367
G1 X181.033 Y93.882 E8.21042
G1 X181.42 Y94.253 E8.23717
G1 X181.749 Y94.677 E8.26394
G1 X182.01 Y95.145 E8.29068
G1 X182.2 Y95.647 E8.31746
G1 X182.312 Y96.171 E8.34419
G1 X182.354 Y96.884 E8.37982
G1 X182.357 Y98.757 E8.47327
G1 X182.355 Y99.846 E8.5276
G1 X182.348 Y100.069 E8.53873
G1 X182.308 Y100.694 E8.56997
G1 X182.216 Y101.303 E8.6007
G1 X182.087 Y101.781 E8.6254
G1 X181.858 Y102.372 E8.65702
G1 X181.38 Y103.338 E8.7108
G1 X180.608 Y104.825 E8.79438
G1 X179.425 Y107.272 E8.92998
G1 X178.308 Y109.758 E9.06596
G1 X177.256 Y112.287 E9.20261
G1 X176.272 Y114.851 E9.33962
G1 X175.758 Y116.293 E9.416
G1 X175.454 Y117.166 E9.46212
G1 X175.267 Y117.636 E9.48735
G1 X175.174 Y117.845 E9.49877
G1 X174.11 Y120.334 E9.63381
G1 X173.084 Y122.93 E9.77308
G1 X172.181 Y125.43 E9.90569
G1 X171.313 Y128.06 E10.04386
G1 X170.534 Y130.657 E10.17913
G1 X170.408 Y131.123 E10.20321
G1 X170.261 Y131.626 E10.22936
G1 X170.223 Y131.748 E10.23573
G1 X169.953 Y132.563 E10.27857
G1 X169.752 Y133.049 E10.30481
G1 X169.371 Y133.78 E10.34593
G1 X169.186 Y134.086 E10.36377
G1 X167.582 Y136.459 E10.50667
G1 X166.116 Y138.764 E10.64296
G1 X164.71 Y141.121 E10.77988
G1 X163.397 Y143.469 E10.91409
G1 X162.139 Y145.879 E11.04972
G1 X160.928 Y148.366 E11.18773
G1 X159.818 Y150.822 E11.32219
G1 X158.751 Y153.368 E11.45992
G1 X157.782 Y155.888 E11.59461
G1 X156.619 Y159.246 E11.77191
G1 X156.451 Y159.7 E11.79606
G1 X156.158 Y160.388 E11.83337
G1 X155.952 Y160.797 E11.85621
G1 X155.652 Y161.309 E11.88582
G1 X155.163 Y161.997 E11.92793
G1 X154.73 Y162.496 E11.96089
G1 X154.207 Y163.008 E11.99741
G1 X153.638 Y163.496 E12.0348
G1 X153.102 Y163.866 E12.0673
G1 X152.565 Y164.186 E12.09848
G1 X152.254 Y164.351 E12.11605
G1 X151.733 Y164.596 E12.14477
G1 X151.425 Y164.724 E12.16141
G1 X150.844 Y164.934 E12.19223
G1 X150.516 Y165.035 E12.20936
G1 X149.823 Y165.213 E12.24505
G1 X149.187 Y165.339 E12.2774
G1 X148.311 Y165.463 E12.32154
G1 X147.096 Y165.612 E12.38261
G1 X144.417 Y166.018 E12.51779
G1 X141.692 Y166.509 E12.65593
G1 X139.098 Y167.053 E12.78816
G1 X136.405 Y167.698 E12.92632
G1 X133.744 Y168.417 E13.06383
G1 X131.161 Y169.192 E13.19838
G1 X128.566 Y170.052 E13.33477
G1 X126.014 Y170.978 E13.47021
G1 X123.459 Y171.989 E13.60729
G1 X120.944 Y173.066 E13.74379
G1 X118.506 Y174.194 E13.87781
G1 X116.027 Y175.425 E14.0159
G1 X113.654 Y176.692 E14.1501
G1 X111.264 Y178.053 E14.28732
G1 X108.939 Y179.466 E14.42306
G1 X106.662 Y180.94 E14.55838
G1 X104.41 Y182.491 E14.6948
G1 X102.194 Y184.111 E14.83175
G1 X100.044 Y185.778 E14.96748
G1 X98.789 Y186.798 E15.04816
G1 X98.685 Y186.879 E15.05474
G1 X98.178 Y187.261 E15.08641
G1 X97.636 Y187.637 E15.11932
G1 X97.078 Y187.988 E15.15221
G1 X96.606 Y188.256 E15.17929
G1 X96.436 Y188.344 E15.18884
G1 X95.97 Y188.572 E15.21472
G1 X95.76 Y188.666 E15.2262
G1 X95.282 Y188.863 E15.25199
G1 X95.055 Y188.948 E15.26409
G1 X94.396 Y189.169 E15.29876
G1 X93.717 Y189.345 E15.33376
G1 X93.063 Y189.466 E15.36694
G1 X92.823 Y189.502 E15.37905
G1 X92.271 Y189.566 E15.40677
G1 X91.642 Y189.605 E15.43821
G1 X91.396 Y189.609 E15.45049
G1 X90.614 Y189.595 E15.48951
G1 X89.932 Y189.545 E15.52362
G1 X89.363 Y189.47 E15.55226
G1 X88.974 Y189.404 E15.57194
G1 X88.145 Y189.232 E15.61418
G1 X86.451 Y188.854 E15.70077
G1 X83.764 Y188.332 E15.83733
G1 X81.062 Y187.887 E15.97395
G1 X78.347 Y187.518 E16.11065
G1 X77.678 Y187.432 E16.1443
G1 X77.456 Y187.394 E16.15554
G1 X76.899 Y187.253 E16.1842
G1 X76.322 Y187.043 E16.21484
G1 X75.367 Y186.65 E16.26636
G1 X72.787 Y185.628 E16.40481
G1 X70.245 Y184.701 E16.5398
G1 X70.006 Y184.621 E16.55237
G1 X68.476 Y184.07 E16.6335
G1 X67.89 Y183.83 E16.6651
G1 X67.764 Y183.772 E16.67202
G1 X67.201 Y183.499 E16.70323
G1 X66.873 Y183.324 E16.72178
G1 X66.381 Y183.039 E16.75015
G1 X65.937 Y182.757 E16.77639
G1 X65.51 Y182.46 E16.80234
G1 X65.099 Y182.146 E16.82814
G1 X64.652 Y181.776 E16.85709
G1 X64.006 Y181.167 E16.90138
G1 X63.619 Y180.755 E16.92959
G1 X63.267 Y180.346 E16.95651
G1 X62.733 Y179.647 E17.00039
G1 X62.435 Y179.205 E17.02699
G1 X62.12 Y178.696 E17.05685
G1 X61.932 Y178.361 E17.07602
G1 X61.658 Y177.828 E17.10592
G1 X61.556 Y177.617 E17.11761
G1 X60.372 Y175.106 E17.25611
G1 X59.153 Y172.7 E17.39067
G1 X57.694 Y170.02 E17.54291
G1 X56.597 Y168.076 E17.65427
G1 X56.381 Y167.624 E17.67926
G1 X56.166 Y167.053 E17.7097
G1 X56.096 Y166.833 E17.72122
G1 X55.894 Y166.121 E17.75815
G1 X55.787 Y165.599 E17.78473
G1 X55.712 Y165.011 E17.8143
G1 X55.666 Y164.541 E17.83786
G1 X55.599 Y163.598 E17.88503
G1 X55.549 Y162.732 E17.92831
G1 X55.317 Y160.008 E18.0647
G1 X55.007 Y157.295 E18.20093
G1 X54.621 Y154.594 E18.33705
G1 X54.16 Y151.913 E18.47277
G1 X53.824 Y150.29 E18.55546
G1 X53.8 Y150.105 E18.56477
G1 X53.607 Y149.143 E18.61372
G1 X53.502 Y148.548 E18.64386
G1 X53.423 Y147.961 E18.67341
G1 X53.364 Y147.284 E18.70732
G1 X53.341 Y146.623 E18.74031
G1 X53.345 Y146.119 E18.76546
G1 X53.363 Y145.652 E18.78877
G1 X53.49 Y143.492 E18.89672
G1 X53.572 Y140.801 E19.03104
G1 X53.579 Y138.067 E19.16744
G1 X53.508 Y135.34 E19.30354
G1 X53.36 Y132.611 E19.43989
G1 X53.136 Y129.902 E19.5755
G1 X52.757 Y126.588 E19.74192
G1 X52.684 Y126.039 E19.76955
G1 X52.656 Y125.414 E19.80076
G1 X52.679 Y124.9 E19.82643
G1 X52.7 Y124.626 E19.84014
G1 X52.773 Y123.907 E19.87619
G1 X52.939 Y122.458 E19.94896
G1 X53.173 Y119.734 E20.08536
G1 X53.329 Y117.01 E20.22148
G1 X53.408 Y114.312 E20.35614
G1 X53.41 Y111.582 E20.49234
G1 X53.335 Y108.821 E20.63014
G1 X53.184 Y106.126 E20.76481
G1 X52.958 Y103.434 E20.89958
G1 X52.79 Y101.857 E20.97871
G1 X52.674 Y100.848 E21.02938
G1 X52.653 Y100.216 E21.06092
G1 X52.672 Y99.773 E21.08305
G1 X52.761 Y99.138 E21.11504
G1 X52.914 Y98.545 E21.14559
G1 X53.136 Y97.957 E21.17695
G1 X54.499 Y95.121 E21.33393
G1 X54.767 Y94.657 E21.36066
G1 X55.101 Y94.237 E21.38743
G1 X55.633 Y93.766 E21.42288
G1 X55.68 Y93.732 E21.42577
G1 X56.137 Y93.451 E21.45254
G0 F2160 X56.346 Y93.793
G1 F900 X56.939 Y93.555 E21.48442
G1 X59.515 Y92.601 E21.62147
G1 X62.056 Y91.577 E21.75814
G1 X64.542 Y90.494 E21.89343
G1 X67.052 Y89.313 E22.03182
G1 X69.473 Y88.09 E22.16714
G1 X71.882 Y86.788 E22.30376
G1 X74.284 Y85.398 E22.44221
G1 X76.579 Y83.981 E22.57678
G1 X78.874 Y82.476 E22.7137
G1 X81.139 Y80.893 E22.85156
G1 X83.314 Y79.284 E22.98654
G1 X85.463 Y77.596 E23.12287
G1 X87.598 Y75.819 E23.26146
G1 X89.617 Y74.039 E23.39574
G1 X91.65 Y72.145 E23.53436
G1 X93.557 Y70.26 E23.66814
G1 X95.485 Y68.248 E23.80717
G1 X97.313 Y66.228 E23.94308
G1 X99.099 Y64.137 E24.08028
G1 X100.813 Y62.013 E24.21644
G1 X102.464 Y59.841 E24.35256
G1 X104.081 Y57.588 E24.49091
G1 X105.583 Y55.363 E24.62484
G1 X107.071 Y53.019 E24.76336
G1 X108.46 Y50.688 E24.89873
G1 X109.802 Y48.282 E25.03618
G1 X110.546 Y46.845 E25.11691
G1 X111.053 Y45.891 E25.17081
G1 X111.325 Y45.465 E25.19603
G1 X111.661 Y45.087 E25.22126
G1 X112.051 Y44.766 E25.24646
G1 X112.488 Y44.511 E25.2717
G1 X112.959 Y44.328 E25.29691
G1 X113.453 Y44.221 E25.32213
G1 X113.958 Y44.194 E25.34736
G1 X114.461 Y44.246 E25.37259
G1 X114.949 Y44.377 E25.3978
G1 X115.411 Y44.584 E25.42305
G1 X115.834 Y44.86 E25.44825
G1 X116.209 Y45.2 E25.4735
G1 X116.525 Y45.594 E25.4987
G1 X116.752 Y45.977 E25.52091
G1 X118.136 Y48.408 E25.66048
G1 X119.541 Y50.716 E25.79528
G1 X121.055 Y53.056 E25.93433
G1 X122.595 Y55.294 E26.06986
G1 X124.195 Y57.484 E26.20518
G1 X125.886 Y59.665 E26.34286
G1 X127.619 Y61.775 E26.47908
G1 X129.418 Y63.842 E26.61579
G1 X131.283 Y65.869 E26.75321
G1 X133.171 Y67.809 E26.88827
G1 X135.137 Y69.714 E27.02485
G1 X137.176 Y71.584 E27.16288
G1 X139.238 Y73.368 E27.29891
G1 X141.364 Y75.106 E27.43591
G1 X143.517 Y76.766 E27.57154
G1 X145.735 Y78.378 E27.70833
G1 X148.002 Y79.931 E27.84543
G1 X150.311 Y81.418 E27.98245
G1 X152.624 Y82.816 E28.11728
G1 X155.046 Y84.188 E28.25616
G1 X157.431 Y85.452 E28.39082
G1 X159.902 Y86.673 E28.52833
G1 X162.409 Y87.825 E28.66598
G1 X164.886 Y88.879 E28.80028
G1 X167.474 Y89.895 E28.93899
G1 X170.019 Y90.812 E29.07395
G1 X172.63 Y91.67 E29.21107
G1 X175.257 Y92.453 E29.34783
G1 X178.464 Y93.298 E29.51328
G1 X179.51 Y93.555 E29.56702
G1 X179.989 Y93.714 E29.5922
G1 X180.438 Y93.947 E29.61744
G1 X180.845 Y94.248 E29.64269
G1 X181.199 Y94.608 E29.66788
G1 X181.492 Y95.02 E29.6931
G1 X181.717 Y95.473 E29.71834
G1 X181.867 Y95.956 E29.74357
G1 X181.945 Y96.574 E29.77465
G1 X181.955 Y96.985 E29.79516
G1 X181.955 Y98.573 E29.87438
G1 X181.957 Y98.756 E29.88351
G1 X181.955 Y99.845 E29.93785
G1 X181.948 Y100.043 E29.94773
G1 X181.908 Y100.668 E29.97898
G1 X181.827 Y101.21 E30.00632
G1 X181.703 Y101.67 E30.03008
G1 X181.499 Y102.195 E30.05818
G1 X181.025 Y103.154 E30.11155
G1 X180.251 Y104.645 E30.19537
G1 X179.058 Y107.113 E30.33213
G1 X177.932 Y109.619 E30.46919
G1 X176.897 Y112.108 E30.60368
G1 X175.893 Y114.723 E30.74343
G1 X175.382 Y116.159 E30.81947
G1 X175.077 Y117.034 E30.8657
G1 X174.809 Y117.682 E30.90068
G1 X173.741 Y120.179 E31.03618
G1 X172.711 Y122.784 E31.17593
G1 X171.801 Y125.306 E31.30969
G1 X170.933 Y127.935 E31.44782
G1 X170.151 Y130.543 E31.58366
G1 X170.025 Y131.011 E31.60784
G1 X169.878 Y131.514 E31.63398
G1 X169.844 Y131.622 E31.63963
G1 X169.574 Y132.437 E31.68246
G1 X169.231 Y133.195 E31.72397
G1 X168.854 Y133.862 E31.76219
G1 X167.245 Y136.242 E31.90552
G1 X165.778 Y138.55 E32.04196
G1 X164.375 Y140.901 E32.17855
G1 X163.052 Y143.268 E32.31383
G1 X161.769 Y145.726 E32.45217
G1 X160.576 Y148.176 E32.58812
G1 X159.443 Y150.681 E32.72528
G1 X158.385 Y153.206 E32.86186
G1 X157.404 Y155.757 E32.99822
G1 X156.243 Y159.112 E33.17534
G1 X156.083 Y159.543 E33.19828
G1 X155.79 Y160.231 E33.23559
G1 X155.607 Y160.595 E33.25591
G1 X155.307 Y161.107 E33.28552
G1 X154.844 Y161.756 E33.32529
G1 X154.451 Y162.211 E33.35529
G1 X153.928 Y162.723 E33.3918
G1 X153.405 Y163.172 E33.42619
G1 X152.897 Y163.522 E33.45697
G1 X152.36 Y163.842 E33.48815
G1 X152.084 Y163.989 E33.50376
G1 X151.563 Y164.234 E33.53248
G1 X151.289 Y164.347 E33.54727
G1 X150.708 Y164.557 E33.57809
G1 X150.416 Y164.647 E33.59333
G1 X149.723 Y164.825 E33.62903
G1 X149.13 Y164.943 E33.65919
G1 X148.262 Y165.066 E33.70293
G1 X147.059 Y165.213 E33.76339
G1 X144.322 Y165.628 E33.9015
G1 X141.645 Y166.111 E34.03722
G1 X138.992 Y166.667 E34.17245
G1 X136.28 Y167.317 E34.31158
G1 X133.673 Y168.021 E34.44631
G1 X131.027 Y168.815 E34.58413
G1 X128.43 Y169.676 E34.72063
G1 X125.878 Y170.602 E34.85607
G1 X123.29 Y171.625 E34.99491
G1 X120.797 Y172.693 E35.13022
G1 X118.339 Y173.831 E35.26536
G1 X115.84 Y175.072 E35.40456
G1 X113.474 Y176.334 E35.53834
G1 X111.054 Y177.713 E35.6773
G1 X108.746 Y179.116 E35.81205
G1 X106.399 Y180.635 E35.95153
G1 X104.193 Y182.154 E36.08516
G1 X101.941 Y183.8 E36.22432
G1 X99.802 Y185.459 E36.35937
G1 X98.445 Y186.56 E36.44655
G1 X97.938 Y186.942 E36.47822
G1 X97.41 Y187.306 E36.51022
G1 X96.87 Y187.646 E36.54205
G1 X96.419 Y187.902 E36.56793
G1 X96.26 Y187.984 E36.57685
G1 X95.794 Y188.212 E36.60273
G1 X95.607 Y188.297 E36.61298
G1 X95.129 Y188.494 E36.63878
G1 X94.927 Y188.569 E36.64953
G1 X94.268 Y188.79 E36.6842
G1 X93.644 Y188.952 E36.71637
G1 X92.99 Y189.073 E36.74955
G1 X92.777 Y189.105 E36.76029
G1 X92.225 Y189.169 E36.78802
G1 X91.621 Y189.206 E36.81821
G1 X91.403 Y189.209 E36.82908
G1 X90.621 Y189.195 E36.86811
G1 X89.984 Y189.148 E36.89997
G1 X89.426 Y189.075 E36.92805
G1 X89.055 Y189.012 E36.94682
G1 X88.232 Y188.842 E36.98875
G1 X86.508 Y188.457 E37.07688
G1 X83.833 Y187.938 E37.21282
G1 X81.148 Y187.495 E37.34859
G1 X78.378 Y187.119 E37.48805
G1 X77.745 Y187.038 E37.51989
G1 X77.523 Y187 E37.53113
G1 X77.028 Y186.874 E37.55661
G1 X76.464 Y186.669 E37.58655
G1 X75.529 Y186.284 E37.637
G1 X72.954 Y185.264 E37.77517
G1 X70.341 Y184.311 E37.91394
G1 X70.142 Y184.245 E37.9244
G1 X68.612 Y183.694 E38.00553
G1 X68.05 Y183.463 E38.03584
G1 X67.938 Y183.412 E38.04198
G1 X67.471 Y183.187 E38.06784
G1 X67.073 Y182.978 E38.09027
G1 X66.581 Y182.693 E38.11864
G1 X65.811 Y182.184 E38.16469
G1 X65.407 Y181.88 E38.18991
G1 X64.979 Y181.53 E38.2175
G1 X64.598 Y181.185 E38.24314
G1 X64.166 Y180.759 E38.27341
G1 X63.68 Y180.217 E38.30973
G1 X63.365 Y179.827 E38.33474
G1 X63.055 Y179.41 E38.36066
G1 X62.774 Y178.994 E38.38571
G1 X62.467 Y178.497 E38.41485
G1 X62.287 Y178.177 E38.43317
G1 X62.018 Y177.654 E38.46251
G1 X61.918 Y177.446 E38.47403
G1 X60.739 Y174.947 E38.61188
G1 X59.503 Y172.508 E38.7483
G1 X58.045 Y169.829 E38.90046
G1 X56.945 Y167.88 E39.01212
G1 X56.642 Y167.192 E39.04962
G1 X56.48 Y166.723 E39.07438
G1 X56.278 Y166.011 E39.1113
G1 X56.12 Y165.06 E39.1594
G1 X56.065 Y164.513 E39.18683
