;FLAVOR:Marlin
;TIME:5538
;Filament used: 4.24479m, 0m
;Layer height: 0.18
;MINX:22.53
;MINY:53.686
;MINZ:0.3
;MAXX:158.583
;MAXY:196.174
;MAXZ:1.56
;POSTPROCESSED
;Generated with Cura_SteamEngine 4.8.0
T0
M140 S60
M105
M190 S60
M104 S200
M105
M109 S200
M82 ;absolute extrusion mode
M201 X500.00 Y500.00 Z100.00 E5000.00 	;Setup machine max acceleration
M203 X500.00 Y500.00 Z10.00 E50.00 	;Setup machine max feedrate
M204 P500.00 R1000.00 T500.00 		;Setup Print/Retract/Travel acceleration
M205 X8.00 Y8.00 Z0.40 E5.00 		;Setup Jerk
M220 S100 				;Reset Feedrate
M221 S100 				;Reset Flowrate
G28				;Home the Machine
#G29 				;Bed Level
G92 E0
M300 P150 S587
G92 E0
G1 F1500 E-6.5
;LAYER_COUNT:8
;LAYER:0
M107
G0 F2160 X74.934 Y62.787 Z0.3
;TYPE:SKIRT
G1 F1500 E0
G1 F900 X75.036 Y62.668 E0.00782
G1 X75.623 Y61.999 E0.05222
G1 X75.854 Y61.748 E0.06924
G1 X76.501 Y61.083 E0.11553
G1 X76.665 Y60.924 E0.12693
G1 X77.36 Y60.274 E0.1744
G1 X77.587 Y60.074 E0.18949
G1 X78.229 Y59.531 E0.23144
G1 X78.377 Y59.413 E0.24089
G1 X79.432 Y58.612 E0.30697
G1 X79.848 Y58.315 E0.33247
G1 X80.212 Y58.07 E0.35436
G1 X80.82 Y57.683 E0.39032
G1 X81.416 Y57.324 E0.42503
G1 X81.815 Y57.098 E0.44791
G1 X82.441 Y56.76 E0.4834
G1 X82.923 Y56.517 E0.51033
G1 X83.638 Y56.178 E0.54981
G1 X84.044 Y55.998 E0.57197
G1 X84.653 Y55.744 E0.60489
G1 X85.227 Y55.521 E0.63561
G1 X85.84 Y55.301 E0.6681
G1 X86.526 Y55.075 E0.70414
G1 X87.079 Y54.907 E0.73297
G1 X87.724 Y54.729 E0.76635
G1 X88.331 Y54.579 E0.79755
G1 X89.086 Y54.41 E0.83615
G1 X89.639 Y54.302 E0.86426
G1 X90.352 Y54.18 E0.90035
G1 X90.93 Y54.096 E0.92949
G1 X91.756 Y53.996 E0.971
G1 X92.237 Y53.949 E0.99511
G1 X93.101 Y53.886 E1.03833
G1 X93.71 Y53.856 E1.06875
G1 X94.349 Y53.841 E1.10064
G1 X95.138 Y53.84 E1.14
G1 X95.826 Y53.856 E1.17433
G1 X96.456 Y53.886 E1.2058
G1 X97.362 Y53.955 E1.25113
G1 X98.104 Y54.033 E1.28835
G1 X99.991 Y54.287 E1.38335
G1 X100.774 Y54.402 E1.42283
G1 X103.456 Y54.719 E1.55757
G1 X106.214 Y54.967 E1.69572
G1 X108.902 Y55.131 E1.83007
G1 X111.63 Y55.221 E1.96625
G1 X114.361 Y55.233 E2.1025
G1 X117.091 Y55.168 E2.23874
G1 X119.817 Y55.026 E2.37492
G1 X122.508 Y54.81 E2.50961
G1 X125.223 Y54.514 E2.64586
G1 X127.698 Y54.164 E2.77057
G1 X127.787 Y54.158 E2.77502
G1 X129.63 Y53.895 E2.8679
G1 X130.448 Y53.804 E2.90896
G1 X131.107 Y53.751 E2.94194
G1 X131.99 Y53.704 E2.98606
G1 X132.596 Y53.688 E3.0163
G1 X133.262 Y53.686 E3.04953
G1 X134.01 Y53.701 E3.08686
G1 X134.658 Y53.73 E3.11922
G1 X135.376 Y53.779 E3.15512
G1 X136.053 Y53.842 E3.18904
G1 X136.761 Y53.926 E3.22461
G1 X137.308 Y54.004 E3.25218
G1 X138.033 Y54.125 E3.28885
G1 X138.779 Y54.268 E3.32675
G1 X139.215 Y54.365 E3.34903
G1 X140.073 Y54.573 E3.39308
G1 X140.525 Y54.697 E3.41646
G1 X141.252 Y54.913 E3.4543
G1 X141.79 Y55.09 E3.48255
G1 X142.433 Y55.317 E3.51657
G1 X143.039 Y55.548 E3.54893
G1 X143.545 Y55.756 E3.57622
G1 X144.221 Y56.053 E3.61306
G1 X144.685 Y56.271 E3.63864
G1 X145.357 Y56.607 E3.67612
G1 X145.783 Y56.834 E3.7002
G1 X146.312 Y57.13 E3.73044
G1 X146.899 Y57.481 E3.76457
G1 X147.453 Y57.832 E3.79729
G1 X147.915 Y58.14 E3.82499
G1 X148.25 Y58.378 E3.84549
G1 X149.183 Y59.077 E3.90365
G1 X149.693 Y59.484 E3.9362
G1 X150.019 Y59.757 E3.95742
G1 X150.665 Y60.33 E4.0005
G1 X150.895 Y60.545 E4.01621
G1 X151.544 Y61.18 E4.06151
G1 X151.761 Y61.405 E4.0771
G1 X152.368 Y62.06 E4.12165
G1 X152.548 Y62.266 E4.1353
G1 X153.091 Y62.911 E4.17737
G1 X153.315 Y63.191 E4.19526
G1 X153.884 Y63.942 E4.24226
G1 X153.985 Y64.083 E4.25092
G1 X154.522 Y64.862 E4.29812
G1 X154.655 Y65.065 E4.31023
G1 X155.146 Y65.858 E4.35676
G1 X155.282 Y66.091 E4.37022
G1 X155.748 Y66.931 E4.41814
G1 X155.837 Y67.103 E4.42781
G1 X156.257 Y67.954 E4.47515
G1 X156.36 Y68.174 E4.48727
G1 X156.715 Y68.99 E4.53167
G1 X156.826 Y69.262 E4.54632
G1 X157.122 Y70.039 E4.58781
G1 X157.232 Y70.352 E4.60436
G1 X157.537 Y71.289 E4.65352
G1 X157.589 Y71.469 E4.66287
G1 X157.836 Y72.367 E4.70933
G1 X157.898 Y72.625 E4.72257
G1 X158.096 Y73.514 E4.76801
G1 X158.15 Y73.793 E4.78219
G1 X158.3 Y74.66 E4.82608
G1 X158.342 Y74.95 E4.8407
G1 X158.453 Y75.863 E4.88659
G1 X158.48 Y76.147 E4.90082
G1 X158.546 Y77.044 E4.94569
G1 X158.559 Y77.31 E4.95898
G1 X158.583 Y78.231 E5.00494
G1 X158.583 Y78.391 E5.01293
G1 X158.565 Y79.377 E5.06213
G1 X158.559 Y79.538 E5.07017
G1 X158.505 Y80.391 E5.11281
G1 X158.488 Y80.575 E5.12203
G1 X158.34 Y81.863 E5.18671
G1 X158.321 Y82.007 E5.19395
G1 X158.175 Y82.943 E5.24122
G1 X158.15 Y83.085 E5.24841
G1 X157.951 Y84.094 E5.29972
G1 X157.922 Y84.225 E5.30641
G1 X157.7 Y85.164 E5.35455
G1 X157.666 Y85.298 E5.36145
G1 X157.411 Y86.218 E5.40908
G1 X157.377 Y86.332 E5.41501
G1 X157.095 Y87.232 E5.46207
G1 X157.057 Y87.347 E5.46811
G1 X156.675 Y88.432 E5.5255
G1 X156.312 Y89.367 E5.57553
G1 X155.859 Y90.437 E5.6335
G1 X155.491 Y91.244 E5.67775
G1 X154.984 Y92.284 E5.73548
G1 X154.521 Y93.177 E5.78566
G1 X154.007 Y94.112 E5.83889
G1 X153.445 Y95.079 E5.89469
G1 X152.891 Y95.983 E5.94759
G1 X152.336 Y96.85 E5.99895
G1 X151.724 Y97.766 E6.05391
G1 X151.107 Y98.65 E6.10769
G1 X150.689 Y99.231 E6.1434
G1 X150.483 Y99.513 E6.16082
G1 X149.941 Y100.239 E6.20602
G1 X149.479 Y100.841 E6.24388
G1 X148.964 Y101.498 E6.28553
G1 X148.695 Y101.835 E6.30704
G1 X148.219 Y102.421 E6.34471
G1 X147.713 Y103.031 E6.38425
G1 X146.961 Y103.917 E6.44223
G1 X146.308 Y104.667 E6.49184
G1 X145.219 Y105.895 E6.57372
G1 X144.78 Y106.392 E6.60681
G1 X144.187 Y107.028 E6.65019
G1 X143.705 Y107.538 E6.6852
G1 X143.308 Y107.952 E6.71382
G1 X142.652 Y108.625 E6.7607
G1 X141.057 Y110.294 E6.87588
G1 X139.212 Y112.331 E7.013
G1 X137.423 Y114.423 E7.15032
G1 X135.731 Y116.517 E7.28464
G1 X134.074 Y118.693 E7.42109
G1 X132.473 Y120.923 E7.55805
G1 X130.969 Y123.147 E7.69199
G1 X129.488 Y125.476 E7.82969
G1 X128.091 Y127.819 E7.96579
G1 X126.761 Y130.196 E8.10168
G1 X125.511 Y132.59 E8.23641
G1 X124.306 Y135.065 E8.37375
G1 X123.189 Y137.535 E8.50899
G1 X122.116 Y140.091 E8.64729
G1 X121.147 Y142.611 E8.78199
G1 X120.25 Y145.146 E8.91615
G1 X119.398 Y147.792 E9.05483
G1 X118.642 Y150.388 E9.18973
G1 X117.952 Y153.03 E9.32596
G1 X117.49 Y155.007 E9.42725
G1 X117.312 Y155.561 E9.45628
G1 X116.279 Y158.181 E9.59678
G1 X115.351 Y160.744 E9.73277
G1 X114.495 Y163.34 E9.86915
G1 X113.72 Y165.933 E10.00417
G1 X113.007 Y168.586 E10.14122
G1 X112.372 Y171.25 E10.27786
G1 X111.817 Y173.917 E10.41376
G1 X111.562 Y175.275 E10.4827
G1 X111.513 Y175.552 E10.49673
G1 X111.316 Y176.563 E10.54812
G1 X111.273 Y176.757 E10.55803
G1 X111.049 Y177.671 E10.60498
G1 X110.986 Y177.9 E10.61683
G1 X110.713 Y178.821 E10.66476
G1 X110.638 Y179.049 E10.67673
G1 X110.329 Y179.932 E10.7234
G1 X110.25 Y180.137 E10.73436
G1 X109.902 Y180.999 E10.78074
G1 X109.795 Y181.245 E10.79413
G1 X109.411 Y182.077 E10.83984
G1 X109.307 Y182.288 E10.85158
G1 X108.873 Y183.12 E10.8984
G1 X108.761 Y183.321 E10.90987
G1 X108.279 Y184.148 E10.95763
G1 X108.142 Y184.367 E10.97052
G1 X107.652 Y185.12 E11.01534
G1 X107.51 Y185.327 E11.02786
G1 X106.93 Y186.127 E11.07716
G1 X106.836 Y186.251 E11.08492
G1 X106.304 Y186.922 E11.12764
G1 X106.059 Y187.214 E11.14666
G1 X105.482 Y187.871 E11.19029
G1 X105.272 Y188.099 E11.20575
G1 X104.655 Y188.734 E11.24992
G1 X104.433 Y188.951 E11.26541
G1 X103.755 Y189.585 E11.31172
G1 X103.537 Y189.776 E11.32618
G1 X102.894 Y190.32 E11.3682
G1 X102.747 Y190.438 E11.37761
G1 X101.643 Y191.277 E11.44678
G1 X101.377 Y191.468 E11.46312
G1 X100.783 Y191.868 E11.49885
G1 X100.314 Y192.166 E11.52657
G1 X99.787 Y192.484 E11.55728
G1 X99.265 Y192.782 E11.58727
G1 X98.664 Y193.105 E11.62131
G1 X98.074 Y193.402 E11.65426
G1 X97.644 Y193.605 E11.67798
G1 X96.98 Y193.901 E11.71425
G1 X96.382 Y194.149 E11.74655
G1 X95.846 Y194.355 E11.7752
G1 X95.185 Y194.591 E11.81022
G1 X94.686 Y194.755 E11.83642
G1 X93.965 Y194.974 E11.87402
G1 X93.356 Y195.14 E11.90551
G1 X92.71 Y195.3 E11.93871
G1 X92.083 Y195.439 E11.97075
G1 X91.46 Y195.562 E12.00243
G1 X90.931 Y195.654 E12.02922
G1 X90.067 Y195.781 E12.07279
G1 X89.485 Y195.85 E12.10203
G1 X88.75 Y195.922 E12.13887
G1 X88.083 Y195.971 E12.17224
G1 X87.477 Y196 E12.20251
G1 X86.627 Y196.021 E12.24493
G1 X85.984 Y196.021 E12.27701
G1 X85.431 Y196.008 E12.3046
G1 X84.525 Y195.966 E12.34985
G1 X83.814 Y195.912 E12.38543
G1 X83.122 Y195.84 E12.42014
G1 X83.013 Y195.827 E12.42561
G1 X79.427 Y195.341 E12.60616
G1 X76.732 Y195.05 E12.74139
G1 X73.971 Y194.829 E12.87958
G1 X71.275 Y194.69 E13.01426
G1 X68.549 Y194.627 E13.1503
G1 X65.819 Y194.642 E13.2865
G1 X63.091 Y194.732 E13.42268
G1 X60.36 Y194.902 E13.55919
G1 X57.68 Y195.143 E13.69343
G1 X54.92 Y195.472 E13.83211
G1 X53.527 Y195.675 E13.90234
G1 X51.53 Y195.96 E14.00298
G1 X50.882 Y196.034 E14.03552
G1 X49.985 Y196.111 E14.08043
G1 X49.874 Y196.119 E14.08598
G1 X49.205 Y196.153 E14.1194
G1 X48.5 Y196.173 E14.15459
G1 X47.787 Y196.174 E14.19016
G1 X47.219 Y196.163 E14.21851
G1 X46.367 Y196.125 E14.26105
G1 X45.776 Y196.084 E14.29061
G1 X45.018 Y196.014 E14.32859
G1 X44.426 Y195.944 E14.35833
G1 X43.736 Y195.846 E14.3931
G1 X43.078 Y195.736 E14.42638
G1 X42.426 Y195.611 E14.4595
G1 X41.834 Y195.483 E14.48972
G1 X41.215 Y195.331 E14.52152
G1 X40.484 Y195.134 E14.55929
G1 X39.906 Y194.961 E14.58939
G1 X39.283 Y194.759 E14.62207
G1 X38.708 Y194.555 E14.6525
G1 X38.126 Y194.333 E14.68358
G1 X37.475 Y194.066 E14.71869
G1 X36.99 Y193.852 E14.74513
G1 X36.314 Y193.534 E14.7824
G1 X35.83 Y193.292 E14.8094
G1 X35.234 Y192.974 E14.8431
G1 X34.763 Y192.707 E14.87011
G1 X34.211 Y192.377 E14.9022
G1 X33.636 Y192.012 E14.93618
G1 X32.965 Y191.555 E14.97668
G1 X31.915 Y190.771 E15.04206
G1 X31.819 Y190.697 E15.0481
G1 X31.346 Y190.316 E15.07841
G1 X31.089 Y190.099 E15.09519
G1 X30.448 Y189.531 E15.13792
G1 X30.217 Y189.315 E15.15369
G1 X29.62 Y188.732 E15.19532
G1 X29.393 Y188.497 E15.21163
G1 X28.753 Y187.809 E15.2585
G1 X28.548 Y187.575 E15.27403
G1 X27.988 Y186.908 E15.31748
G1 X27.824 Y186.703 E15.33057
G1 X27.258 Y185.958 E15.37725
G1 X27.087 Y185.72 E15.39187
G1 X26.585 Y184.99 E15.43607
G1 X26.447 Y184.776 E15.44878
G1 X25.939 Y183.954 E15.49699
G1 X25.827 Y183.761 E15.50812
G1 X25.387 Y182.971 E15.55323
G1 X25.261 Y182.728 E15.56689
G1 X24.861 Y181.919 E15.61191
G1 X24.74 Y181.653 E15.62649
G1 X24.382 Y180.829 E15.67131
G1 X24.289 Y180.6 E15.68365
G1 X23.966 Y179.752 E15.72892
G1 X23.881 Y179.51 E15.74171
G1 X23.609 Y178.676 E15.78548
G1 X23.518 Y178.372 E15.80131
G1 X23.279 Y177.496 E15.84661
G1 X23.216 Y177.235 E15.86001
G1 X23.006 Y176.291 E15.90826
G1 X22.963 Y176.068 E15.91959
G1 X22.817 Y175.224 E15.96232
G1 X22.773 Y174.923 E15.97749
G1 X22.667 Y174.066 E16.02058
G1 X22.634 Y173.731 E16.03737
G1 X22.567 Y172.816 E16.08314
G1 X22.554 Y172.555 E16.09618
G1 X22.53 Y171.682 E16.13975
G1 X22.53 Y171.514 E16.14813
G1 X22.55 Y170.467 E16.20038
G1 X22.556 Y170.307 E16.20836
G1 X22.61 Y169.461 E16.25066
G1 X22.626 Y169.283 E16.25957
G1 X22.766 Y168.053 E16.32134
G1 X22.786 Y167.905 E16.32879
G1 X22.95 Y166.853 E16.3819
G1 X22.975 Y166.71 E16.38915
G1 X23.159 Y165.779 E16.43649
G1 X23.188 Y165.648 E16.44319
G1 X23.411 Y164.706 E16.49148
G1 X23.445 Y164.574 E16.49828
G1 X23.727 Y163.561 E16.55074
G1 X24.037 Y162.574 E16.60236
G1 X24.381 Y161.587 E16.6545
G1 X24.421 Y161.477 E16.66034
G1 X24.785 Y160.535 E16.71073
G1 X25.187 Y159.58 E16.76242
G1 X25.227 Y159.488 E16.76743
G1 X25.658 Y158.542 E16.81929
G1 X26.088 Y157.66 E16.86824
G1 X26.661 Y156.558 E16.93021
G1 X27.161 Y155.654 E16.98175
G1 X27.666 Y154.789 E17.03172
G1 X28.267 Y153.806 E17.0892
G1 X28.836 Y152.921 E17.14169
G1 X29.296 Y152.232 E17.18303
G1 X29.898 Y151.362 E17.23581
G1 X30.424 Y150.63 E17.28078
G1 X30.587 Y150.406 E17.2946
G1 X31.176 Y149.618 E17.34368
G1 X31.792 Y148.816 E17.39413
G1 X32.397 Y148.053 E17.44271
G1 X33.061 Y147.238 E17.49516
G1 X33.692 Y146.485 E17.54417
G1 X34.33 Y145.739 E17.59315
G1 X34.847 Y145.146 E17.6324
G1 X35.378 Y144.547 E17.67233
G1 X35.933 Y143.91 E17.71448
G1 X36.394 Y143.401 E17.74875
G1 X37.365 Y142.368 E17.81948
G1 X37.787 Y141.928 E17.84989
G1 X38.426 Y141.271 E17.89562
G1 X40.074 Y139.547 E18.0146
G1 X41.902 Y137.53 E18.15041
G1 X43.691 Y135.438 E18.28774
G1 X45.383 Y133.344 E18.42205
G1 X47.04 Y131.168 E18.5585
G1 X48.641 Y128.938 E18.69546
G1 X50.145 Y126.714 E18.82941
G1 X51.626 Y124.385 E18.9671
G1 X53.023 Y122.042 E19.1032
G1 X54.353 Y119.665 E19.23909
G1 X55.603 Y117.271 E19.37383
G1 X56.808 Y114.796 E19.51116
G1 X57.925 Y112.326 E19.64641
G1 X58.998 Y109.77 E19.78471
G1 X59.967 Y107.25 E19.9194
G1 X60.867 Y104.707 E20.05399
G1 X61.716 Y102.069 E20.19224
G1 X62.472 Y99.473 E20.32714
G1 X63.159 Y96.839 E20.46295
G1 X63.626 Y94.847 E20.56502
G1 X63.782 Y94.348 E20.59111
G1 X64.848 Y91.642 E20.73621
G1 X65.784 Y89.052 E20.8736
G1 X66.634 Y86.471 E21.00917
G1 X67.413 Y83.863 E21.14496
G1 X68.116 Y81.237 E21.28059
G1 X68.74 Y78.613 E21.41515
G1 X69.567 Y74.494 E21.62475
G1 X69.785 Y73.362 E21.68226
G1 X69.854 Y73.052 E21.69811
G1 X70.077 Y72.143 E21.7448
G1 X70.131 Y71.947 E21.75495
G1 X70.403 Y71.03 E21.80267
G1 X70.468 Y70.834 E21.81297
G1 X70.777 Y69.947 E21.85983
G1 X70.882 Y69.671 E21.87456
G1 X71.2 Y68.89 E21.91663
G1 X71.322 Y68.609 E21.93192
G1 X71.704 Y67.784 E21.97727
G1 X71.809 Y67.57 E21.98917
G1 X72.243 Y66.738 E22.03598
G1 X72.353 Y66.539 E22.04733
G1 X72.82 Y65.739 E22.09354
G1 X72.978 Y65.484 E22.10851
G1 X73.396 Y64.838 E22.14689
G1 X73.637 Y64.488 E22.1681
G1 X74.13 Y63.804 E22.21016
G1 X74.315 Y63.563 E22.22532
G1 X74.934 Y62.787 E22.27484
G0 F2160 X75.239 Y63.045
G1 F900 X75.336 Y62.932 E22.28227
G1 X75.919 Y62.268 E22.32635
G1 X76.141 Y62.027 E22.3427
G1 X76.782 Y61.368 E22.38857
G1 X76.938 Y61.216 E22.39943
G1 X77.626 Y60.573 E22.44642
G1 X77.845 Y60.38 E22.46098
G1 X78.487 Y59.837 E22.50293
G1 X78.619 Y59.731 E22.51137
G1 X79.674 Y58.93 E22.57746
G1 X80.358 Y58.453 E22.61906
G1 X80.958 Y58.068 E22.65463
G1 X81.545 Y57.712 E22.68888
G1 X82.005 Y57.449 E22.71532
G1 X82.623 Y57.117 E22.75032
G1 X83.095 Y56.878 E22.77671
G1 X83.8 Y56.543 E22.81565
G1 X84.198 Y56.368 E22.83734
G1 X84.883 Y56.083 E22.87436
G1 X85.446 Y55.866 E22.90446
G1 X85.966 Y55.681 E22.932
G1 X86.642 Y55.458 E22.96751
G1 X87.274 Y55.267 E23.00045
G1 X87.821 Y55.117 E23.02875
G1 X88.418 Y54.969 E23.05943
G1 X89.08 Y54.82 E23.09329
G1 X89.707 Y54.696 E23.12517
G1 X90.411 Y54.576 E23.1608
G1 X90.978 Y54.493 E23.18939
G1 X91.796 Y54.394 E23.2305
G1 X92.266 Y54.348 E23.25406
G1 X93.121 Y54.285 E23.29683
G1 X93.72 Y54.256 E23.32675
G1 X94.35 Y54.241 E23.35819
G1 X95.129 Y54.24 E23.39706
G1 X95.808 Y54.255 E23.43094
G1 X96.334 Y54.279 E23.45721
G1 X97.231 Y54.345 E23.50208
G1 X97.952 Y54.418 E23.53824
G1 X99.933 Y54.683 E23.63795
G1 X100.705 Y54.796 E23.67687
G1 X103.445 Y55.12 E23.81453
G1 X106.152 Y55.363 E23.95012
G1 X108.901 Y55.532 E24.08753
G1 X111.616 Y55.621 E24.22305
G1 X114.368 Y55.633 E24.36035
G1 X117.087 Y55.568 E24.49604
G1 X119.834 Y55.425 E24.63328
G1 X122.586 Y55.204 E24.77102
G1 X125.288 Y54.91 E24.90662
G1 X127.754 Y54.561 E25.03087
G1 X127.831 Y54.556 E25.03472
G1 X129.675 Y54.292 E25.12766
G1 X130.384 Y54.212 E25.16325
G1 X131.04 Y54.157 E25.1961
G1 X131.919 Y54.108 E25.24002
G1 X132.001 Y54.104 E25.24411
G1 X132.598 Y54.088 E25.27391
G1 X133.175 Y54.085 E25.30269
G1 X133.993 Y54.101 E25.34351
G1 X134.631 Y54.129 E25.37537
G1 X135.339 Y54.177 E25.41078
G1 X135.928 Y54.231 E25.44029
G1 X136.706 Y54.322 E25.47936
G1 X137.243 Y54.398 E25.50642
G1 X137.958 Y54.518 E25.54259
G1 X138.693 Y54.659 E25.57993
G1 X139.122 Y54.754 E25.60185
G1 X139.968 Y54.959 E25.64528
