;FLAVOR:Marlin
;TIME:4107
;Filament used: 3.14623m, 0m
;Layer height: 0.18
;MINX:35.4
;MINY:50.395
;MINZ:0.3
;MAXX:204.98
;MAXY:172.429
;MAXZ:1.56
;POSTPROCESSED
;Generated with Cura_SteamEngine 4.8.0
T0
M140 S60
M105
M190 S60
M104 S200
M105
M109 S200
M82 ;absolute extrusion mode
M201 X500.00 Y500.00 Z100.00 E5000.00 	;Setup machine max acceleration
M203 X500.00 Y500.00 Z10.00 E50.00 	;Setup machine max feedrate
M204 P500.00 R1000.00 T500.00 		;Setup Print/Retract/Travel acceleration
M205 X8.00 Y8.00 Z0.40 E5.00 		;Setup Jerk
M220 S100 				;Reset Feedrate
M221 S100 				;Reset Flowrate
G28				;Home the Machine
#G29 				;Bed Level
G92 E0
M300 P150 S587
G92 E0
G1 F1500 E-6.5
;LAYER_COUNT:8
;LAYER:0
M107
G0 F2160 X42.88 Y52.412 Z0.3
;TYPE:SKIRT
G1 F1500 E0
G1 F900 X43.354 Y52.03 E0.03037
G1 X43.836 Y51.705 E0.05937
G1 X44.491 Y51.369 E0.0961
G1 X44.742 Y51.258 E0.10979
G1 X45.944 Y50.778 E0.17437
G1 X46.436 Y50.605 E0.20039
G1 X46.955 Y50.471 E0.22713
G1 X47.623 Y50.404 E0.26062
G1 X47.938 Y50.395 E0.27634
G1 X48.474 Y50.42 E0.30311
G1 X49.051 Y50.539 E0.33251
G1 X49.535 Y50.68 E0.35766
G1 X50.245 Y50.879 E0.39444
G1 X51.144 Y51.145 E0.44122
G1 X51.626 Y51.326 E0.4669
G1 X52.54 Y51.746 E0.51709
G1 X53.412 Y52.16 E0.56525
G1 X55.933 Y53.272 E0.70271
G1 X58.47 Y54.308 E0.83943
G1 X60.992 Y55.25 E0.97374
G1 X63.567 Y56.134 E1.10957
G1 X66.177 Y56.947 E1.24595
G1 X68.795 Y57.682 E1.38162
G1 X71.445 Y58.347 E1.51792
G1 X74.126 Y58.941 E1.65492
G1 X76.788 Y59.447 E1.79011
G1 X79.475 Y59.883 E1.92592
G1 X82.203 Y60.246 E2.06322
G1 X85.087 Y60.541 E2.20785
G1 X85.739 Y60.629 E2.24068
G1 X85.846 Y60.646 E2.24608
G1 X87.298 Y60.9 E2.31962
G1 X87.348 Y60.903 E2.32212
G1 X89.586 Y61.277 E2.43532
G1 X92.251 Y61.644 E2.56953
G1 X94.994 Y61.942 E2.70719
G1 X97.687 Y62.159 E2.84198
G1 X100.413 Y62.301 E2.97816
G1 X103.143 Y62.365 E3.1144
G1 X105.874 Y62.352 E3.25065
G1 X108.603 Y62.262 E3.38688
G1 X111.292 Y62.098 E3.52128
G1 X114.05 Y61.85 E3.65943
G1 X116.732 Y61.533 E3.79417
G1 X119.451 Y61.134 E3.93128
G1 X120.395 Y60.972 E3.97906
G1 X120.684 Y60.929 E3.99364
G1 X121.386 Y60.894 E4.0287
G1 X122.441 Y60.945 E4.0814
G1 X123.292 Y60.998 E4.12394
G1 X126.02 Y61.088 E4.26011
G1 X128.749 Y61.102 E4.39626
G1 X131.48 Y61.037 E4.53255
G1 X134.205 Y60.896 E4.66869
G1 X136.891 Y60.681 E4.80312
G1 X139.612 Y60.385 E4.93967
G1 X142.348 Y60.009 E5.07745
G1 X145.011 Y59.566 E5.21214
G1 X147.678 Y59.044 E5.34772
G1 X148.972 Y58.746 E5.41397
G1 X149.164 Y58.717 E5.42365
G1 X150.356 Y58.451 E5.48459
G1 X150.972 Y58.366 E5.51561
G1 X151.482 Y58.347 E5.54107
G1 X152.017 Y58.373 E5.56779
G1 X152.589 Y58.492 E5.59694
G1 X152.919 Y58.588 E5.61409
G1 X153.985 Y58.887 E5.66932
G1 X154.687 Y59.096 E5.70587
G1 X155.171 Y59.278 E5.73166
G1 X156.185 Y59.748 E5.78742
G1 X156.596 Y59.945 E5.81016
G1 X159.066 Y61.048 E5.94512
G1 X161.635 Y62.109 E6.08379
G1 X164.154 Y63.064 E6.21819
G1 X166.722 Y63.957 E6.35383
G1 X169.309 Y64.775 E6.4892
G1 X171.957 Y65.531 E6.62658
G1 X174.583 Y66.203 E6.76182
G1 X177.288 Y66.813 E6.90016
G1 X179.926 Y67.328 E7.03426
G1 X182.616 Y67.775 E7.1703
G1 X185.31 Y68.146 E7.30597
G1 X188.766 Y68.508 E7.47934
G1 X189.273 Y68.578 E7.50487
G1 X189.836 Y68.69 E7.53351
G1 X190.909 Y68.974 E7.58888
G1 X191.311 Y69.087 E7.60972
G1 X193.895 Y69.716 E7.7424
G1 X194.109 Y69.785 E7.75362
G1 X195.441 Y70.104 E7.82195
G1 X195.936 Y70.245 E7.84763
G1 X196.042 Y70.278 E7.85317
G1 X196.527 Y70.438 E7.87865
G1 X196.746 Y70.519 E7.89029
G1 X197.378 Y70.774 E7.9243
G1 X197.998 Y71.062 E7.9584
G1 X198.555 Y71.365 E7.99004
G1 X199.061 Y71.683 E8.01985
G1 X199.654 Y72.111 E8.05634
G1 X200.071 Y72.46 E8.08347
G1 X200.492 Y72.859 E8.1124
G1 X200.841 Y73.241 E8.13822
G1 X202.107 Y74.748 E8.23641
G1 X202.218 Y74.864 E8.24442
G1 X203.095 Y75.942 E8.31375
G1 X203.422 Y76.391 E8.34147
G1 X203.75 Y76.901 E8.37172
G1 X204.055 Y77.456 E8.40331
G1 X204.295 Y77.958 E8.43107
G1 X204.605 Y78.797 E8.4757
G1 X204.727 Y79.244 E8.49881
G1 X204.847 Y79.817 E8.52802
G1 X204.918 Y80.369 E8.55579
G1 X204.946 Y80.938 E8.58421
G1 X204.949 Y81.141 E8.59434
G1 X204.937 Y82.434 E8.65885
G1 X204.951 Y85.199 E8.7968
G1 X204.979 Y86.537 E8.86356
G1 X204.98 Y86.659 E8.86965
G1 X204.969 Y87.494 E8.91131
G1 X204.952 Y87.886 E8.93089
G1 X204.911 Y88.439 E8.95855
G1 X204.753 Y90.212 E9.04736
G1 X204.592 Y92.897 E9.18155
G1 X204.504 Y95.628 E9.31788
G1 X204.503 Y96.086 E9.34073
G1 X204.478 Y97.717 E9.42211
G1 X204.446 Y98.29 E9.45074
G1 X204.328 Y99.048 E9.48901
G1 X204.245 Y99.409 E9.50749
G1 X204.094 Y99.889 E9.53259
G1 X203.838 Y100.521 E9.56661
G1 X202.687 Y103.131 E9.70893
G1 X201.671 Y105.623 E9.84319
G1 X200.717 Y108.164 E9.9786
G1 X199.833 Y110.741 E10.11452
G1 X199.007 Y113.388 E10.25286
G1 X198.284 Y115.958 E10.38606
G1 X197.605 Y118.663 E10.5252
G1 X197.026 Y121.291 E10.65945
G1 X196.515 Y123.961 E10.79508
G1 X196.071 Y126.696 E10.93331
G1 X195.715 Y129.367 E11.06775
G1 X195.433 Y132.053 E11.20249
G1 X195.223 Y134.822 E11.34103
G1 X195.12 Y136.794 E11.43955
G1 X195.105 Y137.178 E11.45872
G1 X195.049 Y138.342 E11.51686
G1 X195.004 Y139.137 E11.55659
G1 X194.954 Y139.822 E11.59085
G1 X194.876 Y140.353 E11.61763
G1 X194.719 Y140.865 E11.64435
G1 X194.488 Y141.349 E11.6711
G1 X194.187 Y141.794 E11.69791
G1 X193.694 Y142.304 E11.73329
G1 X193.441 Y142.519 E11.74986
G1 X191.736 Y143.93 E11.86027
G1 X189.686 Y145.728 E11.99631
G1 X187.705 Y147.565 E12.1311
G1 X185.746 Y149.491 E12.26816
G1 X183.855 Y151.456 E12.40421
G1 X182.024 Y153.469 E12.53997
G1 X180.239 Y155.548 E12.67668
G1 X178.549 Y157.633 E12.81058
G1 X176.873 Y159.825 E12.94824
G1 X175.284 Y162.028 E13.08376
G1 X173.738 Y164.305 E13.22107
G1 X171.757 Y167.443 E13.40621
G1 X171.33 Y168.149 E13.44737
G1 X171.019 Y168.586 E13.47413
G1 X170.647 Y168.972 E13.50088
G1 X170.221 Y169.298 E13.52764
G1 X169.752 Y169.558 E13.55439
G1 X169.249 Y169.745 E13.58117
G1 X168.724 Y169.855 E13.60793
G1 X168.078 Y169.882 E13.64018
G1 X167.024 Y169.831 E13.69283
G1 X166.173 Y169.778 E13.73537
G1 X163.445 Y169.688 E13.87154
G1 X160.716 Y169.674 E14.0077
G1 X157.986 Y169.739 E14.14393
G1 X155.259 Y169.88 E14.28017
G1 X152.57 Y170.095 E14.41475
G1 X149.821 Y170.395 E14.55271
G1 X147.151 Y170.761 E14.68716
G1 X144.439 Y171.213 E14.82433
G1 X141.82 Y171.723 E14.95745
G1 X140.497 Y172.03 E15.02521
G1 X140.286 Y172.063 E15.03586
G1 X139.109 Y172.325 E15.09602
G1 X138.493 Y172.41 E15.12704
G1 X137.982 Y172.429 E15.15256
G1 X137.446 Y172.403 E15.17933
G1 X136.877 Y172.285 E15.20832
G1 X136.64 Y172.216 E15.22063
G1 X135.608 Y171.928 E15.27409
G1 X134.781 Y171.682 E15.31713
G1 X134.305 Y171.503 E15.34251
G1 X133.437 Y171.104 E15.39017
G1 X132.679 Y170.741 E15.4321
G1 X130.198 Y169.642 E15.56747
G1 X127.634 Y168.589 E15.70576
G1 X125.115 Y167.641 E15.84004
G1 X122.565 Y166.759 E15.97465
G1 X119.944 Y165.937 E16.1117
G1 X117.317 Y165.193 E16.24791
G1 X114.655 Y164.519 E16.38491
G1 X112.009 Y163.928 E16.52017
G1 X109.321 Y163.409 E16.65675
G1 X106.676 Y162.974 E16.79049
G1 X103.942 Y162.604 E16.92813
G1 X100.7 Y162.268 E17.09074
G1 X100.199 Y162.199 E17.11597
G1 X98.621 Y161.924 E17.19588
G1 X98.572 Y161.921 E17.19833
G1 X96.334 Y161.547 E17.31154
G1 X93.669 Y161.18 E17.44575
G1 X90.926 Y160.882 E17.5834
G1 X88.233 Y160.665 E17.71819
G1 X85.507 Y160.523 E17.85438
G1 X82.777 Y160.459 E17.99062
G1 X80.046 Y160.472 E18.12687
G1 X77.317 Y160.562 E18.26309
G1 X74.628 Y160.726 E18.3975
G1 X71.87 Y160.974 E18.53565
G1 X69.188 Y161.291 E18.67038
G1 X66.469 Y161.69 E18.80749
G1 X65.531 Y161.851 E18.85497
G1 X65.252 Y161.893 E18.86905
G1 X64.717 Y161.933 E18.89581
G1 X64.182 Y161.893 E18.92258
G1 X63.659 Y161.774 E18.94934
G1 X63.16 Y161.579 E18.97607
G1 X62.695 Y161.312 E19.00282
G1 X62.275 Y160.979 E19.02956
G1 X61.909 Y160.587 E19.05631
G1 X61.605 Y160.145 E19.08308
G1 X61.274 Y159.454 E19.1213
G1 X60.12 Y156.965 E19.25818
G1 X58.917 Y154.55 E19.39278
G1 X57.623 Y152.125 E19.52991
G1 X56.274 Y149.763 E19.66562
G1 X54.869 Y147.458 E19.8003
G1 X53.371 Y145.145 E19.93778
G1 X51.819 Y142.896 E20.07411
G1 X50.213 Y140.702 E20.20976
G1 X48.546 Y138.555 E20.34537
G1 X46.811 Y136.445 E20.48165
G1 X45.024 Y134.394 E20.61737
G1 X43.176 Y132.39 E20.75337
G1 X41.955 Y131.124 E20.84112
G1 X41.478 Y130.562 E20.8779
G1 X41.132 Y130.095 E20.90689
G1 X41.016 Y129.927 E20.91708
G1 X40.731 Y129.489 E20.94315
G1 X40.372 Y128.872 E20.97876
G1 X40.081 Y128.281 E21.01163
G1 X39.861 Y127.76 E21.03984
G1 X39.586 Y126.982 E21.08101
G1 X39.404 Y126.317 E21.11541
G1 X39.36 Y126.112 E21.12587
G1 X39.256 Y125.537 E21.15502
G1 X39.21 Y125.181 E21.17293
G1 X39.161 Y124.565 E21.20376
G1 X39.153 Y124.144 E21.22477
G1 X39.191 Y123.132 E21.27529
G1 X39.213 Y122.718 E21.29597
G1 X39.284 Y119.981 E21.43257
G1 X39.284 Y118.91 E21.486
G1 X39.293 Y118.182 E21.52233
G1 X39.336 Y117.414 E21.5607
G1 X39.403 Y116.884 E21.58735
G1 X39.483 Y116.369 E21.61335
G1 X39.598 Y115.736 E21.64545
G1 X39.911 Y114.14 E21.72659
G1 X40.362 Y111.445 E21.86292
G1 X40.728 Y108.784 E21.99693
G1 X41.029 Y106.03 E22.13514
G1 X41.246 Y103.34 E22.26978
G1 X41.388 Y100.618 E22.40577
G1 X41.454 Y97.883 E22.54226
G1 X41.442 Y95.154 E22.67841
G1 X41.353 Y92.424 E22.81468
G1 X41.19 Y89.735 E22.94908
G1 X40.943 Y86.982 E23.08698
G1 X40.626 Y84.298 E23.22182
G1 X40.229 Y81.594 E23.35817
G1 X39.757 Y78.906 E23.49432
G1 X39.214 Y76.258 E23.62918
G1 X38.584 Y73.572 E23.76682
G1 X37.889 Y70.95 E23.90215
G1 X37.121 Y68.347 E24.03755
G1 X35.994 Y64.944 E24.2164
G1 X35.65 Y63.961 E24.26835
G1 X35.511 Y63.443 E24.29511
G1 X35.454 Y62.976 E24.31858
G1 X35.406 Y62.118 E24.36146
G1 X35.4 Y61.961 E24.36929
G1 X35.419 Y61.426 E24.396
G1 X35.518 Y60.898 E24.4228
G1 X35.694 Y60.392 E24.44953
G1 X35.943 Y59.917 E24.47629
G1 X36.175 Y59.588 E24.49637
G1 X36.698 Y58.928 E24.53839
G1 X36.964 Y58.629 E24.55835
G1 X37.931 Y57.654 E24.62686
G1 X38.29 Y57.3 E24.65201
G1 X40.17 Y55.341 E24.78747
G1 X41.471 Y53.885 E24.88489
G1 X41.586 Y53.774 E24.89286
G1 X42.436 Y52.834 E24.95609
G1 X42.88 Y52.412 E24.98665
G0 F2160 X43.143 Y52.714
G1 F900 X43.603 Y52.342 E25.01616
G1 X44.032 Y52.054 E25.04194
G1 X44.667 Y51.729 E25.07753
G1 X44.89 Y51.63 E25.0897
G1 X46.093 Y51.149 E25.15434
G1 X46.564 Y50.984 E25.17924
G1 X47.054 Y50.86 E25.20446
G1 X47.635 Y50.804 E25.23358
G1 X47.95 Y50.795 E25.2493
G1 X48.455 Y50.821 E25.27453
G1 X48.939 Y50.922 E25.29919
G1 X49.466 Y51.077 E25.3266
G1 X50.132 Y51.263 E25.3611
G1 X51.031 Y51.529 E25.40787
G1 X51.459 Y51.689 E25.43067
G1 X52.368 Y52.107 E25.48058
G1 X53.244 Y52.523 E25.52896
G1 X55.769 Y53.637 E25.66665
G1 X58.345 Y54.688 E25.80546
G1 X60.838 Y55.62 E25.93824
G1 X63.455 Y56.518 E26.07627
G1 X66.055 Y57.328 E26.21214
G1 X68.695 Y58.07 E26.34895
G1 X71.375 Y58.742 E26.4868
G1 X74.03 Y59.33 E26.62246
G1 X76.721 Y59.842 E26.75913
G1 X79.43 Y60.281 E26.89604
G1 X82.143 Y60.642 E27.03259
G1 X85.041 Y60.938 E27.17792
G1 X85.682 Y61.025 E27.21019
G1 X85.777 Y61.04 E27.21499
G1 X87.206 Y61.29 E27.28737
G1 X87.282 Y61.298 E27.29118
G1 X89.497 Y61.668 E27.40322
G1 X92.225 Y62.044 E27.54061
G1 X94.919 Y62.337 E27.6758
G1 X97.67 Y62.558 E27.81349
G1 X100.417 Y62.701 E27.95073
G1 X103.135 Y62.765 E28.08637
G1 X105.889 Y62.752 E28.22377
G1 X108.604 Y62.663 E28.35929
G1 X111.354 Y62.494 E28.49675
G1 X114.061 Y62.251 E28.63234
G1 X116.801 Y61.927 E28.76999
G1 X119.497 Y61.531 E28.90594
G1 X120.454 Y61.368 E28.95437
G1 X120.743 Y61.325 E28.96895
G1 X121.367 Y61.294 E29.00012
G1 X122.416 Y61.344 E29.05252
G1 X123.289 Y61.398 E29.09615
G1 X126.004 Y61.488 E29.23168
G1 X128.756 Y61.502 E29.36898
G1 X131.476 Y61.437 E29.50472
G1 X134.222 Y61.295 E29.6419
G1 X136.968 Y61.075 E29.77934
G1 X139.674 Y60.781 E29.91514
G1 X142.363 Y60.411 E30.05055
G1 X145.082 Y59.959 E30.18807
G1 X147.784 Y59.431 E30.32542
G1 X149.062 Y59.136 E30.39086
G1 X149.251 Y59.108 E30.40039
G1 X150.443 Y58.842 E30.46132
G1 X151.005 Y58.765 E30.48962
G1 X151.492 Y58.747 E30.51393
G1 X151.997 Y58.774 E30.53916
G1 X152.852 Y58.985 E30.5831
G1 X153.871 Y59.27 E30.63589
G1 X154.573 Y59.479 E30.67243
G1 X155.003 Y59.641 E30.69536
G1 X156.012 Y60.108 E30.75083
G1 X156.439 Y60.313 E30.77446
G1 X158.902 Y61.412 E30.90901
G1 X161.506 Y62.488 E31.04958
G1 X163.986 Y63.428 E31.1819
G1 X166.618 Y64.343 E31.32092
G1 X169.206 Y65.162 E31.45635
G1 X171.862 Y65.921 E31.59416
G1 X174.468 Y66.587 E31.72835
G1 X177.195 Y67.202 E31.86782
G1 X179.849 Y67.72 E32.00273
G1 X182.568 Y68.172 E32.14024
G1 X185.248 Y68.541 E32.27521
G1 X188.724 Y68.905 E32.44957
G1 X189.342 Y68.995 E32.48073
G1 X189.734 Y69.077 E32.50071
G1 X190.801 Y69.359 E32.55577
G1 X191.225 Y69.478 E32.57774
G1 X193.8 Y70.105 E32.70996
G1 X193.995 Y70.169 E32.7202
G1 X195.336 Y70.49 E32.78899
G1 X195.823 Y70.629 E32.81426
G1 X195.917 Y70.658 E32.81917
G1 X196.402 Y70.818 E32.84465
G1 X196.596 Y70.889 E32.85496
G1 X197.228 Y71.144 E32.88896
G1 X197.81 Y71.415 E32.92098
G1 X198.358 Y71.713 E32.95211
G1 X198.845 Y72.02 E32.98083
G1 X199.412 Y72.43 E33.01574
G1 X199.812 Y72.764 E33.04173
G1 X200.213 Y73.145 E33.06933
G1 X200.584 Y73.556 E33.09695
G1 X201.799 Y75.004 E33.19126
G1 X201.907 Y75.117 E33.19906
G1 X202.784 Y76.195 E33.26839
G1 X203.089 Y76.611 E33.29412
G1 X203.409 Y77.11 E33.3237
G1 X203.694 Y77.629 E33.35324
G1 X203.934 Y78.131 E33.381
G1 X204.226 Y78.925 E33.4232
G1 X204.335 Y79.326 E33.44393
G1 X204.455 Y79.899 E33.47314
G1 X204.543 Y80.852 E33.52089
G1 X204.549 Y81.138 E33.53516
G1 X204.537 Y82.431 E33.59967
G1 X204.551 Y85.209 E33.73827
G1 X204.58 Y86.654 E33.81037
G1 X204.569 Y87.489 E33.85204
G1 X204.553 Y87.856 E33.87036
G1 X204.512 Y88.403 E33.89773
G1 X204.357 Y90.151 E33.98528
G1 X204.191 Y92.896 E34.12248
G1 X204.104 Y95.614 E34.25815
G1 X204.103 Y96.08 E34.2814
G1 X204.078 Y97.711 E34.36278
G1 X204.047 Y98.265 E34.39046
G1 X203.936 Y98.969 E34.42602
G1 X203.722 Y99.743 E34.46608
G1 X203.469 Y100.364 E34.49954
G1 X202.327 Y102.954 E34.64076
G1 X201.297 Y105.48 E34.77685
G1 X200.344 Y108.019 E34.91215
G1 X199.445 Y110.64 E35.05039
G1 X198.626 Y113.266 E35.18763
G1 X197.901 Y115.842 E35.32114
G1 X197.212 Y118.585 E35.46224
G1 X196.636 Y121.202 E35.59593
G1 X196.119 Y123.899 E35.73293
G1 X195.681 Y126.599 E35.86939
G1 X195.32 Y129.305 E36.00559
G1 X195.032 Y132.052 E36.14339
G1 X194.825 Y134.77 E36.27939
G1 X194.72 Y136.774 E36.3795
G1 X194.705 Y137.159 E36.39873
G1 X194.649 Y138.32 E36.45672
G1 X194.606 Y139.108 E36.49609
G1 X194.556 Y139.793 E36.53035
G1 X194.479 Y140.293 E36.55559
G1 X194.325 Y140.774 E36.58079
G1 X194.097 Y141.225 E36.606
G1 X193.8 Y141.635 E36.63126
G1 X193.436 Y141.999 E36.65694
G1 X193.185 Y142.211 E36.67333
G1 X191.497 Y143.608 E36.78265
G1 X189.416 Y145.433 E36.92074
G1 X187.417 Y147.287 E37.05676
G1 X185.478 Y149.193 E37.19241
G1 X183.554 Y151.193 E37.33086
G1 X181.725 Y153.203 E37.46645
G1 X179.941 Y155.281 E37.60308
G1 X178.23 Y157.391 E37.73861
G1 X176.546 Y159.594 E37.87695
G1 X174.963 Y161.787 E38.01189
G1 X173.415 Y164.068 E38.14942
G1 X171.41 Y167.244 E38.3368
G1 X170.988 Y167.942 E38.3775
G1 X170.693 Y168.353 E38.40274
G1 X170.337 Y168.712 E38.42796
G1 X169.929 Y169.01 E38.45317
G1 X169.479 Y169.241 E38.4784
G1 X168.998 Y169.397 E38.50363
G1 X168.499 Y169.476 E38.52884
G1 X168.097 Y169.482 E38.54889
G1 X167.049 Y169.432 E38.60124
G1 X166.176 Y169.378 E38.64488
G1 X163.461 Y169.288 E38.7804
G1 X160.709 Y169.274 E38.9177
G1 X157.99 Y169.339 E39.05339
G1 X155.242 Y169.481 E39.19067
G1 X152.497 Y169.701 E39.32806
G1 X149.795 Y169.995 E39.46366
G1 X147.097 Y170.365 E39.59952
G1 X144.375 Y170.818 E39.73719
G1 X141.71 Y171.338 E39.87266
