;FLAVOR:Marlin
;TIME:4401
;Filament used: 3.82353m, 0m
;Layer height: 0.2
;MINX:33.925
;MINY:51.583
;MINZ:0.3
;MAXX:201.078
;MAXY:181.614
;MAXZ:1.7
;POSTPROCESSED
;Generated with Cura_SteamEngine 4.7.1
T0
M140 S60
M105
M190 S60
M104 S200
M105
M109 S200
M82 ;absolute extrusion mode
M201 X500.00 Y500.00 Z100.00 E5000.00 	;Setup machine max acceleration
M203 X500.00 Y500.00 Z10.00 E50.00 	;Setup machine max feedrate
M204 P500.00 R1000.00 T500.00 		;Setup Print/Retract/Travel acceleration
M205 X8.00 Y8.00 Z0.40 E5.00 		;Setup Jerk
M220 S100 				;Reset Feedrate
M221 S100 				;Reset Flowrate
G28				;Home the Machine
#G29 				;Bed Level
G92 E0
M300 P150 S587
G92 E0
G1 F1500 E-6.5
;LAYER_COUNT:8
;LAYER:0
M107
G0 F2160 X91.417 Y53.438 Z0.3
;TYPE:SKIRT
G1 F1500 E0
G1 F900 X91.711 Y52.99 E0.02673
G1 X92.068 Y52.59 E0.05348
G1 X92.481 Y52.247 E0.08027
G1 X92.94 Y51.97 E0.10701
G1 X93.435 Y51.764 E0.13376
G1 X93.955 Y51.634 E0.1605
G1 X94.489 Y51.583 E0.18727
G1 X95.025 Y51.611 E0.21404
G1 X95.55 Y51.719 E0.24078
G1 X95.913 Y51.843 E0.25992
G1 X96.48 Y52.072 E0.29043
G1 X99.053 Y53.064 E0.42801
G1 X101.612 Y53.97 E0.56344
G1 X104.206 Y54.806 E0.69941
G1 X106.799 Y55.561 E0.83415
G1 X109.49 Y56.262 E0.97288
G1 X112.091 Y56.863 E1.10607
G1 X114.778 Y57.404 E1.24281
G1 X117.474 Y57.867 E1.37929
G1 X120.175 Y58.253 E1.51541
G1 X122.889 Y58.563 E1.65169
G1 X125.609 Y58.795 E1.78788
G1 X128.305 Y58.95 E1.92261
G1 X131.066 Y59.029 E2.06041
G1 X133.76 Y59.031 E2.19482
G1 X136.529 Y58.954 E2.33302
G1 X139.217 Y58.803 E2.46733
G1 X141.937 Y58.574 E2.60352
G1 X144.657 Y58.266 E2.74008
G1 X147.351 Y57.884 E2.87583
G1 X150.03 Y57.425 E3.01144
G1 X152.696 Y56.893 E3.14707
G1 X155.362 Y56.281 E3.28353
G1 X157.975 Y55.603 E3.41821
G1 X160.627 Y54.834 E3.55597
G1 X163.242 Y53.994 E3.693
G1 X165.78 Y53.099 E3.82726
G1 X168.446 Y52.073 E3.96978
G1 X169.023 Y51.842 E4.00079
G1 X169.534 Y51.68 E4.02753
G1 X170.064 Y51.596 E4.0543
G1 X170.6 Y51.592 E4.08105
G1 X171.131 Y51.667 E4.1078
G1 X171.645 Y51.821 E4.13457
G1 X172.131 Y52.049 E4.16135
G1 X172.577 Y52.347 E4.18811
G1 X172.974 Y52.707 E4.21485
G1 X173.312 Y53.123 E4.24159
G1 X173.586 Y53.584 E4.26835
G1 X173.788 Y54.081 E4.29511
G1 X173.914 Y54.602 E4.32185
G1 X173.976 Y55.203 E4.352
G1 X174.251 Y57.947 E4.48958
G1 X174.604 Y60.688 E4.62746
G1 X175.024 Y63.349 E4.76186
G1 X175.528 Y66.045 E4.8987
G1 X176.107 Y68.722 E5.03534
G1 X176.748 Y71.33 E5.16933
G1 X177.479 Y73.975 E5.30623
G1 X178.286 Y76.603 E5.44339
G1 X179.149 Y79.153 E5.5777
G1 X180.108 Y81.746 E5.71562
G1 X181.12 Y84.258 E5.85074
G1 X182.214 Y86.768 E5.98734
G1 X183.371 Y89.231 E6.1231
G1 X184.597 Y91.658 E6.25876
G1 X185.887 Y94.042 E6.39399
G1 X187.259 Y96.417 E6.53083
G1 X188.685 Y98.729 E6.66635
G1 X190.199 Y101.039 E6.80414
G1 X191.747 Y103.257 E6.93909
G1 X193.373 Y105.452 E7.07537
G1 X195.041 Y107.577 E7.21015
G1 X196.786 Y109.674 E7.34625
G1 X196.897 Y109.801 E7.35467
G1 X197.697 Y110.737 E7.41609
G1 X198.074 Y111.228 E7.44698
G1 X198.379 Y111.673 E7.47389
G1 X198.647 Y112.133 E7.50045
G1 X198.837 Y112.53 E7.52241
G1 X199.038 Y112.99 E7.54746
G1 X199.21 Y113.477 E7.57322
G1 X199.325 Y113.906 E7.59538
G1 X199.464 Y114.503 E7.62596
G1 X199.596 Y115.193 E7.66101
G1 X199.637 Y115.505 E7.67671
G1 X199.7 Y116.24 E7.71352
G1 X199.982 Y119.025 E7.85317
G1 X200.328 Y121.701 E7.98779
G1 X200.448 Y122.456 E8.02593
G1 X200.635 Y123.741 E8.09071
G1 X200.67 Y124.121 E8.10975
G1 X200.757 Y126.385 E8.22279
G1 X200.975 Y129.557 E8.38141
G1 X201.049 Y130.437 E8.42547
G1 X201.061 Y130.651 E8.43616
G1 X201.078 Y131.341 E8.4706
G1 X201.056 Y131.912 E8.49911
G1 X200.987 Y132.485 E8.5279
G1 X200.785 Y133.349 E8.57217
G1 X200.562 Y134.021 E8.60749
G1 X200.31 Y134.603 E8.63913
G1 X200.03 Y135.132 E8.66899
G1 X199.72 Y135.619 E8.69779
G1 X199.212 Y136.27 E8.73899
G1 X198.671 Y136.853 E8.77867
G1 X198.299 Y137.189 E8.80368
G1 X198.146 Y137.32 E8.81373
G1 X196.065 Y139.156 E8.95218
G1 X194.051 Y141.034 E9.08957
G1 X192.132 Y142.931 E9.22419
G1 X190.246 Y144.902 E9.36029
G1 X188.405 Y146.938 E9.49723
G1 X186.647 Y148.998 E9.63234
G1 X184.93 Y151.127 E9.7688
G1 X183.288 Y153.287 E9.90416
G1 X181.689 Y155.518 E10.0411
G1 X180.187 Y157.744 E10.17507
G1 X178.71 Y160.073 E10.31266
G1 X176.888 Y163.165 E10.49172
G1 X176.568 Y163.731 E10.52415
G1 X176.269 Y164.216 E10.55258
G1 X175.901 Y164.746 E10.58477
G1 X175.5 Y165.266 E10.61753
G1 X175.39 Y165.397 E10.62606
G1 X175.002 Y165.839 E10.65541
G1 X174.424 Y166.434 E10.69679
G1 X173.947 Y166.861 E10.72873
G1 X173.543 Y167.198 E10.75498
G1 X173.143 Y167.503 E10.78007
G1 X172.62 Y167.861 E10.8117
G1 X171.972 Y168.251 E10.84943
G1 X171.455 Y168.537 E10.8789
G1 X170.959 Y168.792 E10.90673
G1 X170.553 Y168.987 E10.9292
G1 X169.903 Y169.278 E10.96473
G1 X169.742 Y169.345 E10.97343
G1 X169.22 Y169.549 E11.00139
G1 X168.737 Y169.72 E11.02695
G1 X168.326 Y169.844 E11.04837
G1 X167.556 Y170.052 E11.08816
G1 X167.328 Y170.106 E11.09985
G1 X166.484 Y170.276 E11.14281
G1 X165.794 Y170.383 E11.17764
G1 X163.043 Y170.798 E11.31644
G1 X160.391 Y171.274 E11.45087
G1 X157.712 Y171.834 E11.58741
G1 X155.05 Y172.47 E11.72396
G1 X152.45 Y173.169 E11.85828
G1 X149.796 Y173.965 E11.99651
G1 X147.229 Y174.813 E12.13139
G1 X144.656 Y175.745 E12.26792
G1 X142.613 Y176.56 E12.37765
G1 X142.462 Y176.608 E12.38556
G1 X141.422 Y177.027 E12.4415
G1 X141.213 Y177.103 E12.45259
G1 X140.697 Y177.275 E12.47973
G1 X140.168 Y177.408 E12.50694
G1 X139.486 Y177.525 E12.54146
G1 X138.893 Y177.599 E12.57128
G1 X138.192 Y177.628 E12.60628
G1 X137.824 Y177.629 E12.62464
G1 X135.043 Y177.666 E12.7634
G1 X132.311 Y177.781 E12.89982
G1 X129.626 Y177.97 E13.0341
G1 X126.867 Y178.242 E13.17242
G1 X124.202 Y178.581 E13.30645
G1 X121.495 Y179.005 E13.44315
G1 X117.487 Y179.776 E13.64677
G1 X116.765 Y179.934 E13.68365
G1 X115.439 Y180.229 E13.75142
G1 X114.884 Y180.32 E13.77948
G1 X114.32 Y180.377 E13.80776
G1 X113.779 Y180.395 E13.83476
G1 X112.926 Y180.374 E13.87733
G1 X111.987 Y180.232 E13.92471
G1 X111.788 Y180.193 E13.93483
G1 X111.14 Y180.046 E13.96798
G1 X109.78 Y179.718 E14.03778
G1 X107.086 Y179.146 E14.17518
G1 X104.431 Y178.661 E14.30983
G1 X101.733 Y178.248 E14.446
G1 X99.058 Y177.914 E14.58049
G1 X96.305 Y177.65 E14.71847
G1 X93.577 Y177.465 E14.85488
G1 X90.885 Y177.36 E14.98929
G1 X88.12 Y177.33 E15.12724
G1 X85.424 Y177.377 E15.26177
G1 X82.698 Y177.501 E15.39791
G1 X79.976 Y177.703 E15.53408
G1 X77.252 Y177.983 E15.6707
G1 X74.583 Y178.333 E15.805
G1 X71.849 Y178.771 E15.94314
G1 X69.208 Y179.271 E16.07724
G1 X66.499 Y179.864 E16.21559
G1 X66.489 Y179.865 E16.21609
G1 X63.893 Y180.511 E16.34955
G1 X61.744 Y181.119 E16.46098
G1 X60.803 Y181.37 E16.50957
G1 X60.191 Y181.489 E16.54067
G1 X59.511 Y181.571 E16.57484
G1 X58.848 Y181.614 E16.60799
G1 X58.09 Y181.609 E16.64581
G1 X57.993 Y181.605 E16.65065
G1 X56.654 Y181.531 E16.71755
G1 X53.937 Y181.418 E16.85322
G1 X51.207 Y181.384 E16.98943
G1 X48.822 Y181.419 E17.10843
G1 X48.65 Y181.417 E17.11702
G1 X47.895 Y181.392 E17.1547
G1 X47.202 Y181.324 E17.18944
G1 X46.32 Y181.14 E17.23439
G1 X45.702 Y180.949 E17.26667
G1 X45.558 Y180.895 E17.27434
G1 X45.086 Y180.707 E17.29969
G1 X44.622 Y180.483 E17.32539
G1 X44.114 Y180.189 E17.35467
G1 X43.593 Y179.854 E17.38558
G1 X43.097 Y179.446 E17.41762
G1 X42.708 Y179.094 E17.44379
G1 X42.19 Y178.54 E17.48163
G1 X41.811 Y178.041 E17.51289
G1 X41.399 Y177.398 E17.55099
G1 X41.083 Y176.83 E17.58342
G1 X40.791 Y176.179 E17.61902
G1 X40.612 Y175.687 E17.64514
G1 X40.442 Y175.12 E17.67467
G1 X40.316 Y174.615 E17.70063
G1 X39.621 Y171.987 E17.83625
G1 X38.971 Y169.764 E17.9518
G1 X38.798 Y169.19 E17.98171
G1 X38.595 Y168.445 E18.02024
G1 X38.566 Y168.333 E18.02601
G1 X38.118 Y166.448 E18.12267
G1 X37.82 Y165.083 E18.19237
G1 X37.64 Y164.221 E18.23631
G1 X37.257 Y162.307 E18.33369
G1 X37.082 Y161.393 E18.38012
G1 X36.752 Y159.564 E18.47284
G1 X36.572 Y158.503 E18.52653
G1 X36.533 Y158.256 E18.53901
G1 X36.054 Y155.515 E18.67783
G1 X35.619 Y153.369 E18.78707
G1 X35.614 Y153.33 E18.78903
G1 X35.381 Y152.23 E18.84513
G1 X35.223 Y151.5 E18.88239
G1 X34.723 Y149.217 E18.99899
G1 X34.49 Y148.094 E19.05621
G1 X34.166 Y146.451 E19.13976
G1 X34.064 Y145.892 E19.16811
G1 X34.032 Y145.678 E19.1789
G1 X33.969 Y145.157 E19.20508
G1 X33.927 Y144.49 E19.23843
G1 X33.925 Y144.324 E19.24671
G1 X33.932 Y143.795 E19.2731
G1 X33.98 Y143.235 E19.30114
G1 X34.062 Y142.735 E19.32642
G1 X34.187 Y142.238 E19.35199
G1 X34.418 Y141.535 E19.38891
G1 X34.661 Y140.925 E19.42167
G1 X34.977 Y140.329 E19.45532
G1 X35.266 Y139.889 E19.48159
G1 X35.662 Y139.373 E19.51404
G1 X36.13 Y138.839 E19.54946
G1 X36.557 Y138.43 E19.57896
G1 X37.038 Y138.006 E19.61095
G1 X37.13 Y137.93 E19.6169
G1 X37.943 Y137.279 E19.66887
G1 X38.034 Y137.208 E19.67462
G1 X38.589 Y136.792 E19.70923
G1 X38.697 Y136.714 E19.71587
G1 X39.554 Y136.12 E19.7679
G1 X40.038 Y135.814 E19.79646
G1 X40.135 Y135.758 E19.80205
G1 X40.97 Y135.299 E19.84959
G1 X43.317 Y133.97 E19.98415
G1 X45.705 Y132.526 E20.12338
G1 X47.963 Y131.073 E20.25734
G1 X50.217 Y129.531 E20.39359
G1 X52.436 Y127.918 E20.53045
G1 X54.598 Y126.251 E20.66665
G1 X56.686 Y124.545 E20.80117
G1 X58.766 Y122.745 E20.93841
G1 X60.756 Y120.921 E21.07308
G1 X62.741 Y118.998 E21.21097
G1 X64.617 Y117.074 E21.34503
G1 X66.496 Y115.034 E21.4834
G1 X68.253 Y113.014 E21.61697
G1 X70 Y110.887 E21.75429
G1 X71.665 Y108.74 E21.88984
G1 X73.293 Y106.511 E22.02755
G1 X74.827 Y104.283 E22.1625
G1 X76.295 Y102.017 E22.2972
G1 X77.716 Y99.679 E22.4337
G1 X79.082 Y97.282 E22.57134
G1 X80.353 Y94.897 E22.70617
G1 X81.565 Y92.462 E22.84187
G1 X82.725 Y89.953 E22.97978
G1 X83.791 Y87.463 E23.11491
G1 X84.784 Y84.954 E23.24953
G1 X85.721 Y82.373 E23.38652
G1 X86.575 Y79.796 E23.52196
G1 X87.365 Y77.167 E23.65892
G1 X88.07 Y74.55 E23.79414
G1 X88.703 Y71.915 E23.92934
G1 X89.265 Y69.237 E24.06585
G1 X89.758 Y66.511 E24.20406
G1 X90.16 Y63.852 E24.33823
G1 X90.494 Y61.129 E24.47509
G1 X90.749 Y58.409 E24.61139
G1 X90.894 Y56.307 E24.71651
G1 X90.972 Y54.972 E24.78323
G1 X91.043 Y54.44 E24.81
G1 X91.192 Y53.925 E24.83675
G1 X91.417 Y53.438 E24.86351
G0 F2160 X91.81 Y53.556
G1 F900 X92.1 Y53.143 E24.88869
G1 X92.452 Y52.78 E24.91392
G1 X92.857 Y52.477 E24.93915
G1 X93.304 Y52.241 E24.96437
G1 X93.783 Y52.079 E24.9896
G1 X94.281 Y51.995 E25.01479
G1 X94.787 Y51.99 E25.04004
G1 X95.287 Y52.064 E25.06526
G1 X95.763 Y52.214 E25.09016
G1 X96.303 Y52.432 E25.11921
G1 X98.913 Y53.439 E25.25878
G1 X101.472 Y54.344 E25.3942
G1 X104.109 Y55.194 E25.53242
G1 X106.691 Y55.946 E25.66659
G1 X109.37 Y56.644 E25.80471
G1 X112.012 Y57.255 E25.94
G1 X114.703 Y57.796 E26.07694
G1 X117.416 Y58.262 E26.21427
G1 X120.145 Y58.652 E26.35181
G1 X122.846 Y58.961 E26.48744
G1 X125.553 Y59.192 E26.62298
G1 X128.304 Y59.35 E26.76046
G1 X131.055 Y59.429 E26.89776
G1 X133.771 Y59.431 E27.03326
G1 X136.526 Y59.354 E27.17076
G1 X139.24 Y59.202 E27.30638
G1 X141.98 Y58.971 E27.44356
G1 X144.722 Y58.66 E27.58124
G1 X147.403 Y58.281 E27.71632
G1 X150.104 Y57.818 E27.85304
G1 X152.791 Y57.282 E27.98974
G1 X155.455 Y56.67 E28.12611
G1 X158.115 Y55.98 E28.26321
G1 X160.713 Y55.226 E28.39817
G1 X163.36 Y54.376 E28.53687
G1 X165.951 Y53.463 E28.67393
G1 X168.55 Y52.462 E28.81288
G1 X169.172 Y52.213 E28.8463
G1 X169.654 Y52.063 E28.87149
G1 X170.155 Y51.991 E28.89674
G1 X170.66 Y51.998 E28.92194
G1 X171.158 Y52.085 E28.94716
G1 X171.637 Y52.249 E28.97242
G1 X172.083 Y52.487 E28.99764
G1 X172.486 Y52.792 E29.02285
G1 X172.836 Y53.156 E29.04805
G1 X173.125 Y53.571 E29.07328
G1 X173.344 Y54.027 E29.09851
G1 X173.489 Y54.511 E29.12372
G1 X173.578 Y55.243 E29.16051
G1 X173.854 Y58.001 E29.29879
G1 X174.206 Y60.73 E29.43607
G1 X174.636 Y63.454 E29.57366
G1 X175.13 Y66.097 E29.7078
G1 X175.712 Y68.789 E29.84521
G1 X176.37 Y71.468 E29.98284
G1 X177.094 Y74.084 E30.11825
G1 X177.9 Y76.711 E30.25535
G1 X178.781 Y79.315 E30.39249
G1 X179.726 Y81.868 E30.52831
G1 X180.754 Y84.419 E30.66552
G1 X181.843 Y86.919 E30.80157
G1 X183.01 Y89.403 E30.93849
G1 X184.232 Y91.821 E31.07366
G1 X185.562 Y94.28 E31.21313
G1 X186.914 Y96.622 E31.34805
G1 X188.342 Y98.937 E31.48375
G1 X189.864 Y101.257 E31.62218
G1 X191.413 Y103.478 E31.75727
G1 X193.053 Y105.692 E31.89473
G1 X194.735 Y107.835 E32.03064
G1 X196.494 Y109.949 E32.16785
G1 X196.593 Y110.061 E32.17531
G1 X197.393 Y110.997 E32.23673
G1 X197.745 Y111.454 E32.26551
G1 X198.05 Y111.899 E32.29243
G1 X198.415 Y112.571 E32.33058
G1 X198.47 Y112.69 E32.33712
G1 X198.671 Y113.15 E32.36217
G1 X198.905 Y113.874 E32.40013
G1 X198.936 Y113.996 E32.40641
G1 X199.075 Y114.593 E32.43699
G1 X199.202 Y115.262 E32.47096
G1 X199.238 Y115.54 E32.48495
G1 X199.302 Y116.281 E32.52205
G1 X199.582 Y119.041 E32.66046
G1 X199.936 Y121.783 E32.79839
G1 X200.053 Y122.513 E32.83528
G1 X200.24 Y123.798 E32.90006
G1 X200.271 Y124.136 E32.91699
G1 X200.36 Y126.46 E33.03302
G1 X200.573 Y129.548 E33.18745
G1 X200.651 Y130.47 E33.23361
G1 X200.661 Y130.661 E33.24315
G1 X200.678 Y131.351 E33.27759
G1 X200.657 Y131.887 E33.30435
G1 X200.591 Y132.429 E33.33159
G1 X200.515 Y132.805 E33.35073
G1 X200.38 Y133.315 E33.37705
G1 X200.195 Y133.862 E33.40586
G1 X199.943 Y134.444 E33.4375
G1 X199.685 Y134.93 E33.46495
G1 X199.384 Y135.401 E33.49284
G1 X198.905 Y136.014 E33.53165
G1 X198.402 Y136.557 E33.56858
G1 X197.881 Y137.02 E33.60335
G1 X195.791 Y138.864 E33.7424
G1 X193.78 Y140.74 E33.87961
G1 X191.862 Y142.635 E34.01413
G1 X189.945 Y144.639 E34.15249
G1 X188.104 Y146.675 E34.28943
G1 X186.348 Y148.732 E34.42436
G1 X184.623 Y150.871 E34.56146
G1 X182.96 Y153.058 E34.69853
G1 X181.376 Y155.268 E34.83418
G1 X179.824 Y157.569 E34.97265
G1 X178.373 Y159.856 E35.10778
G1 X176.54 Y162.968 E35.28796
G1 X176.22 Y163.534 E35.3204
G1 X175.93 Y164.004 E35.34796
G1 X175.575 Y164.515 E35.379
G1 X175.187 Y165.017 E35.41065
G1 X175.09 Y165.133 E35.4182
G1 X174.702 Y165.575 E35.44754
G1 X174.144 Y166.148 E35.48744
G1 X173.683 Y166.561 E35.51832
G1 X173.288 Y166.891 E35.544
G1 X172.553 Y167.427 E35.58938
G1 X171.769 Y167.906 E35.63522
G1 X171.262 Y168.186 E35.66411
G1 X170.777 Y168.436 E35.69134
G1 X170.39 Y168.622 E35.71276
G1 X169.74 Y168.913 E35.74829
G1 X169.597 Y168.972 E35.75601
G1 X168.996 Y169.206 E35.78818
G1 X168.327 Y169.428 E35.82335
G1 X168.222 Y169.458 E35.8288
G1 X167.452 Y169.666 E35.86859
G1 X167.249 Y169.714 E35.879
G1 X166.405 Y169.884 E35.92195
G1 X165.702 Y169.992 E35.95743
G1 X163.018 Y170.397 E36.09286
G1 X160.276 Y170.889 E36.23184
G1 X157.643 Y171.44 E36.36605
G1 X154.958 Y172.081 E36.50376
G1 X152.304 Y172.795 E36.64088
G1 X149.703 Y173.574 E36.77634
G1 X147.105 Y174.433 E36.91286
G1 X144.498 Y175.377 E37.05118
G1 X142.465 Y176.188 E37.16038
G1 X142.323 Y176.232 E37.1678
G1 X141.272 Y176.656 E37.22434
G1 X141.087 Y176.724 E37.23417
G1 X140.571 Y176.896 E37.26131
G1 X140.1 Y177.014 E37.28554
G1 X139.418 Y177.131 E37.32006
G1 X138.866 Y177.2 E37.34781
G1 X138.181 Y177.228 E37.38201
G1 X137.819 Y177.229 E37.40007
G1 X135.021 Y177.267 E37.53968
G1 X132.302 Y177.381 E37.67545
G1 X129.56 Y177.574 E37.81259
G1 X126.85 Y177.841 E37.94845
G1 X124.156 Y178.184 E38.08393
G1 X121.419 Y178.612 E38.22214
G1 X117.396 Y179.386 E38.42653
G1 X116.691 Y179.541 E38.46255
G1 X115.352 Y179.839 E38.53098
G1 X114.841 Y179.923 E38.55682
G1 X114.297 Y179.978 E38.5841
G1 X113.779 Y179.995 E38.60995
G1 X112.969 Y179.976 E38.65038
G1 X112.053 Y179.838 E38.69659
G1 X111.877 Y179.803 E38.70554
G1 X111.233 Y179.657 E38.73849
G1 X109.843 Y179.321 E38.80983
G1 X107.203 Y178.762 E38.94446
G1 X104.492 Y178.266 E39.08196
