;FLAVOR:Marlin
;TIME:1338
;Filament used: 0.918498m, 0m
;Layer height: 0.18
;MINX:61.182
;MINY:74.369
;MINZ:0.26
;MAXX:173.83
;MAXY:172.437
;MAXZ:1.52
;Generated with Cura_SteamEngine 4.8.0
T0
M140 S60
M105
M190 S60
M104 S200
M105
M109 S200
M82 ;absolute extrusion mode
M201 X500.00 Y500.00 Z100.00 E5000.00 	;Setup machine max acceleration
M203 X500.00 Y500.00 Z10.00 E50.00 	;Setup machine max feedrate
M204 P500.00 R1000.00 T500.00 		;Setup Print/Retract/Travel acceleration
M205 X8.00 Y8.00 Z0.40 E5.00 		;Setup Jerk
M220 S100 				;Reset Feedrate
M221 S100 				;Reset Flowrate
G28				;Home the Machine
#G29 				;Bed Level
G92 E0
M300 P150 S587
G92 E0
G1 F1500 E-6.5
;LAYER_COUNT:8
;LAYER:0
M107
G0 F2160 X101.394 Y75.65 Z0.26
;TYPE:SKIRT
G1 F1500 E0
G1 F900 X101.768 Y75.267 E0.02315
G1 X102.196 Y74.943 E0.04636
G1 X102.667 Y74.687 E0.06954
G1 X103.171 Y74.503 E0.09273
G1 X103.697 Y74.396 E0.11594
G1 X104.232 Y74.369 E0.13911
G1 X104.766 Y74.421 E0.1623
G1 X105.286 Y74.553 E0.1855
G1 X105.781 Y74.76 E0.2087
G1 X106.239 Y75.038 E0.23187
G1 X106.651 Y75.381 E0.25504
G1 X107.008 Y75.781 E0.27823
G1 X107.301 Y76.231 E0.30144
G1 X107.598 Y76.938 E0.3346
G1 X107.989 Y78.248 E0.39371
G1 X108.805 Y80.854 E0.51179
G1 X109.691 Y83.42 E0.62916
G1 X110.651 Y85.971 E0.74702
G1 X111.694 Y88.517 E0.86598
G1 X112.789 Y90.991 E0.98296
G1 X113.966 Y93.456 E1.10107
G1 X115.215 Y95.895 E1.21955
G1 X116.511 Y98.26 E1.33616
G1 X117.914 Y100.652 E1.45606
G1 X119.336 Y102.929 E1.57213
G1 X120.86 Y105.221 E1.69114
G1 X122.427 Y107.44 E1.8086
G1 X124.053 Y109.61 E1.92585
G1 X125.749 Y111.744 E2.04371
G1 X127.518 Y113.845 E2.16246
G1 X129.33 Y115.877 E2.28018
G1 X131.202 Y117.862 E2.39816
G1 X133.127 Y119.79 E2.51596
G1 X135.086 Y121.645 E2.63261
G1 X137.157 Y123.497 E2.75274
G1 X139.216 Y125.237 E2.8693
G1 X141.351 Y126.939 E2.98736
G1 X143.522 Y128.571 E3.10479
G1 X145.756 Y130.154 E3.22318
G1 X148.025 Y131.667 E3.3411
G1 X150.335 Y133.116 E3.459
G1 X152.698 Y134.505 E3.57752
G1 X155.057 Y135.805 E3.69398
G1 X157.517 Y137.069 E3.81356
G1 X159.954 Y138.237 E3.93041
G1 X163.171 Y139.652 E4.08237
G1 X163.73 Y139.886 E4.10857
G1 X164.04 Y140.028 E4.12332
G1 X164.668 Y140.406 E4.15501
G1 X164.964 Y140.628 E4.17101
G1 X165.368 Y140.981 E4.1942
G1 X165.766 Y141.456 E4.221
G1 X165.9 Y141.643 E4.23095
G1 X166.179 Y142.101 E4.25413
G1 X166.499 Y142.913 E4.29187
G1 X166.535 Y143.02 E4.29675
G1 X166.956 Y144.35 E4.35707
G1 X167.834 Y146.994 E4.47753
G1 X168.762 Y149.544 E4.59486
G1 X169.77 Y152.088 E4.71318
G1 X170.843 Y154.588 E4.83081
G1 X171.985 Y157.052 E4.94824
G1 X172.405 Y157.893 E4.98888
G1 X172.887 Y158.891 E5.0368
G1 X173.19 Y159.604 E5.0703
G1 X173.268 Y159.824 E5.08039
G1 X173.471 Y160.452 E5.10893
G1 X173.61 Y160.97 E5.13212
G1 X173.733 Y161.62 E5.16072
G1 X173.808 Y162.325 E5.19138
G1 X173.83 Y162.875 E5.21518
G1 X173.818 Y163.324 E5.2346
G1 X173.762 Y163.867 E5.2582
G1 X173.656 Y164.455 E5.28404
G1 X173.522 Y164.974 E5.30721
G1 X173.314 Y165.482 E5.33095
G1 X173.215 Y165.696 E5.34114
G1 X172.952 Y166.163 E5.36432
G1 X172.564 Y166.65 E5.39124
G1 X172.199 Y167.026 E5.4139
G1 X172.018 Y167.189 E5.42443
G1 X171.633 Y167.512 E5.44616
G1 X171.132 Y167.908 E5.47377
G1 X170.714 Y168.22 E5.49632
G1 X170.18 Y168.594 E5.52451
G1 X169.809 Y168.84 E5.54376
G1 X169.252 Y169.188 E5.57216
G1 X168.909 Y169.391 E5.58939
G1 X168.37 Y169.691 E5.61606
G1 X167.983 Y169.893 E5.63494
G1 X167.275 Y170.24 E5.66903
G1 X167.054 Y170.341 E5.67954
G1 X166.283 Y170.672 E5.71582
G1 X166.12 Y170.737 E5.7234
G1 X165.287 Y171.048 E5.76185
G1 X165.118 Y171.106 E5.76957
G1 X164.338 Y171.357 E5.805
G1 X164.179 Y171.404 E5.81217
G1 X163.461 Y171.599 E5.84434
G1 X163.285 Y171.642 E5.85218
G1 X162.062 Y171.909 E5.9063
G1 X161.916 Y171.938 E5.91274
G1 X161.118 Y172.078 E5.94777
G1 X160.984 Y172.099 E5.95363
G1 X160.005 Y172.233 E5.99636
G1 X159.87 Y172.249 E6.00224
G1 X159.059 Y172.329 E6.03747
G1 X158.936 Y172.339 E6.04281
G1 X158.015 Y172.398 E6.08271
G1 X156.892 Y172.435 E6.1313
G1 X156.778 Y172.437 E6.13623
G1 X156.24 Y172.437 E6.15949
G1 X155.104 Y172.404 E6.20863
G1 X154.964 Y172.397 E6.21469
G1 X154.301 Y172.351 E6.24342
G1 X154.155 Y172.338 E6.24976
G1 X153.094 Y172.221 E6.29592
G1 X152.559 Y172.141 E6.3193
G1 X152.011 Y172.034 E6.34345
G1 X151.336 Y171.882 E6.37336
G1 X150.793 Y171.742 E6.39761
G1 X149.49 Y171.367 E6.45624
G1 X149.432 Y171.355 E6.4588
G1 X148.571 Y171.1 E6.49762
G1 X145.92 Y170.397 E6.61621
G1 X143.296 Y169.781 E6.73275
G1 X140.597 Y169.225 E6.8519
G1 X137.931 Y168.757 E6.96894
G1 X135.226 Y168.36 E7.08715
G1 X132.532 Y168.04 E7.20445
G1 X129.786 Y167.795 E7.32365
G1 X127.093 Y167.63 E7.44031
G1 X124.364 Y167.54 E7.55837
G1 X121.632 Y167.527 E7.6765
G1 X118.904 Y167.591 E7.79449
G1 X116.178 Y167.733 E7.91252
G1 X113.485 Y167.95 E8.02933
G1 X110.742 Y168.248 E8.14863
G1 X108.073 Y168.616 E8.26513
G1 X107.38 Y168.725 E8.29546
G1 X106.636 Y168.826 E8.32793
G1 X106.497 Y168.841 E8.33397
G1 X105.766 Y168.845 E8.36558
G1 X105.032 Y168.773 E8.39747
G1 X104.278 Y168.64 E8.43057
G1 X102.005 Y168.116 E8.53143
G1 X99.37 Y167.586 E8.64764
G1 X96.664 Y167.119 E8.76638
G1 X93.976 Y166.735 E8.88378
G1 X91.246 Y166.423 E9.00259
G1 X88.517 Y166.189 E9.12102
G1 X87.877 Y166.15 E9.14874
G1 X87.237 Y166.1 E9.1765
G1 X86.746 Y166.027 E9.19796
G1 X86.116 Y165.889 E9.22585
G1 X84.599 Y165.529 E9.29326
G1 X81.9 Y164.968 E9.41246
G1 X79.257 Y164.497 E9.52854
G1 X76.533 Y164.091 E9.64762
G1 X73.833 Y163.765 E9.76521
G1 X71.13 Y163.517 E9.88257
G1 X68.392 Y163.344 E10.00119
G1 X65.232 Y163.244 E10.1379
G1 X64.754 Y163.206 E10.15863
G1 X64.225 Y163.116 E10.18183
G1 X63.715 Y162.949 E10.20503
G1 X63.267 Y162.726 E10.22667
G1 X63.039 Y162.592 E10.23811
G1 X62.598 Y162.286 E10.26132
G1 X62.208 Y161.919 E10.28447
G1 X61.876 Y161.497 E10.30769
G1 X61.611 Y161.031 E10.33087
G1 X61.372 Y160.405 E10.35984
G1 X61.237 Y159.886 E10.38303
G1 X61.182 Y159.09 E10.41753
G1 X61.202 Y158.728 E10.4332
G1 X61.452 Y155.971 E10.5529
G1 X61.622 Y153.238 E10.6713
G1 X61.733 Y149.753 E10.82206
G1 X61.764 Y149.313 E10.84113
G1 X62.046 Y146.622 E10.95812
G1 X62.252 Y143.927 E11.07499
G1 X62.385 Y141.166 E11.19451
G1 X62.438 Y138.472 E11.31101
G1 X62.414 Y135.679 E11.43178
G1 X62.403 Y135.049 E11.45903
G1 X62.437 Y134.514 E11.48221
G1 X62.536 Y134.033 E11.50344
G1 X62.761 Y133.233 E11.53937
G1 X63.251 Y131.576 E11.61408
G1 X63.945 Y128.962 E11.73102
G1 X64.58 Y126.27 E11.85062
G1 X65.314 Y122.591 E12.01282
G1 X65.547 Y121.296 E12.06972
G1 X65.681 Y120.777 E12.09289
G1 X65.924 Y120.22 E12.11917
G1 X66.049 Y119.989 E12.13053
G1 X66.338 Y119.537 E12.15372
G1 X66.692 Y119.134 E12.17692
G1 X67.118 Y118.775 E12.201
G1 X67.802 Y118.285 E12.23738
G1 X70.007 Y116.659 E12.35584
G1 X72.135 Y114.994 E12.47267
G1 X74.231 Y113.256 E12.5904
G1 X76.313 Y111.427 E12.71023
G1 X78.276 Y109.603 E12.82609
G1 X80.228 Y107.686 E12.94438
G1 X82.107 Y105.729 E13.06169
G1 X83.971 Y103.677 E13.18156
G1 X85.73 Y101.626 E13.29838
G1 X87.444 Y99.508 E13.41619
G1 X89.097 Y97.344 E13.53394
G1 X90.693 Y95.126 E13.65209
G1 X92.221 Y92.872 E13.76983
G1 X93.7 Y90.551 E13.88883
G1 X95.089 Y88.231 E14.00574
G1 X96.419 Y85.859 E14.12333
G1 X97.687 Y83.435 E14.24161
G1 X98.874 Y81.007 E14.35847
G1 X100.02 Y78.48 E14.47844
G1 X100.834 Y76.562 E14.56853
G1 X101.08 Y76.085 E14.59174
G1 X101.394 Y75.65 E14.61493
G0 F2160 X101.737 Y75.864
G1 F900 X102.099 Y75.51 E14.63682
G1 X102.511 Y75.218 E14.65866
G1 X102.965 Y74.995 E14.68053
G1 X103.448 Y74.845 E14.7024
G1 X103.949 Y74.774 E14.72428
G1 X104.454 Y74.783 E14.74612
G1 X104.952 Y74.871 E14.76798
G1 X105.43 Y75.036 E14.78985
G1 X105.876 Y75.274 E14.8117
G1 X106.278 Y75.58 E14.83355
G1 X106.628 Y75.945 E14.85541
G1 X106.915 Y76.361 E14.87727
G1 X107.214 Y77.053 E14.90986
G1 X107.593 Y78.321 E14.96708
G1 X108.432 Y80.999 E15.08842
G1 X109.31 Y83.544 E15.20483
G1 X110.29 Y86.146 E15.32505
G1 X111.315 Y88.65 E15.44204
G1 X112.432 Y91.173 E15.56134
G1 X113.6 Y93.619 E15.67854
G1 X114.866 Y96.09 E15.79859
G1 X116.167 Y98.463 E15.9156
G1 X117.563 Y100.845 E16.03498
G1 X119.007 Y103.157 E16.15284
G1 X120.516 Y105.427 E16.2707
G1 X122.101 Y107.67 E16.38946
G1 X123.749 Y109.87 E16.50831
G1 X125.445 Y112.006 E16.62624
G1 X127.214 Y114.106 E16.74496
G1 X129.023 Y116.134 E16.86246
G1 X130.928 Y118.154 E16.98252
G1 X132.833 Y120.062 E17.0991
G1 X134.846 Y121.969 E17.21899
G1 X136.878 Y123.785 E17.33683
G1 X138.972 Y125.554 E17.45535
G1 X141.09 Y127.242 E17.57246
G1 X143.296 Y128.902 E17.69183
G1 X145.525 Y130.481 E17.80994
G1 X147.812 Y132.006 E17.92879
G1 X150.111 Y133.448 E18.04613
G1 X152.497 Y134.851 E18.16581
G1 X154.887 Y136.168 E18.2838
G1 X157.311 Y137.413 E18.40163
G1 X159.799 Y138.606 E18.52093
G1 X163.017 Y140.021 E18.67293
G1 X163.576 Y140.255 E18.69913
G1 X163.87 Y140.39 E18.71312
G1 X164.428 Y140.726 E18.74128
G1 X164.724 Y140.948 E18.75728
G1 X165.103 Y141.282 E18.77912
G1 X165.441 Y141.689 E18.802
G1 X165.575 Y141.876 E18.81195
G1 X165.836 Y142.309 E18.83381
G1 X166.122 Y143.046 E18.86799
G1 X166.154 Y143.141 E18.87232
G1 X166.59 Y144.518 E18.93477
G1 X167.454 Y147.12 E19.05332
G1 X168.385 Y149.68 E19.1711
G1 X169.401 Y152.244 E19.29035
G1 X170.482 Y154.762 E19.40883
G1 X171.616 Y157.207 E19.52537
G1 X172.045 Y158.067 E19.56692
G1 X172.527 Y159.065 E19.61484
G1 X172.818 Y159.752 E19.6471
G1 X172.888 Y159.947 E19.65606
G1 X173.091 Y160.575 E19.6846
G1 X173.222 Y161.067 E19.70661
G1 X173.339 Y161.689 E19.73398
G1 X173.409 Y162.36 E19.76315
G1 X173.43 Y162.864 E19.78496
G1 X173.368 Y163.796 E19.82535
G1 X173.262 Y164.384 E19.85118
G1 X173.046 Y165.095 E19.88331
G1 X172.853 Y165.526 E19.90373
G1 X172.603 Y165.966 E19.92561
G1 X172.274 Y166.374 E19.94827
G1 X171.924 Y166.736 E19.97005
G1 X171.761 Y166.883 E19.97954
G1 X171.376 Y167.206 E20.00126
G1 X170.885 Y167.594 E20.02832
G1 X170.484 Y167.893 E20.04995
G1 X169.958 Y168.262 E20.07773
G1 X169.597 Y168.501 E20.09645
G1 X169.048 Y168.845 E20.12447
G1 X168.714 Y169.041 E20.14121
G1 X168.105 Y169.379 E20.17133
G1 X167.806 Y169.535 E20.18591
G1 X167.109 Y169.877 E20.21948
G1 X166.895 Y169.973 E20.22962
G1 X166.132 Y170.302 E20.26555
G1 X165.979 Y170.362 E20.27265
G1 X165.155 Y170.67 E20.31069
G1 X164.995 Y170.725 E20.318
G1 X164.215 Y170.976 E20.35343
G1 X164.074 Y171.018 E20.35979
G1 X163.356 Y171.213 E20.39196
G1 X163.2 Y171.251 E20.3989
G1 X161.977 Y171.518 E20.45303
G1 X161.847 Y171.544 E20.45876
G1 X161.049 Y171.684 E20.49379
G1 X160.93 Y171.702 E20.499
G1 X159.831 Y171.851 E20.54695
G1 X159.02 Y171.931 E20.58219
G1 X157.99 Y171.998 E20.62682
G1 X157.887 Y172.003 E20.63128
G1 X156.778 Y172.037 E20.67925
G1 X156.143 Y172.036 E20.70671
G1 X155.116 Y172.005 E20.75113
G1 X154.329 Y171.952 E20.78524
G1 X154.199 Y171.941 E20.79088
G1 X153.138 Y171.824 E20.83703
G1 X152.635 Y171.748 E20.85903
G1 X152.099 Y171.644 E20.88264
G1 X151.424 Y171.492 E20.91255
G1 X150.904 Y171.357 E20.93578
G1 X149.696 Y171.009 E20.99014
G1 X149.546 Y170.971 E20.99683
G1 X148.691 Y170.718 E21.03538
G1 X146.034 Y170.014 E21.15423
G1 X143.363 Y169.386 E21.27287
G1 X140.681 Y168.834 E21.39126
G1 X137.986 Y168.361 E21.50957
G1 X135.294 Y167.965 E21.62722
G1 X132.544 Y167.639 E21.74696
G1 X129.848 Y167.398 E21.86399
G1 X127.094 Y167.229 E21.9833
G1 X124.379 Y167.14 E22.10075
G1 X121.624 Y167.127 E22.21987
G1 X118.908 Y167.191 E22.33734
G1 X116.161 Y167.334 E22.45628
G1 X113.41 Y167.555 E22.57561
G1 X110.716 Y167.848 E22.69278
G1 X107.999 Y168.223 E22.81137
G1 X107.326 Y168.329 E22.84083
G1 X106.593 Y168.429 E22.87281
G1 X106.454 Y168.444 E22.87886
G1 X105.804 Y168.447 E22.90697
G1 X105.082 Y168.376 E22.93833
G1 X104.362 Y168.249 E22.96995
G1 X102.103 Y167.727 E23.07019
G1 X99.446 Y167.193 E23.18738
G1 X96.722 Y166.724 E23.30689
G1 X94.001 Y166.335 E23.42574
G1 X91.293 Y166.025 E23.54359
G1 X88.573 Y165.792 E23.66163
G1 X87.908 Y165.751 E23.69044
G1 X87.268 Y165.701 E23.71819
G1 X86.832 Y165.637 E23.73725
G1 X86.208 Y165.5 E23.76487
G1 X84.66 Y165.133 E23.83366
G1 X81.986 Y164.577 E23.95175
G1 X79.32 Y164.102 E24.06884
G1 X76.599 Y163.696 E24.18779
G1 X73.885 Y163.369 E24.30599
G1 X71.153 Y163.118 E24.42461
G1 X68.399 Y162.944 E24.54393
G1 X65.245 Y162.844 E24.68037
G1 X64.791 Y162.808 E24.70006
G1 X64.293 Y162.721 E24.72192
G1 X63.815 Y162.557 E24.74377
G1 X63.242 Y162.247 E24.77194
G1 X62.827 Y161.957 E24.79383
G1 X62.464 Y161.606 E24.81566
G1 X62.16 Y161.201 E24.83756
G1 X61.835 Y160.522 E24.87011
G1 X61.751 Y160.276 E24.88135
G1 X61.626 Y159.786 E24.90321
G1 X61.582 Y159.107 E24.93263
G1 X61.6 Y158.765 E24.94744
G1 X61.85 Y156 E25.06748
G1 X62.022 Y153.243 E25.18692
G1 X62.123 Y150.066 E25.32436
G1 X62.153 Y149.448 E25.35111
G1 X62.161 Y149.355 E25.35515
G1 X62.444 Y146.658 E25.4724
G1 X62.654 Y143.908 E25.59165
G1 X62.785 Y141.192 E25.70922
G1 X62.838 Y138.475 E25.82672
G1 X62.814 Y135.675 E25.9478
G1 X62.803 Y135.044 E25.97508
G1 X62.837 Y134.539 E25.99697
G1 X62.922 Y134.141 E26.01457
G1 X63.144 Y133.347 E26.05021
G1 X63.635 Y131.688 E26.12502
G1 X64.333 Y129.059 E26.24263
G1 X64.973 Y126.344 E26.36324
G1 X65.702 Y122.691 E26.5243
G1 X65.94 Y121.367 E26.58247
G1 X66.069 Y120.878 E26.60434
G1 X66.276 Y120.41 E26.62646
G1 X66.401 Y120.179 E26.63782
G1 X66.676 Y119.755 E26.65967
G1 X67.014 Y119.379 E26.68153
G1 X67.351 Y119.101 E26.70042
G1 X68.009 Y118.63 E26.73541
G1 X70.245 Y116.98 E26.85556
G1 X72.409 Y115.287 E26.97436
G1 X74.487 Y113.564 E27.09108
G1 X76.566 Y111.738 E27.21072
G1 X78.545 Y109.899 E27.32753
G1 X80.513 Y107.965 E27.44684
G1 X82.409 Y105.992 E27.56515
G1 X84.272 Y103.94 E27.68499
G1 X86.043 Y101.875 E27.80261
G1 X87.758 Y99.757 E27.92045
G1 X89.411 Y97.591 E28.03826
G1 X91.017 Y95.362 E28.15705
G1 X92.557 Y93.09 E28.27573
G1 X94.038 Y90.766 E28.39488
G1 X95.438 Y88.426 E28.51278
G1 X96.772 Y86.046 E28.63075
G1 X98.043 Y83.618 E28.74925
G1 X99.253 Y81.142 E28.86841
G1 X100.366 Y78.688 E28.98492
G1 X101.202 Y76.718 E29.07745
G1 X101.436 Y76.27 E29.0993
G1 X101.737 Y75.864 E29.12116
G1 F1500 E22.62116
;MESH:ParabensRita.stl
G0 F2160 X103.228 Y104.902
G0 X104.307 Y104.911
G0 X104.652 Y122.193
;TYPE:WALL-INNER
G1 F1500 E29.12116
G1 F900 X104.733 Y122.241 E29.12523
G1 X104.845 Y122.308 E29.13087
G1 X105.062 Y122.438 E29.14181
G1 X105.06 Y122.918 E29.16256
G1 X104.984 Y123.496 E29.18777
G1 X104.853 Y124.231 E29.22005
G1 X104.682 Y125.035 E29.25559
G1 X104.452 Y126.022 E29.29941
G1 X104.331 Y126.521 E29.32161
G1 X104.064 Y127.585 E29.36904
G1 X103.626 Y129.277 E29.44461
G1 X103.339 Y130.292 E29.49022
G1 X103.036 Y131.329 E29.53693
G1 X102.399 Y133.436 E29.63211
G1 X102.074 Y134.482 E29.67947
G1 X101.747 Y135.508 E29.72603
G1 X101.424 Y136.508 E29.77147
G1 X101.107 Y137.472 E29.81535
G1 X100.8 Y138.389 E29.85716
G1 X100.505 Y139.249 E29.89647
G1 X100.099 Y140.412 E29.94973
G1 X99.751 Y141.371 E29.99384
G1 X99.538 Y141.934 E30.01987
G1 X99.387 Y142.31 E30.03739
G1 X98.915 Y142.222 E30.05815
G1 X98.749 Y142.192 E30.06544
G1 X98.649 Y142.14 E30.07032
G1 X98.706 Y141.982 E30.07557
G1 X99.051 Y141.032 E30.11927
G1 X99.338 Y140.217 E30.15663
G1 X99.771 Y138.96 E30.21412
G1 X100.507 Y136.774 E30.31385
G1 X101.03 Y135.166 E30.38696
G1 X101.304 Y134.327 E30.42512
G1 X102.197 Y131.518 E30.55257
G1 X102.225 Y131.519 E30.55378
G1 X102.314 Y131.219 E30.56731
G1 X102.891 Y129.297 E30.65408
G1 X103.255 Y128.034 E30.71091
G1 X103.615 Y126.744 E30.76882
G1 X103.789 Y126.096 E30.79783
G1 X103.953 Y125.464 E30.82606
G1 X104.108 Y124.848 E30.85353
G1 X104.254 Y124.251 E30.8801
G1 X104.381 Y123.683 E30.90527
G1 X104.495 Y123.143 E30.92913
