;FLAVOR:Marlin
;TIME:1128
;Filament used: 1.00657m, 0m
;Layer height: 0.2
;MINX:61.902
;MINY:80.274
;MINZ:0.3
;MAXX:173.079
;MAXY:152.933
;MAXZ:1.7
;POSTPROCESSED
;Generated with Cura_SteamEngine 4.7.1
T0
M140 S60
M105
M190 S60
M104 S200
M105
M109 S200
M82 ;absolute extrusion mode
M201 X500.00 Y500.00 Z100.00 E5000.00 	;Setup machine max acceleration
M203 X500.00 Y500.00 Z10.00 E50.00 	;Setup machine max feedrate
M204 P500.00 R1000.00 T500.00 		;Setup Print/Retract/Travel acceleration
M205 X8.00 Y8.00 Z0.40 E5.00 		;Setup Jerk
M220 S100 				;Reset Feedrate
M221 S100 				;Reset Flowrate
G28				;Home the Machine
#G29 				;Bed Level
G92 E0
M300 P150 S587
G92 E0
G1 F1500 E-6.5
;LAYER_COUNT:8
;LAYER:0
M107
G0 F2160 X79.116 Y81.319 Z0.3
;TYPE:SKIRT
G1 F1500 E0
G1 F900 X79.524 Y80.97 E0.02679
G1 X79.978 Y80.686 E0.0535
G1 X80.47 Y80.472 E0.08027
G1 X80.988 Y80.333 E0.10703
G1 X81.521 Y80.274 E0.13378
G1 X82.057 Y80.293 E0.16054
G1 X82.584 Y80.393 E0.1873
G1 X82.934 Y80.505 E0.20563
G1 X84.177 Y80.977 E0.27197
G1 X86.781 Y81.925 E0.41022
G1 X89.335 Y82.774 E0.5445
G1 X91.954 Y83.562 E0.68095
G1 X94.588 Y84.275 E0.81709
G1 X97.249 Y84.915 E0.95363
G1 X99.879 Y85.469 E1.08772
G1 X102.577 Y85.958 E1.22452
G1 X105.282 Y86.37 E1.36103
G1 X107.99 Y86.704 E1.49715
G1 X110.712 Y86.962 E1.63356
G1 X113.434 Y87.142 E1.76966
G1 X116.13 Y87.245 E1.90426
G1 X118.894 Y87.272 E2.04217
G1 X121.591 Y87.221 E2.17675
G1 X124.315 Y87.094 E2.31279
G1 X127.042 Y86.888 E2.44923
G1 X129.758 Y86.606 E2.58546
G1 X132.463 Y86.247 E2.7216
G1 X135.171 Y85.81 E2.85845
G1 X137.805 Y85.308 E2.99223
G1 X140.491 Y84.717 E3.12944
G1 X143.129 Y84.058 E3.26509
G1 X145.739 Y83.327 E3.40031
G1 X148.376 Y82.507 E3.53809
G1 X150.926 Y81.634 E3.67256
G1 X152.653 Y80.979 E3.76471
G1 X153.96 Y80.495 E3.83424
G1 X154.475 Y80.347 E3.86097
G1 X155.007 Y80.277 E3.88775
G1 X155.543 Y80.286 E3.91449
G1 X156.072 Y80.376 E3.94126
G1 X156.582 Y80.543 E3.96803
G1 X157.061 Y80.783 E3.99476
G1 X157.499 Y81.092 E4.02151
G1 X157.886 Y81.463 E4.04825
G1 X158.214 Y81.888 E4.07504
G1 X158.476 Y82.356 E4.10179
G1 X158.664 Y82.858 E4.12854
G1 X158.786 Y83.456 E4.15899
G1 X158.833 Y83.861 E4.17933
G1 X159.193 Y86.613 E4.3178
G1 X159.622 Y89.298 E4.45345
G1 X160.131 Y92.002 E4.59072
G1 X160.715 Y94.676 E4.72727
G1 X161.358 Y97.266 E4.86041
G1 X162.099 Y99.925 E4.99812
G1 X162.905 Y102.535 E5.13441
G1 X163.778 Y105.102 E5.26968
G1 X164.738 Y107.68 E5.40692
G1 X165.754 Y110.192 E5.54211
G1 X166.849 Y112.69 E5.67818
G1 X167.851 Y114.823 E5.79576
G1 X168.129 Y115.41 E5.82816
G1 X168.459 Y116.283 E5.87472
G1 X168.543 Y116.591 E5.89065
G1 X169.098 Y118.705 E5.99969
G1 X169.855 Y121.286 E6.13388
G1 X170.69 Y123.864 E6.26908
G1 X171.613 Y126.459 E6.40649
G1 X172.581 Y128.957 E6.54014
G1 X172.791 Y129.481 E6.56831
G1 X172.953 Y129.992 E6.59505
G1 X173.045 Y130.602 E6.62583
G1 X173.079 Y131.143 E6.65287
G1 X173.068 Y131.679 E6.67962
G1 X172.977 Y132.207 E6.70635
G1 X172.809 Y132.717 E6.73314
G1 X172.567 Y133.195 E6.75987
G1 X172.271 Y133.616 E6.78554
G1 X171.521 Y134.533 E6.84465
G1 X169.789 Y136.718 E6.98375
G1 X168.164 Y138.89 E7.11908
G1 X166.588 Y141.124 E7.25548
G1 X165.088 Y143.386 E7.39089
G1 X163.64 Y145.71 E7.5275
G1 X163.574 Y145.82 E7.5339
G1 X162.966 Y146.801 E7.59148
G1 X161.83 Y148.585 E7.69699
G1 X161.528 Y149.018 E7.72333
G1 X161.05 Y149.592 E7.7606
G1 X160.702 Y149.953 E7.78561
G1 X160.275 Y150.342 E7.81443
G1 X159.832 Y150.687 E7.84245
G1 X159.382 Y150.992 E7.86957
G1 X159.169 Y151.125 E7.8821
G1 X158.697 Y151.399 E7.90932
G1 X158.492 Y151.51 E7.92095
G1 X157.999 Y151.755 E7.94842
G1 X157.794 Y151.849 E7.95967
G1 X157.2 Y152.099 E7.99182
G1 X156.964 Y152.189 E8.00442
G1 X156.254 Y152.431 E8.04185
G1 X155.657 Y152.599 E8.07279
G1 X155.001 Y152.741 E8.10628
G1 X154.441 Y152.831 E8.13457
G1 X153.588 Y152.914 E8.17733
G1 X152.76 Y152.933 E8.21865
G1 X151.905 Y152.89 E8.26136
G1 X151.079 Y152.788 E8.30288
G1 X150.51 Y152.683 E8.33175
G1 X150.38 Y152.653 E8.3384
G1 X148.336 Y152.134 E8.44362
G1 X148.306 Y152.129 E8.44513
G1 X147.237 Y151.849 E8.50027
G1 X144.601 Y151.236 E8.63529
G1 X143.049 Y150.914 E8.71436
G1 X142.68 Y150.825 E8.7333
G1 X141.301 Y150.429 E8.80488
G1 X140.958 Y150.326 E8.82275
G1 X138.316 Y149.612 E8.95929
G1 X135.677 Y148.98 E9.09467
G1 X133.003 Y148.417 E9.231
G1 X130.299 Y147.928 E9.36809
G1 X127.629 Y147.523 E9.50282
G1 X124.918 Y147.19 E9.63909
G1 X122.201 Y146.934 E9.77524
G1 X119.471 Y146.755 E9.91174
G1 X116.78 Y146.654 E10.04609
G1 X114.015 Y146.628 E10.18404
G1 X111.32 Y146.68 E10.31852
G1 X108.591 Y146.809 E10.45482
G1 X105.835 Y147.018 E10.59271
G1 X103.188 Y147.295 E10.72549
G1 X100.446 Y147.66 E10.8635
G1 X97.747 Y148.097 E10.9999
G1 X95.074 Y148.608 E11.13568
G1 X92.391 Y149.2 E11.27275
G1 X89.768 Y149.858 E11.40767
G1 X86.062 Y150.922 E11.60003
G1 X85.534 Y151.084 E11.62758
G1 X84.899 Y151.236 E11.66016
G1 X84.784 Y151.259 E11.66601
G1 X84.194 Y151.369 E11.69595
G1 X83.281 Y151.47 E11.74178
G1 X82.618 Y151.5 E11.77489
G1 X82.508 Y151.501 E11.78038
G1 X81.831 Y151.494 E11.81416
G1 X81.109 Y151.447 E11.85025
G1 X80.594 Y151.389 E11.87611
G1 X79.781 Y151.253 E11.91723
G1 X78.936 Y151.048 E11.96061
G1 X78.452 Y150.901 E11.98585
G1 X77.927 Y150.711 E12.01371
G1 X77.46 Y150.516 E12.03895
G1 X77.114 Y150.353 E12.05804
G1 X76.421 Y149.983 E12.09723
G1 X75.957 Y149.697 E12.12442
G1 X75.43 Y149.32 E12.15675
G1 X74.927 Y148.9 E12.18944
G1 X74.442 Y148.436 E12.22293
G1 X74.024 Y147.977 E12.2539
G1 X73.74 Y147.623 E12.27654
G1 X73.317 Y147.021 E12.31325
G1 X72.949 Y146.461 E12.34668
G1 X71.769 Y144.697 E12.45256
G1 X71.472 Y144.263 E12.4788
G1 X70.464 Y142.744 E12.56975
G1 X70.291 Y142.474 E12.58575
G1 X68.737 Y140.199 E12.7232
G1 X67.138 Y137.994 E12.85909
G1 X65.488 Y135.85 E12.99406
G1 X62.868 Y132.682 E13.19916
G1 X62.762 Y132.557 E13.20734
G1 X62.447 Y132.124 E13.23405
G1 X62.199 Y131.648 E13.26083
G1 X62.025 Y131.141 E13.28757
G1 X61.929 Y130.613 E13.31435
G1 X61.902 Y129.946 E13.34765
G1 X61.91 Y129.477 E13.37105
G1 X61.959 Y128.943 E13.39781
G1 X62.168 Y128.197 E13.43646
G1 X62.528 Y127.3 E13.48468
G1 X63.506 Y124.762 E13.62038
G1 X64.419 Y122.173 E13.75734
G1 X65.25 Y119.589 E13.89276
G1 X66.013 Y116.963 E14.02919
G1 X66.517 Y115.03 E14.12885
G1 X66.607 Y114.706 E14.14563
G1 X66.842 Y114.089 E14.17856
G1 X67.218 Y113.385 E14.21838
G1 X68.524 Y110.991 E14.35444
G1 X69.761 Y108.565 E14.4903
G1 X70.933 Y106.098 E14.62656
G1 X72.03 Y103.603 E14.76253
G1 X73.058 Y101.08 E14.89845
G1 X74.015 Y98.524 E15.03462
G1 X74.902 Y95.932 E15.1713
G1 X75.711 Y93.331 E15.30719
G1 X76.442 Y90.724 E15.44227
G1 X77.098 Y88.105 E15.57697
G1 X77.696 Y85.387 E15.71582
G1 X78.122 Y83.186 E15.82766
G1 X78.263 Y82.669 E15.8544
G1 X78.479 Y82.178 E15.88116
G1 X78.766 Y81.725 E15.90791
G1 X79.116 Y81.319 E15.93466
G0 F2160 X79.482 Y81.523
G1 F900 X79.879 Y81.21 E15.95988
G1 X80.321 Y80.963 E15.98514
G1 X80.795 Y80.789 E16.01033
G1 X81.291 Y80.692 E16.03555
G1 X81.797 Y80.674 E16.06081
G1 X82.298 Y80.736 E16.08599
G1 X82.792 Y80.879 E16.11165
G1 X84.043 Y81.354 E16.17841
G1 X86.623 Y82.294 E16.3154
G1 X89.231 Y83.16 E16.4525
G1 X91.84 Y83.946 E16.58844
G1 X94.504 Y84.666 E16.72612
G1 X97.137 Y85.3 E16.86124
G1 X99.808 Y85.862 E16.99741
G1 X102.517 Y86.353 E17.13477
G1 X105.244 Y86.768 E17.27238
G1 X107.94 Y87.101 E17.40791
G1 X110.681 Y87.361 E17.54527
G1 X113.393 Y87.54 E17.68087
G1 X116.146 Y87.645 E17.81832
G1 X118.898 Y87.672 E17.95562
G1 X121.582 Y87.621 E18.08955
G1 X124.363 Y87.492 E18.22844
G1 X127.08 Y87.286 E18.36438
G1 X129.811 Y87.003 E18.50136
G1 X132.513 Y86.644 E18.63735
G1 X135.208 Y86.209 E18.77355
G1 X137.928 Y85.691 E18.91169
G1 X140.569 Y85.11 E19.0466
G1 X143.229 Y84.446 E19.18338
G1 X145.861 Y83.708 E19.31975
G1 X148.487 Y82.891 E19.45696
G1 X151.07 Y82.007 E19.59316
G1 X152.792 Y81.354 E19.68504
G1 X154.099 Y80.87 E19.75458
G1 X154.585 Y80.733 E19.77977
G1 X155.087 Y80.673 E19.80499
G1 X155.592 Y80.694 E19.83021
G1 X156.088 Y80.794 E19.85545
G1 X156.562 Y80.971 E19.88069
G1 X157.002 Y81.22 E19.90592
G1 X157.397 Y81.535 E19.93112
G1 X157.738 Y81.908 E19.95634
G1 X158.015 Y82.331 E19.98156
G1 X158.223 Y82.792 E20.00679
G1 X158.389 Y83.502 E20.04317
G1 X158.439 Y83.935 E20.06492
G1 X158.794 Y86.651 E20.20157
G1 X159.223 Y89.34 E20.33742
G1 X159.742 Y92.097 E20.47739
G1 X160.321 Y94.75 E20.61286
G1 X160.988 Y97.433 E20.75079
G1 X161.701 Y99.992 E20.88332
G1 X162.53 Y102.676 E21.02347
G1 X163.4 Y105.233 E21.15822
G1 X164.352 Y107.791 E21.29439
G1 X165.389 Y110.354 E21.43233
G1 X166.493 Y112.873 E21.56954
G1 X167.509 Y115.035 E21.68872
G1 X167.759 Y115.562 E21.71782
G1 X168.073 Y116.389 E21.76196
G1 X168.156 Y116.692 E21.77763
G1 X168.705 Y118.781 E21.88539
G1 X169.487 Y121.449 E22.0241
G1 X170.313 Y123.998 E22.15778
G1 X171.234 Y126.589 E22.29497
G1 X172.222 Y129.139 E22.4314
G1 X172.419 Y129.63 E22.4578
G1 X172.57 Y130.112 E22.48299
G1 X172.647 Y130.642 E22.50971
G1 X172.679 Y131.164 E22.53581
G1 X172.667 Y131.67 E22.56106
G1 X172.575 Y132.167 E22.58627
G1 X172.405 Y132.643 E22.61149
G1 X172.163 Y133.087 E22.63672
G1 X171.961 Y133.362 E22.65374
G1 X171.207 Y134.284 E22.71316
G1 X169.483 Y136.458 E22.85159
G1 X167.837 Y138.659 E22.98871
G1 X166.272 Y140.878 E23.12418
G1 X164.732 Y143.2 E23.26319
G1 X163.295 Y145.508 E23.39883
G1 X163.234 Y145.61 E23.40476
G1 X162.629 Y146.586 E23.46204
G1 X161.497 Y148.364 E23.5672
G1 X161.093 Y148.923 E23.60161
G1 X160.746 Y149.332 E23.62837
G1 X160.314 Y149.769 E23.65903
G1 X159.796 Y150.219 E23.69326
G1 X159.607 Y150.356 E23.70491
G1 X159.157 Y150.661 E23.73203
G1 X158.969 Y150.779 E23.7431
G1 X158.497 Y151.053 E23.77033
G1 X158.314 Y151.152 E23.78071
G1 X157.821 Y151.397 E23.80818
G1 X157.638 Y151.48 E23.8182
G1 X157.044 Y151.73 E23.85035
G1 X156.835 Y151.81 E23.86152
G1 X156.125 Y152.052 E23.89894
G1 X155.57 Y152.209 E23.92772
G1 X154.922 Y152.349 E23.96079
G1 X154.381 Y152.435 E23.98812
G1 X153.557 Y152.515 E24.02942
G1 X152.759 Y152.533 E24.06925
G1 X151.934 Y152.491 E24.11046
G1 X151.137 Y152.392 E24.15053
G1 X150.594 Y152.292 E24.17807
G1 X150.478 Y152.265 E24.18402
G1 X148.45 Y151.751 E24.28839
G1 X148.408 Y151.742 E24.29054
G1 X147.366 Y151.469 E24.34428
G1 X144.682 Y150.844 E24.48176
G1 X143.058 Y150.507 E24.56451
G1 X142.79 Y150.44 E24.57829
G1 X141.416 Y150.046 E24.6496
G1 X141.04 Y149.933 E24.66919
G1 X138.441 Y149.231 E24.8035
G1 X135.739 Y148.584 E24.94212
G1 X133.092 Y148.026 E25.07708
G1 X130.393 Y147.538 E25.21392
G1 X127.667 Y147.125 E25.35147
G1 X124.968 Y146.794 E25.48713
G1 X122.229 Y146.536 E25.62439
G1 X119.514 Y146.357 E25.76013
G1 X116.763 Y146.254 E25.89748
G1 X114.01 Y146.228 E26.03483
G1 X111.293 Y146.28 E26.17041
G1 X108.578 Y146.409 E26.30601
G1 X105.835 Y146.617 E26.44325
G1 X103.09 Y146.904 E26.58095
G1 X100.4 Y147.262 E26.71634
G1 X97.68 Y147.702 E26.8538
G1 X95.011 Y148.212 E26.98937
G1 X92.298 Y148.811 E27.12798
G1 X89.685 Y149.466 E27.26238
G1 X85.898 Y150.553 E27.45894
G1 X85.417 Y150.701 E27.48405
G1 X84.813 Y150.845 E27.51502
G1 X84.711 Y150.866 E27.52022
G1 X84.121 Y150.976 E27.55016
G1 X83.246 Y151.071 E27.59407
G1 X82.61 Y151.1 E27.62584
G1 X82.512 Y151.101 E27.63073
G1 X81.835 Y151.094 E27.6645
G1 X81.143 Y151.049 E27.6991
G1 X80.408 Y150.959 E27.73604
G1 X79.854 Y150.859 E27.76413
G1 X79.038 Y150.661 E27.80602
G1 X78.26 Y150.411 E27.84679
G1 X78.081 Y150.342 E27.85636
G1 X77.614 Y150.147 E27.88161
G1 X77.303 Y150 E27.89877
G1 X76.61 Y149.63 E27.93796
G1 X76.175 Y149.362 E27.96345
G1 X75.665 Y148.996 E27.99477
G1 X75.19 Y148.599 E28.02566
G1 X74.738 Y148.167 E28.05685
G1 X74.32 Y147.708 E28.08782
G1 X74.068 Y147.393 E28.10795
G1 X73.645 Y146.791 E28.14466
G1 X73.585 Y146.703 E28.14997
G1 X73.263 Y146.211 E28.17931
G1 X72.101 Y144.474 E28.28357
G1 X71.805 Y144.041 E28.30974
G1 X70.801 Y142.528 E28.40033
G1 X70.616 Y142.238 E28.41749
G1 X69.076 Y139.985 E28.55364
G1 X67.463 Y137.761 E28.69071
G1 X65.806 Y135.607 E28.82629
G1 X63.173 Y132.424 E29.03238
G1 X63.067 Y132.299 E29.04055
G1 X62.772 Y131.888 E29.06579
G1 X62.545 Y131.437 E29.09098
G1 X62.391 Y130.955 E29.11623
G1 X62.31 Y130.33 E29.14767
G1 X62.309 Y129.483 E29.18993
G1 X62.358 Y128.98 E29.21514
G1 X62.539 Y128.346 E29.24804
G1 X62.899 Y127.449 E29.29626
G1 X63.88 Y124.902 E29.43243
G1 X64.801 Y122.291 E29.57056
G1 X65.629 Y119.718 E29.70541
G1 X66.401 Y117.061 E29.84345
G1 X66.903 Y115.138 E29.9426
G1 X66.993 Y114.814 E29.95938
G1 X67.201 Y114.265 E29.98867
G1 X67.545 Y113.62 E30.02514
G1 X68.881 Y111.171 E30.16432
G1 X70.114 Y108.754 E30.29969
G1 X71.302 Y106.252 E30.43787
G1 X72.409 Y103.735 E30.57505
G1 X73.428 Y101.235 E30.70974
G1 X74.385 Y98.677 E30.846
G1 X75.286 Y96.043 E30.98488
G1 X76.093 Y93.453 E31.12022
G1 X76.831 Y90.819 E31.2567
G1 X77.49 Y88.182 E31.3923
G1 X78.079 Y85.508 E31.52891
G1 X78.514 Y83.262 E31.64304
G1 X78.649 Y82.775 E31.66826
G1 X78.86 Y82.315 E31.6935
G1 X79.139 Y81.894 E31.7187
G1 X79.482 Y81.523 E31.74391
G1 F1500 E25.24391
;MESH:CupidV2.stl
G0 F2160 X80.474 Y90.061
G0 X81.355 Y90.132
G0 X81.025 Y100.732
G0 X80.879 Y112.614
G0 X81.478 Y114.637
;TYPE:WALL-INNER
G1 F1500 E31.74391
G1 F900 X82.075 Y114.636 E31.77369
G1 X82.653 Y114.626 E31.80253
G1 X83.108 Y114.638 E31.82524
G1 X83.548 Y114.673 E31.84726
G1 X84.05 Y114.754 E31.87263
G1 X84.348 Y114.839 E31.88809
G1 X84.345 Y115.016 E31.89692
G1 X84.274 Y115.516 E31.92212
G1 X84.156 Y116.183 E31.95591
G1 X84.1 Y116.936 E31.99358
G1 X84.163 Y117.742 E32.03392
G1 X84.342 Y118.454 E32.07055
G1 X84.53 Y119.136 E32.10584
G1 X84.645 Y119.791 E32.13902
G1 X84.748 Y120.607 E32.18005
G1 X85.229 Y124.098 E32.35586
G1 X85.24 Y124.176 E32.35979
G1 X85.407 Y124.074 E32.36493
G1 X85.412 Y124.165
G1 X85.438 Y124.582 E32.38578
G1 X86.235 Y126.443 E32.48678
G1 X86.578 Y127.139 E32.52549
G1 X87.049 Y127.855 E32.56825
G1 X87.539 Y128.294 E32.60107
G1 X88.706 Y129.042 E32.67023
G1 X89.187 Y129.369 E32.69924
G1 X89.663 Y129.718 E32.72869
G1 X90.065 Y130.046 E32.75458
G1 X90.276 Y130.242 E32.76894
G1 X89.189 Y132.581 E32.89762
G1 X88.547 Y134.038 E32.97706
G1 X87.939 Y134.235 E33.00894
G1 X88.317 Y136.473 E33.12218
G1 X88.572 Y137.363 E33.16837
G1 X89.304 Y138.52 E33.23667
G1 X89.614 Y139.132 E33.2709
G1 X89.705 Y139.389 E33.2845
G1 X89.748 Y139.59 E33.29476
G1 X89.757 Y139.98 E33.31422
G1 X89.55 Y141.643 E33.39783
G1 X89.695 Y141.687 E33.40539
G1 X89.696 Y141.688 E33.40546
G1 X89.956 Y141.764 E33.41897
G1 X89.803 Y141.988 E33.42704
G1 X89.376 Y142.616 E33.46492
G1 X89.413 Y142.675 E33.4684
G1 X89.469 Y142.762 E33.47356
G1 X89.48 Y142.779 E33.47457
G1 X89.531 Y142.857 E33.47922
G1 X89.464 Y142.879 E33.47988
G1 X89.178 Y142.974 E33.49103
G1 X89.16 Y142.984 E33.49202
G1 X88.462 Y143.381 E33.53208
G1 X87.056 Y144.347 E33.61718
G1 X86.42 Y144.768 E33.65524
G1 X85.779 Y145.157 E33.69264
G1 X85.213 Y145.457 E33.7246
G1 X84.645 Y145.707 E33.75556
G1 X84.007 Y145.912 E33.789
G1 X83.32 Y146.051 E33.82397
G1 X82.883 Y146.093 E33.84587
G1 X82.341 Y146.114 E33.87293
G1 X81.809 Y146.096 E33.89949
G1 X81.306 Y146.047 E33.9247
G1 X80.819 Y145.964 E33.94935
G1 X80.352 Y145.848 E33.97335
G1 X79.885 Y145.692 E33.99792
G1 X79.454 Y145.502 E34.02142
G1 X79.044 Y145.273 E34.04485
G1 X78.645 Y144.992 E34.06919
G1 X78.322 Y144.701 E34.09088
G1 X78.027 Y144.363 E34.11327
G1 X77.769 Y143.982 E34.13622
G1 X77.536 Y143.525 E34.16181
G1 X77.351 Y143.007 E34.18926
G1 X77.191 Y142.31 E34.22493
G1 X76.962 Y141.192 E34.28187
G1 X76.706 Y141.125 E34.29507
G1 X76.054 Y140.298 E34.34761
G1 X75.674 Y139.71 E34.38254
G1 X75.547 Y139.461 E34.39648
