;FLAVOR:Marlin
;TIME:903
;Filament used: 0.631057m, 0m
;Layer height: 0.18
;MINX:60.142
;MINY:100.338
;MINZ:0.26
;MAXX:174.857
;MAXY:174.697
;MAXZ:1.52
;Generated with Cura_SteamEngine 4.8.0
T0
M140 S60
M105
M190 S60
M104 S200
M105
M109 S200
M82 ;absolute extrusion mode
M201 X500.00 Y500.00 Z100.00 E5000.00 	;Setup machine max acceleration
M203 X500.00 Y500.00 Z10.00 E50.00 	;Setup machine max feedrate
M204 P500.00 R1000.00 T500.00 		;Setup Print/Retract/Travel acceleration
M205 X8.00 Y8.00 Z0.40 E5.00 		;Setup Jerk
M220 S100 				;Reset Feedrate
M221 S100 				;Reset Flowrate
G28				;Home the Machine
#G29 				;Bed Level
G92 E0
M300 P150 S587
G92 E0
G1 F1500 E-6.5
;LAYER_COUNT:8
;LAYER:0
M107
G0 F2160 X113.179 Y101.697 Z0.26
;TYPE:SKIRT
G1 F1500 E0
G1 F900 X113.543 Y101.303 E0.02319
G1 X113.961 Y100.968 E0.04635
G1 X114.425 Y100.699 E0.06955
G1 X114.924 Y100.501 E0.09276
G1 X115.446 Y100.38 E0.11593
G1 X115.981 Y100.338 E0.13913
G1 X116.516 Y100.376 E0.16232
G1 X117.039 Y100.492 E0.18548
G1 X117.54 Y100.686 E0.20871
G1 X118.006 Y100.951 E0.23189
G1 X118.427 Y101.283 E0.25507
G1 X118.794 Y101.673 E0.27823
G1 X119.057 Y102.044 E0.29789
G1 X119.683 Y103.055 E0.34931
G1 X119.922 Y103.455 E0.36946
G1 X121.374 Y105.732 E0.48622
G1 X122.912 Y108.001 E0.60474
G1 X124.504 Y110.21 E0.72248
G1 X126.14 Y112.352 E0.83902
G1 X127.859 Y114.476 E0.95716
G1 X129.656 Y116.571 E1.07651
G1 X131.479 Y118.579 E1.19377
G1 X133.367 Y120.542 E1.31153
G1 X135.311 Y122.454 E1.42943
G1 X137.321 Y124.322 E1.54808
G1 X139.354 Y126.105 E1.665
G1 X141.457 Y127.848 E1.7831
G1 X143.609 Y129.533 E1.90128
G1 X145.818 Y131.161 E2.01993
G1 X148.032 Y132.7 E2.13651
G1 X150.326 Y134.2 E2.25502
G1 X152.64 Y135.62 E2.37241
G1 X155.024 Y136.993 E2.49137
G1 X157.378 Y138.261 E2.60698
G1 X159.851 Y139.503 E2.72663
G1 X162.332 Y140.664 E2.84507
G1 X164.048 Y141.417 E2.9261
G1 X164.791 Y141.735 E2.96104
G1 X165.267 Y141.983 E2.98425
G1 X165.815 Y142.371 E3.01328
G1 X166.223 Y142.72 E3.0365
G1 X166.557 Y143.102 E3.05844
G1 X166.758 Y143.372 E3.07299
G1 X167.042 Y143.827 E3.09618
G1 X167.248 Y144.301 E3.11853
G1 X167.452 Y144.884 E3.14523
G1 X167.866 Y146.199 E3.20484
G1 X168.744 Y148.85 E3.32559
G1 X169.675 Y151.421 E3.44382
G1 X170.649 Y153.889 E3.55854
G1 X171.75 Y156.46 E3.67947
G1 X172.883 Y158.913 E3.7963
G1 X173.447 Y160.047 E3.85106
G1 X173.95 Y161.089 E3.90109
G1 X174.185 Y161.643 E3.92711
G1 X174.27 Y161.879 E3.93796
G1 X174.517 Y162.644 E3.97272
G1 X174.649 Y163.159 E3.9957
G1 X174.756 Y163.727 E4.0207
G1 X174.835 Y164.452 E4.05223
G1 X174.857 Y165.032 E4.07732
G1 X174.838 Y165.617 E4.10263
G1 X174.785 Y166.072 E4.12244
G1 X174.691 Y166.592 E4.14529
G1 X174.556 Y167.112 E4.16852
G1 X174.264 Y167.804 E4.20099
G1 X174.011 Y168.276 E4.22415
G1 X173.603 Y168.801 E4.2529
G1 X173.246 Y169.173 E4.27519
G1 X172.658 Y169.679 E4.30873
G1 X172.131 Y170.097 E4.33782
G1 X171.792 Y170.351 E4.35613
G1 X171.168 Y170.791 E4.38914
G1 X170.785 Y171.044 E4.40899
G1 X170.24 Y171.386 E4.43681
G1 X169.855 Y171.611 E4.45609
G1 X169.222 Y171.963 E4.48741
G1 X168.969 Y172.095 E4.49975
G1 X168.232 Y172.456 E4.53523
G1 X167.99 Y172.566 E4.54673
G1 X167.203 Y172.904 E4.58376
G1 X167.015 Y172.978 E4.5925
G1 X166.279 Y173.254 E4.62648
G1 X166.035 Y173.339 E4.63766
G1 X165.216 Y173.602 E4.67485
G1 X165.058 Y173.648 E4.68196
G1 X164.177 Y173.887 E4.72143
G1 X164.035 Y173.923 E4.72777
G1 X163.286 Y174.094 E4.76099
G1 X163.107 Y174.13 E4.76888
G1 X161.909 Y174.34 E4.82147
G1 X161.773 Y174.361 E4.82742
G1 X160.884 Y174.482 E4.86621
G1 X160.753 Y174.497 E4.87191
G1 X159.701 Y174.6 E4.91762
G1 X158.788 Y174.659 E4.95718
G1 X157.697 Y174.694 E5.00437
G1 X157.591 Y174.696 E5.00896
G1 X156.909 Y174.697 E5.03845
G1 X156.793 Y174.695 E5.04346
G1 X155.631 Y174.659 E5.09373
G1 X155.395 Y174.644 E5.10395
G1 X154.145 Y174.523 E5.15826
G1 X153.619 Y174.456 E5.18118
G1 X153.46 Y174.431 E5.18814
G1 X152.771 Y174.307 E5.21841
G1 X152.215 Y174.182 E5.24305
G1 X151.4 Y173.969 E5.27947
G1 X151.285 Y173.937 E5.28464
G1 X150.243 Y173.627 E5.33164
G1 X147.576 Y172.878 E5.45142
G1 X144.943 Y172.218 E5.56879
G1 X142.219 Y171.614 E5.68943
G1 X139.62 Y171.118 E5.80383
G1 X136.874 Y170.673 E5.92411
G1 X134.198 Y170.316 E6.04084
G1 X131.516 Y170.034 E6.15745
G1 X128.758 Y169.824 E6.27704
G1 X126.029 Y169.694 E6.39518
G1 X123.335 Y169.64 E6.51168
G1 X120.606 Y169.664 E6.62968
G1 X117.842 Y169.767 E6.74928
G1 X115.148 Y169.944 E6.86601
G1 X112.434 Y170.198 E6.98387
G1 X109.75 Y170.527 E7.10079
G1 X108.005 Y170.803 E7.17718
G1 X107.855 Y170.815 E7.18369
G1 X106.562 Y171.01 E7.24023
G1 X106.007 Y171.05 E7.26429
G1 X105.306 Y171.03 E7.29461
G1 X104.801 Y170.972 E7.31659
G1 X104.367 Y170.887 E7.33571
G1 X103.578 Y170.7 E7.37077
G1 X100.856 Y170.097 E7.49132
G1 X98.183 Y169.582 E7.60902
G1 X95.501 Y169.145 E7.72651
G1 X92.791 Y168.781 E7.84474
G1 X90.1 Y168.497 E7.96174
G1 X87.869 Y168.337 E8.05845
G1 X86.748 Y168.247 E8.10708
G1 X86.252 Y168.173 E8.12876
G1 X85.65 Y168.038 E8.15544
G1 X84.281 Y167.706 E8.21635
G1 X81.652 Y167.147 E8.33256
G1 X78.95 Y166.652 E8.45133
G1 X76.269 Y166.24 E8.56862
G1 X73.544 Y165.898 E8.68737
G1 X70.864 Y165.639 E8.80378
G1 X68.126 Y165.453 E8.92244
G1 X63.997 Y165.311 E9.10108
G1 X63.548 Y165.271 E9.12057
G1 X62.962 Y165.123 E9.1467
G1 X62.718 Y165.039 E9.15786
G1 X62.225 Y164.827 E9.18106
G1 X61.77 Y164.544 E9.20423
G1 X61.361 Y164.197 E9.22742
G1 X60.976 Y163.748 E9.253
G1 X60.852 Y163.577 E9.26213
G1 X60.57 Y163.121 E9.28531
G1 X60.359 Y162.628 E9.3085
G1 X60.197 Y161.936 E9.33923
G1 X60.172 Y161.747 E9.34747
G1 X60.142 Y161.212 E9.37064
G1 X60.157 Y160.941 E9.38238
G1 X60.329 Y159.113 E9.46177
G1 X60.537 Y156.373 E9.58058
G1 X60.666 Y153.648 E9.69854
G1 X60.709 Y151.881 E9.77496
G1 X60.721 Y151.667 E9.78423
G1 X60.782 Y150.942 E9.81569
G1 X60.86 Y150.384 E9.84005
G1 X60.983 Y149.787 E9.8664
G1 X61.189 Y149.064 E9.89891
G1 X61.401 Y148.484 E9.92561
G1 X61.598 Y147.991 E9.94856
G1 X61.859 Y147.454 E9.97438
G1 X62.232 Y146.837 E10.00555
G1 X62.635 Y146.28 E10.03528
G1 X63.097 Y145.721 E10.06664
G1 X63.482 Y145.328 E10.09042
G1 X63.887 Y144.972 E10.11374
G1 X64.369 Y144.611 E10.13978
G1 X64.51 Y144.511 E10.14725
G1 X64.97 Y144.234 E10.17047
G1 X65.461 Y143.986 E10.19425
G1 X65.875 Y143.793 E10.214
G1 X67.154 Y143.24 E10.27425
G1 X69.632 Y142.127 E10.39171
G1 X72.096 Y140.937 E10.51002
G1 X74.522 Y139.679 E10.62818
G1 X76.905 Y138.355 E10.74605
G1 X79.242 Y136.971 E10.86349
G1 X81.544 Y135.517 E10.98122
G1 X83.819 Y133.989 E11.09971
G1 X86.046 Y132.399 E11.21803
G1 X88.201 Y130.767 E11.33491
G1 X90.333 Y129.056 E11.45311
G1 X92.419 Y127.281 E11.57154
G1 X94.43 Y125.471 E11.68852
G1 X96.42 Y123.575 E11.80737
G1 X98.331 Y121.648 E11.92471
G1 X100.2 Y119.653 E12.04291
G1 X101.993 Y117.627 E12.15989
G1 X103.77 Y115.502 E12.27967
G1 X105.444 Y113.381 E12.3965
G1 X107.069 Y111.198 E12.51416
G1 X108.637 Y108.96 E12.63232
G1 X110.143 Y106.678 E12.75054
G1 X111.577 Y104.365 E12.86821
G1 X112.428 Y102.919 E12.94076
G1 X112.877 Y102.14 E12.97963
G1 X113.179 Y101.697 E13.00281
G0 F2160 X113.51 Y101.923
G1 F900 X113.858 Y101.557 E13.02465
G1 X114.26 Y101.25 E13.04652
G1 X114.705 Y101.01 E13.06838
G1 X115.182 Y100.843 E13.09024
G1 X115.68 Y100.754 E13.11211
G1 X116.185 Y100.744 E13.13395
G1 X116.686 Y100.813 E13.15582
G1 X117.169 Y100.961 E13.17766
G1 X117.624 Y101.183 E13.19955
G1 X118.037 Y101.474 E13.22139
G1 X118.4 Y101.826 E13.24326
G1 X118.717 Y102.254 E13.26628
G1 X119.339 Y103.26 E13.31743
G1 X119.569 Y103.644 E13.33678
G1 X121.05 Y105.966 E13.45586
G1 X122.589 Y108.237 E13.57448
G1 X124.153 Y110.409 E13.69021
G1 X125.859 Y112.641 E13.81168
G1 X127.56 Y114.743 E13.92859
G1 X129.339 Y116.817 E14.04674
G1 X131.178 Y118.842 E14.16501
G1 X133.098 Y120.839 E14.2848
G1 X135.023 Y122.732 E14.40153
G1 X137.049 Y124.615 E14.52113
G1 X139.101 Y126.415 E14.63915
G1 X141.218 Y128.169 E14.75802
G1 X143.354 Y129.841 E14.87531
G1 X145.575 Y131.479 E14.99463
G1 X147.832 Y133.047 E15.11346
G1 X150.104 Y134.533 E15.23084
G1 X152.452 Y135.974 E15.34996
G1 X154.799 Y137.325 E15.46705
G1 X157.23 Y138.635 E15.58645
G1 X159.68 Y139.866 E15.70501
G1 X162.122 Y141.009 E15.82159
G1 X163.917 Y141.796 E15.90633
G1 X164.634 Y142.103 E15.94006
G1 X165.27 Y142.466 E15.97172
G1 X165.579 Y142.693 E15.9883
G1 X165.961 Y143.024 E16.01015
G1 X166.315 Y143.444 E16.0339
G1 X166.435 Y143.608 E16.04269
G1 X166.701 Y144.039 E16.06459
G1 X167.036 Y144.902 E16.10462
G1 X167.486 Y146.325 E16.16915
G1 X168.36 Y148.964 E16.28935
G1 X169.303 Y151.568 E16.4091
G1 X170.292 Y154.072 E16.5255
G1 X171.375 Y156.602 E16.6445
G1 X172.52 Y159.08 E16.76253
G1 X173.087 Y160.221 E16.81762
G1 X173.585 Y161.253 E16.86716
G1 X173.813 Y161.792 E16.89247
G1 X173.889 Y162.002 E16.90212
G1 X174.136 Y162.767 E16.93688
G1 X174.29 Y163.399 E16.96501
G1 X174.4 Y164.083 E16.99496
G1 X174.452 Y164.722 E17.02268
G1 X174.445 Y165.466 E17.05485
G1 X174.391 Y166.001 E17.0781
G1 X174.297 Y166.521 E17.10095
G1 X174.168 Y167.01 E17.12282
G1 X173.899 Y167.641 E17.15248
G1 X173.658 Y168.086 E17.17436
G1 X173.311 Y168.528 E17.19866
G1 X172.77 Y169.065 E17.23161
G1 X172.335 Y169.426 E17.25606
G1 X171.813 Y169.837 E17.28478
G1 X171.56 Y170.024 E17.29839
G1 X170.946 Y170.458 E17.3309
G1 X170.572 Y170.706 E17.3503
G1 X170.12 Y170.991 E17.3734
G1 X169.661 Y171.262 E17.39645
G1 X169.035 Y171.609 E17.4274
G1 X168.793 Y171.736 E17.43922
G1 X168.144 Y172.055 E17.47048
G1 X167.831 Y172.198 E17.48536
G1 X167.054 Y172.532 E17.52193
G1 X166.875 Y172.603 E17.53026
G1 X166.06 Y172.907 E17.56787
G1 X165.912 Y172.958 E17.57464
G1 X165.093 Y173.221 E17.61183
G1 X164.953 Y173.262 E17.61814
G1 X164.072 Y173.501 E17.65761
G1 X163.946 Y173.533 E17.66323
G1 X163.197 Y173.704 E17.69645
G1 X163.038 Y173.736 E17.70346
G1 X161.84 Y173.946 E17.75605
G1 X161.719 Y173.965 E17.76135
G1 X160.83 Y174.086 E17.80014
G1 X159.784 Y174.191 E17.84559
G1 X159.675 Y174.2 E17.85032
G1 X158.762 Y174.259 E17.88988
G1 X158.655 Y174.264 E17.89451
G1 X157.591 Y174.296 E17.94054
G1 X156.909 Y174.297 E17.97003
G1 X155.643 Y174.259 E18.02479
G1 X155.434 Y174.246 E18.03385
G1 X154.074 Y174.113 E18.09293
G1 X153.53 Y174.038 E18.11667
G1 X152.94 Y173.932 E18.14259
G1 X152.437 Y173.824 E18.16484
G1 X152.316 Y173.795 E18.17022
G1 X151.399 Y173.554 E18.21121
G1 X150.337 Y173.239 E18.25911
G1 X147.676 Y172.491 E18.37863
G1 X145.013 Y171.823 E18.49734
G1 X142.316 Y171.225 E18.61678
G1 X139.687 Y170.724 E18.7325
G1 X136.954 Y170.28 E18.85222
G1 X134.26 Y169.921 E18.96973
G1 X131.514 Y169.633 E19.08912
G1 X128.774 Y169.424 E19.20793
G1 X126.056 Y169.294 E19.32559
G1 X123.339 Y169.24 E19.44309
G1 X120.588 Y169.265 E19.56204
G1 X117.835 Y169.367 E19.68116
G1 X115.123 Y169.545 E19.79867
G1 X112.381 Y169.802 E19.91775
G1 X109.7 Y170.13 E20.03454
G1 X107.943 Y170.408 E20.11145
G1 X107.794 Y170.42 E20.11792
G1 X106.502 Y170.614 E20.17441
G1 X105.817 Y170.649 E20.20406
G1 X104.874 Y170.579 E20.24495
G1 X104.459 Y170.498 E20.26323
G1 X103.619 Y170.299 E20.30056
G1 X100.939 Y169.705 E20.41925
G1 X98.257 Y169.189 E20.53734
G1 X95.581 Y168.753 E20.65457
G1 X92.814 Y168.381 E20.77529
G1 X90.14 Y168.099 E20.89155
G1 X87.901 Y167.939 E20.9886
G1 X86.78 Y167.849 E21.03723
G1 X86.339 Y167.782 E21.05652
G1 X85.744 Y167.649 E21.08288
G1 X84.386 Y167.32 E21.14329
G1 X81.736 Y166.757 E21.26043
G1 X79.017 Y166.258 E21.37996
G1 X76.303 Y165.841 E21.49869
G1 X73.599 Y165.502 E21.61652
G1 X70.893 Y165.24 E21.73407
G1 X68.137 Y165.053 E21.85351
G1 X64.003 Y164.91 E22.03236
G1 X63.584 Y164.871 E22.05055
G1 X63.092 Y164.745 E22.07251
G1 X62.848 Y164.661 E22.08367
G1 X62.385 Y164.459 E22.10551
G1 X61.959 Y164.187 E22.12737
G1 X61.581 Y163.851 E22.14923
G1 X61.175 Y163.343 E22.17735
G1 X60.912 Y162.911 E22.19922
G1 X60.72 Y162.444 E22.22105
G1 X60.594 Y161.884 E22.24587
G1 X60.569 Y161.695 E22.25411
G1 X60.555 Y160.978 E22.28512
G1 X60.729 Y159.131 E22.36534
G1 X60.937 Y156.386 E22.48437
G1 X61.066 Y153.677 E22.60163
G1 X61.109 Y151.891 E22.67888
G1 X61.119 Y151.701 E22.6871
G1 X61.18 Y150.976 E22.71856
G1 X61.253 Y150.46 E22.74109
G1 X61.373 Y149.874 E22.76696
G1 X61.564 Y149.201 E22.79721
G1 X61.776 Y148.621 E22.82391
G1 X61.969 Y148.141 E22.84628
G1 X62.208 Y147.65 E22.86989
G1 X62.556 Y147.071 E22.8991
G1 X62.893 Y146.603 E22.92403
G1 X63.383 Y146.001 E22.95759
G1 X63.768 Y145.608 E22.98138
G1 X64.526 Y144.992 E23.02362
G1 X65.15 Y144.591 E23.05569
G1 X65.641 Y144.343 E23.07947
G1 X66.034 Y144.16 E23.09822
G1 X67.313 Y143.607 E23.15846
G1 X69.806 Y142.488 E23.27662
G1 X72.261 Y141.301 E23.39452
G1 X74.698 Y140.038 E23.51321
G1 X77.124 Y138.69 E23.63321
G1 X79.45 Y137.312 E23.7501
G1 X81.8 Y135.828 E23.87028
G1 X84.046 Y134.319 E23.98727
G1 X86.257 Y132.741 E24.10472
G1 X88.447 Y131.082 E24.22352
G1 X90.597 Y129.357 E24.3427
G1 X92.682 Y127.583 E24.46107
G1 X94.708 Y125.759 E24.57894
G1 X96.68 Y123.881 E24.69669
G1 X98.641 Y121.902 E24.81715
G1 X100.474 Y119.946 E24.93306
G1 X102.315 Y117.865 E25.05319
G1 X104.061 Y115.778 E25.17084
G1 X105.763 Y113.621 E25.28965
G1 X107.402 Y111.42 E25.4083
G1 X108.966 Y109.188 E25.52614
G1 X110.473 Y106.904 E25.64446
G1 X111.915 Y104.579 E25.76275
G1 X112.789 Y103.094 E25.83726
G1 X113.224 Y102.34 E25.8749
G1 X113.51 Y101.923 E25.89676
G1 F1500 E19.39676
;MESH:Parabens.stl
G0 F2160 X110.65 Y146.112
G0 X110.6 Y147.163
G0 X110.821 Y148.211
;TYPE:WALL-INNER
G1 F1500 E25.89676
G1 F900 X111.14 Y148.276 E25.91084
G1 X111.148 Y148.685 E25.92852
G1 X111.149 Y148.719 E25.92999
G1 X111.075 Y149.298 E25.95523
G1 X110.949 Y150.001 E25.98611
G1 X110.764 Y150.842 E26.02335
G1 X110.47 Y152.032 E26.07635
G1 X110.681 Y152.116 E26.08617
G1 X110.883 Y152.197 E26.09558
G1 X110.785 Y152.391 E26.10151
G1 X110.584 Y152.787 E26.12071
G1 X110.282 Y153.399 E26.15022
G1 X110 Y153.989 E26.17849
G1 X109.699 Y154.631 E26.20915
G1 X109.404 Y155.626 E26.25403
G1 X109.129 Y156.533 E26.29501
G1 X108.555 Y158.346 E26.37723
G1 X108.263 Y159.238 E26.41781
G1 X107.675 Y160.978 E26.49723
G1 X107.391 Y161.799 E26.53479
G1 X107.114 Y162.583 E26.57074
G1 X106.846 Y163.321 E26.60469
G1 X106.483 Y164.301 E26.64988
G1 X106.148 Y165.169 E26.69011
G1 X105.944 Y165.673 E26.71362
G1 X105.786 Y166.039 E26.73085
G1 X105.622 Y166.044 E26.73795
G1 X105.273 Y165.967 E26.7534
G1 X105.085 Y165.926 E26.76172
G1 X105.027 Y165.898 E26.76451
G1 X105.094 Y165.718 E26.77018
G1 X106.094 Y163.052 E26.89329
G1 X106.826 Y161.065 E26.98485
G1 X107.423 Y159.449 E27.05934
G1 X106.755 Y159.045 E27.09309
G1 X106.75 Y159.042 E27.09335
G1 X106.717 Y159.022 E27.09501
G1 X106.949 Y158.711 E27.1074
G1 X106.952 Y158.707 E27.10762
G1 X107.265 Y158.238 E27.132
G1 X107.567 Y157.753 E27.1567
G1 X107.854 Y157.254 E27.18159
G1 X108.123 Y156.757 E27.20603
G1 X108.377 Y156.261 E27.23012
G1 X108.783 Y155.388 E27.27175
G1 X109.042 Y154.753 E27.3014
G1 X109.554 Y153.237 E27.37059
G1 X109.825 Y152.39 E27.40904
G1 X109.978 Y151.891 E27.43161
G1 X110.244 Y150.95 E27.47389
G1 X110.492 Y149.988 E27.51684
G1 X110.683 Y149.075 E27.55718
G1 X110.754 Y148.629 E27.5767
G1 X110.818 Y148.225 E27.59278
G1 X110.821 Y148.211 E27.5934
G0 F2160 X107.509 Y155.847
G0 X106.454 Y157.721
G0 X105.839 Y158.593
G0 X104.92 Y159.513
G0 X103.968 Y159.79
G0 X103.294 Y159.232
G0 X103.102 Y157.681
G0 X103.261 Y155.843
G0 X103.651 Y154.059
G0 X104.006 Y152.932
G0 X106.165 Y148.809
G1 F900 X106.46 Y148.937 E27.6073
G1 X106.678 Y149.177 E27.62132
G1 X106.802 Y149.514 E27.63685
G1 X106.798 Y150.059 E27.66041
G1 X106.696 Y150.426 E27.67688
G1 X106.517 Y150.788 E27.69434
G1 X106.16 Y151.218 E27.71851
