;FLAVOR:Marlin
;TIME:992
;Filament used: 0.79179m, 0m
;Layer height: 0.18
;MINX:81.72
;MINY:85.446
;MINZ:0.3
;MAXX:153.274
;MAXY:147.958
;MAXZ:1.56
;POSTPROCESSED
;Generated with Cura_SteamEngine 4.8.0
T0
M140 S60
M105
M190 S60
M104 S200
M105
M109 S200
M82 ;absolute extrusion mode
M201 X500.00 Y500.00 Z100.00 E5000.00 	;Setup machine max acceleration
M203 X500.00 Y500.00 Z10.00 E50.00 	;Setup machine max feedrate
M204 P500.00 R1000.00 T500.00 		;Setup Print/Retract/Travel acceleration
M205 X8.00 Y8.00 Z0.40 E5.00 		;Setup Jerk
M220 S100 				;Reset Feedrate
M221 S100 				;Reset Flowrate
G28				;Home the Machine
#G29 				;Bed Level
G92 E0
M300 P150 S587
G92 E0
G1 F1500 E-6.5
;LAYER_COUNT:8
;LAYER:0
M107
G0 F2160 X84.985 Y108.976 Z0.3
;TYPE:SKIRT
G1 F1500 E0
G1 F900 X85.477 Y108.635 E0.02987
G1 X86.168 Y108.237 E0.06965
G1 X88.49 Y106.859 E0.20436
G1 X90.823 Y105.382 E0.34212
G1 X93.08 Y103.863 E0.47785
G1 X95.324 Y102.257 E0.61552
G1 X97.443 Y100.65 E0.7482
G1 X99.608 Y98.909 E0.8868
G1 X101.659 Y97.161 E1.02125
G1 X103.719 Y95.303 E1.15965
G1 X105.654 Y93.455 E1.29314
G1 X107.597 Y91.492 E1.43094
G1 X109.433 Y89.528 E1.56507
G1 X111.271 Y87.448 E1.70355
G1 X111.598 Y87.062 E1.72879
G1 X111.936 Y86.675 E1.75442
G1 X112.317 Y86.298 E1.78116
G1 X112.751 Y85.983 E1.80792
G1 X113.227 Y85.735 E1.83469
G1 X113.734 Y85.561 E1.86144
G1 X114.261 Y85.464 E1.88817
G1 X114.797 Y85.446 E1.91493
G1 X115.33 Y85.508 E1.9417
G1 X115.847 Y85.649 E1.96843
G1 X116.338 Y85.865 E1.99519
G1 X116.792 Y86.152 E2.02199
G1 X117.197 Y86.502 E2.0487
G1 X117.59 Y86.97 E2.07919
G1 X118.295 Y87.971 E2.14027
G1 X119.925 Y90.217 E2.27872
G1 X121.586 Y92.374 E2.41454
G1 X123.309 Y94.486 E2.55053
G1 X125.101 Y96.559 E2.68724
G1 X126.942 Y98.571 E2.82329
G1 X128.819 Y100.509 E2.9579
G1 X130.799 Y102.44 E3.09588
G1 X132.787 Y104.273 E3.23078
G1 X134.857 Y106.075 E3.36771
G1 X136.947 Y107.795 E3.50275
G1 X139.11 Y109.473 E3.63932
G1 X140.485 Y110.488 E3.72459
G1 X140.986 Y110.901 E3.75698
G1 X141.245 Y111.144 E3.7747
G1 X141.608 Y111.539 E3.80147
G1 X141.996 Y112.1 E3.8355
G1 X142.296 Y112.606 E3.86484
G1 X142.849 Y113.704 E3.92618
G1 X145.92 Y120.131 E4.28155
G1 X146.651 Y121.592 E4.36305
G1 X147.517 Y123.363 E4.4614
G1 X152.479 Y133.85 E5.04021
G1 X152.723 Y134.385 E5.06955
G1 X152.808 Y134.588 E5.08053
G1 X153.014 Y135.124 E5.10918
G1 X153.169 Y135.637 E5.13591
G1 X153.247 Y136.174 E5.16299
G1 X153.274 Y136.593 E5.18393
G1 X153.229 Y137.389 E5.22371
G1 X153.095 Y138.047 E5.25721
G1 X153.032 Y138.266 E5.26858
G1 X152.816 Y138.833 E5.29885
G1 X152.712 Y139.049 E5.31081
G1 X152.32 Y139.684 E5.34804
G1 X152.038 Y140.05 E5.37109
G1 X151.68 Y140.449 E5.39784
G1 X151.242 Y140.815 E5.42631
G1 X151.011 Y140.984 E5.44059
G1 X150.359 Y141.363 E5.47822
G1 X149.916 Y141.551 E5.50223
G1 X149.405 Y141.716 E5.52902
G1 X148.638 Y141.846 E5.56783
G1 X148.033 Y141.893 E5.5981
G1 X147.644 Y141.898 E5.61751
G1 X137.194 Y141.898 E6.13887
G1 X134.413 Y141.937 E6.27762
G1 X131.685 Y142.053 E6.41385
G1 X128.956 Y142.247 E6.55034
G1 X126.279 Y142.512 E6.68455
G1 X123.54 Y142.862 E6.82231
G1 X120.862 Y143.283 E6.95756
G1 X118.176 Y143.783 E7.09386
G1 X115.549 Y144.348 E7.22792
G1 X112.874 Y145.003 E7.36532
G1 X110.257 Y145.723 E7.50074
G1 X106.78 Y146.808 E7.68245
G1 X105.363 Y147.273 E7.75686
G1 X104.753 Y147.448 E7.78852
G1 X104.224 Y147.577 E7.81568
G1 X103.674 Y147.694 E7.84374
G1 X103.036 Y147.8 E7.876
G1 X102.491 Y147.869 E7.90341
G1 X101.795 Y147.93 E7.93827
G1 X101.241 Y147.956 E7.96594
G1 X100.35 Y147.958 E8.01039
G1 X99.68 Y147.923 E8.04386
G1 X99.133 Y147.873 E8.07126
G1 X98.537 Y147.8 E8.10122
G1 X98.024 Y147.714 E8.12717
G1 X97.469 Y147.602 E8.15542
G1 X96.963 Y147.483 E8.18135
G1 X96.423 Y147.332 E8.20933
G1 X95.861 Y147.155 E8.23872
G1 X95.649 Y147.079 E8.24996
G1 X94.878 Y146.783 E8.29116
G1 X94.648 Y146.685 E8.30363
G1 X93.903 Y146.338 E8.34464
G1 X93.682 Y146.226 E8.357
G1 X92.931 Y145.811 E8.3998
G1 X92.719 Y145.684 E8.41213
G1 X91.974 Y145.203 E8.45638
G1 X91.772 Y145.062 E8.46867
G1 X91.174 Y144.615 E8.50591
G1 X90.979 Y144.459 E8.51837
G1 X90.314 Y143.886 E8.56217
G1 X90.124 Y143.711 E8.57505
G1 X89.48 Y143.07 E8.62039
G1 X89.051 Y142.607 E8.65188
G1 X88.509 Y141.944 E8.6946
G1 X88.126 Y141.434 E8.72642
G1 X87.855 Y141.038 E8.75036
G1 X87.466 Y140.424 E8.78662
G1 X87.146 Y139.876 E8.81828
G1 X87.01 Y139.615 E8.83297
G1 X86.704 Y138.992 E8.86759
G1 X86.468 Y138.474 E8.89599
G1 X86.289 Y138.026 E8.92006
G1 X85.994 Y137.197 E8.96396
G1 X85.764 Y136.44 E9.00343
G1 X85.692 Y136.157 E9.018
G1 X85.528 Y135.417 E9.05582
G1 X85.429 Y134.892 E9.08247
G1 X85.233 Y133.647 E9.14535
G1 X85.075 Y132.565 E9.1999
G1 X84.608 Y129.887 E9.33552
G1 X84.066 Y127.226 E9.47101
G1 X83.448 Y124.575 E9.60681
G1 X82.751 Y121.928 E9.74337
G1 X82.257 Y120.281 E9.82916
G1 X82.242 Y120.213 E9.83263
G1 X81.863 Y118.911 E9.90029
G1 X81.752 Y118.386 E9.92706
G1 X81.72 Y117.851 E9.9538
G1 X81.768 Y117.317 E9.98055
G1 X81.908 Y116.755 E10.00944
G1 X82.808 Y114.084 E10.15006
G1 X83.529 Y111.734 E10.2727
G1 X83.82 Y110.741 E10.32432
G1 X84.009 Y110.239 E10.35108
G1 X84.27 Y109.771 E10.37781
G1 X84.598 Y109.347 E10.40456
G1 X84.985 Y108.976 E10.43131
G0 F2160 X85.33 Y109.213
G1 F900 X85.677 Y108.982 E10.4521
G1 X86.331 Y108.605 E10.48976
G1 X88.728 Y107.182 E10.62884
G1 X91.038 Y105.719 E10.76525
G1 X93.33 Y104.176 E10.9031
G1 X95.512 Y102.615 E11.03695
G1 X97.729 Y100.934 E11.17575
G1 X99.835 Y99.241 E11.31056
G1 X101.941 Y97.446 E11.44862
G1 X103.98 Y95.606 E11.58564
G1 X105.949 Y93.725 E11.72149
G1 X107.874 Y91.782 E11.85795
G1 X109.742 Y89.783 E11.99445
G1 X111.573 Y87.711 E12.1324
G1 X111.899 Y87.325 E12.15761
G1 X112.237 Y86.938 E12.18324
G1 X112.598 Y86.585 E12.20843
G1 X113.011 Y86.293 E12.23366
G1 X113.465 Y86.069 E12.25892
G1 X113.948 Y85.92 E12.28414
G1 X114.448 Y85.849 E12.30933
G1 X114.954 Y85.858 E12.33458
G1 X115.452 Y85.946 E12.35981
G1 X115.929 Y86.111 E12.38499
G1 X116.375 Y86.35 E12.41024
G1 X116.778 Y86.656 E12.43548
G1 X117.263 Y87.2 E12.47184
G1 X117.993 Y88.236 E12.53507
G1 X119.6 Y90.45 E12.67156
G1 X121.268 Y92.616 E12.80795
G1 X123.026 Y94.772 E12.94674
G1 X124.785 Y96.806 E13.0809
G1 X126.643 Y98.837 E13.21823
G1 X128.553 Y100.808 E13.35516
G1 X130.531 Y102.738 E13.49303
G1 X132.502 Y104.555 E13.62678
G1 X134.583 Y106.366 E13.76441
G1 X136.714 Y108.12 E13.90211
G1 X138.886 Y109.806 E14.03928
G1 X140.247 Y110.81 E14.12366
G1 X140.713 Y111.192 E14.15372
G1 X140.972 Y111.435 E14.17144
G1 X141.446 Y111.996 E14.20808
G1 X141.791 Y112.524 E14.23955
G1 X141.939 Y112.786 E14.25456
G1 X142.488 Y113.876 E14.31545
G1 X145.577 Y120.339 E14.67283
G1 X146.292 Y121.767 E14.7525
G1 X147.155 Y123.534 E14.85061
G1 X152.115 Y134.016 E15.42915
G1 X152.359 Y134.551 E15.45849
G1 X152.435 Y134.731 E15.46823
G1 X152.641 Y135.267 E15.49688
G1 X152.785 Y135.752 E15.52212
G1 X152.859 Y136.343 E15.55184
G1 X152.874 Y136.615 E15.56543
G1 X152.834 Y137.323 E15.60081
G1 X152.71 Y137.937 E15.63206
G1 X152.647 Y138.156 E15.64343
G1 X152.455 Y138.659 E15.67029
G1 X152.351 Y138.875 E15.68225
G1 X152.003 Y139.44 E15.71535
G1 X151.721 Y139.806 E15.7384
G1 X151.207 Y140.334 E15.77517
G1 X150.774 Y140.662 E15.80227
G1 X150.195 Y140.998 E15.83567
G1 X149.765 Y141.181 E15.85898
G1 X149.047 Y141.379 E15.89614
G1 X148.209 Y141.486 E15.93829
G1 X147.64 Y141.498 E15.96668
G1 X137.188 Y141.498 E16.48813
G1 X134.391 Y141.538 E16.62769
G1 X131.674 Y141.653 E16.76336
G1 X128.928 Y141.848 E16.90071
G1 X126.222 Y142.116 E17.03637
G1 X123.499 Y142.464 E17.17333
G1 X120.798 Y142.889 E17.30974
G1 X118.09 Y143.392 E17.44715
G1 X115.433 Y143.964 E17.58275
G1 X112.786 Y144.612 E17.71871
G1 X110.149 Y145.338 E17.85516
G1 X106.661 Y146.426 E18.03745
G1 X105.238 Y146.893 E18.11217
G1 X104.648 Y147.062 E18.14278
G1 X104.131 Y147.188 E18.16933
G1 X103.602 Y147.301 E18.19632
G1 X102.973 Y147.405 E18.22813
G1 X102.452 Y147.471 E18.25433
G1 X101.767 Y147.531 E18.28863
G1 X101.235 Y147.556 E18.3152
G1 X100.354 Y147.558 E18.35916
G1 X99.706 Y147.524 E18.39153
G1 X99.181 Y147.476 E18.41783
G1 X98.596 Y147.404 E18.44724
G1 X98.093 Y147.32 E18.47268
G1 X97.56 Y147.213 E18.4998
G1 X97.054 Y147.094 E18.52574
G1 X96.533 Y146.948 E18.55273
G1 X95.994 Y146.778 E18.58093
G1 X95.792 Y146.705 E18.59164
G1 X95.021 Y146.409 E18.63285
G1 X94.817 Y146.323 E18.64389
G1 X94.072 Y145.976 E18.68489
G1 X93.875 Y145.876 E18.69591
G1 X93.124 Y145.461 E18.73872
G1 X92.936 Y145.348 E18.74967
G1 X92.191 Y144.867 E18.79391
G1 X92.011 Y144.742 E18.80484
G1 X91.413 Y144.295 E18.84209
G1 X91.24 Y144.156 E18.85316
G1 X90.575 Y143.583 E18.89695
G1 X90.407 Y143.427 E18.90839
G1 X89.694 Y142.716 E18.95863
G1 X89.351 Y142.342 E18.98395
G1 X88.822 Y141.695 E19.02564
G1 X88.446 Y141.194 E19.05689
G1 X88.192 Y140.824 E19.07928
G1 X87.865 Y140.31 E19.10968
G1 X87.57 Y139.814 E19.13847
G1 X87.369 Y139.439 E19.15969
G1 X87.018 Y138.722 E19.19952
G1 X86.769 Y138.158 E19.23028
G1 X86.666 Y137.892 E19.24451
G1 X86.371 Y137.063 E19.28841
G1 X86.149 Y136.33 E19.32662
G1 X86.083 Y136.07 E19.34
G1 X85.898 Y135.23 E19.38292
G1 X85.824 Y134.83 E19.40321
G1 X85.628 Y133.589 E19.46589
G1 X85.467 Y132.481 E19.52175
G1 X85 Y129.804 E19.65732
G1 X84.463 Y127.17 E19.79144
G1 X83.827 Y124.44 E19.93128
G1 X83.139 Y121.829 E20.06599
G1 X82.64 Y120.166 E20.15262
G1 X82.626 Y120.101 E20.15593
G1 X82.247 Y118.799 E20.22359
G1 X82.145 Y118.304 E20.2488
G1 X82.122 Y117.799 E20.27402
G1 X82.178 Y117.297 E20.29922
G1 X82.288 Y116.883 E20.32059
G1 X83.171 Y114.263 E20.45853
G1 X83.899 Y111.89 E20.58236
G1 X84.203 Y110.854 E20.63623
G1 X84.384 Y110.382 E20.66145
G1 X84.636 Y109.944 E20.68666
G1 X84.954 Y109.551 E20.71188
G1 X85.33 Y109.213 E20.73711
G1 F1500 E14.23711
;MESH:DiaDa Mulher.stl
G0 F2160 X87.355 Y110.971
G0 X87.813 Y111.945
G0 X93.123 Y120.017
;TYPE:WALL-INNER
G1 F1500 E20.73711
G1 F900 X93.039 Y119.836 E20.74706
G1 X92.859 Y119.921 E20.75347
G1 X89.262 Y121.623 E20.952
G1 X89.082 Y121.708 E20.96194
G1 X88.998 Y121.527 E20.96836
G1 X87.7 Y118.764 E21.12066
G1 X91.647 Y116.894 E21.33856
G1 X89.654 Y112.613 E21.57415
G1 X92.416 Y111.317 E21.72637
G1 X92.596 Y111.233 E21.73628
G1 X92.68 Y111.413 E21.74268
G1 X94.257 Y114.796 E21.9289
G1 X96.131 Y114.796 E22.02239
G1 X98.376 Y113.734 E22.1463
G1 X98.556 Y113.649 E22.15623
G1 X98.64 Y113.83 E22.16266
G1 X99.094 Y114.796 E22.21591
G1 X114.351 Y114.796 E22.97708
G1 X114.491 Y113.084 E23.06278
G1 X114.685 Y110.7 E23.18211
G1 X114.888 Y113.083 E23.24196
G1 X115.034 Y114.796 E23.32773
G1 X136.954 Y114.796 E24.42132
G1 X137.282 Y114.858 E24.43798
G1 X137.426 Y114.961 E24.44681
G1 X137.582 Y115.201 E24.46109
G1 X142.797 Y126.115 E25.06456
G1 X142.842 Y126.115 E25.0668
G1 X147.623 Y136.214 E25.62425
G1 X147.757 Y136.498 E25.63992
G1 X147.443 Y136.498 E25.64897
G1 X147.442 Y136.498 E25.64902
G1 X110.141 Y136.498 E27.50998
G1 X109.201 Y138.041 E27.60012
G1 X108.989 Y138.351 E27.61886
G1 X108.512 Y138.964 E27.65761
G1 X108.256 Y139.261 E27.67717
G1 X107.726 Y139.802 E27.71495
G1 X107.401 Y140.098 E27.73688
G1 X106.856 Y140.538 E27.77183
G1 X106.482 Y140.808 E27.79484
G1 X105.851 Y141.204 E27.83201
G1 X105.401 Y141.451 E27.85762
G1 X104.882 Y141.701 E27.88636
G1 X104.326 Y141.932 E27.9164
G1 X103.789 Y142.117 E27.94473
G1 X103.304 Y142.256 E27.96991
G1 X102.752 Y142.381 E27.99814
G1 X102.22 Y142.471 E28.02506
G1 X101.692 Y142.531 E28.05157
G1 X101.132 Y142.566 E28.07957
G1 X100.453 Y142.568 E28.11344
G1 X100.109 Y142.55 E28.13063
G1 X99.381 Y142.473 E28.16715
G1 X98.995 Y142.411 E28.18665
G1 X98.327 Y142.267 E28.22075
G1 X97.959 Y142.167 E28.23977
G1 X97.346 Y141.962 E28.27202
G1 X96.634 Y141.673 E28.31036
G1 X96.011 Y141.369 E28.34494
G1 X95.419 Y141.025 E28.3791
G1 X94.791 Y140.602 E28.41687
G1 X94.27 Y140.195 E28.44986
G1 X93.731 Y139.708 E28.4861
G1 X93.186 Y139.144 E28.52523
G1 X92.953 Y138.875 E28.54298
G1 X92.544 Y138.341 E28.57654
G1 X92.313 Y138.012 E28.5966
G1 X91.977 Y137.46 E28.62884
G1 X91.744 Y137.036 E28.65297
G1 X91.46 Y136.43 E28.68636
G1 X91.257 Y135.931 E28.71324
G1 X91.032 Y135.258 E28.74864
G1 X90.901 Y134.775 E28.77361
G1 X90.753 Y134.041 E28.81097
G1 X90.686 Y133.579 E28.83426
G1 X90.626 Y132.794 E28.87353
G1 X90.616 Y132.393 E28.89355
G1 X90.652 Y131.58 E28.93415
G1 X90.688 Y131.198 E28.95329
G1 X90.801 Y130.496 E28.98876
G1 X90.919 Y129.963 E29.016
G1 X91.098 Y129.343 E29.04819
G1 X91.282 Y128.816 E29.07604
G1 X91.554 Y128.175 E29.11078
G1 X91.736 Y127.802 E29.13149
G1 X92.119 Y127.136 E29.16982
G1 X92.365 Y126.755 E29.19244
G1 X92.831 Y126.13 E29.23134
G1 X93.114 Y125.794 E29.25326
G1 X93.633 Y125.251 E29.29073
G1 X94.986 Y123.989 E29.38304
G1 X93.123 Y120.017 E29.60192
G0 F2160 X92.931 Y120.55
G1 F900 X92.847 Y120.369 E29.61187
G1 X92.667 Y120.454 E29.61828
G1 X88.891 Y122.241 E29.8267
G1 X87.168 Y118.573 E30.02888
G1 X91.117 Y116.703 E30.24687
G1 X89.123 Y112.42 E30.48257
G1 X92.609 Y110.784 E30.67469
G1 X92.789 Y110.7 E30.6846
G1 X92.873 Y110.88 E30.69101
G1 X94.512 Y114.396 E30.88454
G1 X96.041 Y114.396 E30.96083
G1 X98.567 Y113.2 E31.10026
G1 X98.747 Y113.115 E31.11019
G1 X98.832 Y113.296 E31.11663
G1 X99.348 Y114.396 E31.17725
G1 X113.982 Y114.396 E31.90734
G1 X114.482 Y108.273 E32.21384
G1 X114.676 Y105.889 E32.33317
G1 X114.879 Y108.272 E32.39302
G1 X115.401 Y114.396 E32.69965
G1 X136.991 Y114.396 E33.77678
G1 X137.441 Y114.481 E33.79963
G1 X137.721 Y114.681 E33.8168
G1 X137.932 Y115.006 E33.83613
G1 X143.049 Y125.715 E34.42826
G1 X143.096 Y125.715 E34.4306
G1 X148.201 Y136.498 E35.02581
G1 X148.225 Y136.55 E35.02867
G1 X148.257 Y136.683 E35.0355
G1 X148.268 Y136.731 E35.03795
G1 X148.187 Y136.851 E35.04518
G1 X148.131 Y136.864 E35.04804
G1 X147.996 Y136.898 E35.05499
G1 X147.946 Y136.898 E35.05748
G1 X110.366 Y136.898 E36.93236
G1 X109.538 Y138.257 E37.01175
G1 X109.311 Y138.59 E37.03186
G1 X108.821 Y139.22 E37.07168
G1 X108.554 Y139.529 E37.09205
G1 X108.008 Y140.086 E37.13096
G1 X107.665 Y140.399 E37.15413
G1 X107.09 Y140.863 E37.19099
G1 X106.707 Y141.139 E37.21454
G1 X106.051 Y141.551 E37.25319
G1 X105.594 Y141.802 E37.2792
G1 X105.035 Y142.071 E37.31015
G1 X104.473 Y142.304 E37.34051
G1 X103.92 Y142.495 E37.3697
G1 X103.9 Y142.5 E37.37072
G1 X103.415 Y142.639 E37.39589
G1 X103.397 Y142.645 E37.39684
G1 X102.832 Y142.773 E37.42574
G1 X102.278 Y142.867 E37.45378
G1 X101.722 Y142.93 E37.48169
G1 X101.141 Y142.966 E37.51074
G1 X100.451 Y142.968 E37.54516
G1 X100.067 Y142.948 E37.56434
G1 X99.329 Y142.87 E37.60137
G1 X98.925 Y142.805 E37.62178
G1 X98.23 Y142.655 E37.65725
G1 X97.848 Y142.551 E37.67701
G1 X97.195 Y142.333 E37.71135
G1 X96.474 Y142.04 E37.75018
G1 X95.824 Y141.723 E37.78626
G1 X95.202 Y141.362 E37.82214
G1 X94.567 Y140.934 E37.86034
G1 X94.009 Y140.498 E37.89567
G1 X93.45 Y139.993 E37.93326
G1 X92.898 Y139.422 E37.97288
G1 X92.639 Y139.123 E37.99261
G1 X92.226 Y138.584 E38.02649
G1 X91.974 Y138.225 E38.04837
G1 X91.627 Y137.655 E38.08167
G1 X91.393 Y137.229 E38.10592
G1 X91.089 Y136.581 E38.14163
G1 X90.886 Y136.082 E38.1685
G1 X90.654 Y135.385 E38.20515
G1 X90.648 Y135.369 E38.206
G1 X90.512 Y134.869 E38.23185
G1 X90.358 Y134.106 E38.27069
G1 X90.288 Y133.622 E38.29509
G1 X90.227 Y132.824 E38.33502
G1 X90.216 Y132.386 E38.35687
G1 X90.252 Y131.563 E38.39797
G1 X90.292 Y131.142 E38.41907
G1 X90.41 Y130.41 E38.45606
G1 X90.528 Y129.877 E38.4833
G1 X90.72 Y129.211 E38.51788
G1 X90.904 Y128.684 E38.54573
G1 X91.186 Y128.019 E38.58176
G1 X91.389 Y127.603 E38.60486
G1 X91.777 Y126.928 E38.6437
G1 X92.038 Y126.524 E38.6677
G1 X92.51 Y125.891 E38.70709
