;FLAVOR:Marlin
;TIME:3114
;Filament used: 2.46894m, 0m
;Layer height: 0.18
;MINX:46.856
;MINY:37.208
;MINZ:0.3
;MAXX:188.984
;MAXY:188.683
;MAXZ:1.56
;POSTPROCESSED
;Generated with Cura_SteamEngine 4.8.0
T0
M140 S60
M105
M190 S60
M104 S200
M105
M109 S200
M82 ;absolute extrusion mode
M201 X500.00 Y500.00 Z100.00 E5000.00 	;Setup machine max acceleration
M203 X500.00 Y500.00 Z10.00 E50.00 	;Setup machine max feedrate
M204 P500.00 R1000.00 T500.00 		;Setup Print/Retract/Travel acceleration
M205 X8.00 Y8.00 Z0.40 E5.00 		;Setup Jerk
M220 S100 				;Reset Feedrate
M221 S100 				;Reset Flowrate
G28				;Home the Machine
#G29 				;Bed Level
G92 E0
M300 P150 S587
G92 E0
G1 F1500 E-6.5
;LAYER_COUNT:8
;LAYER:0
M107
G0 F2160 X69.744 Y39.279 Z0.3
;TYPE:SKIRT
G1 F1500 E0
G1 F900 X70.007 Y38.812 E0.02674
G1 X70.337 Y38.389 E0.05351
G1 X70.726 Y38.02 E0.08026
G1 X71.165 Y37.712 E0.10701
G1 X71.645 Y37.473 E0.13376
G1 X72.156 Y37.308 E0.16055
G1 X72.685 Y37.221 E0.1873
G1 X73.094 Y37.208 E0.20771
G1 X74.211 Y37.237 E0.26346
G1 X80.604 Y37.528 E0.58274
G1 X80.722 Y37.526 E0.58863
G1 X81.668 Y37.574 E0.63588
G1 X84.396 Y37.634 E0.77202
G1 X87.126 Y37.616 E0.90822
G1 X89.848 Y37.522 E1.0441
G1 X91.723 Y37.423 E1.13778
G1 X92.011 Y37.416 E1.15215
G1 X92.828 Y37.422 E1.19291
G1 X93.332 Y37.444 E1.21808
G1 X94.289 Y37.527 E1.266
G1 X95.257 Y37.623 E1.31453
G1 X96.727 Y37.774 E1.38826
G1 X99.014 Y38.02 E1.50301
G1 X100.736 Y38.215 E1.58947
G1 X101.469 Y38.308 E1.62634
G1 X101.995 Y38.415 E1.65312
G1 X102.355 Y38.537 E1.67208
G1 X103.054 Y38.817 E1.70965
G1 X105.589 Y39.792 E1.84515
G1 X108.171 Y40.703 E1.98175
G1 X110.754 Y41.532 E2.11709
G1 X113.392 Y42.297 E2.25412
G1 X116.05 Y42.986 E2.39111
G1 X118.677 Y43.591 E2.52561
G1 X121.359 Y44.125 E2.66204
G1 X124.07 Y44.588 E2.79925
G1 X126.734 Y44.966 E2.93349
G1 X129.456 Y45.274 E3.07016
G1 X132.174 Y45.503 E3.20624
G1 X134.863 Y45.654 E3.3406
G1 X137.615 Y45.73 E3.47795
G1 X141.656 Y45.701 E3.67957
G1 X141.79 Y45.699 E3.68625
G1 X142.642 Y45.705 E3.72876
G1 X143.108 Y45.726 E3.75203
G1 X144.085 Y45.811 E3.80096
G1 X145.767 Y45.978 E3.88529
G1 X147.349 Y46.144 E3.96465
G1 X148.776 Y46.299 E4.03626
G1 X150.532 Y46.498 E4.12443
G1 X151.261 Y46.591 E4.16109
G1 X151.786 Y46.698 E4.18782
G1 X152.29 Y46.882 E4.21459
G1 X152.76 Y47.139 E4.24131
G1 X153.188 Y47.463 E4.2681
G1 X153.562 Y47.847 E4.29484
G1 X153.875 Y48.283 E4.32162
G1 X154.121 Y48.76 E4.34839
G1 X154.23 Y49.052 E4.36394
G1 X154.51 Y49.916 E4.40925
G1 X155.377 Y52.475 E4.54405
G1 X156.335 Y55.054 E4.68131
G1 X157.357 Y57.587 E4.81758
G1 X158.456 Y60.101 E4.95446
G1 X159.321 Y61.954 E5.05649
G1 X159.685 Y62.713 E5.09848
G1 X159.871 Y63.184 E5.12375
G1 X160.083 Y63.852 E5.15871
G1 X160.963 Y66.511 E5.29845
G1 X161.881 Y69.04 E5.43267
G1 X162.892 Y71.595 E5.56976
G1 X163.964 Y74.096 E5.70551
G1 X165.105 Y76.565 E5.84121
G1 X166.315 Y78.999 E5.97682
G1 X167.61 Y81.429 E6.11419
G1 X168.952 Y83.783 E6.24938
G1 X169.782 Y85.168 E6.32994
G1 X170.013 Y85.545 E6.35199
G1 X170.346 Y86.252 E6.39098
G1 X170.412 Y86.447 E6.40125
G1 X171.18 Y88.861 E6.52764
G1 X172.08 Y91.431 E6.66349
G1 X173.054 Y93.978 E6.79953
G1 X174.104 Y96.514 E6.93647
G1 X175.215 Y98.99 E7.07187
G1 X176.411 Y101.47 E7.20923
G1 X177.662 Y103.883 E7.34483
G1 X178.98 Y106.259 E7.48039
G1 X180.371 Y108.607 E7.61654
G1 X181.816 Y110.898 E7.75168
G1 X183.354 Y113.188 E7.8893
G1 X184.928 Y115.396 E8.02458
G1 X186.58 Y117.579 E8.16116
G1 X188.088 Y119.459 E8.2814
G1 X188.272 Y119.702 E8.29661
G1 X188.56 Y120.155 E8.32339
G1 X188.777 Y120.645 E8.35013
G1 X188.918 Y121.162 E8.37686
G1 X188.984 Y121.93 E8.41532
G1 X188.972 Y122.432 E8.44037
G1 X188.654 Y129.419 E8.78931
G1 X188.656 Y129.536 E8.79515
G1 X188.582 Y131.278 E8.88214
G1 X188.543 Y134.011 E9.0185
G1 X188.58 Y136.74 E9.15467
G1 X188.696 Y139.475 E9.29124
G1 X188.715 Y139.761 E9.30554
G1 X188.757 Y140.585 E9.3467
G1 X188.764 Y140.881 E9.36147
G1 X188.759 Y141.638 E9.39924
G1 X188.736 Y142.161 E9.42536
G1 X188.65 Y143.169 E9.47583
G1 X188.568 Y144.001 E9.51754
G1 X188.39 Y145.722 E9.60386
G1 X188.156 Y147.893 E9.7128
G1 X187.959 Y149.633 E9.80016
G1 X187.872 Y150.312 E9.83431
G1 X187.764 Y150.837 E9.86106
G1 X187.58 Y151.34 E9.88778
G1 X187.323 Y151.811 E9.91455
G1 X186.998 Y152.238 E9.94132
G1 X186.614 Y152.612 E9.96806
G1 X186.179 Y152.925 E9.9948
G1 X185.504 Y153.247 E10.03211
G1 X184.241 Y153.695 E10.09897
G1 X181.628 Y154.663 E10.23799
G1 X179.093 Y155.685 E10.37435
G1 X176.608 Y156.768 E10.50959
G1 X174.152 Y157.923 E10.64499
G1 X171.707 Y159.159 E10.78167
G1 X169.305 Y160.458 E10.91791
G1 X166.949 Y161.822 E11.05373
G1 X164.639 Y163.247 E11.18914
G1 X162.331 Y164.763 E11.32691
G1 X160.111 Y166.312 E11.46196
G1 X157.934 Y167.924 E11.5971
G1 X155.775 Y169.62 E11.73408
G1 X153.696 Y171.35 E11.86901
G1 X152.885 Y172.072 E11.92318
G1 X152.777 Y172.155 E11.92998
G1 X151.782 Y173.023 E11.99585
G1 X151.352 Y173.345 E12.02266
G1 X150.88 Y173.599 E12.0494
G1 X150.16 Y173.833 E12.08717
G1 X149.046 Y174.069 E12.14398
G1 X146.382 Y174.672 E12.28025
G1 X143.74 Y175.35 E12.41633
G1 X141.123 Y176.101 E12.55216
G1 X138.534 Y176.923 E12.68768
G1 X135.951 Y177.825 E12.82418
G1 X133.396 Y178.799 E12.9606
G1 X130.869 Y179.845 E13.09704
G1 X128.427 Y180.937 E13.2305
G1 X125.922 Y182.143 E13.36921
G1 X123.52 Y183.386 E13.50414
G1 X121.112 Y184.719 E13.64145
G1 X118.801 Y186.084 E13.77536
G1 X116.44 Y187.572 E13.91459
G1 X115.625 Y188.102 E13.96309
G1 X115.155 Y188.36 E13.98984
G1 X114.651 Y188.545 E14.01663
G1 X114.126 Y188.654 E14.04338
G1 X113.574 Y188.683 E14.07095
G1 X112.436 Y188.654 E14.12775
G1 X106.087 Y188.366 E14.44483
G1 X105.949 Y188.368 E14.45171
G1 X104.334 Y188.297 E14.53236
G1 X101.603 Y188.255 E14.66863
G1 X98.868 Y188.29 E14.80509
G1 X96.319 Y188.392 E14.93236
G1 X94.924 Y188.467 E15.00206
G1 X94.636 Y188.474 E15.01643
G1 X93.819 Y188.468 E15.05719
G1 X93.322 Y188.446 E15.08201
G1 X92.319 Y188.359 E15.13224
G1 X90.726 Y188.201 E15.21211
G1 X89.091 Y188.029 E15.29413
G1 X87.664 Y187.874 E15.36574
G1 X85.908 Y187.675 E15.45391
G1 X85.179 Y187.582 E15.49057
G1 X84.654 Y187.475 E15.5173
G1 X84.15 Y187.291 E15.54407
G1 X83.68 Y187.034 E15.57079
G1 X83.252 Y186.71 E15.59758
G1 X82.878 Y186.326 E15.62432
G1 X82.565 Y185.89 E15.6511
G1 X82.319 Y185.413 E15.67787
G1 X82.21 Y185.121 E15.69342
G1 X81.93 Y184.257 E15.73873
G1 X81.063 Y181.698 E15.87353
G1 X80.105 Y179.119 E16.01079
G1 X79.083 Y176.586 E16.14706
G1 X77.978 Y174.058 E16.2847
G1 X77.103 Y172.185 E16.38784
G1 X76.704 Y171.35 E16.43401
G1 X76.31 Y170.468 E16.48221
G1 X75.121 Y167.902 E16.6233
G1 X73.934 Y165.519 E16.75612
G1 X72.645 Y163.106 E16.89261
G1 X71.299 Y160.746 E17.02815
G1 X69.847 Y158.363 E17.16737
G1 X68.394 Y156.121 E17.30066
G1 X66.852 Y153.886 E17.43613
G1 X65.224 Y151.66 E17.57371
G1 X64.19 Y150.312 E17.65847
G1 X63.893 Y149.865 E17.68525
G1 X63.667 Y149.379 E17.71199
G1 X63.561 Y149.052 E17.72914
G1 X63.302 Y148.102 E17.77826
G1 X63.033 Y147.059 E17.832
G1 X62.275 Y144.432 E17.96841
G1 X61.447 Y141.834 E18.10445
G1 X60.543 Y139.263 E18.24041
G1 X59.581 Y136.75 E18.37466
G1 X58.524 Y134.204 E18.51219
G1 X57.412 Y131.728 E18.64761
G1 X56.214 Y129.252 E18.78483
G1 X54.969 Y126.853 E18.91968
G1 X53.638 Y124.459 E19.05633
G1 X52.247 Y122.112 E19.19245
G1 X50.798 Y119.82 E19.32773
G1 X49.254 Y117.524 E19.46577
G1 X47.511 Y115.08 E19.61553
G1 X47.268 Y114.691 E19.63841
G1 X47.055 Y114.199 E19.66516
G1 X46.917 Y113.68 E19.69196
G1 X46.856 Y112.928 E19.7296
G1 X46.885 Y111.792 E19.78629
G1 X47.176 Y105.399 E20.10557
G1 X47.174 Y105.281 E20.11146
G1 X47.222 Y104.335 E20.15871
G1 X47.282 Y101.607 E20.29485
G1 X47.264 Y98.877 E20.43105
G1 X47.17 Y96.154 E20.56698
G1 X47.071 Y94.28 E20.66061
G1 X47.064 Y93.993 E20.67493
G1 X47.07 Y93.175 E20.71574
G1 X47.092 Y92.671 E20.74091
G1 X47.174 Y91.718 E20.78863
G1 X47.26 Y90.849 E20.8322
G1 X47.464 Y88.855 E20.9322
G1 X47.667 Y87.003 E21.02515
G1 X47.871 Y85.195 E21.11592
G1 X47.955 Y84.535 E21.14911
G1 X48.062 Y84.01 E21.17584
G1 X48.246 Y83.506 E21.20261
G1 X48.503 Y83.035 E21.22938
G1 X48.688 Y82.775 E21.2453
G1 X49.043 Y82.32 E21.27409
G1 X50.719 Y80.113 E21.41235
G1 X52.329 Y77.867 E21.55022
G1 X53.835 Y75.633 E21.68463
G1 X55.296 Y73.327 E21.82083
G1 X56.684 Y70.994 E21.95626
G1 X58.016 Y68.604 E22.09277
G1 X59.272 Y66.192 E22.22844
G1 X60.467 Y63.73 E22.36498
G1 X61.587 Y61.247 E22.50087
G1 X62.65 Y58.703 E22.63843
G1 X63.619 Y56.172 E22.77364
G1 X63.995 Y55.121 E22.82933
G1 X64.196 Y54.604 E22.857
G1 X64.65 Y53.579 E22.91293
G1 X65.724 Y51.058 E23.04964
G1 X66.732 Y48.502 E23.18672
G1 X67.649 Y45.957 E23.32168
G1 X68.492 Y43.397 E23.45614
G1 X69.29 Y40.72 E23.59551
G1 X69.481 Y40.022 E23.63161
G1 X69.553 Y39.78 E23.64421
G1 X69.744 Y39.279 E23.67096
G0 F2160 X70.119 Y39.423
G1 F900 X70.373 Y38.986 E23.69618
G1 X70.693 Y38.594 E23.72142
G1 X71.07 Y38.258 E23.74662
G1 X71.496 Y37.985 E23.77186
G1 X71.959 Y37.782 E23.79708
G1 X72.448 Y37.656 E23.82227
G1 X73.084 Y37.608 E23.85409
G1 X74.193 Y37.636 E23.90944
G1 X80.63 Y37.929 E24.23092
G1 X80.702 Y37.925 E24.23451
G1 X81.675 Y37.974 E24.28312
G1 X84.389 Y38.034 E24.41855
G1 X87.142 Y38.016 E24.5559
G1 X89.854 Y37.922 E24.69129
G1 X90.41 Y37.895 E24.71906
G1 X91.823 Y37.819 E24.78966
G1 X92.008 Y37.816 E24.79889
G1 X92.825 Y37.822 E24.83965
G1 X93.298 Y37.843 E24.86327
G1 X94.249 Y37.925 E24.91089
G1 X95.217 Y38.021 E24.95942
G1 X96.684 Y38.171 E25.03299
G1 X98.969 Y38.417 E25.14765
G1 X100.686 Y38.611 E25.23386
G1 X101.419 Y38.704 E25.27072
G1 X101.914 Y38.808 E25.29595
G1 X102.206 Y38.908 E25.31135
G1 X102.905 Y39.188 E25.34892
G1 X105.449 Y40.166 E25.4849
G1 X108.053 Y41.085 E25.62266
G1 X110.668 Y41.924 E25.75968
G1 X113.276 Y42.68 E25.89515
G1 X115.932 Y43.369 E26.03204
G1 X118.614 Y43.987 E26.16935
G1 X121.291 Y44.52 E26.30553
G1 X123.978 Y44.979 E26.44153
G1 X126.67 Y45.36 E26.57717
G1 X129.413 Y45.671 E26.7149
G1 X132.151 Y45.902 E26.85198
G1 X134.867 Y46.054 E26.98769
G1 X137.606 Y46.131 E27.1244
G1 X141.668 Y46.1 E27.32706
G1 X141.788 Y46.099 E27.33304
G1 X142.64 Y46.105 E27.37555
G1 X143.073 Y46.125 E27.39718
G1 X144.045 Y46.209 E27.44585
G1 X145.725 Y46.376 E27.53008
G1 X147.306 Y46.542 E27.60939
G1 X148.731 Y46.696 E27.6809
G1 X150.481 Y46.895 E27.76877
G1 X151.21 Y46.988 E27.80543
G1 X151.705 Y47.091 E27.83066
G1 X152.177 Y47.271 E27.85586
G1 X152.615 Y47.523 E27.88107
G1 X153.008 Y47.841 E27.90629
G1 X153.346 Y48.217 E27.93152
G1 X153.621 Y48.642 E27.95677
G1 X153.849 Y49.175 E27.98569
G1 X154.116 Y49.999 E28.02891
G1 X155.006 Y52.626 E28.16729
G1 X155.965 Y55.207 E28.30465
G1 X156.99 Y57.748 E28.44135
G1 X158.092 Y60.268 E28.57857
G1 X158.96 Y62.127 E28.68093
G1 X159.324 Y62.886 E28.72292
G1 X159.49 Y63.304 E28.74536
G1 X159.703 Y63.978 E28.78063
G1 X160.579 Y66.625 E28.91973
G1 X161.509 Y69.186 E29.05566
G1 X162.523 Y71.751 E29.19327
G1 X163.591 Y74.241 E29.32844
G1 X164.748 Y76.746 E29.4661
G1 X165.961 Y79.186 E29.60204
G1 X167.268 Y81.636 E29.74058
G1 X168.595 Y83.966 E29.87436
G1 X169.441 Y85.377 E29.95643
G1 X169.672 Y85.754 E29.97849
G1 X169.968 Y86.382 E30.01313
G1 X170.031 Y86.568 E30.02293
G1 X170.798 Y88.977 E30.14906
G1 X171.715 Y91.6 E30.28769
G1 X172.681 Y94.125 E30.42256
G1 X173.734 Y96.665 E30.55974
G1 X174.861 Y99.178 E30.69715
G1 X176.039 Y101.621 E30.83246
G1 X177.314 Y104.082 E30.97074
G1 X178.62 Y106.436 E31.10504
G1 X180.032 Y108.818 E31.24319
G1 X181.489 Y111.128 E31.37945
G1 X183.029 Y113.421 E31.51725
G1 X184.595 Y115.619 E31.65189
G1 X186.269 Y117.83 E31.79025
G1 X187.776 Y119.709 E31.91042
G1 X187.952 Y119.941 E31.92495
G1 X188.221 Y120.369 E31.95017
G1 X188.419 Y120.834 E31.97538
G1 X188.541 Y121.324 E32.00058
G1 X188.584 Y121.921 E32.03044
G1 X188.573 Y122.414 E32.05504
G1 X188.253 Y129.453 E32.40658
G1 X188.256 Y129.519 E32.40988
G1 X188.183 Y131.255 E32.49656
G1 X188.143 Y134.011 E32.63407
G1 X188.181 Y136.762 E32.77133
G1 X188.296 Y139.479 E32.90701
G1 X188.316 Y139.782 E32.92216
G1 X188.357 Y140.597 E32.96287
G1 X188.364 Y140.878 E32.97689
G1 X188.359 Y141.635 E33.01466
G1 X188.337 Y142.127 E33.03923
G1 X188.252 Y143.13 E33.08945
G1 X188.17 Y143.96 E33.13106
G1 X187.993 Y145.679 E33.21727
G1 X187.759 Y147.848 E33.32611
G1 X187.562 Y149.582 E33.41318
G1 X187.475 Y150.261 E33.44733
G1 X187.371 Y150.756 E33.47257
G1 X187.191 Y151.228 E33.49777
G1 X186.939 Y151.666 E33.52298
G1 X186.62 Y152.059 E33.54823
G1 X186.244 Y152.396 E33.57342
G1 X185.819 Y152.671 E33.59868
G1 X185.371 Y152.87 E33.62314
G1 X184.102 Y153.32 E33.69031
G1 X181.475 Y154.293 E33.83007
G1 X178.963 Y155.306 E33.9652
G1 X176.443 Y156.404 E34.10234
G1 X173.966 Y157.569 E34.23891
G1 X171.516 Y158.808 E34.37588
G1 X169.12 Y160.103 E34.51176
G1 X166.718 Y161.493 E34.65021
G1 X164.44 Y162.899 E34.78377
G1 X162.104 Y164.434 E34.92322
G1 X159.89 Y165.978 E35.05788
G1 X157.672 Y167.621 E35.19559
G1 X155.539 Y169.296 E35.3309
G1 X153.423 Y171.057 E35.46824
G1 X152.619 Y171.773 E35.52195
G1 X152.522 Y171.847 E35.52804
G1 X151.519 Y172.722 E35.59445
G1 X151.113 Y173.023 E35.61966
G1 X150.664 Y173.257 E35.64492
G1 X150.077 Y173.442 E35.67563
G1 X148.963 Y173.678 E35.73244
G1 X146.3 Y174.281 E35.86866
G1 X143.636 Y174.964 E36.00587
G1 X140.997 Y175.722 E36.14285
G1 X138.397 Y176.547 E36.27894
G1 X135.802 Y177.453 E36.41607
G1 X133.248 Y178.426 E36.55242
G1 X130.732 Y179.468 E36.68828
G1 X128.226 Y180.589 E36.82525
G1 X125.771 Y181.771 E36.96118
G1 X123.336 Y183.031 E37.09797
G1 X120.921 Y184.368 E37.23568
G1 X118.565 Y185.76 E37.37221
G1 X116.222 Y187.237 E37.51039
G1 X115.407 Y187.767 E37.55889
G1 X114.962 Y188.008 E37.58414
G1 X114.486 Y188.176 E37.60932
G1 X113.988 Y188.267 E37.63458
G1 X113.584 Y188.283 E37.65475
G1 X112.454 Y188.255 E37.71114
G1 X106.046 Y187.964 E38.03117
G1 X105.967 Y187.968 E38.03511
G1 X104.359 Y187.897 E38.11542
G1 X101.604 Y187.855 E38.25288
G1 X98.847 Y187.89 E38.39044
G1 X96.279 Y187.993 E38.51866
G1 X94.824 Y188.071 E38.59135
G1 X94.639 Y188.074 E38.60058
G1 X93.822 Y188.068 E38.64135
G1 X93.356 Y188.047 E38.66462
G1 X92.359 Y187.961 E38.71454
G1 X90.768 Y187.803 E38.79431
G1 X89.134 Y187.631 E38.87628
G1 X87.709 Y187.477 E38.94779
G1 X85.959 Y187.278 E39.03566
G1 X85.23 Y187.185 E39.07232
G1 X84.735 Y187.082 E39.09755
G1 X84.263 Y186.902 E39.12275
G1 X83.825 Y186.65 E39.14796
G1 X83.432 Y186.332 E39.17318
G1 X83.094 Y185.956 E39.19841
G1 X82.819 Y185.531 E39.22366
G1 X82.591 Y184.998 E39.25258
G1 X82.324 Y184.174 E39.2958
G1 X81.434 Y181.547 E39.43418
G1 X80.475 Y178.966 E39.57154
G1 X79.45 Y176.425 E39.70824
G1 X78.348 Y173.905 E39.84546
G1 X77.466 Y172.016 E39.94947
G1 X77.069 Y171.187 E39.99533
G1 X76.673 Y170.3 E40.04379
G1 X75.495 Y167.757 E40.18361
G1 X74.287 Y165.332 E40.31877
G1 X72.988 Y162.898 E40.45642
G1 X71.645 Y160.546 E40.59154
G1 X70.214 Y158.196 E40.72881
G1 X68.715 Y155.883 E40.86632
G1 X67.172 Y153.645 E41.00194
G1 X65.539 Y151.413 E41.13992
G1 X64.506 Y150.067 E41.22456
G1 X64.228 Y149.644 E41.24982
G1 X63.947 Y148.947 E41.28731
G1 X63.689 Y148.002 E41.33618
G1 X63.419 Y146.953 E41.39022
G1 X62.657 Y144.315 E41.52721
G1 X61.826 Y141.706 E41.66382
G1 X60.922 Y139.136 E41.79974
G1 X59.947 Y136.59 E41.93576
G1 X58.887 Y134.036 E42.07371
G1 X57.766 Y131.54 E42.21022
G1 X56.579 Y129.086 E42.34622
G1 X55.324 Y126.668 E42.48214
G1 X53.989 Y124.267 E42.6192
G1 X52.586 Y121.9 E42.75647
G1 X51.124 Y119.588 E42.89295
G1 X49.59 Y117.307 E43.03009
G1 X47.837 Y114.848 E43.18075
G1 X47.609 Y114.479 E43.20239
G1 X47.414 Y114.012 E43.22764
G1 X47.295 Y113.521 E43.25284
