;FLAVOR:Marlin
;TIME:6035
;Filament used: 4.76238m, 0m
;Layer height: 0.18
;MINX:5.276
;MINY:12.35
;MINZ:0.3
;MAXX:216.659
;MAXY:205.447
;MAXZ:1.56
;POSTPROCESSED
;Generated with Cura_SteamEngine 4.8.0
T0
M140 S60
M105
M190 S60
M104 S200
M105
M109 S200
M82 ;absolute extrusion mode
M201 X500.00 Y500.00 Z100.00 E5000.00 	;Setup machine max acceleration
M203 X500.00 Y500.00 Z10.00 E50.00 	;Setup machine max feedrate
M204 P500.00 R1000.00 T500.00 		;Setup Print/Retract/Travel acceleration
M205 X8.00 Y8.00 Z0.40 E5.00 		;Setup Jerk
M220 S100 				;Reset Feedrate
M221 S100 				;Reset Flowrate
G28				;Home the Machine
#G29 				;Bed Level
G92 E0
M300 P150 S587
G92 E0
G1 F1500 E-6.5
;LAYER_COUNT:8
;LAYER:0
M107
G0 F2160 X13.693 Y13.233 Z0.3
;TYPE:SKIRT
G1 F1500 E0
G1 F900 X14.123 Y12.912 E0.02677
G1 X14.596 Y12.658 E0.05356
G1 X15.101 Y12.478 E0.0803
G1 X15.627 Y12.375 E0.10704
G1 X16.146 Y12.35 E0.13297
G1 X17.265 Y12.379 E0.18881
G1 X25.083 Y12.735 E0.57926
G1 X25.949 Y12.787 E0.62254
G1 X28.678 Y12.912 E0.75883
G1 X31.374 Y12.959 E0.89336
G1 X34.139 Y12.929 E1.03131
G1 X36.835 Y12.824 E1.16592
G1 X38.463 Y12.714 E1.24733
G1 X38.532 Y12.715 E1.25077
G1 X39.886 Y12.624 E1.31847
G1 X40.772 Y12.608 E1.36268
G1 X41.329 Y12.627 E1.39049
G1 X41.858 Y12.66 E1.41693
G1 X42.704 Y12.733 E1.45929
G1 X43.959 Y12.856 E1.52221
G1 X45.877 Y13.051 E1.61839
G1 X47.736 Y13.249 E1.71166
G1 X51.276 Y13.646 E1.88938
G1 X52.017 Y13.74 E1.92664
G1 X52.543 Y13.847 E1.95342
G1 X52.802 Y13.931 E1.96701
G1 X53.898 Y14.333 E2.02525
G1 X56.442 Y15.23 E2.15983
G1 X59.103 Y16.084 E2.29926
G1 X61.679 Y16.832 E2.43308
G1 X64.312 Y17.517 E2.56881
G1 X67.017 Y18.138 E2.70728
G1 X69.67 Y18.671 E2.84228
G1 X72.344 Y19.126 E2.97761
G1 X75.047 Y19.51 E3.11381
G1 X77.755 Y19.816 E3.24978
G1 X80.479 Y20.047 E3.38616
G1 X83.168 Y20.199 E3.52053
G1 X85.934 Y20.276 E3.65858
G1 X88.628 Y20.274 E3.79299
G1 X91.384 Y20.195 E3.93054
G1 X92.714 Y20.124 E3.99699
G1 X93.406 Y20.097 E4.03154
G1 X93.957 Y20.095 E4.05903
G1 X94.516 Y20.114 E4.08693
G1 X95.044 Y20.147 E4.11333
G1 X95.89 Y20.22 E4.15569
G1 X97.145 Y20.343 E4.2186
G1 X99.064 Y20.538 E4.31484
G1 X100.972 Y20.742 E4.41057
G1 X101.701 Y20.823 E4.44716
G1 X104.406 Y21.083 E4.58274
G1 X107.164 Y21.27 E4.72065
G1 X109.856 Y21.375 E4.85506
G1 X112.624 Y21.407 E4.99316
G1 X115.318 Y21.36 E5.12759
G1 X118.048 Y21.235 E5.26393
G1 X120.769 Y21.035 E5.40005
G1 X123.487 Y20.756 E5.53636
G1 X126.159 Y20.406 E5.67081
G1 X128.893 Y19.968 E5.80895
G1 X131.542 Y19.467 E5.94345
G1 X134.209 Y18.884 E6.07965
G1 X136.846 Y18.23 E6.21519
G1 X137.369 Y18.085 E6.24227
G1 X138.671 Y17.74 E6.30947
G1 X139.458 Y17.623 E6.34916
G1 X140.07 Y17.607 E6.37971
G1 X140.664 Y17.635 E6.40938
G1 X141.353 Y17.719 E6.444
G1 X141.885 Y17.83 E6.47112
G1 X142.199 Y17.91 E6.48728
G1 X142.941 Y18.136 E6.52598
G1 X145.547 Y18.89 E6.66133
G1 X148.215 Y19.582 E6.79884
G1 X150.845 Y20.184 E6.93344
G1 X153.569 Y20.729 E7.07204
G1 X156.197 Y21.175 E7.20502
G1 X158.941 Y21.562 E7.34328
G1 X161.637 Y21.866 E7.47863
G1 X164.345 Y22.093 E7.61421
G1 X167.042 Y22.243 E7.74897
G1 X169.806 Y22.318 E7.88692
G1 X172.539 Y22.315 E8.02327
G1 X175.23 Y22.237 E8.15758
G1 X177.956 Y22.08 E8.29381
G1 X180.68 Y21.845 E8.43021
G1 X183.422 Y21.531 E8.5679
G1 X186.064 Y21.151 E8.70107
G1 X188.8 Y20.679 E8.83959
G1 X190.464 Y20.353 E8.92418
G1 X191.349 Y20.172 E8.96925
G1 X191.951 Y20.101 E8.99949
G1 X192.469 Y20.088 E9.02534
G1 X192.706 Y20.094 E9.03717
G1 X193.304 Y20.13 E9.06706
G1 X193.851 Y20.204 E9.0946
G1 X194.356 Y20.311 E9.12035
G1 X194.922 Y20.481 E9.14984
G1 X195.159 Y20.581 E9.16267
G1 X196.341 Y21.134 E9.22777
G1 X198.81 Y22.247 E9.36289
G1 X201.37 Y23.317 E9.50132
G1 X203.913 Y24.291 E9.63717
G1 X206.448 Y25.184 E9.77126
G1 X209.042 Y26.015 E9.90716
G1 X211.677 Y26.778 E10.04402
G1 X212.611 Y27.018 E10.09213
G1 X212.762 Y27.069 E10.10008
G1 X213.987 Y27.393 E10.1633
G1 X214.494 Y27.568 E10.19006
G1 X214.969 Y27.817 E10.21681
G1 X215.402 Y28.133 E10.24356
G1 X215.783 Y28.51 E10.2703
G1 X216.104 Y28.94 E10.29707
G1 X216.358 Y29.413 E10.32385
G1 X216.538 Y29.918 E10.3506
G1 X216.641 Y30.444 E10.37734
G1 X216.659 Y31.307 E10.42041
G1 X216.268 Y39.927 E10.8509
G1 X216.216 Y40.793 E10.89419
G1 X216.092 Y43.52 E11.03038
G1 X216.045 Y46.216 E11.1649
G1 X216.077 Y48.981 E11.30286
G1 X216.184 Y51.688 E11.43801
G1 X216.291 Y53.289 E11.51807
G1 X216.382 Y54.71 E11.58911
G1 X216.397 Y55.164 E11.61177
G1 X216.394 Y55.727 E11.63986
G1 X216.388 Y55.917 E11.64934
G1 X216.339 Y56.738 E11.69037
G1 X216.269 Y57.553 E11.73118
G1 X216.141 Y58.854 E11.7964
G1 X215.964 Y60.597 E11.88381
G1 X215.735 Y62.731 E11.99089
G1 X215.536 Y64.529 E12.08114
G1 X215.352 Y66.15 E12.16253
G1 X215.261 Y66.851 E12.1978
G1 X215.153 Y67.377 E12.22459
G1 X214.967 Y67.88 E12.25134
G1 X214.705 Y68.357 E12.27849
G1 X214.396 Y68.829 E12.30664
G1 X213.42 Y70.276 E12.39372
G1 X211.936 Y72.614 E12.53187
G1 X210.571 Y74.907 E12.66501
G1 X209.222 Y77.325 E12.80314
G1 X207.972 Y79.722 E12.93801
G1 X206.777 Y82.183 E13.0745
G1 X205.664 Y84.649 E13.20948
G1 X204.601 Y87.193 E13.34704
G1 X203.612 Y89.759 E13.48424
G1 X202.729 Y92.272 E13.61712
G1 X201.883 Y94.907 E13.75519
G1 X201.13 Y97.496 E13.88971
G1 X200.428 Y100.201 E14.02914
G1 X199.834 Y102.786 E14.16146
G1 X199.288 Y105.507 E14.29992
G1 X198.832 Y108.184 E14.4354
G1 X198.451 Y110.865 E14.5705
G1 X198.144 Y113.577 E14.70667
G1 X197.913 Y116.301 E14.84306
G1 X197.761 Y118.99 E14.97742
G1 X197.684 Y121.757 E15.11552
G1 X197.684 Y124.453 E15.25003
G1 X197.763 Y127.217 E15.38798
G1 X197.917 Y129.907 E15.5224
G1 X198.15 Y132.634 E15.65895
G1 X198.458 Y135.344 E15.79502
G1 X198.843 Y138.04 E15.93089
G1 X199.304 Y140.727 E16.06691
G1 X199.834 Y143.371 E16.20144
G1 X200.459 Y146.078 E16.34005
G1 X200.821 Y147.494 E16.41296
G1 X200.85 Y147.615 E16.41917
G1 X200.947 Y148.346 E16.45596
G1 X200.959 Y148.852 E16.48121
G1 X200.953 Y149.089 E16.49304
G1 X200.917 Y149.687 E16.52293
G1 X200.843 Y150.234 E16.55047
G1 X200.736 Y150.739 E16.57622
G1 X200.586 Y151.254 E16.60298
G1 X200.476 Y151.517 E16.6172
G1 X199.913 Y152.722 E16.68356
G1 X198.801 Y155.189 E16.81856
G1 X197.722 Y157.776 E16.95841
G1 X196.763 Y160.276 E17.09199
G1 X195.863 Y162.831 E17.22714
G1 X195.032 Y165.425 E17.36303
G1 X194.269 Y168.06 E17.49989
G1 X194.029 Y168.994 E17.54801
G1 X193.978 Y169.145 E17.55596
G1 X193.654 Y170.37 E17.61917
G1 X193.479 Y170.877 E17.64593
G1 X193.23 Y171.352 E17.67269
G1 X192.914 Y171.785 E17.69943
G1 X192.537 Y172.166 E17.72617
G1 X192.107 Y172.487 E17.75294
G1 X191.634 Y172.741 E17.77973
G1 X191.129 Y172.921 E17.80648
G1 X190.603 Y173.024 E17.83322
G1 X190.109 Y173.049 E17.8579
G1 X189.606 Y173.04 E17.88299
G1 X186.831 Y173.031 E18.02144
G1 X184.101 Y173.1 E18.15768
G1 X181.377 Y173.244 E18.29377
G1 X178.648 Y173.468 E18.43038
G1 X175.971 Y173.763 E18.56475
G1 X173.239 Y174.143 E18.70236
G1 X170.565 Y174.592 E18.83763
G1 X167.886 Y175.12 E18.97386
G1 X165.241 Y175.719 E19.10916
G1 X162.566 Y176.407 E19.24696
G1 X159.987 Y177.147 E19.38082
G1 X157.37 Y177.979 E19.51782
G1 X154.796 Y178.878 E19.65385
G1 X152.272 Y179.842 E19.78864
G1 X149.708 Y180.902 E19.92706
G1 X147.235 Y182.01 E20.06226
G1 X144.796 Y183.185 E20.19732
G1 X142.368 Y184.442 E20.33373
G1 X139.972 Y185.77 E20.4704
G1 X137.633 Y187.152 E20.60594
G1 X135.321 Y188.609 E20.74228
G1 X133.06 Y190.125 E20.87809
G1 X130.848 Y191.702 E21.01362
G1 X128.672 Y193.345 E21.14965
G1 X127.979 Y193.883 E21.19342
G1 X127.533 Y194.18 E21.22015
G1 X127.047 Y194.407 E21.24691
G1 X126.467 Y194.581 E21.27713
G1 X124.245 Y195.15 E21.39156
G1 X121.636 Y195.895 E21.52692
G1 X119.054 Y196.712 E21.66204
G1 X116.453 Y197.618 E21.79945
G1 X113.938 Y198.574 E21.93368
G1 X111.403 Y199.619 E22.07048
G1 X108.913 Y200.731 E22.20653
G1 X106.462 Y201.908 E22.34218
G1 X105.996 Y202.14 E22.36815
G1 X105.693 Y202.274 E22.38468
G1 X105.225 Y202.455 E22.40971
G1 X104.999 Y202.533 E22.42164
G1 X103.799 Y202.907 E22.48435
G1 X102.079 Y203.408 E22.57372
G1 X99.494 Y204.24 E22.70921
G1 X97.381 Y204.987 E22.82102
G1 X96.59 Y205.251 E22.86262
G1 X96.07 Y205.382 E22.88937
G1 X95.196 Y205.447 E22.9331
G1 X94.366 Y205.42 E22.97453
G1 X93.688 Y205.337 E23.00861
G1 X93.151 Y205.224 E23.03599
G1 X92.843 Y205.145 E23.05185
G1 X92.337 Y204.991 E23.07824
G1 X89.668 Y204.218 E23.21687
G1 X87.075 Y203.545 E23.35052
G1 X84.383 Y202.926 E23.48833
G1 X81.689 Y202.387 E23.62539
G1 X79.023 Y201.934 E23.76031
G1 X76.341 Y201.553 E23.89546
G1 X73.62 Y201.245 E24.03208
G1 X70.9 Y201.016 E24.16826
G1 X68.21 Y200.865 E24.30267
G1 X65.446 Y200.789 E24.44062
G1 X62.715 Y200.791 E24.57687
G1 X60.018 Y200.869 E24.71148
G1 X57.297 Y201.024 E24.84745
G1 X54.572 Y201.258 E24.9839
G1 X51.854 Y201.569 E25.12039
G1 X49.162 Y201.953 E25.25605
G1 X46.468 Y202.417 E25.39244
G1 X44.73 Y202.758 E25.4808
G1 X43.702 Y202.969 E25.53316
G1 X43.089 Y203.041 E25.56395
G1 X42.505 Y203.053 E25.59309
G1 X41.893 Y203.024 E25.62366
G1 X41.215 Y202.941 E25.65774
G1 X40.687 Y202.83 E25.68465
G1 X40.172 Y202.681 E25.7114
G1 X39.9 Y202.567 E25.72612
G1 X38.763 Y202.034 E25.78876
G1 X36.278 Y200.912 E25.92479
G1 X33.738 Y199.849 E26.06216
G1 X31.23 Y198.885 E26.19621
G1 X28.657 Y197.978 E26.33232
G1 X26.03 Y197.134 E26.46998
G1 X23.449 Y196.384 E26.60407
G1 X22.46 Y196.135 E26.65496
G1 X22.247 Y196.064 E26.66616
G1 X21.065 Y195.751 E26.72716
G1 X20.558 Y195.575 E26.75394
G1 X20.083 Y195.326 E26.78069
G1 X19.65 Y195.01 E26.80744
G1 X19.27 Y194.632 E26.83418
G1 X18.949 Y194.202 E26.86095
G1 X18.696 Y193.73 E26.88766
G1 X18.516 Y193.225 E26.91441
G1 X18.412 Y192.698 E26.94121
G1 X18.388 Y192.182 E26.96698
G1 X18.417 Y191.055 E27.02323
G1 X18.774 Y183.233 E27.41387
G1 X18.824 Y182.395 E27.45576
G1 X18.95 Y179.661 E27.5923
G1 X18.997 Y176.956 E27.72727
G1 X18.967 Y174.199 E27.86483
G1 X18.862 Y171.501 E27.99954
G1 X18.752 Y169.85 E28.08209
G1 X18.682 Y168.74 E28.13758
G1 X18.648 Y167.685 E28.19024
G1 X18.657 Y167.162 E28.21633
G1 X18.708 Y166.333 E28.25777
G1 X18.766 Y165.667 E28.29112
G1 X18.9 Y164.305 E28.3594
G1 X19.079 Y162.548 E28.44751
G1 X19.285 Y160.609 E28.54479
G1 X19.507 Y158.614 E28.64494
G1 X19.694 Y156.962 E28.72788
G1 X19.778 Y156.302 E28.76108
G1 X19.885 Y155.777 E28.78781
G1 X20.048 Y155.322 E28.81192
G1 X20.346 Y154.636 E28.84924
G1 X21.417 Y152.067 E28.9881
G1 X22.409 Y149.492 E29.12577
G1 X23.296 Y146.961 E29.25957
G1 X24.127 Y144.37 E29.39532
G1 X24.891 Y141.735 E29.53219
G1 X25.574 Y139.102 E29.6679
G1 X26.183 Y136.447 E29.8038
G1 X26.728 Y133.726 E29.94225
G1 X27.172 Y131.11 E30.07463
G1 X27.562 Y128.353 E30.21354
G1 X27.864 Y125.677 E30.3479
G1 X28.094 Y122.948 E30.48453
G1 X28.244 Y120.262 E30.61874
G1 X28.32 Y117.495 E30.75684
G1 X28.318 Y114.763 E30.89314
G1 X28.24 Y112.073 E31.0274
G1 X28.082 Y109.341 E31.16393
G1 X27.849 Y106.62 E31.30018
G1 X27.539 Y103.909 E31.43631
G1 X27.152 Y101.206 E31.57254
G1 X26.684 Y98.492 E31.70994
G1 X26.243 Y96.279 E31.82252
G1 X25.91 Y94.703 E31.90288
G1 X25.867 Y94.48 E31.91421
G1 X25.252 Y91.79 E32.05188
G1 X24.573 Y89.164 E32.1872
G1 X23.818 Y86.545 E32.32318
G1 X22.986 Y83.94 E32.45962
G1 X22.096 Y81.403 E32.59375
G1 X21.115 Y78.846 E32.73039
G1 X20.063 Y76.311 E32.86732
G1 X18.944 Y73.821 E33.00351
G1 X17.743 Y71.341 E33.14098
G1 X16.583 Y69.101 E33.26683
G1 X16.507 Y68.959 E33.27487
G1 X16.213 Y68.223 E33.31441
G1 X16.129 Y67.918 E33.33019
G1 X15.566 Y65.716 E33.44358
G1 X14.813 Y63.09 E33.57987
G1 X13.985 Y60.476 E33.71667
G1 X13.101 Y57.936 E33.85085
G1 X12.115 Y55.346 E33.98911
G1 X11.081 Y52.845 E34.12413
G1 X9.972 Y50.362 E34.2598
G1 X8.85 Y48.027 E34.38905
G1 X8.59 Y47.504 E34.41819
G1 X8.455 Y47.196 E34.43496
G1 X8.263 Y46.698 E34.46159
G1 X8.162 Y46.408 E34.47691
G1 X7.894 Y45.555 E34.52152
G1 X7.239 Y43.327 E34.63738
G1 X6.398 Y40.739 E34.77314
G1 X5.781 Y39.009 E34.86478
G1 X5.543 Y38.315 E34.90138
G1 X5.434 Y37.959 E34.91995
G1 X5.319 Y37.435 E34.94672
G1 X5.276 Y36.734 E34.98176
G1 X5.302 Y35.869 E35.02493
G1 X5.386 Y35.179 E35.05961
G1 X5.496 Y34.652 E35.08647
G1 X5.644 Y34.137 E35.1132
G1 X5.759 Y33.864 E35.12798
G1 X6.298 Y32.71 E35.19153
G1 X7.445 Y30.167 E35.3307
G1 X8.505 Y27.629 E35.46793
G1 X9.462 Y25.131 E35.60138
G1 X10.372 Y22.547 E35.73806
G1 X11.204 Y19.952 E35.87402
G1 X11.964 Y17.33 E36.01021
G1 X12.199 Y16.41 E36.05759
G1 X12.254 Y16.246 E36.06622
G1 X12.576 Y15.029 E36.12902
G1 X12.751 Y14.522 E36.15578
G1 X13 Y14.047 E36.18254
G1 X13.316 Y13.614 E36.20928
G1 X13.693 Y13.233 E36.23602
G0 F2160 X14.045 Y13.46
G1 F900 X14.462 Y13.174 E36.26125
G1 X14.919 Y12.958 E36.28647
G1 X15.404 Y12.816 E36.31168
G1 X16.136 Y12.75 E36.34835
G1 X17.247 Y12.778 E36.40379
G1 X25.059 Y13.135 E36.79394
G1 X25.879 Y13.184 E36.83492
G1 X28.654 Y13.311 E36.97352
G1 X31.407 Y13.358 E37.11088
G1 X34.123 Y13.33 E37.24639
G1 X36.879 Y13.221 E37.384
G1 X38.49 Y13.113 E37.46455
G1 X38.555 Y13.114 E37.46779
G1 X40.004 Y13.018 E37.54024
G1 X40.771 Y13.008 E37.57851
G1 X41.305 Y13.026 E37.60517
G1 X41.824 Y13.059 E37.63111
G1 X42.665 Y13.131 E37.67322
G1 X43.919 Y13.254 E37.73609
G1 X45.835 Y13.449 E37.83217
G1 X47.691 Y13.647 E37.92529
G1 X51.231 Y14.043 E38.10301
G1 X51.967 Y14.137 E38.14002
G1 X52.664 Y14.307 E38.17582
G1 X53.742 Y14.702 E38.23309
G1 X56.334 Y15.616 E38.37021
G1 X58.964 Y16.46 E38.50802
G1 X61.581 Y17.22 E38.64397
G1 X64.227 Y17.908 E38.78037
G1 X66.913 Y18.525 E38.91787
G1 X69.596 Y19.064 E39.0544
G1 X72.298 Y19.523 E39.19113
G1 X74.977 Y19.904 E39.32613
G1 X77.713 Y20.214 E39.4635
G1 X80.456 Y20.446 E39.60084
G1 X83.172 Y20.599 E39.73656
G1 X85.922 Y20.676 E39.87381
G1 X88.64 Y20.674 E40.00941
G1 X91.419 Y20.594 E40.14811
G1 X92.729 Y20.523 E40.21357
G1 X93.421 Y20.496 E40.24812
G1 X93.956 Y20.495 E40.27481
G1 X94.492 Y20.513 E40.30156
G1 X95.01 Y20.546 E40.32746
G1 X95.851 Y20.618 E40.36957
G1 X97.105 Y20.741 E40.43243
G1 X99.021 Y20.936 E40.52852
G1 X100.928 Y21.139 E40.6242
G1 X101.67 Y21.221 E40.66144
G1 X104.377 Y21.482 E40.79712
G1 X107.12 Y21.668 E40.93428
G1 X109.873 Y21.776 E41.07173
G1 X112.591 Y21.806 E41.20734
G1 X115.342 Y21.759 E41.34461
G1 X118.098 Y21.633 E41.48225
G1 X120.803 Y21.433 E41.61757
G1 X123.508 Y21.156 E41.75323
G1 X126.237 Y20.798 E41.89055
G1 X128.959 Y20.363 E42.02807
G1 X131.629 Y19.857 E42.16365
G1 X134.284 Y19.277 E42.29924
G1 X136.977 Y18.61 E42.43765
G1 X137.471 Y18.472 E42.46324
G1 X138.773 Y18.127 E42.53044
G1 X139.473 Y18.022 E42.56575
G1 X140.07 Y18.007 E42.59554
G1 X140.641 Y18.034 E42.62406
G1 X141.272 Y18.11 E42.65577
G1 X141.804 Y18.221 E42.68289
G1 X142.082 Y18.293 E42.69721
G1 X142.781 Y18.506 E42.73367
G1 X145.441 Y19.276 E42.87183
G1 X148.13 Y19.973 E43.01041
G1 X150.756 Y20.574 E43.14481
G1 X153.489 Y21.121 E43.28387
G1 X156.145 Y21.572 E43.41827
G1 X158.876 Y21.957 E43.55587
G1 X161.591 Y22.263 E43.69218
G1 X164.326 Y22.492 E43.82911
G1 X167.044 Y22.643 E43.96492
G1 X169.795 Y22.718 E44.10222
G1 X172.514 Y22.715 E44.23787
G1 X175.265 Y22.635 E44.37517
G1 X178.012 Y22.477 E44.51245
G1 X180.727 Y22.243 E44.6484
G1 X183.419 Y21.934 E44.78359
G1 X186.187 Y21.537 E44.9231
G1 X188.858 Y21.076 E45.05832
G1 X190.53 Y20.748 E45.14333
G1 X191.429 Y20.564 E45.18911
G1 X191.965 Y20.501 E45.21604
G1 X192.473 Y20.488 E45.24139
G1 X192.683 Y20.493 E45.25187
G1 X193.27 Y20.528 E45.28121
G1 X193.768 Y20.595 E45.30628
G1 X194.273 Y20.702 E45.33203
G1 X194.776 Y20.853 E45.35823
G1 X194.989 Y20.944 E45.36979
G1 X196.141 Y21.483 E45.43324
G1 X198.655 Y22.616 E45.57081
G1 X201.227 Y23.69 E45.70987
G1 X203.753 Y24.658 E45.84483
G1 X206.33 Y25.566 E45.98114
