;FLAVOR:Marlin
;TIME:1406
;Filament used: 1.06358m, 0m
;Layer height: 0.18
;MINX:60.023
;MINY:77.816
;MINZ:0.26
;MAXX:174.991
;MAXY:156.214
;MAXZ:1.7
;POSTPROCESSED
;Generated with Cura_SteamEngine 4.8.0
T0
M140 S60
M105
M190 S60
M104 S200
M105
M109 S200
M82 ;absolute extrusion mode
M201 X500.00 Y500.00 Z100.00 E5000.00 	;Setup machine max acceleration
M203 X500.00 Y500.00 Z10.00 E50.00 	;Setup machine max feedrate
M204 P500.00 R1000.00 T500.00 		;Setup Print/Retract/Travel acceleration
M205 X8.00 Y8.00 Z0.40 E5.00 		;Setup Jerk
M220 S100 				;Reset Feedrate
M221 S100 				;Reset Flowrate
G28				;Home the Machine
#G29 				;Bed Level
G92 E0
M300 P150 S587
G92 E0
G1 F1500 E-6.5
;LAYER_COUNT:9
;LAYER:0
M107
G0 F2160 X64.972 Y124.999 Z0.26
;TYPE:SKIRT
G1 F1500 E0
G1 F900 X65.455 Y124.747 E0.02356
G1 X66.268 Y124.439 E0.06115
G1 X66.935 Y124.244 E0.09119
G1 X69.622 Y123.442 E0.21244
G1 X72.17 Y122.603 E0.32843
G1 X74.751 Y121.67 E0.44709
G1 X77.297 Y120.667 E0.56541
G1 X79.785 Y119.606 E0.68236
G1 X82.255 Y118.468 E0.79995
G1 X84.723 Y117.247 E0.91901
G1 X87.125 Y115.972 E1.03659
G1 X89.512 Y114.617 E1.15527
G1 X91.819 Y113.219 E1.27191
G1 X94.109 Y111.741 E1.38975
G1 X96.34 Y110.21 E1.50675
G1 X98.579 Y108.581 E1.62647
G1 X100.729 Y106.92 E1.74394
G1 X102.844 Y105.189 E1.86211
G1 X104.876 Y103.426 E1.97843
G1 X106.907 Y101.563 E2.0976
G1 X108.851 Y99.675 E2.21477
G1 X110.761 Y97.711 E2.33323
G1 X112.603 Y95.709 E2.45086
G1 X114.407 Y93.63 E2.56987
G1 X116.121 Y91.54 E2.68674
G1 X117.789 Y89.384 E2.80461
G1 X119.388 Y87.191 E2.92196
G1 X120.946 Y84.922 E3.04096
G1 X122.425 Y82.636 E3.15869
G1 X123.68 Y80.574 E3.26306
G1 X124.267 Y79.582 E3.3129
G1 X124.574 Y79.142 E3.3361
G1 X124.943 Y78.752 E3.35931
G1 X125.366 Y78.422 E3.38251
G1 X125.833 Y78.158 E3.40571
G1 X126.334 Y77.967 E3.42889
G1 X126.857 Y77.852 E3.45204
G1 X127.392 Y77.816 E3.47523
G1 X127.927 Y77.86 E3.49844
G1 X128.449 Y77.983 E3.52163
G1 X128.947 Y78.182 E3.54482
G1 X129.41 Y78.453 E3.56801
G1 X129.827 Y78.79 E3.59119
G1 X130.154 Y79.132 E3.61165
G1 X131.802 Y80.991 E3.71907
G1 X133.649 Y82.96 E3.8358
G1 X135.565 Y84.889 E3.95336
G1 X137.563 Y86.788 E4.07254
G1 X139.588 Y88.609 E4.1903
G1 X141.664 Y90.372 E4.30806
G1 X143.77 Y92.061 E4.42479
G1 X145.983 Y93.733 E4.54471
G1 X148.159 Y95.282 E4.6602
G1 X150.453 Y96.823 E4.77969
G1 X152.752 Y98.271 E4.89717
G1 X155.088 Y99.654 E5.01455
G1 X157.502 Y100.991 E5.13387
G1 X159.882 Y102.223 E5.24974
G1 X162.357 Y103.417 E5.36856
G1 X164.854 Y104.535 E5.48685
G1 X167.641 Y105.686 E5.61723
G1 X169.569 Y106.448 E5.70687
G1 X169.764 Y106.53 E5.71601
G1 X170.378 Y106.872 E5.7464
G1 X170.754 Y107.141 E5.76639
G1 X171.209 Y107.546 E5.79273
G1 X171.57 Y107.926 E5.81539
G1 X172.023 Y108.513 E5.84745
G1 X172.369 Y109.115 E5.87748
G1 X172.614 Y109.647 E5.9028
G1 X173.686 Y112.141 E6.02018
G1 X174.129 Y113.107 E6.06613
G1 X174.319 Y113.538 E6.08649
G1 X174.519 Y114.124 E6.11327
G1 X174.633 Y114.639 E6.13607
G1 X174.701 Y115.151 E6.1584
G1 X174.713 Y115.372 E6.16797
G1 X174.791 Y117.329 E6.25266
G1 X174.926 Y119.378 E6.34145
G1 X174.988 Y120.196 E6.37692
G1 X174.991 Y120.737 E6.40031
G1 X174.959 Y121.174 E6.41925
G1 X174.833 Y121.862 E6.4495
G1 X174.608 Y122.563 E6.48133
G1 X174.398 Y123.057 E6.50454
G1 X174.25 Y123.316 E6.51744
G1 X173.969 Y123.764 E6.5403
G1 X173.868 Y123.917 E6.54823
G1 X173.538 Y124.34 E6.57143
G1 X173.316 Y124.564 E6.58506
G1 X172.844 Y125 E6.61285
G1 X172.361 Y125.388 E6.63963
G1 X171.79 Y125.777 E6.66951
G1 X171.246 Y126.101 E6.69689
G1 X170.966 Y126.249 E6.71058
G1 X170.007 Y126.716 E6.7567
G1 X167.489 Y127.985 E6.87862
G1 X165.133 Y129.259 E6.99443
G1 X162.772 Y130.621 E7.11228
G1 X160.458 Y132.044 E7.22974
G1 X158.141 Y133.561 E7.34948
G1 X155.947 Y135.091 E7.46514
G1 X153.727 Y136.732 E7.5845
G1 X151.601 Y138.399 E7.70132
G1 X149.469 Y140.17 E7.82116
G1 X147.453 Y141.943 E7.93724
G1 X145.111 Y144.133 E8.07588
G1 X144.439 Y144.713 E8.11426
G1 X143.998 Y145.018 E8.13744
G1 X143.727 Y145.161 E8.15069
G1 X143.139 Y145.441 E8.17885
G1 X142.437 Y145.69 E8.21106
G1 X141.462 Y145.926 E8.25443
G1 X138.786 Y146.616 E8.37392
G1 X136.17 Y147.371 E8.49165
G1 X133.55 Y148.207 E8.61056
G1 X131 Y149.101 E8.7274
G1 X128.445 Y150.079 E8.84569
G1 X125.935 Y151.122 E8.96321
G1 X123.453 Y152.236 E9.08085
G1 X120.989 Y153.429 E9.19922
G1 X117.46 Y155.288 E9.37168
G1 X116.742 Y155.657 E9.40658
G1 X116.253 Y155.854 E9.42938
G1 X115.696 Y156.025 E9.45457
G1 X115.162 Y156.14 E9.47819
G1 X114.496 Y156.214 E9.50716
G1 X113.701 Y156.201 E9.54154
G1 X113.165 Y156.129 E9.56493
G1 X112.481 Y155.994 E9.59507
G1 X111.258 Y155.652 E9.64998
G1 X108.639 Y154.959 E9.76712
G1 X105.925 Y154.321 E9.88767
G1 X103.312 Y153.788 E10.00297
G1 X100.611 Y153.314 E10.12155
G1 X97.896 Y152.915 E10.2402
G1 X95.224 Y152.6 E10.35653
G1 X92.469 Y152.355 E10.47612
G1 X89.775 Y152.191 E10.59282
G1 X87.049 Y152.103 E10.71075
G1 X84.316 Y152.091 E10.82892
G1 X81.59 Y152.157 E10.94682
G1 X78.865 Y152.301 E11.06481
G1 X78.007 Y152.37 E11.10203
G1 X76.529 Y152.473 E11.16609
G1 X73.093 Y152.761 E11.31518
G1 X72.435 Y152.771 E11.34363
G1 X72.055 Y152.754 E11.36008
G1 X71.263 Y152.63 E11.39474
G1 X70.6 Y152.423 E11.42477
G1 X69.939 Y152.127 E11.45609
G1 X69.569 Y151.914 E11.47455
G1 X69.139 Y151.623 E11.497
G1 X68.629 Y151.222 E11.52505
G1 X67.398 Y150.224 E11.59357
G1 X65.228 Y148.566 E11.71165
G1 X64.631 Y148.131 E11.74359
G1 X63.429 Y147.246 E11.80813
G1 X62.855 Y146.777 E11.84018
G1 X62.694 Y146.631 E11.84957
G1 X62.302 Y146.254 E11.87309
G1 X62.011 Y145.939 E11.89163
G1 X61.619 Y145.46 E11.9184
G1 X61.196 Y144.891 E11.94905
G1 X60.861 Y144.331 E11.97727
G1 X60.537 Y143.63 E12.01066
G1 X60.336 Y143.095 E12.03537
G1 X60.167 Y142.493 E12.0624
G1 X60.099 Y142.153 E12.0774
G1 X60.032 Y141.518 E12.105
G1 X60.023 Y140.843 E12.13419
G1 X60.026 Y140.618 E12.14392
G1 X60.071 Y140.099 E12.16645
G1 X60.184 Y139.394 E12.19732
G1 X60.432 Y137.96 E12.26024
G1 X60.822 Y135.255 E12.37841
G1 X61.131 Y132.563 E12.49557
G1 X61.303 Y130.683 E12.5772
G1 X61.355 Y130.041 E12.60505
G1 X61.457 Y129.433 E12.63171
G1 X61.658 Y128.74 E12.66291
G1 X61.913 Y128.122 E12.69181
G1 X62.229 Y127.547 E12.72018
G1 X62.587 Y127.032 E12.7473
G1 X62.944 Y126.606 E12.77133
G1 X63.078 Y126.455 E12.78006
G1 X63.443 Y126.098 E12.80214
G1 X63.857 Y125.749 E12.82555
G1 X64.368 Y125.374 E12.85296
G1 X64.972 Y124.999 E12.8837
G0 F2160 X65.183 Y125.338
G1 F900 X65.82 Y125.026 E12.91437
G1 X66.399 Y124.817 E12.94098
G1 X66.579 Y124.76 E12.94914
G1 X67.093 Y124.615 E12.97224
G1 X69.714 Y123.833 E13.0905
G1 X72.325 Y122.973 E13.20936
G1 X74.898 Y122.043 E13.32766
G1 X77.422 Y121.049 E13.44495
G1 X79.96 Y119.966 E13.56426
G1 X82.435 Y118.826 E13.68208
G1 X84.909 Y117.602 E13.80143
G1 X87.304 Y116.331 E13.91866
G1 X89.696 Y114.973 E14.03759
G1 X92.038 Y113.553 E14.15602
G1 X94.33 Y112.075 E14.27394
G1 X96.597 Y110.519 E14.39283
G1 X98.814 Y108.906 E14.51137
G1 X100.964 Y107.245 E14.62884
G1 X103.093 Y105.502 E14.74781
G1 X105.163 Y103.706 E14.86631
G1 X107.173 Y101.862 E14.98425
G1 X109.134 Y99.958 E15.10243
G1 X111.06 Y97.978 E15.22187
G1 X112.883 Y95.995 E15.33833
G1 X114.702 Y93.9 E15.4583
G1 X116.444 Y91.775 E15.57711
G1 X118.112 Y89.619 E15.69497
G1 X119.725 Y87.408 E15.8133
G1 X121.268 Y85.161 E15.93116
G1 X122.77 Y82.839 E16.05073
G1 X124.022 Y80.782 E16.15485
G1 X124.612 Y79.785 E16.20495
G1 X124.903 Y79.372 E16.22679
G1 X125.255 Y79.01 E16.24862
G1 X125.661 Y78.708 E16.2705
G1 X126.109 Y78.473 E16.29238
G1 X126.588 Y78.312 E16.31423
G1 X127.086 Y78.228 E16.33606
G1 X127.592 Y78.224 E16.35794
G1 X128.092 Y78.3 E16.37981
G1 X128.574 Y78.453 E16.40167
G1 X129.025 Y78.68 E16.42351
G1 X129.435 Y78.976 E16.44537
G1 X129.823 Y79.362 E16.46903
G1 X131.512 Y81.266 E16.57908
G1 X133.356 Y83.231 E16.6956
G1 X135.3 Y85.189 E16.8149
G1 X137.285 Y87.076 E16.93332
G1 X139.325 Y88.911 E17.05196
G1 X141.4 Y90.673 E17.16966
G1 X143.525 Y92.376 E17.28741
G1 X145.732 Y94.044 E17.40702
G1 X147.95 Y95.624 E17.52477
G1 X150.247 Y97.166 E17.64439
G1 X152.53 Y98.605 E17.76108
G1 X154.896 Y100.006 E17.87997
G1 X157.303 Y101.338 E17.99892
G1 X159.742 Y102.6 E18.11765
G1 X162.198 Y103.785 E18.23556
G1 X164.675 Y104.894 E18.35291
G1 X167.488 Y106.056 E18.48451
G1 X169.422 Y106.82 E18.57442
G1 X169.604 Y106.897 E18.58296
G1 X170.149 Y107.201 E18.60994
G1 X170.514 Y107.462 E18.62935
G1 X170.919 Y107.821 E18.65275
G1 X171.28 Y108.201 E18.67541
G1 X171.682 Y108.723 E18.7039
G1 X172.019 Y109.309 E18.73313
G1 X172.226 Y109.756 E18.75442
G1 X173.327 Y112.318 E18.875
G1 X173.763 Y113.268 E18.92019
G1 X173.953 Y113.699 E18.94056
G1 X174.131 Y114.22 E18.96436
G1 X174.241 Y114.72 E18.9865
G1 X174.31 Y115.327 E19.01291
G1 X174.391 Y117.332 E19.09968
G1 X174.527 Y119.408 E19.18963
G1 X174.589 Y120.226 E19.2251
G1 X174.582 Y120.876 E19.25321
G1 X174.56 Y121.141 E19.26471
G1 X174.449 Y121.752 E19.29156
G1 X174.229 Y122.434 E19.32254
G1 X173.911 Y123.103 E19.35457
G1 X173.582 Y123.626 E19.38129
G1 X173.536 Y123.695 E19.38487
G1 X173.044 Y124.271 E19.41763
G1 X172.572 Y124.707 E19.44541
G1 X172.119 Y125.069 E19.47048
G1 X171.584 Y125.434 E19.49848
G1 X171.054 Y125.75 E19.52517
G1 X170.791 Y125.889 E19.53803
G1 X169.827 Y126.358 E19.58438
G1 X167.326 Y127.619 E19.70549
G1 X164.949 Y128.903 E19.8223
G1 X162.584 Y130.268 E19.94037
G1 X160.21 Y131.728 E20.06087
G1 X157.94 Y133.215 E20.17821
G1 X155.686 Y134.786 E20.297
G1 X153.487 Y136.411 E20.41523
G1 X151.343 Y138.092 E20.53303
G1 X149.233 Y139.845 E20.65164
G1 X147.182 Y141.649 E20.76974
G1 X144.819 Y143.859 E20.90964
G1 X144.188 Y144.402 E20.94563
G1 X143.555 Y144.8 E20.97796
G1 X142.967 Y145.08 E21.00612
G1 X142.343 Y145.301 E21.03474
G1 X141.373 Y145.536 E21.0779
G1 X138.68 Y146.23 E21.19814
G1 X136.053 Y146.988 E21.31636
G1 X133.434 Y147.824 E21.43523
G1 X130.862 Y148.726 E21.55308
G1 X128.285 Y149.712 E21.67238
G1 X125.766 Y150.759 E21.79033
G1 X123.265 Y151.882 E21.90887
G1 X120.83 Y153.06 E22.02583
G1 X117.25 Y154.947 E22.20081
G1 X116.568 Y155.297 E22.23396
G1 X115.959 Y155.529 E22.26214
G1 X115.107 Y155.744 E22.30013
G1 X114.459 Y155.816 E22.32832
G1 X113.752 Y155.804 E22.35889
G1 X113.231 Y155.734 E22.38162
G1 X112.589 Y155.609 E22.4099
G1 X111.366 Y155.267 E22.46481
G1 X108.719 Y154.566 E22.58321
G1 X106.031 Y153.935 E22.70259
G1 X103.389 Y153.395 E22.81919
G1 X100.666 Y152.918 E22.93872
G1 X97.964 Y152.52 E23.05681
G1 X95.235 Y152.199 E23.17562
G1 X92.531 Y151.958 E23.293
G1 X89.776 Y151.79 E23.41234
G1 X87.064 Y151.703 E23.52967
G1 X84.308 Y151.691 E23.64883
G1 X81.595 Y151.756 E23.76617
G1 X78.813 Y151.903 E23.88663
G1 X77.979 Y151.971 E23.92281
G1 X76.495 Y152.074 E23.98713
G1 X73.059 Y152.363 E24.13622
G1 X72.453 Y152.372 E24.16242
G1 X72.073 Y152.355 E24.17887
G1 X71.369 Y152.244 E24.20968
G1 X70.726 Y152.044 E24.2388
G1 X70.138 Y151.78 E24.26667
G1 X69.386 Y151.309 E24.30504
G1 X68.881 Y150.911 E24.33284
G1 X67.647 Y149.911 E24.40151
G1 X65.466 Y148.244 E24.52021
G1 X64.868 Y147.809 E24.55218
G1 X63.674 Y146.929 E24.61631
G1 X63.114 Y146.472 E24.64757
G1 X62.971 Y146.342 E24.65592
G1 X62.579 Y145.965 E24.67944
G1 X62.321 Y145.686 E24.69587
G1 X61.929 Y145.207 E24.72263
G1 X61.532 Y144.675 E24.75133
G1 X61.207 Y144.131 E24.77873
G1 X60.907 Y143.477 E24.80984
G1 X60.711 Y142.956 E24.83391
G1 X60.557 Y142.405 E24.85865
G1 X60.492 Y142.076 E24.87315
G1 X60.432 Y141.512 E24.89767
G1 X60.423 Y140.848 E24.92639
G1 X60.466 Y140.162 E24.95611
G1 X60.578 Y139.462 E24.98676
G1 X60.829 Y138.014 E25.0503
G1 X61.216 Y135.321 E25.16794
G1 X61.529 Y132.601 E25.28632
G1 X61.701 Y130.72 E25.36799
G1 X61.753 Y130.073 E25.39606
G1 X61.844 Y129.533 E25.41973
G1 X62.04 Y128.857 E25.45017
G1 X62.267 Y128.308 E25.47585
G1 X62.576 Y127.746 E25.50359
G1 X62.894 Y127.288 E25.52769
G1 X63.244 Y126.871 E25.55123
G1 X63.701 Y126.403 E25.57952
G1 X64.106 Y126.062 E25.60241
G1 X64.579 Y125.713 E25.62782
G1 X65.183 Y125.338 E25.65856
G1 F1500 E19.15856
;MESH:ParabensHelena.stl
G0 F2160 X75.537 Y128.924
G0 X76.481 Y129.456
G0 X93.527 Y135.223
G0 X117.726 Y138.812
G0 X121.51 Y141.972
;TYPE:WALL-INNER
G1 F1500 E25.65856
G1 F900 X121.651 Y142.106 E25.66697
G1 X121.661 Y142.116 E25.66759
G1 X123.477 Y143.836 E25.77574
G1 X124.277 Y144.49 E25.82041
G1 X125.056 Y144.653 E25.85483
G1 X125.082 Y144.658 E25.85597
G1 X125.204 Y144.753 E25.86266
G1 X125.23 Y144.773 E25.86407
G1 X125.279 Y144.922 E25.87086
G1 X125.263 Y144.985 E25.87367
G1 X125.243 Y145.002 E25.8748
G1 X125.111 Y145.11 E25.88218
G1 X125.081 Y145.124 E25.88361
G1 X124.518 Y145.384 E25.91042
G1 X124.088 Y145.491 E25.92958
G1 X123.791 Y145.422 E25.94276
G1 X123.604 Y145.313 E25.95212
G1 X123.294 Y145.046 E25.96981
G1 X122.867 Y144.596 E25.99664
G1 X122.465 Y144.109 E26.02394
G1 X122.111 Y143.619 E26.05008
G1 X121.743 Y143.034 E26.07996
G1 X121.52 Y142.624 E26.10014
G1 X121.455 Y142.329 E26.1132
G1 X121.453 Y142.316 E26.11369
G1 X121.51 Y141.972 E26.12206
G0 F2160 X118.865 Y139.493
G1 F900 X117.854 Y137.945 E26.202
G1 X117.667 Y137.658 E26.21681
G1 X117.511 Y137.963 E26.22521
G1 X116.664 Y139.608 E26.30522
G1 X116.402 Y139.946 E26.32371
G1 X116.053 Y140.254 E26.34383
G1 X116.021 Y140.273 E26.34544
G1 X115.57 Y140.552 E26.36837
G1 X114.848 Y140.895 E26.40293
G1 X114.805 Y140.916 E26.405
G1 X114.76 Y140.925 E26.40699
G1 X114.436 Y140.995 E26.42132
G1 X114.071 Y140.983 E26.43711
G1 X113.574 Y140.858 E26.45927
G1 X113.091 Y140.618 E26.48259
G1 X112.26 Y140.019 E26.52688
G1 X111.082 Y140.917 E26.59093
G1 X111.771 Y142.776 E26.67665
G1 X112.258 Y143.939 E26.73117
G1 X112.796 Y145.08 E26.78571
G1 X113.379 Y146.198 E26.84023
G1 X114.036 Y147.333 E26.89693
G1 X114.823 Y148.468 E26.95665
G1 X116.006 Y148.111 E27.01008
G1 X116.355 Y148.104 E27.02517
G1 X116.652 Y148.182 E27.03845
G1 X116.899 Y148.335 E27.05101
G1 X117.103 Y148.566 E27.06434
G1 X117.128 Y148.622 E27.06699
G1 X117.227 Y148.836 E27.07719
G1 X117.234 Y148.894 E27.07971
G1 X117.257 Y149.059 E27.08692
G1 X117.266 Y149.123 E27.08971
G1 X117.21 Y149.462 E27.10457
G1 X117.059 Y149.76 E27.11901
G1 X116.749 Y150.075 E27.13812
G1 X116.727 Y150.092 E27.13932
G1 X115.601 Y151.008 E27.20208
G1 X115.158 Y151.314 E27.22536
G1 X114.796 Y151.498 E27.24292
G1 X114.476 Y151.598 E27.25742
G1 X114.171 Y151.632 E27.27069
G1 X113.719 Y151.566 E27.29044
G1 X113.308 Y151.393 E27.30972
G1 X112.892 Y151.071 E27.33247
G1 X112.872 Y151.05 E27.33372
G1 X112.599 Y150.77 E27.35063
G1 X112.583 Y150.754 E27.35161
G1 X112.198 Y150.287 E27.37778
G1 X111.803 Y149.73 E27.4073
G1 X111.409 Y149.091 E27.43976
G1 X111.163 Y148.658 E27.46129
G1 X110.761 Y147.888 E27.49885
G1 X110.509 Y147.374 E27.5236
G1 X110.287 Y146.899 E27.54627
G1 X110.06 Y146.39 E27.57037
G1 X109.828 Y145.853 E27.59566
G1 X109.593 Y145.29 E27.62204
G1 X109.327 Y144.625 E27.65301
G1 X109.07 Y143.949 E27.68428
G1 X108.814 Y143.248 E27.71655
G1 X108.565 Y142.533 E27.74928
G1 X108.322 Y141.803 E27.78255
G1 X108.083 Y141.057 E27.81642
G1 X107.848 Y140.286 E27.85127
G1 X107.445 Y138.906 E27.91343
G1 X106.212 Y138.696 E27.96751
G1 X105.586 Y139.567 E28.01389
G1 X105.287 Y139.824 E28.03094
G1 X104.856 Y140.128 E28.05374
G1 X104.491 Y140.339 E28.07197
G1 X104.191 Y140.451 E28.08582
G1 X104.139 Y140.456 E28.08808
G1 X103.996 Y140.472 E28.0943
G1 X103.935 Y140.48 E28.09696
G1 X103.087 Y140.331 E28.13419
G1 X102.328 Y140.847 E28.17387
G1 X101.993 Y141.025 E28.19027
G1 X101.702 Y141.126 E28.20359
G1 X101.456 Y141.155 E28.2143
G1 X101.41 Y141.161 E28.21631
G1 X101.064 Y141.125 E28.23135
G1 X100.689 Y141.005 E28.24837
G1 X100.281 Y140.778 E28.26856
