;FLAVOR:Marlin
;TIME:3187
;Filament used: 1.71303m, 0m
;Layer height: 0.1
;MINX:52.753
;MINY:65.628
;MINZ:0.26
;MAXX:182.247
;MAXY:167.599
;MAXZ:1.76
;Generated with Cura_SteamEngine 4.8.0
T0
M140 S60
M105
M190 S60
M104 S200
M105
M109 S200
M82 ;absolute extrusion mode
M201 X500.00 Y500.00 Z100.00 E5000.00 	;Setup machine max acceleration
M203 X500.00 Y500.00 Z10.00 E50.00 	;Setup machine max feedrate
M204 P500.00 R1000.00 T500.00 		;Setup Print/Retract/Travel acceleration
M205 X8.00 Y8.00 Z0.40 E5.00 		;Setup Jerk
M220 S100 				;Reset Feedrate
M221 S100 				;Reset Flowrate
G28				;Home the Machine
#G29 				;Bed Level
G92 E0
M300 P150 S587
G92 E0
G1 F1500 E-6.5
;LAYER_COUNT:16
;LAYER:0
M107
G0 F2160 X60.828 Y105.692 Z0.26
;TYPE:SKIRT
G1 F1500 E0
G1 F900 X61.496 Y105.328 E0.03289
G1 X62.194 Y104.986 E0.0665
G1 X64.712 Y103.847 E0.186
G1 X67.185 Y102.643 E0.30492
G1 X69.609 Y101.377 E0.42317
G1 X71.983 Y100.05 E0.54076
G1 X74.304 Y98.664 E0.65765
G1 X76.643 Y97.177 E0.77749
G1 X78.867 Y95.673 E0.89358
G1 X81.085 Y94.081 E1.01162
G1 X83.283 Y92.405 E1.13114
G1 X85.363 Y90.724 E1.24677
G1 X87.454 Y88.938 E1.36567
G1 X89.478 Y87.104 E1.48377
G1 X91.444 Y85.218 E1.60157
G1 X93.359 Y83.275 E1.71953
G1 X95.211 Y81.289 E1.83694
G1 X97.035 Y79.214 E1.9564
G1 X98.754 Y77.146 E2.07267
G1 X100.442 Y74.993 E2.19096
G1 X102.075 Y72.785 E2.30971
G1 X103.604 Y70.592 E2.4253
G1 X105.764 Y67.261 E2.59696
G1 X106.028 Y66.899 E2.61633
G1 X106.404 Y66.517 E2.6395
G1 X106.833 Y66.195 E2.6627
G1 X107.305 Y65.94 E2.68589
G1 X107.81 Y65.758 E2.7091
G1 X108.336 Y65.654 E2.73229
G1 X108.872 Y65.628 E2.75549
G1 X109.405 Y65.683 E2.77866
G1 X109.925 Y65.816 E2.80187
G1 X110.29 Y65.961 E2.81885
G1 X110.762 Y66.216 E2.84204
G1 X111.19 Y66.538 E2.8652
G1 X111.632 Y66.999 E2.89282
G1 X113.279 Y69.057 E3.00679
G1 X115.037 Y71.13 E3.12431
G1 X116.856 Y73.154 E3.24198
G1 X118.736 Y75.133 E3.36
G1 X120.712 Y77.098 E3.48049
G1 X122.653 Y78.921 E3.59563
G1 X124.69 Y80.729 E3.71339
G1 X126.798 Y82.497 E3.83235
G1 X128.918 Y84.174 E3.94923
G1 X131.133 Y85.828 E4.06876
G1 X133.325 Y87.369 E4.18461
G1 X135.631 Y88.894 E4.30415
G1 X137.919 Y90.317 E4.42065
G1 X140.308 Y91.71 E4.54023
G1 X142.668 Y92.999 E4.6565
G1 X145.118 Y94.247 E4.77538
G1 X147.56 Y95.407 E4.89228
G1 X150.07 Y96.512 E5.01086
G1 X152.641 Y97.56 E5.1309
G1 X155.145 Y98.495 E5.24647
G1 X157.719 Y99.376 E5.36411
G1 X160.341 Y100.193 E5.48285
G1 X162.965 Y100.929 E5.60069
G1 X165.589 Y101.585 E5.71764
G1 X168.274 Y102.178 E5.83653
G1 X170.948 Y102.686 E5.95422
G1 X173.634 Y103.12 E6.07186
G1 X176.103 Y103.452 E6.17958
G1 X176.624 Y103.524 E6.20232
G1 X176.918 Y103.576 E6.21523
G1 X177.61 Y103.771 E6.24631
G1 X178.156 Y103.986 E6.27169
G1 X178.639 Y104.219 E6.29487
G1 X179.17 Y104.578 E6.32259
G1 X179.585 Y104.923 E6.34592
G1 X180.094 Y105.415 E6.37653
G1 X180.445 Y105.808 E6.39931
G1 X180.854 Y106.353 E6.42878
G1 X181.228 Y106.925 E6.45833
G1 X181.612 Y107.609 E6.49224
G1 X181.844 Y108.127 E6.51678
G1 X181.973 Y108.435 E6.53122
G1 X182.142 Y108.944 E6.55441
G1 X182.235 Y109.472 E6.57759
G1 X182.247 Y110.008 E6.60078
G1 X182.162 Y110.718 E6.63169
G1 X181.854 Y112.676 E6.71739
G1 X181.504 Y115.41 E6.83657
G1 X181.235 Y118.1 E6.95346
G1 X181.041 Y120.821 E7.07141
G1 X180.923 Y123.551 E7.18956
G1 X180.884 Y126.277 E7.30744
G1 X180.921 Y129.013 E7.42575
G1 X181.035 Y131.737 E7.54364
G1 X181.125 Y133.154 E7.60503
G1 X181.205 Y134.282 E7.65392
G1 X181.217 Y134.795 E7.67611
G1 X181.206 Y135.527 E7.70777
G1 X181.157 Y137.272 E7.78325
G1 X181.157 Y139.968 E7.89982
G1 X181.235 Y142.73 E8.01929
G1 X181.389 Y145.431 E8.13626
G1 X181.618 Y148.131 E8.25343
G1 X181.7 Y148.861 E8.28519
G1 X181.703 Y148.958 E8.28938
G1 X181.848 Y150.306 E8.34801
G1 X181.87 Y150.967 E8.3766
G1 X181.86 Y151.311 E8.39148
G1 X181.765 Y152.037 E8.42314
G1 X181.668 Y152.446 E8.44132
G1 X181.503 Y152.963 E8.46478
G1 X181.308 Y153.446 E8.4873
G1 X181.113 Y153.853 E8.50682
G1 X180.86 Y154.306 E8.52925
G1 X180.557 Y154.764 E8.553
G1 X180.211 Y155.208 E8.57733
G1 X179.824 Y155.633 E8.60219
G1 X179.393 Y156.04 E8.62782
G1 X178.978 Y156.392 E8.65135
G1 X178.308 Y156.859 E8.68666
G1 X177.613 Y157.259 E8.72133
G1 X176.904 Y157.596 E8.75527
G1 X176.093 Y157.875 E8.79236
G1 X175.386 Y158.056 E8.82391
G1 X174.69 Y158.196 E8.85461
G1 X174.072 Y158.285 E8.88161
G1 X173.383 Y158.351 E8.91153
G1 X172.616 Y158.366 E8.9447
G1 X170.007 Y158.412 E9.05753
G1 X167.281 Y158.537 E9.17552
G1 X164.56 Y158.74 E9.2935
G1 X161.84 Y159.02 E9.41173
G1 X159.163 Y159.373 E9.52848
G1 X156.438 Y159.81 E9.64781
G1 X153.752 Y160.319 E9.76601
G1 X151.13 Y160.894 E9.88208
G1 X148.475 Y161.554 E10.00037
G1 X145.845 Y162.289 E10.11844
G1 X143.228 Y163.1 E10.23691
G1 X140.649 Y163.98 E10.35473
G1 X138.101 Y164.931 E10.47232
G1 X134.65 Y166.351 E10.63368
G1 X133.223 Y166.969 E10.70092
G1 X132.677 Y167.171 E10.72609
G1 X132.292 Y167.289 E10.7435
G1 X131.786 Y167.43 E10.76621
G1 X131.4 Y167.515 E10.7833
G1 X130.866 Y167.564 E10.80649
G1 X130.145 Y167.502 E10.83778
G1 X129.84 Y167.445 E10.85119
G1 X127.594 Y166.999 E10.9502
G1 X124.932 Y166.549 E11.06694
G1 X122.232 Y166.17 E11.18482
G1 X119.511 Y165.866 E11.30321
G1 X116.791 Y165.64 E11.42122
G1 X114.066 Y165.492 E11.53922
G1 X111.336 Y165.419 E11.6573
G1 X108.605 Y165.425 E11.77538
G1 X105.909 Y165.507 E11.89201
G1 X103.149 Y165.668 E12.01155
G1 X100.466 Y165.902 E12.128
G1 X97.752 Y166.216 E12.24613
G1 X95.043 Y166.607 E12.36447
G1 X92.371 Y167.07 E12.48173
G1 X91.695 Y167.205 E12.51153
G1 X90.788 Y167.371 E12.5514
G1 X90.674 Y167.39 E12.5564
G1 X90.014 Y167.489 E12.58525
G1 X89.507 Y167.544 E12.60731
G1 X88.775 Y167.586 E12.63901
G1 X88.254 Y167.599 E12.66154
G1 X87.567 Y167.581 E12.69126
G1 X87.446 Y167.573 E12.6965
G1 X86.562 Y167.501 E12.73485
G1 X86.223 Y167.457 E12.74963
G1 X85.51 Y167.33 E12.78094
G1 X84.924 Y167.194 E12.80695
G1 X84.116 Y166.936 E12.84363
G1 X83.408 Y166.666 E12.87639
G1 X80.777 Y165.674 E12.99797
G1 X78.252 Y164.801 E13.11349
G1 X75.631 Y163.979 E13.23226
G1 X72.988 Y163.23 E13.35104
G1 X70.372 Y162.569 E13.4677
G1 X67.671 Y161.967 E13.58735
G1 X65.034 Y161.457 E13.70349
G1 X63.171 Y161.142 E13.78518
G1 X62.614 Y161.052 E13.80958
G1 X62.092 Y160.928 E13.83278
G1 X61.595 Y160.727 E13.85596
G1 X61.133 Y160.455 E13.87914
G1 X60.716 Y160.117 E13.90235
G1 X60.355 Y159.721 E13.92552
G1 X60.056 Y159.276 E13.9487
G1 X59.783 Y158.672 E13.97736
G1 X59.437 Y157.669 E14.02323
G1 X59.157 Y156.8 E14.06271
G1 X58.974 Y156.22 E14.089
G1 X58.51 Y154.723 E14.15677
G1 X58.343 Y154.171 E14.18171
G1 X57.87 Y152.577 E14.2536
G1 X57.715 Y152.043 E14.27764
G1 X57.281 Y150.52 E14.34611
G1 X57.118 Y149.932 E14.3725
G1 X56.725 Y148.485 E14.43733
G1 X56.54 Y147.791 E14.46838
G1 X56.031 Y145.825 E14.55619
G1 X55.619 Y144.167 E14.63006
G1 X55.484 Y143.606 E14.65501
G1 X55.129 Y142.099 E14.72195
G1 X54.952 Y141.319 E14.75654
G1 X54.697 Y140.139 E14.80874
G1 X54.443 Y138.889 E14.86389
G1 X54.266 Y137.95 E14.9052
G1 X54.041 Y136.677 E14.9611
G1 X53.897 Y135.795 E14.99974
G1 X53.689 Y134.412 E15.06021
G1 X53.571 Y133.556 E15.09757
G1 X53.407 Y132.243 E15.15479
G1 X53.305 Y131.336 E15.19425
G1 X53.177 Y130.046 E15.2503
G1 X53.098 Y129.142 E15.28954
G1 X52.998 Y127.793 E15.34803
G1 X52.944 Y126.914 E15.3861
G1 X52.879 Y125.617 E15.44225
G1 X52.834 Y124.454 E15.49258
G1 X52.761 Y122.702 E15.5684
G1 X52.758 Y122.569 E15.57415
G1 X52.753 Y121.54 E15.61864
G1 X52.755 Y121.408 E15.62435
G1 X52.786 Y120.442 E15.66614
G1 X52.794 Y120.292 E15.67263
G1 X52.883 Y119.085 E15.72496
G1 X52.894 Y118.963 E15.73026
G1 X52.948 Y118.463 E15.75201
G1 X52.968 Y118.306 E15.75885
G1 X53.106 Y117.403 E15.79835
G1 X53.135 Y117.24 E15.80551
G1 X53.312 Y116.356 E15.84449
G1 X53.35 Y116.189 E15.85189
G1 X53.535 Y115.454 E15.88466
G1 X53.77 Y114.66 E15.92047
G1 X54.007 Y113.967 E15.95213
G1 X54.145 Y113.601 E15.96905
G1 X54.457 Y112.855 E16.00401
G1 X54.543 Y112.668 E16.01291
G1 X54.898 Y111.943 E16.04781
G1 X55.018 Y111.72 E16.05876
G1 X55.439 Y110.99 E16.0952
G1 X55.562 Y110.793 E16.10524
G1 X56.013 Y110.116 E16.14041
G1 X56.161 Y109.91 E16.15138
G1 X56.72 Y109.187 E16.1909
G1 X56.872 Y109.003 E16.20122
G1 X57.466 Y108.334 E16.2399
G1 X57.968 Y107.822 E16.2709
G1 X58.289 Y107.532 E16.28961
G1 X58.95 Y106.973 E16.32704
G1 X59.146 Y106.819 E16.33782
G1 X59.761 Y106.368 E16.37079
G1 X59.966 Y106.228 E16.38152
G1 X60.627 Y105.81 E16.41534
G1 X60.828 Y105.692 E16.42542
G0 F2160 X61.02 Y106.043
G1 F900 X61.773 Y105.634 E16.46247
G1 X62.363 Y105.348 E16.49082
G1 X64.915 Y104.193 E16.61194
G1 X67.366 Y103 E16.7298
G1 X69.783 Y101.738 E16.8477
G1 X72.177 Y100.399 E16.9663
G1 X74.543 Y98.987 E17.08543
G1 X76.836 Y97.529 E17.20292
G1 X79.119 Y95.985 E17.32209
G1 X81.316 Y94.408 E17.43903
G1 X83.514 Y92.732 E17.55854
G1 X85.629 Y91.024 E17.67608
G1 X87.718 Y89.238 E17.79492
G1 X89.739 Y87.407 E17.91283
G1 X91.741 Y85.487 E18.03277
G1 X93.636 Y83.565 E18.14948
G1 X95.522 Y81.541 E18.2691
G1 X97.309 Y79.509 E18.3861
G1 X99.091 Y77.365 E18.50664
G1 X100.745 Y75.255 E18.62256
G1 X102.397 Y73.022 E18.74266
G1 X103.954 Y70.788 E18.8604
G1 X106.11 Y67.464 E19.03171
G1 X106.352 Y67.136 E19.04934
G1 X106.712 Y66.78 E19.07123
G1 X107.123 Y66.486 E19.09308
G1 X107.575 Y66.26 E19.11493
G1 X108.057 Y66.108 E19.13678
G1 X108.558 Y66.034 E19.15868
G1 X109.063 Y66.04 E19.18051
G1 X109.561 Y66.125 E19.20236
G1 X110.079 Y66.305 E19.22607
G1 X110.126 Y66.326 E19.22829
G1 X110.57 Y66.568 E19.25016
G1 X110.97 Y66.877 E19.27201
G1 X111.32 Y67.249 E19.2941
G1 X112.977 Y69.32 E19.40878
G1 X114.734 Y71.39 E19.52618
G1 X116.569 Y73.434 E19.64495
G1 X118.446 Y75.409 E19.76275
G1 X120.401 Y77.353 E19.88196
G1 X122.415 Y79.244 E20.00141
G1 X124.434 Y81.036 E20.11814
G1 X126.539 Y82.801 E20.23691
G1 X128.676 Y84.493 E20.35477
G1 X130.887 Y86.143 E20.47406
G1 X133.12 Y87.713 E20.59208
G1 X135.405 Y89.224 E20.71053
G1 X137.727 Y90.669 E20.82878
G1 X140.093 Y92.049 E20.94721
G1 X142.5 Y93.364 E21.06581
G1 X144.915 Y94.593 E21.18297
G1 X147.393 Y95.77 E21.30159
G1 X149.937 Y96.89 E21.42177
G1 X152.458 Y97.918 E21.53949
G1 X155.013 Y98.872 E21.65741
G1 X157.619 Y99.764 E21.77651
G1 X160.219 Y100.574 E21.89426
G1 X162.865 Y101.316 E22.01308
G1 X165.477 Y101.969 E22.12949
G1 X168.217 Y102.575 E22.25083
G1 X170.881 Y103.081 E22.36808
G1 X173.589 Y103.518 E22.48668
G1 X176.021 Y103.845 E22.59278
G1 X176.554 Y103.918 E22.61604
G1 X176.848 Y103.97 E22.62895
G1 X177.463 Y104.144 E22.65659
G1 X178.009 Y104.359 E22.68196
G1 X178.464 Y104.58 E22.70383
G1 X178.938 Y104.903 E22.72863
G1 X179.307 Y105.21 E22.74939
G1 X179.816 Y105.702 E22.78
G1 X180.328 Y106.312 E22.81443
G1 X180.633 Y106.739 E22.83712
G1 X180.941 Y107.221 E22.86185
G1 X181.247 Y107.774 E22.88918
G1 X181.475 Y108.282 E22.91325
G1 X181.604 Y108.59 E22.92769
G1 X181.761 Y109.07 E22.94953
G1 X181.842 Y109.569 E22.97139
G1 X181.821 Y110.27 E23.00171
G1 X181.758 Y110.717 E23.02123
G1 X181.456 Y112.634 E23.10514
G1 X181.107 Y115.356 E23.2238
G1 X180.837 Y118.065 E23.34151
G1 X180.641 Y120.811 E23.46054
G1 X180.524 Y123.529 E23.57817
G1 X180.484 Y126.277 E23.697
G1 X180.522 Y129.034 E23.81622
G1 X180.634 Y131.728 E23.93281
G1 X180.728 Y133.206 E23.99684
G1 X180.806 Y134.311 E24.04474
G1 X180.817 Y134.789 E24.06541
G1 X180.806 Y135.516 E24.09685
G1 X180.757 Y137.261 E24.17233
G1 X180.757 Y139.979 E24.28985
G1 X180.835 Y142.73 E24.40885
G1 X180.99 Y145.451 E24.52669
G1 X181.224 Y148.206 E24.64624
G1 X181.302 Y148.905 E24.67665
G1 X181.305 Y148.984 E24.68007
G1 X181.451 Y150.349 E24.73943
G1 X181.471 Y150.955 E24.76564
G1 X181.461 Y151.299 E24.78052
G1 X181.376 Y151.944 E24.80865
G1 X181.132 Y152.813 E24.84768
G1 X180.937 Y153.296 E24.8702
G1 X180.764 Y153.658 E24.88755
G1 X180.511 Y154.111 E24.90998
G1 X180.241 Y154.518 E24.9311
G1 X179.895 Y154.962 E24.95544
G1 X179.549 Y155.343 E24.97769
G1 X179.118 Y155.75 E25.00333
G1 X178.561 Y156.204 E25.0344
G1 X178.085 Y156.527 E25.05927
G1 X177.419 Y156.909 E25.09247
G1 X176.763 Y157.222 E25.12389
G1 X175.968 Y157.495 E25.16024
G1 X175.293 Y157.667 E25.19036
G1 X174.632 Y157.8 E25.21951
G1 X174.128 Y157.874 E25.24154
G1 X173.37 Y157.951 E25.27448
G1 X172.612 Y157.966 E25.30726
G1 X170.018 Y158.012 E25.41944
G1 X167.234 Y158.14 E25.53994
G1 X164.523 Y158.342 E25.65748
G1 X161.819 Y158.62 E25.77502
G1 X159.084 Y158.98 E25.89429
G1 X156.366 Y159.416 E26.01332
G1 X153.705 Y159.921 E26.13043
G1 X151.02 Y160.51 E26.24928
G1 X148.367 Y161.169 E26.36748
G1 X145.734 Y161.905 E26.48569
G1 X143.086 Y162.725 E26.60555
G1 X140.528 Y163.599 E26.72243
G1 X137.953 Y164.559 E26.84125
G1 X134.496 Y165.981 E27.00288
G1 X133.076 Y166.597 E27.0698
G1 X132.551 Y166.792 E27.09402
G1 X132.185 Y166.904 E27.11057
G1 X131.679 Y167.045 E27.13328
G1 X131.334 Y167.12 E27.14855
G1 X130.83 Y167.164 E27.17042
G1 X130.219 Y167.109 E27.19695
G1 X129.918 Y167.053 E27.21019
G1 X127.667 Y166.606 E27.30941
G1 X124.983 Y166.152 E27.42711
G1 X122.261 Y165.77 E27.54596
G1 X119.556 Y165.468 E27.66365
G1 X116.81 Y165.24 E27.78279
G1 X114.1 Y165.092 E27.90014
G1 X111.345 Y165.019 E28.0193
G1 X108.627 Y165.025 E28.13682
G1 X105.874 Y165.109 E28.25591
G1 X103.125 Y165.269 E28.37498
G1 X100.421 Y165.504 E28.49233
G1 X97.685 Y165.821 E28.61142
G1 X94.984 Y166.212 E28.72943
G1 X92.265 Y166.683 E28.84874
G1 X91.623 Y166.812 E28.87706
G1 X90.615 Y166.995 E28.92135
G1 X89.955 Y167.094 E28.95021
G1 X89.484 Y167.145 E28.97069
G1 X88.752 Y167.187 E29.0024
G1 X88 Y167.198 E29.03492
G1 X87.478 Y167.174 E29.05751
G1 X86.594 Y167.102 E29.09586
G1 X86.293 Y167.063 E29.10898
G1 X85.58 Y166.936 E29.1403
G1 X85.04 Y166.811 E29.16426
G1 X84.244 Y166.556 E29.2004
G1 X83.506 Y166.275 E29.23455
G1 X80.933 Y165.305 E29.35344
G1 X78.366 Y164.417 E29.47089
G1 X75.755 Y163.598 E29.58921
G1 X73.09 Y162.843 E29.70897
G1 X70.484 Y162.184 E29.8252
G1 X67.756 Y161.577 E29.94604
G1 X65.064 Y161.056 E30.06459
G1 X63.261 Y160.751 E30.14366
G1 X62.677 Y160.657 E30.16923
G1 X62.186 Y160.538 E30.19108
G1 X61.72 Y160.342 E30.21294
G1 X61.29 Y160.076 E30.2348
G1 X60.908 Y159.745 E30.25665
G1 X60.582 Y159.358 E30.27853
G1 X60.322 Y158.925 E30.30037
G1 X60.161 Y158.542 E30.31834
G1 X59.818 Y157.546 E30.36388
G1 X59.538 Y156.68 E30.40324
G1 X59.357 Y156.102 E30.42942
G1 X58.893 Y154.607 E30.49711
G1 X58.727 Y154.057 E30.52195
G1 X58.254 Y152.466 E30.59372
G1 X58.099 Y151.933 E30.61772
G1 X57.667 Y150.414 E30.686
G1 X57.504 Y149.827 E30.71234
G1 X57.111 Y148.382 E30.77709
G1 X56.927 Y147.69 E30.80805
G1 X56.419 Y145.729 E30.89564
G1 X56.008 Y144.073 E30.96941
G1 X55.873 Y143.514 E30.99428
G1 X55.519 Y142.011 E31.06104
G1 X55.343 Y141.235 E31.09545
G1 X55.089 Y140.059 E31.14747
G1 X54.836 Y138.815 E31.20236
G1 X54.66 Y137.88 E31.2435
G1 X54.436 Y136.613 E31.29913
G1 X54.293 Y135.736 E31.33755
G1 X54.085 Y134.357 E31.39785
G1 X53.968 Y133.506 E31.43499
G1 X53.804 Y132.199 E31.49195
G1 X53.703 Y131.297 E31.53119
G1 X53.575 Y130.012 E31.58703
G1 X53.497 Y129.112 E31.62609
G1 X53.397 Y127.769 E31.68432
G1 X53.343 Y126.894 E31.72222
G1 X53.278 Y125.601 E31.7782
G1 X53.234 Y124.426 E31.82904
G1 X53.161 Y122.685 E31.90438
G1 X53.158 Y122.568 E31.90944
G1 X53.153 Y121.539 E31.95394
G1 X53.155 Y121.42 E31.95908
G1 X53.186 Y120.454 E32.00087
G1 X53.193 Y120.322 E32.00659
G1 X53.282 Y119.115 E32.05892
G1 X53.292 Y119.006 E32.06365
G1 X53.346 Y118.506 E32.0854
G1 X53.364 Y118.367 E32.09146
G1 X53.502 Y117.464 E32.13095
G1 X53.527 Y117.319 E32.13732
G1 X53.704 Y116.435 E32.1763
G1 X53.738 Y116.286 E32.1829
G1 X53.92 Y115.562 E32.21518
G1 X54.152 Y114.779 E32.25049
