;FLAVOR:Marlin
;TIME:907
;Filament used: 0.527723m, 0m
;Layer height: 0.2
;MINX:99.05
;MINY:85.897
;MINZ:0.3
;MAXX:135.95
;MAXY:146.618
;MAXZ:1.9
;POSTPROCESSED
;Generated with Cura_SteamEngine 4.7.1
T0
M140 S60
M105
M190 S60
M104 S200
M105
M109 S200
M82 ;absolute extrusion mode
M201 X500.00 Y500.00 Z100.00 E5000.00 	;Setup machine max acceleration
M203 X500.00 Y500.00 Z10.00 E50.00 	;Setup machine max feedrate
M204 P500.00 R1000.00 T500.00 		;Setup Print/Retract/Travel acceleration
M205 X8.00 Y8.00 Z0.40 E5.00 		;Setup Jerk
M220 S100 				;Reset Feedrate
M221 S100 				;Reset Flowrate
G28				;Home the Machine
G29 				;Bed Level
G92 E0
M300 P150 S587
G92 E0
G1 F1500 E-6.5
;LAYER_COUNT:9
;LAYER:0
M107
G0 F2400 X114.89 Y87.081 Z0.3
;TYPE:SKIRT
G1 F1500 E0
G1 X115.263 Y86.712 E0.01512
G1 X115.688 Y86.403 E0.03026
G1 X116.155 Y86.163 E0.04538
G1 X116.652 Y85.996 E0.06049
G1 X117.17 Y85.907 E0.07563
G1 X117.694 Y85.897 E0.09073
G1 X118.215 Y85.966 E0.10588
G1 X118.718 Y86.114 E0.12098
G1 X119.194 Y86.337 E0.13613
G1 X119.63 Y86.629 E0.15125
G1 X120.017 Y86.984 E0.16638
G1 X120.394 Y87.467 E0.18403
G1 X120.826 Y88.136 E0.20697
G1 X121.525 Y89.255 E0.24499
G1 X123.051 Y91.552 E0.32444
G1 X124.596 Y93.739 E0.40159
G1 X126.266 Y95.969 E0.48186
G1 X127.946 Y98.083 E0.55966
G1 X129.706 Y100.174 E0.6384
G1 X131.523 Y102.211 E0.71705
G1 X133.406 Y104.209 E0.79615
G1 X134.93 Y105.745 E0.85849
G1 X135.16 Y106.001 E0.86841
G1 X135.461 Y106.432 E0.88355
G1 X135.692 Y106.903 E0.89867
G1 X135.85 Y107.404 E0.9138
G1 X135.938 Y108.079 E0.93341
G1 X135.95 Y108.509 E0.94581
G1 X135.949 Y115.548 E1.14861
G1 X135.939 Y116.248 E1.16878
G1 X135.936 Y116.346 E1.17161
G1 X135.89 Y117.404 E1.20212
G1 X135.862 Y117.885 E1.216
G1 X135.782 Y120.592 E1.29403
G1 X135.778 Y123.34 E1.3732
G1 X135.897 Y127.082 E1.48107
G1 X135.925 Y127.664 E1.49786
G1 X135.932 Y128.307 E1.51638
G1 X135.93 Y128.449 E1.52048
G1 X135.914 Y128.98 E1.53578
G1 X135.907 Y129.12 E1.53982
G1 X135.859 Y129.797 E1.55938
G1 X135.847 Y129.934 E1.56334
G1 X135.776 Y130.573 E1.58186
G1 X135.758 Y130.711 E1.58587
G1 X135.643 Y131.467 E1.6079
G1 X135.56 Y131.898 E1.62055
G1 X135.376 Y132.675 E1.64355
G1 X135.34 Y132.813 E1.64766
G1 X135.163 Y133.443 E1.66652
G1 X135.124 Y133.574 E1.67046
G1 X134.926 Y134.185 E1.68896
G1 X134.881 Y134.313 E1.69287
G1 X134.604 Y135.065 E1.71596
G1 X134.442 Y135.456 E1.72815
G1 X134.117 Y136.156 E1.75039
G1 X134.055 Y136.282 E1.75444
G1 X133.723 Y136.927 E1.77534
G1 X133.655 Y137.054 E1.77949
G1 X133.383 Y137.532 E1.79533
G1 X133.313 Y137.65 E1.79929
G1 X132.968 Y138.204 E1.81809
G1 X132.893 Y138.318 E1.82202
G1 X132.586 Y138.77 E1.83776
G1 X132.501 Y138.89 E1.842
G1 X132.104 Y139.424 E1.86117
G1 X132.026 Y139.524 E1.86483
G1 X131.69 Y139.943 E1.8803
G1 X131.596 Y140.056 E1.88453
G1 X131.135 Y140.583 E1.90471
G1 X131.035 Y140.693 E1.90899
G1 X130.687 Y141.058 E1.92352
G1 X130.591 Y141.154 E1.92743
G1 X130.066 Y141.663 E1.9485
G1 X129.967 Y141.756 E1.95241
G1 X129.412 Y142.253 E1.97388
G1 X129.065 Y142.541 E1.98687
G1 X128.442 Y143.013 E2.00939
G1 X128.326 Y143.097 E2.01352
G1 X127.744 Y143.501 E2.03393
G1 X127.223 Y143.839 E2.05182
G1 X127.087 Y143.922 E2.05641
G1 X126.435 Y144.3 E2.07813
G1 X125.912 Y144.58 E2.09522
G1 X125.783 Y144.646 E2.09939
G1 X125.167 Y144.941 E2.11907
G1 X125.035 Y145 E2.12324
G1 X124.428 Y145.26 E2.14226
G1 X123.872 Y145.476 E2.15945
G1 X123.736 Y145.525 E2.16361
G1 X123.019 Y145.766 E2.18541
G1 X122.439 Y145.938 E2.20284
G1 X122.31 Y145.973 E2.20669
G1 X121.567 Y146.158 E2.22875
G1 X121.002 Y146.277 E2.24538
G1 X120.869 Y146.301 E2.24928
G1 X120.158 Y146.418 E2.27004
G1 X120.011 Y146.439 E2.27432
G1 X119.38 Y146.515 E2.29263
G1 X119.245 Y146.529 E2.29654
G1 X118.7 Y146.573 E2.31229
G1 X118.566 Y146.581 E2.31616
G1 X117.702 Y146.617 E2.34108
G1 X117.315 Y146.618 E2.35223
G1 X116.433 Y146.581 E2.37766
G1 X116.301 Y146.573 E2.38147
G1 X115.755 Y146.529 E2.39725
G1 X115.619 Y146.515 E2.40119
G1 X114.989 Y146.439 E2.41947
G1 X114.84 Y146.418 E2.42381
G1 X114.131 Y146.301 E2.44451
G1 X113.577 Y146.19 E2.46079
G1 X113.43 Y146.157 E2.46513
G1 X112.686 Y145.971 E2.48723
G1 X112.122 Y145.81 E2.50413
G1 X111.978 Y145.765 E2.50847
G1 X111.263 Y145.524 E2.53021
G1 X110.7 Y145.312 E2.54755
G1 X110.569 Y145.259 E2.55162
G1 X109.961 Y144.998 E2.57068
G1 X109.834 Y144.941 E2.57469
G1 X109.219 Y144.647 E2.59433
G1 X108.679 Y144.364 E2.6119
G1 X108.564 Y144.3 E2.61569
G1 X107.911 Y143.921 E2.63744
G1 X107.364 Y143.575 E2.65609
G1 X107.249 Y143.498 E2.66008
G1 X106.668 Y143.093 E2.68048
G1 X106.56 Y143.015 E2.68432
G1 X105.961 Y142.562 E2.70596
G1 X105.608 Y142.272 E2.71912
G1 X105.031 Y141.754 E2.74146
G1 X104.934 Y141.664 E2.74527
G1 X104.407 Y141.153 E2.76642
G1 X104.312 Y141.057 E2.77031
G1 X103.965 Y140.693 E2.7848
G1 X103.867 Y140.586 E2.78898
G1 X103.406 Y140.06 E2.80914
G1 X102.979 Y139.532 E2.8287
G1 X102.893 Y139.42 E2.83277
G1 X102.496 Y138.884 E2.85199
G1 X102.416 Y138.772 E2.85595
G1 X102.109 Y138.321 E2.87167
G1 X102.032 Y138.204 E2.87571
G1 X101.687 Y137.65 E2.89451
G1 X101.616 Y137.53 E2.89853
G1 X101.345 Y137.053 E2.91433
G1 X101.279 Y136.932 E2.9183
G1 X100.945 Y136.285 E2.93928
G1 X100.883 Y136.157 E2.94338
G1 X100.569 Y135.482 E2.96483
G1 X100.408 Y135.095 E2.97691
G1 X100.121 Y134.32 E3.00072
G1 X100.075 Y134.187 E3.00477
G1 X99.876 Y133.574 E3.02334
G1 X99.834 Y133.437 E3.02747
G1 X99.658 Y132.807 E3.04632
G1 X99.624 Y132.673 E3.0503
G1 X99.449 Y131.933 E3.07221
G1 X99.361 Y131.493 E3.08514
G1 X99.242 Y130.711 E3.10793
G1 X99.224 Y130.573 E3.11194
G1 X99.153 Y129.934 E3.13046
G1 X99.141 Y129.797 E3.13442
G1 X99.093 Y129.12 E3.15398
G1 X99.086 Y128.98 E3.15801
G1 X99.07 Y128.451 E3.17326
G1 X99.068 Y128.306 E3.17744
G1 X99.076 Y127.629 E3.19695
G1 X99.08 Y127.497 E3.20075
G1 X99.107 Y126.959 E3.21627
G1 X99.207 Y124.221 E3.29521
G1 X99.23 Y121.477 E3.37427
G1 X99.177 Y118.806 E3.45124
G1 X99.081 Y116.666 E3.51296
G1 X99.05 Y115.147 E3.55674
G1 X99.05 Y108.838 E3.73851
G1 X99.06 Y108.135 E3.75877
G1 X99.108 Y107.612 E3.7739
G1 X99.234 Y107.103 E3.78901
G1 X99.436 Y106.618 E3.80414
G1 X99.709 Y106.17 E3.81926
G1 X100.067 Y105.746 E3.83525
G1 X101.011 Y104.788 E3.874
G1 X101.034 Y104.759 E3.87506
G1 X102.57 Y103.177 E3.93859
G1 X104.415 Y101.164 E4.01727
G1 X106.188 Y99.115 E4.09533
G1 X107.935 Y96.977 E4.17488
G1 X109.599 Y94.818 E4.25342
G1 X111.198 Y92.618 E4.33178
G1 X112.751 Y90.35 E4.41097
G1 X114.057 Y88.329 E4.4803
G1 X114.577 Y87.503 E4.50842
G1 X114.89 Y87.081 E4.52356
G0 F2400 X115.131 Y87.261
G1 F1500 X115.492 Y86.912 E4.53803
G1 X115.903 Y86.624 E4.55249
G1 X116.354 Y86.406 E4.56692
G1 X116.834 Y86.261 E4.58137
G1 X117.332 Y86.195 E4.59584
G1 X117.833 Y86.209 E4.61028
G1 X118.326 Y86.302 E4.62473
G1 X118.798 Y86.472 E4.63919
G1 X119.237 Y86.715 E4.65364
G1 X119.632 Y87.024 E4.66809
G1 X119.972 Y87.393 E4.68255
G1 X120.142 Y87.63 E4.69095
G1 X120.572 Y88.295 E4.71377
G1 X121.281 Y89.43 E4.75233
G1 X122.8 Y91.717 E4.83143
G1 X124.372 Y93.941 E4.9099
G1 X126.018 Y96.139 E4.98901
G1 X127.688 Y98.242 E5.06638
G1 X129.483 Y100.374 E5.14668
G1 X131.31 Y102.422 E5.22576
G1 X133.187 Y104.414 E5.30461
G1 X134.717 Y105.956 E5.3672
G1 X134.928 Y106.191 E5.3763
G1 X135.214 Y106.604 E5.39077
G1 X135.43 Y107.056 E5.40521
G1 X135.572 Y107.537 E5.41966
G1 X135.638 Y108.089 E5.43567
G1 X135.65 Y108.509 E5.44778
G1 X135.649 Y115.544 E5.65047
G1 X135.639 Y116.244 E5.67064
G1 X135.591 Y117.387 E5.7036
G1 X135.564 Y117.858 E5.71719
G1 X135.482 Y120.619 E5.79678
G1 X135.478 Y123.35 E5.87546
G1 X135.596 Y127.057 E5.98232
G1 X135.625 Y127.668 E5.99994
G1 X135.632 Y128.311 E6.01847
G1 X135.631 Y128.44 E6.02219
G1 X135.615 Y128.971 E6.03749
G1 X135.608 Y129.099 E6.04119
G1 X135.56 Y129.776 E6.06074
G1 X135.549 Y129.901 E6.06436
G1 X135.478 Y130.54 E6.08288
G1 X135.461 Y130.666 E6.08654
G1 X135.346 Y131.422 E6.10857
G1 X135.268 Y131.829 E6.12051
G1 X135.084 Y132.606 E6.14352
G1 X135.052 Y132.732 E6.14727
G1 X134.875 Y133.362 E6.16612
G1 X134.839 Y133.481 E6.1697
G1 X134.641 Y134.092 E6.18821
G1 X134.6 Y134.21 E6.19181
G1 X134.323 Y134.962 E6.2149
G1 X134.17 Y135.33 E6.22638
G1 X133.845 Y136.03 E6.24861
G1 X133.789 Y136.145 E6.2523
G1 X133.457 Y136.79 E6.2732
G1 X133.394 Y136.906 E6.277
G1 X133.122 Y137.384 E6.29285
G1 X133.058 Y137.491 E6.29644
G1 X132.713 Y138.045 E6.31524
G1 X132.645 Y138.15 E6.31885
G1 X132.338 Y138.602 E6.33459
G1 X132.26 Y138.711 E6.33845
G1 X131.863 Y139.245 E6.35762
G1 X131.792 Y139.337 E6.36097
G1 X131.456 Y139.756 E6.37645
G1 X131.37 Y139.859 E6.38031
G1 X130.909 Y140.386 E6.40049
G1 X130.818 Y140.486 E6.40438
G1 X130.47 Y140.851 E6.41891
G1 X130.383 Y140.939 E6.42248
G1 X129.858 Y141.448 E6.44355
G1 X129.766 Y141.533 E6.44715
G1 X129.211 Y142.03 E6.46862
G1 X128.884 Y142.302 E6.48087
G1 X128.261 Y142.774 E6.50339
G1 X128.155 Y142.851 E6.50717
G1 X127.573 Y143.255 E6.52758
G1 X127.06 Y143.587 E6.54519
G1 X126.937 Y143.662 E6.54934
G1 X126.285 Y144.04 E6.57105
G1 X125.771 Y144.315 E6.58785
G1 X125.654 Y144.375 E6.59163
G1 X125.038 Y144.67 E6.61131
G1 X124.917 Y144.725 E6.61514
G1 X124.31 Y144.985 E6.63417
G1 X123.765 Y145.196 E6.65101
G1 X123.641 Y145.241 E6.65481
G1 X122.924 Y145.482 E6.6766
G1 X122.355 Y145.65 E6.69369
G1 X122.237 Y145.682 E6.69722
G1 X121.494 Y145.867 E6.71928
G1 X120.942 Y145.983 E6.73553
G1 X120.82 Y146.005 E6.7391
G1 X120.109 Y146.122 E6.75986
G1 X119.975 Y146.141 E6.76376
G1 X119.344 Y146.217 E6.78207
G1 X119.22 Y146.23 E6.78566
G1 X118.675 Y146.274 E6.80142
G1 X118.553 Y146.281 E6.80494
G1 X117.689 Y146.317 E6.82985
G1 X117.328 Y146.318 E6.84025
G1 X116.446 Y146.281 E6.86569
G1 X116.325 Y146.274 E6.86918
G1 X115.779 Y146.23 E6.88496
G1 X115.655 Y146.217 E6.88855
G1 X115.025 Y146.141 E6.90684
G1 X114.889 Y146.122 E6.91079
G1 X114.18 Y146.005 E6.9315
G1 X113.637 Y145.896 E6.94745
G1 X113.503 Y145.866 E6.95141
G1 X112.759 Y145.68 E6.9735
G1 X112.206 Y145.522 E6.99008
G1 X112.074 Y145.481 E6.99406
G1 X111.359 Y145.24 E7.0158
G1 X110.807 Y145.032 E7.03279
G1 X110.687 Y144.984 E7.03652
G1 X110.079 Y144.723 E7.05558
G1 X109.963 Y144.67 E7.05925
G1 X109.348 Y144.376 E7.07889
G1 X108.82 Y144.099 E7.09607
G1 X108.715 Y144.04 E7.09954
G1 X108.062 Y143.661 E7.1213
G1 X107.526 Y143.322 E7.13957
G1 X107.421 Y143.252 E7.1432
G1 X106.84 Y142.847 E7.16361
G1 X106.741 Y142.775 E7.16714
G1 X106.142 Y142.322 E7.18877
G1 X105.809 Y142.049 E7.20118
G1 X105.232 Y141.531 E7.22352
G1 X105.143 Y141.448 E7.22703
G1 X104.616 Y140.937 E7.24818
G1 X104.529 Y140.85 E7.25172
G1 X104.182 Y140.486 E7.26621
G1 X104.093 Y140.388 E7.27002
G1 X103.632 Y139.862 E7.29018
G1 X103.213 Y139.344 E7.30937
G1 X103.134 Y139.242 E7.31309
G1 X102.737 Y138.706 E7.33231
G1 X102.664 Y138.604 E7.33592
G1 X102.357 Y138.153 E7.35164
G1 X102.287 Y138.045 E7.35535
G1 X101.942 Y137.491 E7.37415
G1 X101.877 Y137.382 E7.37781
G1 X101.606 Y136.905 E7.39361
G1 X101.546 Y136.794 E7.39725
G1 X101.212 Y136.147 E7.41823
G1 X101.155 Y136.031 E7.42195
G1 X100.841 Y135.356 E7.4434
G1 X100.689 Y134.991 E7.45479
G1 X100.402 Y134.216 E7.4786
G1 X100.36 Y134.095 E7.48229
G1 X100.161 Y133.482 E7.50086
G1 X100.123 Y133.357 E7.50463
G1 X99.947 Y132.727 E7.52347
G1 X99.916 Y132.604 E7.52713
G1 X99.721 Y131.775 E7.55166
G1 X99.658 Y131.448 E7.56126
G1 X99.539 Y130.666 E7.58405
G1 X99.522 Y130.54 E7.58771
G1 X99.451 Y129.901 E7.60624
G1 X99.44 Y129.776 E7.60985
G1 X99.392 Y129.099 E7.62941
G1 X99.385 Y128.971 E7.6331
G1 X99.369 Y128.442 E7.64835
G1 X99.368 Y128.31 E7.65215
G1 X99.376 Y127.633 E7.67166
G1 X99.38 Y127.512 E7.67515
G1 X99.407 Y126.974 E7.69067
G1 X99.507 Y124.234 E7.76966
G1 X99.53 Y121.477 E7.8491
G1 X99.477 Y118.792 E7.92647
G1 X99.381 Y116.652 E7.98819
G1 X99.35 Y115.147 E8.03156
G1 X99.35 Y108.842 E8.21322
G1 X99.36 Y108.139 E8.23348
G1 X99.407 Y107.64 E8.24792
G1 X99.533 Y107.154 E8.26238
G1 X99.734 Y106.695 E8.27682
G1 X100.148 Y106.1 E8.2977
G1 X100.281 Y105.956 E8.30335
G1 X101.214 Y105.009 E8.34165
G1 X101.249 Y104.968 E8.34321
G1 X102.794 Y103.377 E8.4071
G1 X104.635 Y101.368 E8.48561
G1 X106.417 Y99.309 E8.56407
G1 X108.174 Y97.158 E8.64409
G1 X109.84 Y94.998 E8.72268
G1 X111.445 Y92.789 E8.80135
G1 X112.99 Y90.533 E8.88013
G1 X114.331 Y88.457 E8.95134
G1 X114.831 Y87.663 E8.97837
G1 X115.131 Y87.261 E8.99283
G1 F1500 E2.49283
;MESH:Benadoce.stl
G0 F2400 X116.49 Y90.142
G0 X117.407 Y90.475
G0 X115.75 Y108.93
;TYPE:WALL-INNER
G1 F1500 E8.99283
G1 F1200 X115.75 Y96.314 E9.35631
G1 X117.357 Y91.898 E9.49171
G1 X117.497 Y91.512 E9.50354
G1 X117.637 Y91.898 E9.5098
G1 X119.25 Y96.315 E9.64528
G1 X119.25 Y108.93 E10.00874
G1 X131.6 Y108.93 E10.36456
G1 X131.75 Y108.93 E10.36888
G1 X131.75 Y109.08 E10.37168
G1 X131.749 Y116.156 E10.57555
G1 X131.716 Y116.449 E10.58404
G1 X131.632 Y116.699 E10.59164
G1 X131.498 Y116.926 E10.59924
G1 X131.329 Y117.109 E10.60641
G1 X131.113 Y117.263 E10.61406
G1 X130.87 Y117.368 E10.62168
G1 X130.6 Y117.423 E10.62962
G1 X130.461 Y117.43 E10.63363
G1 X129.637 Y117.431 E10.65737
G1 X129.104 Y117.579 E10.67331
G1 X128.644 Y118.039 E10.69205
G1 X128.472 Y118.666 E10.71079
G1 X128.615 Y119.233 E10.72763
G1 X128.775 Y119.467 E10.7358
G1 X129.095 Y119.897 E10.75124
G1 X129.433 Y120.392 E10.76851
G1 X129.734 Y120.872 E10.78484
G1 X130.021 Y121.376 E10.80155
G1 X130.285 Y121.886 E10.81809
G1 X130.526 Y122.403 E10.83453
G1 X130.759 Y122.957 E10.85184
G1 X130.952 Y123.476 E10.8678
G1 X131.13 Y124.025 E10.88443
G1 X131.29 Y124.592 E10.9014
G1 X131.427 Y125.164 E10.91835
G1 X131.534 Y125.709 E10.93435
G1 X131.625 Y126.304 E10.95169
G1 X131.689 Y126.855 E10.96767
G1 X131.73 Y127.441 E10.9846
G1 X131.749 Y128.01 E11.001
G1 X131.743 Y128.588 E11.01765
G1 X131.714 Y129.184 E11.03485
G1 X131.663 Y129.752 E11.05128
G1 X131.587 Y130.324 E11.0679
G1 X131.488 Y130.903 E11.08483
G1 X131.369 Y131.449 E11.10093
G1 X131.222 Y132.025 E11.11805
G1 X131.056 Y132.572 E11.13452
G1 X130.868 Y133.115 E11.15108
G1 X130.661 Y133.645 E11.16747
G1 X130.426 Y134.174 E11.18415
G1 X130.159 Y134.72 E11.20166
G1 X129.893 Y135.212 E11.21778
G1 X129.603 Y135.7 E11.23413
G1 X129.289 Y136.183 E11.25073
G1 X128.943 Y136.671 E11.26797
G1 X128.602 Y137.112 E11.28403
G1 X128.231 Y137.555 E11.30068
G1 X127.821 Y138.004 E11.31819
G1 X127.43 Y138.4 E11.33423
G1 X127.024 Y138.779 E11.35023
G1 X126.561 Y139.178 E11.36784
G1 X126.123 Y139.524 E11.38392
G1 X125.649 Y139.869 E11.40081
G1 X125.157 Y140.197 E11.41785
G1 X124.684 Y140.486 E11.43382
G1 X124.158 Y140.777 E11.45114
G1 X123.644 Y141.037 E11.46773
G1 X123.12 Y141.275 E11.48432
G1 X122.59 Y141.489 E11.50078
G1 X122.05 Y141.683 E11.51732
G1 X121.488 Y141.86 E11.53429
G1 X120.94 Y142.008 E11.55065
G1 X120.37 Y142.136 E11.56748
G1 X119.789 Y142.245 E11.58451
G1 X119.23 Y142.324 E11.60078
G1 X118.665 Y142.381 E11.61714
G1 X118.074 Y142.417 E11.6342
G1 X117.5 Y142.43 E11.65074
G1 X116.926 Y142.417 E11.66728
G1 X116.342 Y142.381 E11.68414
G1 X115.758 Y142.323 E11.70105
G1 X115.209 Y142.244 E11.71703
G1 X114.629 Y142.136 E11.73402
G1 X114.055 Y142.007 E11.75098
G1 X113.524 Y141.863 E11.76683
G1 X112.95 Y141.683 E11.78416
G1 X112.41 Y141.489 E11.80069
G1 X111.88 Y141.275 E11.81716
G1 X111.356 Y141.037 E11.83374
G1 X110.842 Y140.777 E11.85034
G1 X110.316 Y140.486 E11.86766
G1 X109.843 Y140.197 E11.88363
G1 X109.351 Y139.869 E11.90066
G1 X108.877 Y139.524 E11.91755
G1 X108.439 Y139.178 E11.93364
G1 X107.976 Y138.779 E11.95125
G1 X107.57 Y138.4 E11.96725
G1 X107.179 Y138.004 E11.98328
G1 X106.769 Y137.555 E12.0008
G1 X106.398 Y137.112 E12.01745
G1 X106.057 Y136.671 E12.03351
