;FLAVOR:Marlin
;TIME:742
;Filament used: 0.465692m, 0m
;Layer height: 0.2
;MINX:99.065
;MINY:85.912
;MINZ:0.3
;MAXX:135.934
;MAXY:146.612
;MAXZ:1.9
;POSTPROCESSED
;Generated with Cura_SteamEngine 4.7.1
T0
M140 S60
M105
M190 S60
M104 S200
M105
M109 S200
M82 ;absolute extrusion mode
M201 X500.00 Y500.00 Z100.00 E5000.00 	;Setup machine max acceleration
M203 X500.00 Y500.00 Z10.00 E50.00 	;Setup machine max feedrate
M204 P500.00 R1000.00 T500.00 		;Setup Print/Retract/Travel acceleration
M205 X8.00 Y8.00 Z0.40 E5.00 		;Setup Jerk
M220 S100 				;Reset Feedrate
M221 S100 				;Reset Flowrate
G28				;Home the Machine
G29 				;Bed Level
G92 E0
M300 P150 S587
G92 E0
G1 F1500 E-6.5
;LAYER_COUNT:9
;LAYER:0
M107
G0 F2400 X114.786 Y87.224 Z0.3
;TYPE:SKIRT
G1 F1500 E0
G1 X115.141 Y86.838 E0.01962
G1 X115.552 Y86.51 E0.0393
G1 X116.007 Y86.249 E0.05893
G1 X116.496 Y86.059 E0.07856
G1 X117.009 Y85.946 E0.09821
G1 X117.533 Y85.912 E0.11786
G1 X118.056 Y85.958 E0.1375
G1 X118.566 Y86.083 E0.15715
G1 X119.051 Y86.284 E0.1768
G1 X119.5 Y86.556 E0.19644
G1 X119.902 Y86.893 E0.21607
G1 X120.249 Y87.287 E0.23571
G1 X120.532 Y87.729 E0.25535
G1 X120.711 Y88.117 E0.27134
G1 X121.071 Y89.05 E0.30876
G1 X123.008 Y94.357 E0.52015
G1 X123.251 Y95.053 E0.54773
G1 X123.31 Y95.24 E0.55507
G1 X123.529 Y96.004 E0.58481
G1 X124.328 Y98.646 E0.68809
G1 X125.201 Y101.261 E0.79124
G1 X126.141 Y103.836 E0.89381
G1 X127.143 Y106.354 E0.99521
G1 X128.227 Y108.87 E1.09772
G1 X129.363 Y111.314 E1.19857
G1 X130.597 Y113.785 E1.30192
G1 X131.89 Y116.202 E1.40448
G1 X132.809 Y117.807 E1.47369
G1 X133.714 Y119.414 E1.54269
G1 X133.778 Y119.534 E1.54778
G1 X134.046 Y120.057 E1.56977
G1 X134.109 Y120.185 E1.57511
G1 X134.37 Y120.751 E1.59843
G1 X134.427 Y120.882 E1.60378
G1 X134.652 Y121.428 E1.62587
G1 X134.703 Y121.559 E1.63113
G1 X134.918 Y122.148 E1.6546
G1 X134.96 Y122.272 E1.65949
G1 X135.211 Y123.05 E1.69008
G1 X135.328 Y123.469 E1.70636
G1 X135.514 Y124.276 E1.73735
G1 X135.539 Y124.396 E1.74194
G1 X135.653 Y124.986 E1.76442
G1 X135.678 Y125.129 E1.76985
G1 X135.782 Y125.822 E1.79607
G1 X135.8 Y125.963 E1.80139
G1 X135.88 Y126.703 E1.82924
G1 X135.911 Y127.142 E1.84571
G1 X135.934 Y128.031 E1.87898
G1 X135.929 Y128.656 E1.90237
G1 X135.925 Y128.784 E1.90716
G1 X135.883 Y129.633 E1.93897
G1 X135.849 Y130.003 E1.95287
G1 X135.721 Y130.962 E1.98907
G1 X135.699 Y131.103 E1.99441
G1 X135.603 Y131.649 E2.01516
G1 X135.576 Y131.784 E2.02031
G1 X135.417 Y132.516 E2.04834
G1 X135.385 Y132.65 E2.05349
G1 X135.207 Y133.336 E2.08001
G1 X135.099 Y133.692 E2.09393
G1 X134.793 Y134.565 E2.12855
G1 X134.743 Y134.697 E2.13383
G1 X134.525 Y135.246 E2.15593
G1 X134.474 Y135.368 E2.16088
G1 X134.142 Y136.119 E2.1916
G1 X133.941 Y136.531 E2.20875
G1 X133.643 Y137.082 E2.23219
G1 X133.572 Y137.206 E2.23754
G1 X132.996 Y138.173 E2.27966
G1 X132.82 Y138.441 E2.29165
G1 X132.324 Y139.134 E2.32354
G1 X132.241 Y139.245 E2.32873
G1 X131.823 Y139.782 E2.35419
G1 X131.449 Y140.23 E2.37603
G1 X131.365 Y140.325 E2.38077
G1 X130.852 Y140.888 E2.40927
G1 X130.745 Y141 E2.41507
G1 X130.368 Y141.378 E2.43504
G1 X130.271 Y141.471 E2.44007
G1 X129.801 Y141.907 E2.46406
G1 X129.693 Y142.003 E2.46947
G1 X129.252 Y142.379 E2.49115
G1 X129.15 Y142.463 E2.49609
G1 X128.658 Y142.851 E2.51954
G1 X128.542 Y142.939 E2.52499
G1 X128.013 Y143.321 E2.5494
G1 X127.498 Y143.667 E2.57262
G1 X127.374 Y143.745 E2.5781
G1 X126.78 Y144.105 E2.60409
G1 X126.663 Y144.173 E2.60915
G1 X126.179 Y144.441 E2.62985
G1 X126.051 Y144.509 E2.63528
G1 X125.437 Y144.816 E2.66096
G1 X125.308 Y144.877 E2.6663
G1 X124.845 Y145.085 E2.6853
G1 X124.725 Y145.136 E2.69017
G1 X124.127 Y145.378 E2.71431
G1 X123.995 Y145.428 E2.71959
G1 X123.355 Y145.657 E2.74503
G1 X123.216 Y145.704 E2.75052
G1 X122.717 Y145.859 E2.77007
G1 X122.586 Y145.897 E2.77517
G1 X122.022 Y146.048 E2.79702
G1 X121.891 Y146.08 E2.80207
G1 X121.201 Y146.236 E2.82854
G1 X121.065 Y146.264 E2.83373
G1 X120.316 Y146.402 E2.86223
G1 X119.858 Y146.468 E2.87954
G1 X119.112 Y146.542 E2.90759
G1 X118.978 Y146.553 E2.91262
G1 X118.28 Y146.595 E2.93879
G1 X118.143 Y146.6 E2.94392
G1 X117.55 Y146.612 E2.96611
G1 X117.41 Y146.612 E2.97135
G1 X116.769 Y146.599 E2.99534
G1 X116.241 Y146.571 E3.01512
G1 X116.102 Y146.56 E3.02034
G1 X115.055 Y146.457 E3.05971
G1 X114.777 Y146.418 E3.07021
G1 X113.995 Y146.276 E3.09995
G1 X113.856 Y146.248 E3.10526
G1 X112.84 Y146.02 E3.14422
G1 X112.571 Y145.949 E3.15463
G1 X111.792 Y145.707 E3.18515
G1 X111.662 Y145.663 E3.19029
G1 X111.031 Y145.439 E3.21534
G1 X110.904 Y145.392 E3.22041
G1 X110.061 Y145.055 E3.25438
G1 X109.789 Y144.932 E3.26555
G1 X108.944 Y144.506 E3.30096
G1 X108.822 Y144.441 E3.30613
G1 X108.289 Y144.145 E3.32894
G1 X108.168 Y144.074 E3.33419
G1 X107.604 Y143.73 E3.35891
G1 X107.487 Y143.656 E3.36409
G1 X106.852 Y143.233 E3.39264
G1 X106.51 Y142.986 E3.40842
G1 X105.836 Y142.452 E3.4406
G1 X105.733 Y142.368 E3.44557
G1 X105.083 Y141.811 E3.4776
G1 X104.783 Y141.532 E3.49293
G1 X104.253 Y140.995 E3.52116
G1 X104.163 Y140.901 E3.52603
G1 X103.636 Y140.325 E3.55525
G1 X103.235 Y139.853 E3.57842
G1 X103.153 Y139.751 E3.58332
G1 X102.769 Y139.257 E3.60673
G1 X102.68 Y139.138 E3.61229
G1 X102.263 Y138.551 E3.63923
G1 X101.932 Y138.049 E3.66173
G1 X101.854 Y137.925 E3.66721
G1 X101.481 Y137.299 E3.69448
G1 X101.195 Y136.779 E3.71668
G1 X101.129 Y136.651 E3.72207
G1 X100.834 Y136.051 E3.74709
G1 X100.772 Y135.919 E3.75255
G1 X100.482 Y135.26 E3.77949
G1 X100.431 Y135.137 E3.78447
G1 X100.178 Y134.496 E3.81025
G1 X100.028 Y134.067 E3.82726
G1 X99.784 Y133.266 E3.85859
G1 X99.744 Y133.127 E3.864
G1 X99.597 Y132.56 E3.88592
G1 X99.566 Y132.428 E3.89099
G1 X99.426 Y131.785 E3.91562
G1 X99.399 Y131.646 E3.92092
G1 X99.287 Y131.006 E3.94523
G1 X99.199 Y130.379 E3.96892
G1 X99.183 Y130.235 E3.97434
G1 X99.122 Y129.578 E3.99903
G1 X99.112 Y129.437 E4.00432
G1 X99.076 Y128.739 E4.03047
G1 X99.065 Y128.184 E4.05124
G1 X99.066 Y128.044 E4.05648
G1 X99.081 Y127.475 E4.07778
G1 X99.087 Y127.344 E4.08268
G1 X99.13 Y126.677 E4.10769
G1 X99.143 Y126.531 E4.11318
G1 X99.214 Y125.869 E4.13809
G1 X99.303 Y125.245 E4.16168
G1 X99.325 Y125.116 E4.16657
G1 X99.507 Y124.144 E4.20357
G1 X99.573 Y123.859 E4.21452
G1 X99.81 Y123.002 E4.24779
G1 X99.849 Y122.871 E4.2529
G1 X100.023 Y122.327 E4.27428
G1 X100.066 Y122.201 E4.27926
G1 X100.286 Y121.595 E4.30338
G1 X100.34 Y121.456 E4.30896
G1 X100.628 Y120.758 E4.33721
G1 X100.835 Y120.301 E4.35599
G1 X100.893 Y120.181 E4.36097
G1 X101.323 Y119.335 E4.39648
G1 X101.569 Y118.885 E4.41567
G1 X101.815 Y118.449 E4.4344
G1 X102.255 Y117.712 E4.46652
G1 X103.585 Y115.334 E4.56847
G1 X104.851 Y112.914 E4.67067
G1 X106.051 Y110.451 E4.77318
G1 X107.167 Y107.985 E4.87446
G1 X108.219 Y105.481 E4.97609
G1 X109.21 Y102.914 E5.07905
G1 X110.118 Y100.348 E5.1809
G1 X110.977 Y97.685 E5.2856
G1 X111.628 Y95.448 E5.37277
G1 X111.677 Y95.291 E5.37893
G1 X112.086 Y94.103 E5.42594
G1 X114.031 Y88.759 E5.63873
G1 X114.269 Y88.134 E5.66375
G1 X114.492 Y87.659 E5.68339
G1 X114.786 Y87.224 E5.70303
G0 F2400 X115.049 Y87.375
G1 F1500 X115.395 Y87.012 E5.7218
G1 X115.795 Y86.709 E5.74058
G1 X116.238 Y86.473 E5.75936
G1 X116.712 Y86.31 E5.77811
G1 X117.206 Y86.225 E5.79687
G1 X117.708 Y86.219 E5.81565
G1 X118.204 Y86.293 E5.83442
G1 X118.682 Y86.445 E5.85319
G1 X119.13 Y86.671 E5.87196
G1 X119.537 Y86.965 E5.89075
G1 X119.891 Y87.32 E5.90951
G1 X120.185 Y87.726 E5.92826
G1 X120.431 Y88.225 E5.94908
G1 X120.789 Y89.153 E5.9863
G1 X122.725 Y94.456 E6.19753
G1 X122.968 Y95.152 E6.22512
G1 X123.022 Y95.322 E6.23179
G1 X123.242 Y96.091 E6.26172
G1 X124.048 Y98.754 E6.36583
G1 X124.915 Y101.354 E6.46838
G1 X125.85 Y103.915 E6.57039
G1 X126.873 Y106.486 E6.67393
G1 X127.955 Y108.996 E6.7762
G1 X129.104 Y111.469 E6.87824
G1 X130.332 Y113.927 E6.98105
G1 X131.611 Y116.318 E7.08251
G1 X132.548 Y117.954 E7.15305
G1 X133.453 Y119.561 E7.22206
G1 X133.511 Y119.67 E7.22668
G1 X133.779 Y120.193 E7.24867
G1 X133.837 Y120.311 E7.25359
G1 X134.098 Y120.877 E7.27691
G1 X134.149 Y120.996 E7.28176
G1 X134.374 Y121.542 E7.30386
G1 X134.421 Y121.662 E7.30868
G1 X134.636 Y122.251 E7.33214
G1 X134.675 Y122.364 E7.33661
G1 X134.926 Y123.142 E7.3672
G1 X135.036 Y123.537 E7.38254
G1 X135.222 Y124.344 E7.41353
G1 X135.245 Y124.453 E7.4177
G1 X135.359 Y125.043 E7.44018
G1 X135.381 Y125.174 E7.44515
G1 X135.485 Y125.867 E7.47138
G1 X135.502 Y125.995 E7.47621
G1 X135.582 Y126.735 E7.50406
G1 X135.611 Y127.15 E7.51962
G1 X135.634 Y128.039 E7.5529
G1 X135.629 Y128.652 E7.57584
G1 X135.625 Y128.77 E7.58025
G1 X135.583 Y129.619 E7.61206
G1 X135.551 Y129.964 E7.62503
G1 X135.423 Y130.923 E7.66123
G1 X135.403 Y131.051 E7.66607
G1 X135.307 Y131.597 E7.68682
G1 X135.283 Y131.721 E7.69154
G1 X135.124 Y132.453 E7.71957
G1 X135.095 Y132.575 E7.72426
G1 X134.917 Y133.261 E7.75078
G1 X134.816 Y133.593 E7.76377
G1 X134.51 Y134.466 E7.79838
G1 X134.465 Y134.587 E7.80321
G1 X134.247 Y135.136 E7.82532
G1 X134.2 Y135.247 E7.82983
G1 X133.868 Y135.998 E7.86055
G1 X133.677 Y136.389 E7.87683
G1 X133.379 Y136.94 E7.90027
G1 X133.314 Y137.053 E7.90515
G1 X132.741 Y138.015 E7.94705
G1 X132.577 Y138.266 E7.95827
G1 X132.081 Y138.959 E7.99015
G1 X132.005 Y139.061 E7.99491
G1 X131.587 Y139.598 E8.02038
G1 X131.22 Y140.036 E8.04176
G1 X131.143 Y140.123 E8.0461
G1 X130.63 Y140.686 E8.0746
G1 X130.532 Y140.788 E8.0799
G1 X130.155 Y141.166 E8.09987
G1 X130.067 Y141.251 E8.10445
G1 X129.597 Y141.687 E8.12844
G1 X129.499 Y141.775 E8.13337
G1 X129.058 Y142.151 E8.15505
G1 X128.965 Y142.227 E8.15955
G1 X128.473 Y142.615 E8.18299
G1 X128.366 Y142.696 E8.18801
G1 X127.837 Y143.078 E8.21243
G1 X127.332 Y143.417 E8.23519
G1 X127.219 Y143.489 E8.2402
G1 X126.625 Y143.849 E8.26619
G1 X126.518 Y143.911 E8.27082
G1 X126.034 Y144.179 E8.29152
G1 X125.917 Y144.24 E8.29646
G1 X125.303 Y144.547 E8.32214
G1 X125.185 Y144.603 E8.32703
G1 X124.722 Y144.811 E8.34602
G1 X124.613 Y144.858 E8.35046
G1 X124.015 Y145.1 E8.3746
G1 X123.894 Y145.146 E8.37944
G1 X123.254 Y145.375 E8.40488
G1 X123.127 Y145.417 E8.40988
G1 X122.628 Y145.572 E8.42944
G1 X122.509 Y145.607 E8.43408
G1 X121.945 Y145.758 E8.45592
G1 X121.825 Y145.787 E8.46054
G1 X121.135 Y145.943 E8.48701
G1 X121.011 Y145.969 E8.49175
G1 X120.262 Y146.107 E8.52025
G1 X119.828 Y146.17 E8.53666
G1 X119.082 Y146.244 E8.56471
G1 X118.96 Y146.253 E8.56929
G1 X118.262 Y146.295 E8.59545
G1 X118.137 Y146.3 E8.60013
G1 X117.544 Y146.312 E8.62233
G1 X117.416 Y146.312 E8.62712
G1 X116.775 Y146.299 E8.65111
G1 X116.259 Y146.272 E8.67044
G1 X116.132 Y146.262 E8.67521
G1 X115.085 Y146.159 E8.71457
G1 X114.83 Y146.123 E8.72421
G1 X114.048 Y145.981 E8.75395
G1 X113.921 Y145.956 E8.75879
G1 X112.905 Y145.728 E8.79775
G1 X112.66 Y145.662 E8.80725
G1 X111.881 Y145.42 E8.83777
G1 X111.762 Y145.381 E8.84246
G1 X111.131 Y145.157 E8.86751
G1 X111.016 Y145.113 E8.87212
G1 X110.173 Y144.776 E8.90609
G1 X109.924 Y144.664 E8.9163
G1 X109.079 Y144.238 E8.95171
G1 X108.968 Y144.179 E8.95642
G1 X108.435 Y143.883 E8.97923
G1 X108.324 Y143.818 E8.98404
G1 X107.76 Y143.474 E9.00876
G1 X107.654 Y143.407 E9.01345
G1 X107.019 Y142.984 E9.042
G1 X106.696 Y142.751 E9.0569
G1 X106.022 Y142.217 E9.08908
G1 X105.928 Y142.14 E9.09363
G1 X105.278 Y141.583 E9.12566
G1 X104.996 Y141.322 E9.14003
G1 X104.466 Y140.785 E9.16826
G1 X104.384 Y140.698 E9.17274
G1 X103.857 Y140.122 E9.20195
G1 X103.465 Y139.66 E9.22462
G1 X103.39 Y139.567 E9.22909
G1 X103.006 Y139.073 E9.2525
G1 X102.925 Y138.964 E9.25759
G1 X102.508 Y138.377 E9.28453
G1 X102.183 Y137.885 E9.30659
G1 X102.112 Y137.771 E9.31162
G1 X101.739 Y137.145 E9.33888
G1 X101.459 Y136.635 E9.36065
G1 X101.398 Y136.519 E9.36556
G1 X101.103 Y135.919 E9.39057
G1 X101.047 Y135.798 E9.39556
G1 X100.757 Y135.139 E9.4225
G1 X100.71 Y135.026 E9.42708
G1 X100.457 Y134.385 E9.45287
G1 X100.315 Y133.98 E9.46893
G1 X100.071 Y133.179 E9.50026
G1 X100.035 Y133.052 E9.5052
G1 X99.888 Y132.485 E9.52711
G1 X99.859 Y132.364 E9.53177
G1 X99.719 Y131.721 E9.55639
G1 X99.694 Y131.594 E9.56124
G1 X99.582 Y130.954 E9.58555
G1 X99.496 Y130.339 E9.60878
G1 X99.481 Y130.207 E9.61375
G1 X99.42 Y129.55 E9.63844
G1 X99.411 Y129.421 E9.64328
G1 X99.375 Y128.723 E9.66943
G1 X99.365 Y128.179 E9.68979
G1 X99.366 Y128.052 E9.69455
G1 X99.381 Y127.483 E9.71584
G1 X99.387 Y127.363 E9.72034
G1 X99.43 Y126.696 E9.74535
G1 X99.441 Y126.563 E9.75034
G1 X99.512 Y125.901 E9.77525
G1 X99.6 Y125.289 E9.79839
G1 X99.62 Y125.171 E9.80287
G1 X99.802 Y124.199 E9.83987
G1 X99.862 Y123.939 E9.84985
G1 X100.099 Y123.082 E9.88312
G1 X100.135 Y122.962 E9.88781
G1 X100.309 Y122.418 E9.90918
G1 X100.348 Y122.303 E9.91373
G1 X100.568 Y121.697 E9.93785
G1 X100.617 Y121.571 E9.94291
G1 X100.905 Y120.873 E9.97116
G1 X101.161 Y120.317 E9.99407
G1 X101.591 Y119.471 E10.02958
G1 X101.832 Y119.029 E10.04841
G1 X102.073 Y118.602 E10.06676
G1 X102.523 Y117.849 E10.09958
G1 X103.844 Y115.486 E10.20088
G1 X105.11 Y113.064 E10.30314
G1 X106.319 Y110.585 E10.40634
G1 X107.455 Y108.075 E10.50943
G1 X108.502 Y105.579 E10.61071
G1 X109.496 Y103.006 E10.71392
G1 X110.403 Y100.446 E10.81554
G1 X111.253 Y97.808 E10.91925
G1 X111.916 Y95.531 E11.00798
G1 X111.961 Y95.388 E11.01359
G1 X112.368 Y94.206 E11.06037
G1 X114.311 Y88.866 E11.273
G1 X114.549 Y88.241 E11.29802
G1 X114.764 Y87.788 E11.31678
G1 X115.049 Y87.375 E11.33556
G1 F1500 E4.83556
;MESH:Benadoce.stl
G0 F2400 X116.49 Y90.144
G0 X117.407 Y90.476
G0 X119.251 Y114.011
;TYPE:WALL-INNER
G1 F1500 E11.33556
G1 F1200 X120.465 Y114.242 E11.3818
G1 X121.004 Y114.367 E11.4025
G1 X121.565 Y114.522 E11.42428
G1 X122.111 Y114.697 E11.44573
G1 X122.671 Y114.902 E11.46805
G1 X123.187 Y115.114 E11.48892
G1 X123.72 Y115.359 E11.51087
G1 X124.24 Y115.625 E11.53273
G1 X124.723 Y115.895 E11.55343
G1 X125.227 Y116.206 E11.57559
G1 X125.694 Y116.522 E11.59669
G1 X126.16 Y116.864 E11.61832
G1 X126.603 Y117.217 E11.63951
G1 X127.056 Y117.61 E11.66195
G1 X127.47 Y117.998 E11.68318
G1 X127.871 Y118.407 E11.70462
G1 X128.261 Y118.837 E11.72634
G1 X128.621 Y119.272 E11.74746
G1 X128.992 Y119.753 E11.77019
G1 X129.313 Y120.207 E11.791
G1 X129.62 Y120.684 E11.81222
G1 X129.919 Y121.19 E11.83422
G1 X130.185 Y121.686 E11.85528
G1 X130.438 Y122.205 E11.87688
G1 X130.669 Y122.733 E11.89844
G1 X130.883 Y123.283 E11.92053
G1 X131.07 Y123.828 E11.94209
G1 X131.232 Y124.366 E11.96311
G1 X131.376 Y124.937 E11.98515
G1 X131.497 Y125.502 E12.00677
G1 X131.593 Y126.068 E12.02825
G1 X131.666 Y126.633 E12.04956
G1 X131.717 Y127.205 E12.07105
G1 X131.745 Y127.794 E12.09311
G1 X131.749 Y128.361 E12.11433
G1 X131.732 Y128.902 E12.13458
G1 X131.695 Y129.454 E12.15528
G1 X131.63 Y130.028 E12.1769
G1 X131.532 Y130.667 E12.20109
G1 X131.424 Y131.219 E12.22214
G1 X131.299 Y131.737 E12.24207
G1 X131.147 Y132.288 E12.26346
G1 X130.947 Y132.9 E12.28755
G1 X130.751 Y133.424 E12.30849
G1 X130.551 Y133.903 E12.32791
G1 X130.28 Y134.486 E12.35196
G1 X130.044 Y134.94 E12.37111
G1 X129.755 Y135.451 E12.39308
G1 X129.422 Y135.987 E12.41669
G1 X129.097 Y136.462 E12.43822
G1 X128.753 Y136.923 E12.45975
G1 X128.386 Y137.375 E12.48153
G1 X128.014 Y137.799 E12.50264
G1 X127.616 Y138.217 E12.52423
G1 X127.18 Y138.638 E12.54691
G1 X126.771 Y139.002 E12.5674
G1 X126.319 Y139.373 E12.58928
G1 X125.852 Y139.725 E12.61116
G1 X125.374 Y140.056 E12.63292
G1 X124.884 Y140.369 E12.65467
G1 X124.408 Y140.644 E12.67524
G1 X123.887 Y140.919 E12.69729
G1 X123.364 Y141.166 E12.71893
G1 X122.827 Y141.396 E12.74079
G1 X122.299 Y141.597 E12.76193
G1 X121.741 Y141.783 E12.78394
G1 X121.189 Y141.944 E12.80545
